P3
400 225
255
172 187 184
186 199 203
198 208 213
202 211 218
159 175 167
115 137 105
94 122 73
100 128 77
98 126 76
95 122 73
95 122 73
95 123 73
97 125 75
97 125 74
94 122 72
94 121 72
94 121 72
97 124 74
97 124 73
98 126 75
97 125 75
98 125 75
96 124 74
99 127 77
97 125 76
94 121 72
97 124 74
98 125 75
95 122 73
98 125 75
98 126 75
104 129 87
161 176 166
198 209 216
202 212 220
202 212 219
213 221 232
212 221 230
205 215 223
203 213 221
214 221 230
209 219 228
196 207 215
192 203 209
175 188 187
169 183 180
145 162 148
128 148 125
114 138 100
108 133 89
93 120 71
96 124 74
95 122 73
96 123 74
93 120 71
98 125 75
98 126 75
98 125 75
96 124 75
99 127 76
110 135 97
164 178 171
195 206 212
205 214 222
202 214 225
210 220 230
201 211 218
207 216 224
206 216 227
204 214 222
208 217 226
202 212 218
207 216 225
209 219 230
210 220 230
200 209 216
210 219 229
212 221 230
204 213 221
208 218 227
208 217 226
204 215 225
203 213 222
209 218 226
209 218 226
214 222 231
208 217 226
202 212 220
211 220 228
203 212 220
181 194 196
137 156 136
98 125 80
96 124 74
95 122 74
96 123 73
98 125 75
98 126 75
100 127 77
95 122 74
95 123 74
95 122 73
99 127 76
103 128 89
104 130 88
136 154 132
152 168 156
161 176 167
177 189 189
185 197 197
193 204 210
201 211 217
201 211 217
207 217 228
205 215 223
201 212 221
205 214 223
207 216 224
207 217 226
208 218 226
184 195 195
133 152 130
98 125 77
100 128 77
97 124 74
94 121 72
95 122 74
97 124 74
96 123 73
97 124 74
97 124 75
98 125 75
97 124 74
101 129 78
97 124 75
99 126 76
100 127 77
98 125 75
97 124 75
96 124 74
93 120 71
97 125 76
97 124 74
97 125 75
98 126 76
97 124 74
99 126 75
99 126 76
99 127 76
95 123 76
132 151 128
182 195 194
204 215 224
204 214 222
211 220 229
208 217 228
205 215 224
208 217 225
212 221 231
202 213 222
202 212 219
201 211 219
208 218 229
200 210 216
204 215 224
212 220 229
210 220 230
207 216 225
205 215 225
201 211 221
205 215 223
207 217 226
207 217 227
205 215 225
212 221 230
206 216 226
200 211 220
207 216 225
206 217 227
206 215 224
186 199 202
151 167 153
114 138 104
99 127 77
99 127 76
95 122 73
99 127 76
94 121 72
98 125 75
98 125 75
95 122 73
95 122 73
99 127 76
97 124 74
95 123 73
96 124 75
102 129 82
102 128 84
121 142 113
129 149 123
144 162 146
136 155 134
144 163 146
159 174 163
168 182 178
172 185 181
166 179 173
178 191 190
191 203 209
197 208 215
186 198 201
150 167 155
116 138 105
97 125 75
96 124 74
98 126 76
97 124 74
94 121 72
100 128 76
100 128 77
96 124 75
93 121 73
99 127 76
92 119 71
95 122 73
95 122 72
94 121 72
100 128 77
95 122 73
97 125 76
95 122 74
97 124 74
97 124 74
99 127 76
95 123 74
96 124 74
99 126 76
96 124 74
96 124 74
106 131 88
145 163 148
186 198 201
198 208 216
212 221 232
212 220 230
206 215 225
204 213 221
206 216 226
209 218 228
205 215 225
211 220 228
207 217 226
206 216 227
208 218 227
206 216 225
199 210 218
211 220 229
205 215 225
209 219 229
205 215 223
211 220 231
208 217 227
202 212 221
207 217 225
209 219 228
204 213 221
212 221 231
207 217 226
194 205 209
176 190 187
118 140 110
96 123 74
92 119 71
98 125 75
98 125 75
100 127 76
97 125 75
96 124 74
99 126 76
99 127 76
92 120 71
100 128 77
97 124 74
96 124 75
97 124 75
98 126 76
97 124 75
98 126 75
95 123 74
100 127 76
96 123 73
96 124 74
96 124 75
95 122 74
97 124 75
99 126 75
111 135 97
142 160 142
188 199 202
203 214 222
208 217 228
208 217 228
202 212 219
203 213 222
213 222 232
204 214 223
206 216 226
208 218 228
204 215 226
200 210 217
204 215 226
207 216 225
202 213 223
204 214 223
205 214 222
201 212 220
210 220 232
206 216 227
211 219 227
206 215 224
202 213 221
200 210 217
202 212 219
194 206 213
188 199 198
131 151 127
98 125 75
95 122 73
98 126 75
96 123 74
98 126 76
96 124 74
97 124 75
100 128 77
97 125 75
95 122 72
99 126 75
96 124 75
94 122 73
99 126 75
98 126 75
97 125 75
100 128 77
96 124 75
96 124 74
98 125 75
96 123 74
97 124 75
94 121 72
98 125 77
143 160 142
184 196 197
207 216 225
206 216 225
207 216 224
207 216 224
199 210 218
201 212 220
204 214 223
201 212 222
214 222 233
207 217 226
208 218 227
206 216 225
202 212 221
212 221 232
204 214 223
204 213 221
205 215 224
210 220 230
208 218 227
202 212 221
208 217 226
200 210 217
198 208 215
175 188 187
136 155 135
98 125 78
98 126 75
96 124 75
96 123 73
97 125 75
97 124 74
95 122 74
98 125 74
97 125 76
94 121 72
99 126 76
99 127 76
101 128 77
94 122 73
96 123 73
95 123 74
99 127 76
99 127 76
97 125 75
98 126 76
99 127 76
121 143 114
173 187 184
130 149 124
145 163 146
166 180 172
190 201 202
168 181 172
114 137 105
99 126 77
98 126 76
96 124 75
97 124 74
97 125 75
94 121 72
94 121 73
99 127 76
95 122 73
99 127 76
99 127 76
97 125 75
95 122 72
95 122 73
97 125 75
99 126 75
96 123 73
98 125 75
97 124 75
98 125 75
95 122 74
100 127 76
97 125 76
99 126 76
98 125 75
108 133 91
152 169 159
195 206 212
208 217 228
203 213 221
205 215 226
213 222 232
209 218 228
210 218 227
201 211 219
202 212 221
209 219 229
207 217 226
205 215 223
205 215 221
187 199 203
180 193 192
160 176 167
138 157 137
127 148 118
110 134 94
100 127 79
91 118 70
96 123 74
97 125 75
99 127 76
93 120 71
93 121 72
97 125 76
119 142 106
156 172 158
192 203 206
207 216 226
207 217 226
211 221 231
206 216 225
200 211 219
201 211 222
206 216 226
208 218 227
210 218 226
204 214 224
205 215 223
204 213 221
206 216 225
210 219 228
211 220 230
207 217 226
206 216 225
211 220 231
203 213 223
205 215 224
205 215 224
206 215 225
205 215 225
207 217 225
211 220 230
210 219 228
204 214 222
183 195 194
130 151 127
99 126 76
96 123 74
97 125 76
96 123 73
100 127 76
94 121 72
101 129 78
94 122 73
96 123 74
94 122 73
96 123 74
97 125 76
94 121 72
98 125 75
105 130 87
117 140 104
114 136 103
136 155 131
149 165 152
164 180 171
181 194 193
179 192 194
195 206 211
204 215 225
205 215 225
208 218 227
211 220 230
196 207 213
180 193 191
119 142 112
98 126 76
98 125 75
95 122 73
98 126 76
96 124 75
98 126 76
98 126 75
95 123 74
97 125 75
95 122 74
97 124 75
97 125 75
97 124 75
97 124 74
96 123 74
95 122 73
98 125 75
97 125 74
96 124 74
94 122 74
98 126 76
100 128 77
100 127 76
98 126 75
95 123 73
93 121 72
97 124 75
97 124 76
134 153 132
179 190 187
210 219 226
210 219 228
211 220 230
197 209 217
197 207 215
209 219 230
209 218 227
209 219 229
209 219 227
209 219 231
202 212 222
203 213 222
208 218 227
204 214 221
208 217 226
207 216 223
204 215 226
204 214 224
200 211 220
206 216 225
210 220 230
200 211 219
207 217 227
203 214 224
213 221 231
210 218 227
208 217 227
210 219 227
175 188 188
144 162 143
96 122 75
99 127 76
95 123 75
95 123 74
97 124 75
99 126 76
95 121 72
98 126 76
98 126 75
95 122 73
99 126 76
95 122 73
97 124 75
99 126 75
97 124 74
96 124 75
94 122 73
98 126 75
96 124 74
103 129 84
99 127 76
120 143 110
110 134 100
123 144 114
129 148 124
153 169 155
156 172 161
169 183 177
168 181 177
166 180 173
135 154 131
119 142 113
119 140 110
112 137 102
102 128 82
99 125 80
100 127 78
98 125 77
100 127 75
95 122 73
96 123 73
93 121 73
97 125 76
95 122 73
99 127 76
97 125 75
99 126 76
97 125 75
93 121 72
97 124 74
97 124 74
93 120 71
94 121 72
97 125 75
96 124 74
97 124 75
90 117 70
117 139 107
155 170 158
202 211 218
205 214 221
199 209 217
205 215 225
200 210 219
211 219 228
209 218 227
211 220 228
203 213 221
196 207 214
213 221 232
204 214 222
208 217 227
214 222 231
209 219 230
207 217 226
202 213 223
202 213 222
209 218 228
205 215 224
206 216 226
198 209 218
208 217 225
208 218 228
202 212 222
206 215 226
210 219 230
192 203 206
164 179 171
102 128 82
99 127 77
93 120 71
97 124 74
96 123 74
98 126 76
99 127 76
93 120 72
98 126 75
96 123 73
97 124 75
97 124 74
99 127 77
95 122 74
95 123 74
97 124 75
95 122 72
95 122 72
98 126 76
96 123 74
98 125 74
96 124 74
96 124 75
100 128 77
94 121 72
100 127 76
126 147 120
168 183 178
202 213 221
206 216 225
203 214 222
200 211 219
202 212 220
211 221 231
211 220 229
210 219 228
207 217 227
207 216 225
203 214 224
204 214 222
213 221 230
198 209 218
200 210 218
207 216 224
201 211 220
209 218 228
205 215 223
201 211 218
211 219 227
206 216 227
212 221 231
209 218 227
207 216 224
187 199 201
152 168 156
110 135 94
101 129 78
97 124 75
94 122 73
92 119 71
97 125 75
99 127 77
96 124 74
99 126 76
99 126 75
98 126 76
99 127 77
96 123 74
99 127 76
98 126 76
98 126 76
96 123 74
94 121 72
95 122 73
95 122 73
96 124 74
97 124 75
98 125 75
97 124 75
119 141 109
158 174 168
198 209 217
204 214 224
212 220 229
203 214 223
199 209 215
205 214 222
207 217 226
203 213 220
202 212 220
208 217 227
211 220 229
209 218 226
206 216 224
200 210 218
207 216 225
207 216 225
204 215 224
212 221 231
203 213 223
205 214 222
203 213 222
206 216 227
211 220 230
182 194 193
150 165 151
101 127 82
96 124 75
98 126 75
98 126 76
96 124 74
96 123 73
98 126 76
99 127 77
96 123 74
96 124 74
98 126 75
90 117 70
99 127 76
98 125 75
94 122 74
95 123 74
99 127 76
96 123 74
97 125 75
98 125 74
98 125 75
105 130 90
143 161 145
184 197 200
97 125 75
99 126 78
111 135 96
127 147 122
145 163 143
136 156 132
119 141 109
101 127 83
94 122 74
96 124 75
97 124 74
99 126 75
95 123 75
96 122 73
95 123 73
97 124 74
95 123 74
97 124 74
93 120 72
92 119 71
96 123 74
96 124 74
99 127 76
93 121 73
95 122 73
94 121 72
98 125 75
98 125 75
97 125 75
95 123 74
94 121 73
107 132 88
137 157 134
196 207 214
210 219 229
202 213 223
202 212 220
212 221 231
206 216 225
202 212 221
205 215 224
207 216 226
204 214 221
205 214 222
210 219 227
200 210 219
207 216 225
204 213 221
203 213 222
188 199 202
182 194 192
150 165 153
140 158 138
119 142 110
103 128 84
98 126 76
95 122 74
96 124 74
93 120 72
97 125 76
112 136 98
162 176 169
205 215 221
206 215 223
203 213 222
208 218 227
198 208 215
210 219 227
203 213 222
206 215 224
203 214 224
204 213 221
206 215 223
205 215 225
203 213 223
205 216 227
210 219 229
201 210 217
204 214 221
211 219 229
198 208 216
203 213 222
214 222 232
204 213 221
204 214 222
201 211 219
200 211 222
209 219 229
204 214 222
206 216 224
180 193 191
129 149 125
102 128 82
95 122 73
98 126 75
101 128 77
98 125 76
98 126 75
96 124 74
97 125 75
98 125 75
94 121 73
99 126 75
97 125 75
98 126 76
95 123 73
97 124 75
97 125 75
99 127 79
97 124 76
105 130 90
119 141 105
140 158 140
160 175 165
172 187 183
169 183 179
183 195 194
196 207 213
203 213 222
199 209 215
178 191 187
136 155 133
97 124 74
96 123 74
97 125 75
101 128 77
95 122 73
98 125 75
98 125 75
97 125 75
97 125 76
95 122 73
97 125 75
95 122 73
96 124 75
95 123 74
98 125 75
96 123 74
99 126 76
93 120 72
98 126 75
95 122 73
97 124 74
98 125 75
96 124 75
96 124 74
94 120 72
96 124 74
96 124 74
100 128 79
144 162 147
193 204 208
203 213 221
207 217 228
203 214 223
206 216 226
211 220 228
208 218 228
206 216 224
205 216 226
203 213 221
210 218 227
206 216 223
208 216 224
203 214 223
208 218 228
207 216 225
206 215 223
210 219 229
208 217 227
210 219 227
207 216 224
211 220 230
205 214 222
203 214 223
207 216 226
210 220 230
206 216 226
207 217 225
205 214 222
176 188 182
114 137 106
95 122 73
97 125 75
97 124 74
95 123 73
96 123 74
99 127 76
96 123 74
98 126 76
98 126 76
97 124 74
99 127 77
96 123 74
98 126 76
93 121 72
95 122 73
99 127 76
98 126 76
97 124 74
97 124 74
97 125 75
96 123 74
98 126 76
95 122 73
101 129 80
102 129 80
100 128 80
115 138 100
128 148 122
163 178 171
174 187 184
177 191 191
175 189 185
178 190 188
160 176 166
166 179 173
144 161 144
120 143 112
126 147 119
116 139 106
104 130 88
112 135 98
101 127 82
97 124 77
96 122 76
98 125 75
94 121 72
100 128 78
97 124 75
97 124 75
97 124 74
95 123 74
96 124 75
97 125 75
97 124 74
96 124 75
92 119 71
103 129 84
122 143 117
188 199 201
206 215 224
203 214 222
206 216 225
202 212 220
203 213 221
206 215 224
203 213 221
201 211 219
201 212 221
210 220 231
208 217 226
200 211 220
206 215 225
205 215 224
202 212 220
211 221 230
203 214 226
206 216 225
202 211 217
207 217 225
204 215 226
203 213 223
199 209 216
206 216 225
206 216 225
198 209 217
200 210 216
173 186 183
138 155 137
101 127 81
97 124 74
95 122 74
96 124 75
98 126 75
98 126 76
96 123 74
96 124 74
99 126 76
93 120 71
98 126 76
98 126 75
96 123 74
98 125 75
93 121 72
95 123 73
96 123 74
100 127 77
98 126 76
97 125 76
95 123 73
97 124 74
96 123 73
100 128 77
97 124 74
103 129 82
137 156 135
188 199 199
203 213 220
206 216 226
211 219 227
210 219 228
205 216 227
204 215 223
203 214 223
199 209 215
203 212 221
207 217 224
206 216 225
206 215 222
204 214 224
213 221 230
201 211 218
201 212 218
205 214 222
208 217 225
205 216 225
209 217 224
210 219 228
209 219 229
210 219 227
205 215 223
193 203 208
172 186 180
131 151 129
100 126 80
98 125 75
95 122 72
98 125 75
92 119 71
95 122 73
99 126 76
94 121 72
98 125 75
96 124 75
97 125 75
97 125 75
95 123 74
95 122 73
97 124 75
95 122 73
96 123 73
97 124 75
96 124 74
95 122 73
94 121 72
98 126 76
96 123 73
98 125 77
147 165 150
189 201 206
204 214 225
205 214 222
208 218 228
206 216 225
211 220 229
209 219 229
203 214 223
196 207 216
205 215 224
213 221 229
208 218 228
211 219 227
208 217 226
211 219 227
202 212 220
207 217 226
198 208 217
208 218 229
200 210 219
205 215 223
203 213 222
204 215 225
200 211 218
166 181 174
116 139 104
95 122 73
94 122 73
97 125 75
99 127 76
97 124 74
96 123 74
98 126 76
97 124 74
98 125 76
96 124 74
93 120 71
98 126 76
94 121 73
96 124 74
96 123 74
98 126 75
98 125 75
102 130 79
95 123 74
98 126 76
96 123 72
142 161 140
172 185 181
208 218 228
98 125 74
98 126 76
98 125 75
98 125 75
126 146 118
164 179 175
164 178 169
143 161 144
124 145 119
110 133 96
98 125 75
95 123 74
99 126 75
97 124 74
97 125 75
99 127 76
95 122 72
99 126 76
97 125 75
96 124 74
98 125 75
93 119 71
97 125 75
98 126 76
97 125 75
96 123 75
97 124 74
96 123 74
95 122 74
97 125 75
100 128 77
96 123 75
142 161 141
188 200 203
205 215 226
199 209 218
202 213 222
208 218 226
199 209 215
216 224 234
204 213 222
209 219 229
204 215 226
210 220 230
204 214 224
201 211 219
208 217 227
203 213 224
202 212 221
212 220 228
198 208 216
178 191 192
179 191 190
166 180 174
140 159 137
129 150 128
115 139 102
101 129 80
93 120 72
94 122 73
105 130 90
154 169 159
191 202 207
210 219 227
207 217 227
209 219 232
198 208 214
199 209 216
204 213 221
211 220 228
197 208 214
202 212 219
200 211 219
203 213 222
202 212 221
206 216 225
204 214 224
205 215 226
208 217 228
210 219 228
205 215 224
206 216 226
208 218 227
207 216 224
211 220 229
205 215 226
211 221 231
206 216 225
209 218 225
204 213 220
173 186 184
120 142 110
99 126 78
94 121 72
98 126 77
98 126 75
96 123 74
91 118 70
94 121 73
97 125 74
94 122 73
96 124 75
92 118 71
96 124 74
96 123 73
95 122 72
97 124 74
98 125 75
97 124 74
97 125 75
99 127 76
96 123 74
101 128 82
106 132 86
112 136 99
123 143 117
152 168 154
161 175 165
172 186 181
174 188 187
158 174 162
130 150 126
98 124 79
98 125 75
100 127 77
98 125 75
95 122 73
98 125 74
95 122 72
97 125 75
95 122 73
95 122 74
96 123 74
97 125 76
92 120 72
96 123 74
96 123 74
97 125 76
97 125 75
98 125 75
98 126 75
98 125 75
97 124 75
99 126 76
97 124 74
98 126 75
96 123 74
101 129 77
98 125 75
112 138 98
159 174 162
192 203 206
208 218 229
210 219 228
204 214 222
202 211 219
206 216 225
201 211 218
202 212 220
209 218 226
210 218 228
215 224 234
208 217 226
201 211 219
208 217 227
200 210 218
203 213 222
208 217 226
198 209 218
211 221 231
202 213 223
202 212 220
207 217 226
207 217 226
203 213 224
209 218 225
210 219 226
206 216 226
208 217 226
198 207 212
167 181 177
122 143 113
98 125 75
96 123 74
97 125 75
96 123 74
98 125 76
92 119 71
95 121 72
93 120 72
97 124 75
95 122 74
95 122 73
98 126 76
97 125 75
98 125 75
98 125 75
97 124 75
94 122 73
98 126 76
98 126 76
97 124 75
95 123 73
95 122 73
97 124 74
96 123 74
100 128 77
95 123 74
96 124 75
120 142 113
158 174 167
195 205 211
203 214 224
199 210 218
196 207 214
198 209 217
196 207 212
171 185 180
181 193 194
184 196 195
160 175 167
158 174 168
152 168 155
135 153 134
142 160 142
130 150 129
121 143 115
119 142 111
114 138 102
108 133 94
100 127 80
95 122 73
98 126 76
98 125 75
95 122 73
97 125 75
97 124 75
98 125 76
107 131 94
151 168 156
189 201 205
202 212 220
207 216 224
204 214 224
207 217 226
202 213 223
204 214 225
209 218 226
206 216 226
207 217 227
205 215 224
207 216 226
200 210 218
197 208 216
211 220 230
204 214 222
208 218 227
208 218 228
205 214 222
207 216 224
204 213 220
208 217 226
203 213 221
208 217 226
205 215 223
203 213 221
206 215 224
190 201 206
165 179 172
109 134 96
95 122 73
98 126 75
96 124 75
95 123 73
94 122 74
97 125 76
97 124 75
100 127 76
97 125 75
96 123 73
96 124 75
97 125 75
94 122 73
97 124 74
94 121 73
93 121 72
95 122 73
100 127 76
96 124 74
94 122 73
97 125 75
95 123 73
95 122 73
94 122 73
94 120 71
121 143 114
175 188 182
198 209 216
206 215 224
205 215 225
203 213 221
201 212 222
198 210 219
200 211 219
208 217 224
207 217 224
209 219 230
207 217 226
208 217 228
210 219 229
204 213 222
208 217 225
213 221 231
208 218 229
208 218 227
207 216 223
208 218 228
204 214 224
204 215 224
205 215 224
204 214 223
208 217 225
196 208 215
141 159 139
115 139 103
97 125 75
98 125 75
97 125 75
97 125 75
100 128 77
98 126 76
100 128 77
96 123 74
97 125 75
96 123 74
94 121 72
96 124 74
99 126 75
97 124 74
96 123 73
99 127 76
96 123 73
94 122 73
93 120 71
96 124 74
96 123 74
100 127 77
96 124 74
128 148 121
166 181 173
199 209 216
209 218 225
205 214 222
207 216 224
213 222 233
202 213 223
213 222 232
209 219 230
209 218 228
210 220 232
208 218 227
209 219 230
208 218 228
203 214 224
208 218 227
211 220 229
215 223 231
207 217 228
201 211 219
214 223 233
204 214 221
211 220 229
203 213 220
180 192 192
129 149 124
96 123 73
95 122 73
99 127 76
94 121 72
99 126 76
95 123 74
99 127 77
95 122 72
97 125 75
94 122 72
98 125 74
96 124 75
99 126 76
97 125 75
97 124 74
96 123 74
94 121 72
100 128 77
96 123 73
96 124 74
99 126 79
118 142 111
171 185 180
199 210 219
201 211 219
98 126 76
95 123 74
98 125 76
97 124 74
110 134 96
174 187 184
202 213 222
195 206 212
179 192 191
157 172 162
145 163 143
118 142 108
101 127 82
95 122 73
95 122 73
93 120 71
98 125 75
94 122 73
96 124 74
95 122 72
98 126 75
96 123 73
97 124 75
99 126 75
95 122 73
96 124 75
95 122 74
98 125 76
96 124 74
100 127 77
96 123 74
102 129 82
148 164 149
190 202 206
199 209 216
209 218 225
208 218 227
206 216 226
208 217 227
207 217 227
211 220 229
199 209 216
207 216 226
202 212 220
209 219 228
204 214 223
201 211 219
206 215 224
208 218 228
205 214 222
206 216 226
202 212 221
206 216 225
192 204 211
182 195 198
178 191 192
155 171 160
140 159 139
136 156 137
108 133 96
118 142 106
168 182 175
199 210 217
208 218 228
203 213 222
206 216 224
204 214 223
206 216 224
201 211 220
201 211 220
209 219 230
207 217 228
203 214 224
206 215 224
205 215 223
207 217 227
205 215 226
210 220 231
211 220 232
203 213 221
212 220 230
209 218 226
201 211 219
203 213 223
204 214 222
212 221 230
209 219 229
206 216 226
204 214 224
207 217 227
165 179 175
118 140 107
100 127 77
96 123 74
96 123 74
96 123 74
96 123 74
95 122 73
98 125 75
96 123 74
96 124 74
96 123 74
96 124 74
95 122 73
97 125 75
95 122 73
95 123 74
97 124 74
98 125 75
97 125 75
95 123 74
98 125 75
97 125 75
96 123 74
98 126 75
97 125 75
101 127 84
106 131 93
125 147 115
138 156 135
155 171 158
171 184 176
136 154 135
127 148 123
116 138 105
107 132 92
101 127 79
98 126 76
98 126 76
101 129 77
96 123 74
99 127 77
100 128 77
94 121 71
96 124 75
97 125 75
94 121 72
96 123 74
96 124 74
94 121 72
99 127 77
98 125 75
95 122 73
94 122 73
95 122 73
94 121 73
97 124 75
94 121 73
97 125 75
110 133 97
165 180 175
196 206 212
205 214 223
201 211 220
207 217 227
207 217 226
209 219 229
210 219 229
210 220 230
201 212 220
208 218 227
204 214 224
212 221 231
202 212 219
202 213 221
217 225 236
204 213 221
203 214 223
206 215 224
207 217 225
207 217 229
206 215 223
200 210 218
208 217 225
210 220 230
213 221 230
201 212 221
209 219 232
210 219 226
204 213 220
161 176 167
107 130 91
97 125 75
100 128 77
94 121 73
94 122 72
99 127 76
95 123 74
96 124 75
96 124 75
97 125 75
98 126 77
96 124 75
98 125 75
94 121 72
96 124 74
97 124 74
98 126 76
99 127 76
98 126 76
96 124 75
96 124 74
100 127 76
96 124 74
98 126 76
98 125 75
98 126 76
98 125 76
98 126 78
127 147 120
180 193 194
211 220 231
202 212 221
196 207 216
205 215 223
210 219 228
215 224 235
205 214 223
198 209 214
209 219 229
204 213 221
191 203 208
182 194 197
190 201 204
194 205 207
177 189 186
174 188 186
172 186 184
147 164 150
157 173 163
158 173 160
128 149 124
123 144 117
116 137 110
112 136 99
110 135 99
103 129 85
108 133 91
134 154 132
168 182 175
195 206 213
207 216 225
203 213 221
210 219 229
202 212 219
195 207 215
208 217 226
206 216 225
201 210 216
204 215 225
213 221 230
213 222 232
208 217 226
206 216 227
210 219 230
206 216 225
210 219 229
210 220 231
204 214 223
206 216 225
207 217 228
207 217 225
205 215 223
208 217 227
203 214 223
201 212 221
208 217 226
182 194 194
133 152 133
99 126 79
95 122 73
95 122 74
96 124 74
97 125 75
97 124 74
97 124 74
96 123 73
96 123 74
99 127 77
96 123 73
95 123 74
97 125 74
97 125 75
98 125 75
95 122 73
98 126 76
94 121 72
97 125 75
96 123 74
97 124 74
97 124 74
97 124 74
98 125 75
99 127 76
111 137 93
147 165 150
188 198 200
209 218 226
199 209 216
209 218 226
207 217 227
201 212 222
215 224 234
212 221 232
206 215 223
209 219 229
207 216 226
203 213 224
205 215 224
213 222 232
203 213 223
196 206 214
208 218 228
207 217 227
203 213 222
204 214 223
204 214 222
201 212 220
213 221 230
200 210 217
205 214 223
199 209 216
164 178 173
128 149 123
94 121 72
97 125 75
95 123 74
96 124 75
94 122 73
97 125 75
96 124 74
95 122 73
96 124 75
96 123 73
98 126 76
99 127 76
97 124 74
93 120 71
95 122 73
97 125 75
94 122 73
97 124 75
95 123 74
97 124 75
97 124 74
97 126 76
100 127 76
113 136 101
162 178 168
192 203 209
207 217 228
210 219 228
207 217 227
208 218 228
205 215 226
206 215 223
206 215 224
207 217 226
195 206 213
213 220 228
208 218 227
208 217 224
213 222 233
211 220 229
209 218 228
210 219 229
204 214 224
201 212 220
208 217 225
206 215 223
207 216 224
199 209 217
182 195 197
152 168 153
106 129 95
98 125 75
100 128 77
97 125 76
99 127 76
96 124 74
96 124 75
97 125 75
94 121 72
97 124 75
98 125 76
96 124 74
96 123 73
98 125 75
96 123 74
98 125 75
96 124 75
98 126 76
100 128 77
97 125 75
97 125 74
108 133 94
156 171 159
195 206 211
211 220 229
205 215 227
99 127 76
99 127 76
96 124 74
94 122 73
114 137 103
158 173 164
196 208 216
205 215 225
205 215 225
208 217 226
185 197 197
155 171 163
157 173 160
114 138 105
96 122 78
98 126 79
96 123 74
99 127 76
96 124 74
95 123 75
95 122 73
98 126 76
92 119 71
99 127 77
94 121 72
100 128 77
94 121 73
100 128 78
95 122 74
96 124 74
97 124 74
97 125 76
134 152 132
170 183 178
205 213 219
209 218 228
205 215 223
208 217 225
210 219 228
207 217 228
207 217 229
204 214 223
207 217 227
201 212 223
205 215 223
203 213 220
204 214 222
201 212 220
207 216 226
204 214 224
207 216 224
206 215 225
202 213 222
204 214 224
206 215 224
206 215 224
193 204 210
186 197 198
169 183 177
158 173 160
141 159 141
163 178 168
193 204 210
210 219 227
210 220 229
208 217 227
212 221 231
208 217 226
209 219 230
205 215 225
204 215 225
205 215 223
199 209 217
205 214 223
204 214 223
213 222 232
204 214 224
213 222 232
207 217 228
201 211 220
205 215 224
205 215 225
200 210 218
202 212 222
200 211 219
208 217 226
206 216 225
204 213 221
200 211 219
211 220 229
182 193 190
134 153 127
95 122 72
98 125 75
97 124 75
98 125 75
96 124 74
96 124 75
96 123 74
100 127 76
97 125 75
96 123 74
99 126 76
95 122 72
98 125 75
96 123 74
97 125 75
94 121 72
94 122 73
97 125 74
94 121 72
96 124 74
97 125 75
95 122 73
97 125 74
96 123 73
97 124 74
95 123 74
93 120 72
129 150 125
170 184 180
186 198 204
194 205 209
174 187 184
164 180 172
144 162 145
137 156 135
118 140 110
113 137 99
101 127 83
98 125 77
100 128 77
97 125 75
96 123 74
94 121 72
95 123 73
95 122 73
95 122 73
98 126 76
96 124 75
96 124 74
100 128 77
96 123 74
94 122 74
99 126 76
94 121 73
95 122 73
96 124 75
98 126 76
126 148 121
181 193 193
199 210 220
210 219 228
209 218 227
207 217 227
210 218 227
203 214 222
209 217 226
201 212 221
206 215 224
206 215 224
209 218 227
207 216 224
199 210 217
203 213 221
208 218 228
209 218 226
198 209 217
211 220 230
209 218 227
204 214 223
213 221 230
200 211 221
204 214 223
206 216 224
205 215 224
207 216 225
204 214 222
207 216 224
179 193 192
137 156 136
104 130 86
97 124 74
98 126 76
99 127 77
100 128 77
99 126 76
100 128 77
99 127 76
96 123 74
98 125 75
97 124 74
96 123 74
93 120 72
97 125 75
93 120 72
98 126 76
98 126 75
93 120 72
97 124 74
98 126 76
98 125 75
97 124 75
96 124 74
99 126 76
96 124 75
96 124 74
95 122 73
109 133 93
159 174 163
183 194 196
206 216 226
206 216 226
208 218 227
206 217 228
207 217 228
208 218 227
205 215 225
202 212 219
201 212 222
200 210 219
207 216 225
196 205 212
207 218 228
207 216 225
205 215 225
199 210 219
192 202 207
194 205 210
186 199 202
184 196 197
188 198 198
177 190 189
170 184 178
155 172 162
166 180 173
138 157 137
137 155 134
147 164 150
166 180 172
188 199 202
200 211 218
197 207 212
196 207 214
195 206 214
203 213 221
212 221 230
206 216 225
203 213 219
205 214 222
210 220 230
210 218 228
206 217 228
201 212 223
196 208 217
205 215 225
212 221 230
205 214 224
198 208 216
204 215 224
202 212 221
205 214 220
207 215 223
204 214 222
214 222 232
206 216 226
199 210 217
155 171 163
116 139 104
98 125 74
95 122 73
96 123 74
98 125 75
98 125 74
96 124 74
94 122 74
99 127 76
97 124 75
96 123 74
98 125 75
97 125 75
92 120 71
98 125 75
96 123 73
94 121 72
97 124 74
99 127 76
97 126 76
97 125 74
98 125 75
100 128 77
97 124 74
96 124 74
95 123 74
113 136 103
163 178 169
199 209 215
211 219 227
201 212 222
209 219 228
205 215 224
204 214 224
203 213 220
210 219 227
205 214 223
203 213 222
207 216 226
204 214 224
204 214 222
201 211 219
206 215 223
207 216 226
208 219 230
205 215 224
208 218 229
201 211 218
205 214 223
203 213 223
211 220 230
205 216 227
203 213 222
182 195 197
159 174 163
103 127 89
96 124 74
92 120 72
95 123 73
90 117 70
95 122 73
97 125 75
98 126 76
97 124 74
96 123 73
95 123 74
95 123 73
96 124 74
99 127 76
96 123 73
96 124 74
96 123 73
96 123 74
98 126 75
97 124 75
97 124 75
98 126 76
99 127 76
96 124 74
128 149 124
190 201 205
198 208 216
203 213 222
204 214 223
205 216 226
201 212 221
204 214 222
200 209 215
208 217 226
203 213 222
202 212 218
198 209 215
209 219 230
214 223 232
206 216 227
205 215 223
208 218 227
204 214 222
203 214 223
204 214 223
204 214 223
209 218 228
213 221 230
194 206 213
171 184 182
113 136 101
96 123 73
97 125 75
94 122 73
95 123 74
95 122 73
97 125 75
94 122 73
96 124 74
94 121 72
97 125 75
95 122 72
96 123 74
94 121 73
94 121 72
97 125 75
98 126 76
95 123 74
98 125 76
95 122 73
96 124 74
109 135 97
134 153 133
183 195 196
198 209 214
202 213 221
183 196 196
95 122 73
98 125 75
97 125 75
98 125 75
106 131 90
162 178 169
196 207 213
205 215 225
211 219 227
206 216 226
205 214 223
193 203 208
194 206 210
170 185 183
141 160 146
132 151 130
110 135 97
96 124 74
100 128 77
93 120 71
95 123 74
95 122 73
95 122 74
97 125 75
99 126 75
97 125 75
97 124 74
96 124 74
96 124 74
95 123 74
95 122 73
96 124 74
116 139 104
184 196 197
208 218 227
209 219 230
210 220 229
208 217 226
204 214 223
202 212 222
203 214 224
200 210 216
206 216 226
206 216 224
202 213 222
212 221 231
207 216 226
206 216 226
208 218 227
200 211 221
204 214 222
206 216 225
203 214 223
200 210 217
214 223 233
208 217 225
201 212 222
208 217 226
206 216 226
196 206 211
182 195 196
163 179 174
163 177 169
195 206 210
198 209 214
207 217 225
200 211 218
203 212 221
204 214 223
201 211 219
206 215 223
204 213 220
209 219 228
202 212 221
208 218 227
203 213 219
205 214 221
204 214 222
200 210 219
203 213 222
210 219 230
208 217 226
205 214 222
204 213 222
205 215 223
204 214 224
214 223 233
205 215 222
203 214 224
205 214 221
174 187 185
114 136 102
97 124 75
97 124 75
96 123 74
96 123 73
94 122 73
99 127 76
96 124 74
99 126 75
99 127 77
97 124 74
94 121 72
94 121 72
100 127 76
102 130 78
98 126 77
95 122 73
97 125 76
93 120 72
96 123 74
97 124 74
97 125 75
96 124 75
100 127 77
99 126 76
100 127 76
98 125 75
94 122 73
130 151 124
169 183 177
209 220 231
200 211 219
200 211 219
195 205 209
190 202 205
176 189 188
161 176 167
159 175 164
145 163 146
136 155 135
119 141 109
104 130 84
101 128 81
96 124 75
93 121 72
95 122 73
100 128 77
95 123 74
100 128 77
98 125 75
94 120 71
100 128 77
94 121 72
99 127 77
96 124 74
96 124 75
94 122 73
95 121 75
125 146 118
186 198 198
211 220 228
204 213 220
199 210 218
205 215 225
211 220 230
208 217 225
210 218 227
204 214 225
207 217 226
207 217 227
209 218 228
202 212 221
199 209 216
201 212 221
209 219 230
202 213 222
202 213 223
205 214 222
209 218 227
202 213 222
207 217 226
203 213 224
203 214 223
203 214 224
203 214 223
203 212 219
209 218 227
207 217 227
170 183 179
130 149 129
98 125 78
94 122 73
97 125 75
97 124 74
96 124 74
93 120 71
97 124 75
96 124 74
96 124 75
97 124 74
98 126 76
98 126 76
93 120 72
98 125 75
99 126 76
98 125 75
95 122 73
96 123 73
99 126 75
95 122 73
98 125 75
99 126 75
93 120 72
96 123 74
97 125 75
97 125 75
99 126 75
115 139 102
164 178 172
199 209 215
205 215 225
202 213 223
208 217 225
215 223 233
203 212 220
205 215 224
208 218 228
197 208 217
202 213 222
206 216 225
209 219 230
210 220 230
199 209 217
210 219 228
197 207 214
201 212 222
205 215 225
202 212 220
199 209 218
202 212 222
205 214 223
196 207 214
205 215 223
200 210 216
194 205 210
192 204 206
184 197 197
167 181 174
146 165 149
154 171 160
151 167 153
154 171 162
170 184 179
171 184 182
180 192 189
184 197 201
188 200 205
203 214 221
192 203 209
195 205 209
202 212 220
199 210 216
202 211 218
206 216 225
207 216 225
193 204 210
207 216 225
203 212 221
212 222 234
207 217 229
204 215 225
208 218 228
196 207 215
209 218 225
201 211 218
188 200 202
152 169 153
108 133 93
93 119 71
98 125 75
97 124 75
94 122 73
96 124 75
94 121 73
94 121 73
99 127 76
95 123 75
95 122 73
100 128 77
92 118 70
98 125 75
98 125 75
98 126 76
94 122 73
98 126 76
95 123 73
96 123 73
94 121 73
96 124 75
99 126 75
92 119 71
97 124 75
100 127 81
149 166 150
186 197 198
204 213 221
199 209 216
207 217 226
203 214 224
206 216 225
204 215 225
210 220 229
209 220 233
199 210 219
204 213 221
203 213 222
205 215 224
202 213 223
198 209 217
201 211 220
199 209 216
213 222 231
200 210 216
211 220 230
202 213 221
202 213 223
211 219 227
199 210 218
202 211 218
199 210 217
182 194 191
120 142 112
95 123 74
98 126 76
94 122 73
96 123 74
96 123 74
97 125 75
98 126 76
99 127 76
96 124 74
97 125 75
95 122 73
98 126 76
91 118 70
97 124 74
97 124 74
95 122 74
96 124 74
94 122 73
98 126 76
99 126 76
99 127 77
98 125 75
96 123 74
118 141 107
172 185 181
192 203 209
210 219 228
206 217 227
202 212 220
200 211 219
207 217 226
209 219 230
209 219 228
211 220 228
209 218 228
204 214 223
205 215 225
195 205 212
207 217 227
205 216 226
204 215 225
208 218 228
212 221 231
204 213 221
210 220 229
200 211 219
208 218 228
207 217 226
183 195 194
132 151 130
102 129 85
98 126 75
97 125 75
94 121 72
98 126 75
95 123 74
93 120 72
97 123 74
98 126 76
98 126 76
101 128 77
97 125 74
97 125 75
96 123 74
103 127 88
102 127 85
102 128 84
113 137 103
134 153 132
135 154 134
149 166 153
126 147 121
135 153 132
163 178 171
153 169 157
134 154 137
124 145 119
98 125 75
98 126 75
97 124 74
96 124 74
102 128 83
148 165 148
199 209 216
205 215 226
206 215 223
206 215 223
212 220 228
209 218 229
205 215 224
197 208 215
193 204 209
185 198 199
168 182 175
132 152 130
118 140 107
98 125 78
97 124 74
97 125 75
96 123 74
97 125 75
100 128 77
98 126 76
99 126 76
96 124 74
96 122 73
98 125 75
95 122 73
96 123 74
128 149 125
174 187 185
201 211 220
202 213 222
204 213 220
205 214 223
203 213 220
209 220 231
204 214 224
204 214 223
202 212 219
206 215 224
204 215 224
205 215 225
206 216 226
213 221 230
197 207 214
208 217 225
210 220 231
202 212 220
204 214 223
206 215 223
202 213 222
205 215 225
201 211 220
202 212 222
205 215 225
204 214 222
204 215 224
179 192 190
131 151 126
124 145 116
154 170 159
175 188 185
179 191 191
197 208 211
204 214 221
200 211 220
212 221 230
205 215 223
206 216 225
205 216 227
205 216 226
206 216 226
203 212 221
206 217 231
209 218 228
197 208 214
200 210 218
205 215 225
209 218 228
205 215 224
207 217 227
206 216 225
208 218 228
208 218 228
204 214 222
204 213 223
163 179 171
110 135 94
94 121 72
94 121 72
97 125 75
96 123 74
97 125 75
98 125 74
97 125 75
93 121 73
94 121 72
97 125 75
100 127 76
96 123 73
98 125 75
98 125 75
96 123 74
94 121 73
97 125 75
96 123 74
90 117 70
99 126 75
96 124 75
94 122 72
95 123 73
95 122 73
97 125 75
95 123 74
98 126 77
121 141 113
182 194 194
198 209 216
204 214 222
204 214 222
210 219 228
208 217 226
211 220 230
200 211 219
195 206 211
183 195 197
178 191 188
166 180 175
154 171 159
136 156 133
125 147 118
111 134 100
103 128 86
97 124 75
98 126 76
100 127 77
95 122 73
96 124 74
97 124 74
99 126 76
97 124 73
96 124 74
95 123 73
97 125 75
103 129 84
149 165 151
174 188 190
208 218 226
208 218 228
211 221 231
208 219 229
199 209 217
206 215 224
210 219 228
211 220 231
203 213 222
208 217 227
202 213 221
215 224 235
206 216 227
210 219 227
208 218 228
208 217 226
208 218 228
207 216 224
206 215 222
200 210 217
209 219 229
201 211 218
204 214 222
209 218 226
201 212 222
204 214 224
200 210 217
199 211 219
172 186 183
116 139 106
96 123 74
97 124 74
96 124 73
98 126 76
93 120 72
97 125 75
98 125 75
98 125 75
95 123 73
95 122 73
99 127 76
93 120 72
99 126 75
96 123 75
95 122 73
98 125 75
94 121 73
98 125 75
96 123 74
97 125 75
95 123 73
98 126 76
96 124 75
96 124 75
99 127 77
97 125 75
97 125 75
143 162 143
172 185 182
201 212 220
200 211 219
204 214 224
200 211 219
211 220 230
202 212 220
203 212 220
211 220 230
207 217 224
210 220 229
202 212 222
207 217 228
200 209 216
209 218 227
205 216 227
203 213 221
204 214 222
210 219 227
202 212 219
202 211 219
204 214 222
204 215 223
198 209 216
206 216 225
198 210 218
201 211 219
208 218 227
185 196 198
159 174 160
109 133 97
109 132 94
110 134 98
113 137 102
119 141 112
121 141 114
132 151 128
134 154 132
142 160 144
159 174 164
150 167 155
157 172 163
158 174 164
169 183 181
179 192 192
178 190 188
178 192 194
186 198 201
196 207 212
198 209 217
195 206 212
210 219 226
205 215 224
201 212 221
201 211 219
210 219 229
198 209 216
165 180 173
133 152 131
98 126 76
100 128 77
98 126 75
98 125 75
97 124 75
96 124 74
97 125 75
96 124 74
99 126 76
96 123 74
97 125 76
94 122 73
98 126 76
95 122 74
96 124 74
95 123 74
98 126 75
98 126 76
97 125 75
97 125 76
97 125 75
99 127 76
98 126 76
99 126 76
97 124 74
118 140 109
166 180 176
198 208 213
203 213 222
211 220 230
208 217 226
201 211 220
202 213 221
201 212 221
206 216 224
198 209 217
207 216 225
205 215 223
203 213 223
208 217 224
208 217 227
212 221 231
217 226 236
204 215 224
201 212 221
202 213 223
202 212 219
202 212 221
192 203 209
210 220 229
202 213 222
209 218 227
195 205 210
157 173 163
103 129 87
96 123 74
94 121 72
98 125 74
95 122 73
95 122 73
96 123 74
95 122 73
95 123 73
95 122 73
93 121 72
96 123 74
95 123 73
98 125 75
95 122 73
95 123 74
100 127 77
93 120 72
93 120 71
96 124 74
94 121 72
96 124 74
96 124 75
99 126 78
145 162 147
186 197 200
206 215 223
206 216 227
206 216 224
206 216 225
207 217 226
197 208 217
209 218 227
204 214 224
213 222 231
209 219 228
209 219 229
212 221 230
205 215 225
208 217 226
206 215 225
208 218 229
204 214 224
204 214 223
212 222 233
212 220 230
203 213 221
197 208 214
187 198 199
147 164 151
109 133 95
101 128 78
95 122 73
95 122 75
98 126 76
98 126 79
110 134 96
99 127 79
108 133 92
121 144 114
116 138 106
127 148 119
131 151 126
140 159 139
146 162 145
159 175 165
165 179 173
176 189 183
160 175 168
177 190 190
185 197 199
180 193 194
152 169 155
121 143 112
101 127 83
105 129 91
96 123 76
96 123 76
96 123 74
98 125 75
93 120 72
96 124 74
101 128 77
144 161 144
187 199 204
212 222 232
210 219 228
212 221 231
204 214 223
200 210 219
208 217 225
208 218 229
209 218 227
201 211 218
204 214 223
186 198 199
167 181 177
152 168 156
119 142 109
105 132 87
101 128 79
95 121 72
98 125 75
97 124 75
96 124 74
97 125 74
96 123 73
95 122 72
97 125 75
96 124 74
114 137 103
175 189 188
205 215 224
209 219 229
203 212 220
208 218 228
207 216 223
206 216 225
211 220 229
199 210 218
210 219 229
205 215 223
213 222 232
205 215 224
209 218 227
206 216 225
206 216 226
206 216 226
206 215 221
209 219 230
206 216 225
208 217 226
208 217 226
208 217 227
200 211 220
210 220 230
200 210 218
206 215 224
190 201 206
176 189 186
103 129 86
102 129 83
100 127 84
123 144 114
149 166 153
149 165 152
174 187 184
190 201 206
191 202 208
201 211 219
198 208 215
202 213 220
196 208 217
205 214 223
201 212 220
207 217 226
203 212 219
208 217 226
205 215 223
210 220 232
201 210 217
206 216 226
195 205 211
206 216 226
206 215 224
203 213 222
211 220 231
199 209 217
163 177 170
107 132 88
93 120 72
95 123 74
97 124 74
98 126 76
95 122 73
96 123 74
98 126 76
96 123 74
96 123 73
96 123 74
96 124 74
96 123 74
96 123 74
100 127 76
95 123 74
99 126 76
94 121 73
97 125 75
94 122 74
99 126 76
98 126 75
94 122 72
99 127 76
96 124 74
96 124 74
94 122 73
98 125 78
129 150 125
173 186 180
203 213 220
209 219 230
206 215 224
207 216 223
201 212 220
201 211 220
203 212 219
209 219 228
203 213 222
201 210 217
196 207 213
185 197 200
181 194 195
170 184 179
162 177 169
136 156 137
123 145 113
127 148 122
110 134 94
103 129 82
98 126 76
97 125 75
97 125 75
96 123 73
94 122 73
99 127 76
95 123 73
103 129 85
153 170 158
198 208 214
207 216 224
207 217 226
206 217 228
205 216 227
207 217 228
203 213 220
202 212 220
207 217 227
205 215 223
202 212 219
199 210 217
206 216 225
200 210 218
200 210 218
195 206 213
204 215 225
204 214 222
205 214 221
212 221 231
198 208 215
203 213 221
211 219 228
209 218 228
206 216 225
205 215 225
206 217 227
208 218 227
185 197 201
163 177 167
112 136 97
99 126 75
96 124 74
95 123 74
95 123 74
95 123 74
91 118 71
97 125 75
97 125 75
95 123 73
99 126 75
98 126 75
98 126 76
97 124 74
97 124 74
98 126 76
93 120 71
95 123 74
96 124 74
96 123 73
98 126 75
99 127 76
95 122 73
97 125 75
96 124 74
99 126 76
94 121 72
101 127 81
154 170 157
183 195 196
203 213 222
202 212 222
197 208 215
210 219 229
204 213 221
203 212 219
201 212 219
207 216 226
210 219 230
198 208 215
209 217 225
198 208 215
206 216 225
205 214 224
211 220 229
203 213 221
199 210 217
209 217 225
214 223 233
205 214 221
204 215 224
199 209 217
207 217 226
206 216 226
206 215 223
205 215 225
199 209 218
166 181 177
120 141 114
97 123 76
96 124 74
96 123 74
98 126 76
96 123 74
95 123 74
95 122 74
100 127 79
100 126 83
99 125 81
103 128 86
113 136 99
115 138 104
118 140 108
145 163 146
133 153 131
137 155 134
153 170 161
149 166 151
161 177 166
150 166 155
163 178 170
179 192 187
167 181 177
179 191 189
177 191 190
181 194 194
167 182 174
146 163 145
127 147 120
118 140 112
103 128 86
105 128 92
99 126 78
98 124 79
105 130 90
98 124 79
97 125 75
105 130 88
95 122 72
96 123 76
95 122 73
101 129 77
98 125 75
97 125 76
97 125 75
95 122 74
99 127 76
97 124 74
96 124 75
95 123 74
96 123 74
97 124 75
104 130 85
139 158 136
188 200 203
203 213 221
206 216 225
207 217 227
202 212 221
204 214 224
208 218 228
203 212 219
202 212 222
209 218 226
199 209 217
201 211 220
211 221 232
203 213 223
203 213 222
206 216 225
211 219 227
210 219 230
210 219 228
209 219 229
203 214 225
203 214 224
204 215 225
200 211 221
203 212 221
205 215 223
163 177 170
116 138 107
94 122 73
98 125 75
94 121 72
97 124 73
96 123 74
95 122 73
95 122 73
96 124 74
98 126 76
94 121 72
98 125 75
96 123 73
100 128 77
98 126 75
96 124 74
98 126 75
95 122 73
94 121 73
97 124 74
97 124 74
96 124 75
97 124 75
99 127 77
124 143 118
167 181 177
206 216 224
203 214 224
204 215 226
193 203 210
210 220 229
199 211 221
207 216 227
209 219 229
205 215 224
207 216 225
204 213 220
211 219 228
211 221 232
211 220 230
207 216 226
207 217 227
201 211 219
203 214 224
208 218 230
206 215 222
200 210 217
196 207 215
194 206 213
179 192 190
153 170 158
122 144 117
128 148 122
142 161 141
147 165 148
139 157 139
139 157 140
159 174 167
160 175 169
170 185 180
179 192 192
179 191 188
187 198 198
191 204 208
194 205 210
192 204 210
191 203 208
205 215 224
196 207 213
207 216 224
198 210 218
202 212 221
168 182 179
125 146 124
95 121 75
100 127 76
98 125 76
96 124 74
100 128 77
95 123 74
96 123 74
95 123 74
93 121 73
98 125 77
134 153 129
190 201 203
207 217 226
201 211 221
209 218 227
214 222 232
209 218 228
211 220 230
208 218 227
206 215 222
203 213 223
206 216 225
206 215 224
200 210 218
194 205 210
177 190 188
156 172 163
131 152 124
108 132 94
100 127 79
96 123 74
96 124 75
95 122 72
93 120 72
98 125 76
95 123 74
97 124 75
120 143 110
173 185 182
198 208 214
195 206 213
207 215 223
212 221 231
209 218 228
210 219 229
209 218 227
203 212 219
203 214 223
206 216 226
201 211 218
199 209 215
200 211 218
207 216 226
205 215 223
203 213 222
197 208 216
208 217 228
201 212 221
198 209 218
209 218 226
209 218 228
205 215 224
206 215 224
194 205 213
203 214 224
203 212 220
167 182 176
119 142 109
93 120 71
100 127 77
99 127 77
96 123 76
107 132 95
121 143 111
153 170 159
163 179 170
166 181 177
187 198 200
196 207 215
201 212 220
207 216 224
201 212 223
202 212 220
206 216 226
203 212 219
201 211 219
206 216 225
204 213 220
206 216 226
213 222 234
202 213 222
209 218 227
206 216 225
204 213 220
193 204 210
154 169 161
108 132 95
97 124 75
98 126 76
97 124 74
95 123 74
96 124 75
94 121 73
94 121 73
98 125 75
98 126 76
98 126 76
98 126 75
99 126 75
97 124 74
98 125 75
97 124 75
98 126 76
97 125 75
96 124 74
92 119 71
97 124 74
98 126 76
94 121 72
97 124 74
96 124 75
94 122 73
97 125 76
99 126 77
142 160 145
183 195 196
192 203 209
203 212 219
199 209 218
213 222 231
213 222 232
202 213 222
205 214 221
207 216 224
205 214 221
207 216 223
205 214 223
205 216 227
201 211 221
206 215 223
195 205 211
191 202 203
179 192 193
164 177 170
158 175 165
155 171 159
136 155 137
108 130 98
114 137 101
100 127 82
96 124 75
97 124 75
96 123 74
111 135 101
156 171 161
206 215 221
204 214 222
199 209 216
211 220 228
209 217 225
204 214 223
203 214 225
202 212 220
201 211 220
207 216 225
204 214 224
202 212 220
208 217 224
205 215 225
198 209 216
209 218 227
206 215 224
203 213 220
213 222 233
205 215 225
203 213 220
199 209 217
204 213 221
205 215 222
206 216 226
206 215 224
207 217 226
206 216 224
188 200 204
139 157 138
104 130 88
95 122 73
98 126 76
96 124 74
98 126 76
97 124 75
96 123 74
96 124 75
96 123 74
94 121 72
99 127 76
98 125 75
97 125 76
96 123 74
98 125 75
97 124 75
98 125 75
100 127 77
93 121 73
93 120 72
96 124 74
99 127 77
100 127 76
98 126 76
100 127 77
100 128 77
97 125 75
106 131 88
158 173 163
200 210 216
209 218 227
200 210 216
197 208 218
204 214 223
201 210 219
192 203 208
206 215 224
203 213 221
201 211 220
205 215 224
214 223 234
210 219 228
199 210 220
207 215 222
207 216 226
205 215 224
211 219 228
204 214 223
207 216 224
210 220 230
199 209 216
198 208 215
205 215 224
208 218 227
209 218 226
208 218 228
200 211 217
164 178 170
115 138 106
94 122 73
96 124 74
96 123 74
94 122 74
97 125 76
92 119 72
93 120 72
97 125 75
97 125 75
94 121 73
95 122 73
99 126 76
97 125 75
93 120 71
98 126 77
103 130 80
95 122 73
104 131 86
107 133 90
111 135 95
113 136 99
108 134 95
115 139 104
112 134 101
136 156 135
124 143 118
160 175 169
171 184 179
169 183 178
159 175 167
148 165 151
168 182 177
160 175 167
155 170 158
154 171 161
143 161 142
136 154 132
135 154 136
143 161 143
131 151 127
124 145 118
113 138 101
114 137 103
121 144 114
109 134 94
118 141 105
107 130 94
105 129 91
106 131 88
104 130 85
104 129 87
96 123 76
99 125 77
109 133 94
159 174 167
194 205 210
202 212 221
210 219 227
207 216 224
204 214 222
207 216 225
201 211 219
208 217 225
205 215 224
208 217 226
207 217 226
204 214 222
208 218 227
205 214 222
204 214 222
204 214 224
213 222 231
208 218 227
201 211 218
201 211 219
204 215 227
205 214 223
206 216 225
205 216 226
203 213 221
176 189 185
148 164 150
102 128 84
98 126 76
97 124 74
93 121 73
98 125 74
95 123 74
96 123 74
95 123 74
95 122 74
97 124 74
96 124 74
95 122 73
96 124 75
99 127 76
98 126 76
94 121 72
96 123 74
94 122 73
95 123 73
99 127 77
97 124 75
97 124 75
96 122 75
103 128 86
149 165 155
187 199 201
194 205 212
197 207 216
196 207 215
203 213 221
201 212 219
204 215 226
200 211 218
200 211 219
203 213 220
195 205 210
199 209 214
190 200 203
196 207 214
194 205 209
189 201 202
181 194 194
188 199 200
178 191 192
176 188 187
167 182 176
165 179 176
169 184 181
178 190 190
187 199 202
180 193 192
171 185 182
178 192 190
183 195 195
197 208 214
196 208 215
198 208 214
203 213 221
200 210 217
198 209 215
211 220 231
191 202 209
200 210 218
202 213 221
203 213 220
206 215 224
201 211 220
204 214 222
199 210 219
204 214 223
202 212 219
190 202 205
144 162 142
101 128 81
97 125 75
99 127 76
97 125 76
97 125 75
95 122 73
93 119 70
93 121 73
98 126 76
95 123 74
96 124 75
127 148 122
183 194 194
207 216 226
204 214 221
204 214 223
215 224 235
204 215 224
207 216 225
207 216 227
206 216 225
205 215 223
199 210 219
207 217 227
211 221 232
202 212 221
203 213 222
199 208 215
189 201 203
162 177 171
146 164 149
127 147 120
99 126 78
94 121 73
95 123 74
100 127 76
95 123 73
95 122 74
106 131 90
173 186 182
204 214 224
202 213 223
200 210 217
210 220 230
207 217 227
201 212 222
203 213 221
207 216 224
199 209 218
201 212 221
210 220 230
203 214 223
202 213 222
201 211 218
209 218 225
201 210 217
209 218 228
201 211 218
204 215 225
204 214 224
202 213 222
208 217 226
207 217 226
203 213 222
196 207 214
209 219 229
196 207 214
154 170 160
110 134 96
97 124 74
94 121 72
97 124 74
94 121 73
98 126 75
97 125 75
100 126 81
119 141 111
129 149 124
139 156 140
159 175 167
189 201 203
192 204 210
199 208 214
203 213 223
209 218 228
205 215 223
209 218 226
205 214 222
205 214 222
209 219 229
200 211 221
201 212 221
205 215 223
210 220 230
208 217 224
195 206 211
168 182 177
111 135 98
97 124 74
98 126 76
97 124 74
94 121 72
95 122 74
95 123 74
99 126 75
97 124 74
97 124 75
96 124 74
101 129 77
93 120 72
97 125 75
95 122 73
98 125 76
99 127 76
93 119 71
93 120 72
96 124 74
99 127 76
98 126 76
98 125 75
98 125 75
93 120 72
99 127 77
96 124 75
103 129 83
143 160 145
194 205 210
202 211 220
202 212 220
201 212 221
196 207 213
206 216 225
210 220 230
204 215 224
206 216 225
204 213 221
196 208 217
208 218 227
206 216 224
203 212 222
207 216 223
205 215 225
202 213 221
204 214 223
204 214 223
194 204 208
197 207 211
179 191 189
164 179 173
148 166 151
141 160 141
129 148 124
112 135 103
108 133 94
116 139 105
164 179 170
196 206 211
205 215 225
200 211 219
200 210 219
205 215 224
209 219 229
204 214 223
198 207 213
209 218 224
199 209 218
203 213 222
199 210 218
206 216 226
200 211 219
206 216 225
210 219 227
206 215 223
197 208 215
201 211 220
208 218 229
200 210 217
204 213 222
209 218 228
207 216 227
198 210 219
203 213 222
198 209 217
206 216 227
177 189 187
135 154 132
97 124 74
95 122 73
95 122 73
97 124 74
95 122 73
97 125 76
94 121 72
98 126 77
99 127 76
92 119 71
97 125 75
98 126 76
95 123 74
96 123 73
98 126 76
97 125 75
98 126 75
95 123 74
96 123 74
101 128 77
98 126 76
96 124 74
95 122 73
94 121 73
95 122 73
94 121 72
98 126 75
117 140 106
160 176 168
201 211 218
204 213 222
199 209 219
204 214 223
203 213 223
200 210 218
207 217 227
202 212 221
209 219 229
203 214 224
204 214 223
205 214 223
207 216 224
201 211 219
201 211 219
197 208 216
207 217 227
210 220 229
206 216 226
209 219 230
208 218 228
200 210 218
207 216 225
208 219 230
207 216 223
201 211 220
209 218 225
187 198 202
143 159 143
100 126 83
95 122 73
93 120 71
95 123 74
99 126 76
96 123 73
95 123 74
96 124 74
91 118 71
96 124 75
99 127 76
95 122 73
96 123 73
95 122 73
99 127 77
94 121 73
96 123 74
96 124 75
99 127 76
95 122 73
97 124 74
96 123 74
97 125 75
95 121 72
98 125 75
96 123 74
127 147 119
160 175 167
195 206 210
199 209 217
203 214 224
195 206 211
200 211 219
194 206 211
196 207 213
196 207 213
203 213 220
191 202 205
196 206 211
176 189 190
176 189 187
177 191 191
160 175 165
161 176 169
165 180 174
157 173 163
162 177 170
152 168 156
152 168 157
155 172 161
150 167 156
143 160 144
147 164 154
144 162 146
132 152 125
156 171 159
186 199 201
185 197 199
180 192 192
182 195 198
184 196 199
184 196 199
196 206 210
195 205 211
194 205 209
196 207 214
203 213 218
203 213 219
200 210 217
204 213 220
197 207 213
194 204 207
203 213 219
196 207 213
200 210 217
198 210 217
198 209 217
206 216 224
198 209 217
200 210 218
192 202 206
172 185 181
128 150 122
108 132 93
101 127 81
115 137 105
106 132 88
103 128 88
115 137 105
104 129 91
125 147 115
114 137 105
110 133 97
111 135 99
117 140 105
110 134 94
116 139 106
110 135 99
112 136 101
114 138 105
113 136 103
128 149 124
116 138 106
120 141 112
125 145 118
125 147 117
130 150 126
170 184 178
177 189 187
176 188 187
178 191 188
174 187 184
168 182 179
168 182 177
167 181 175
172 185 182
150 168 153
153 168 156
144 162 146
152 167 154
150 167 153
145 162 149
138 157 137
128 147 125
139 157 138
126 147 119
133 152 128
126 146 118
106 131 92
109 133 98
140 158 140
168 181 174
200 211 219
205 216 225
203 213 221
206 215 222
204 214 222
202 212 222
205 215 225
206 215 223
205 215 222
208 218 228
205 215 223
206 216 226
208 217 226
203 213 219
211 219 228
205 215 223
203 213 223
204 214 223
207 216 225
204 214 221
203 214 225
189 200 203
148 165 151
111 136 95
98 126 76
97 124 75
97 124 74
98 126 76
96 123 74
100 127 75
94 121 72
98 125 75
98 125 75
95 123 73
98 126 76
121 143 113
166 180 173
209 218 226
211 220 229
208 217 226
204 213 221
208 217 226
195 206 212
207 217 226
209 219 228
204 214 222
206 216 227
200 211 220
201 211 219
202 213 222
200 209 217
190 202 208
204 213 221
204 214 224
188 200 206
176 190 190
156 171 158
142 160 143
119 141 111
98 125 75
99 127 77
97 125 75
105 130 87
149 165 153
200 210 216
204 214 223
207 217 227
200 210 217
200 211 220
212 221 232
199 209 218
213 221 230
198 209 218
204 213 221
203 213 223
205 215 224
208 218 229
203 213 222
209 217 225
204 214 224
208 218 228
201 211 219
210 219 228
207 217 227
206 216 227
204 214 223
206 215 223
203 214 224
213 222 232
210 219 231
206 216 224
171 185 182
112 135 98
99 127 76
96 123 74
94 121 73
97 124 74
98 125 75
96 124 75
95 122 73
97 124 75
98 125 75
96 123 74
112 135 100
135 154 133
151 168 155
167 181 176
178 191 193
190 201 203
202 212 218
204 214 222
210 220 230
196 206 212
210 219 229
209 218 224
206 216 224
193 204 211
203 214 226
204 214 221
198 209 216
149 165 151
100 127 79
99 126 75
95 122 73
97 125 75
92 119 71
96 123 74
97 124 75
95 122 74
97 124 75
98 126 76
98 126 75
97 125 75
97 124 75
96 124 74
96 124 74
95 123 74
98 125 75
94 121 72
97 124 74
93 120 71
99 126 76
97 125 76
97 125 75
94 121 73
97 125 75
97 124 74
97 124 74
107 132 91
156 171 162
188 200 204
203 213 222
207 216 225
203 214 223
201 211 219
205 215 224
209 218 227
204 213 220
207 216 225
210 219 229
208 217 226
207 217 227
205 214 223
207 217 227
208 217 227
200 210 216
202 212 221
196 207 216
204 214 222
201 212 221
203 213 222
205 214 222
204 214 223
193 204 210
179 191 192
184 196 196
166 179 172
165 180 175
156 173 163
175 188 183
185 197 201
202 212 220
205 215 222
203 213 219
199 208 215
209 218 226
206 216 225
204 213 221
204 214 224
205 214 222
202 213 223
207 217 226
200 210 218
209 218 227
203 213 221
205 216 226
211 220 229
205 215 224
207 216 225
209 218 228
208 217 225
208 217 225
206 215 222
205 214 223
207 217 226
199 208 214
210 219 228
191 202 205
163 177 171
131 150 124
95 122 73
96 123 74
95 123 74
96 123 73
97 125 75
95 123 73
95 122 73
97 124 74
98 126 75
94 121 73
98 125 75
96 123 73
97 125 75
100 128 77
98 125 75
97 125 76
98 126 75
97 125 75
95 123 74
98 126 75
96 123 74
93 121 72
93 120 72
95 122 73
95 122 73
94 121 71
102 128 81
128 149 125
175 188 187
206 216 225
207 216 225
209 218 227
201 211 218
206 216 226
204 214 222
210 220 230
205 214 223
203 213 222
212 221 231
206 216 226
205 214 223
210 219 228
209 218 228
208 218 226
206 216 224
211 219 229
207 217 225
198 209 216
203 213 222
206 215 222
216 224 235
209 217 224
205 215 226
208 218 229
205 215 222
193 203 208
178 191 188
114 137 105
91 118 71
97 125 75
94 122 73
99 127 77
95 123 73
95 123 73
96 124 74
98 126 76
97 125 75
98 126 75
96 123 74
94 122 73
94 121 72
96 124 74
100 127 77
97 125 76
96 123 74
96 123 73
98 126 76
95 122 73
95 122 73
95 122 73
96 123 74
96 123 74
96 123 73
100 126 81
135 155 135
180 193 192
201 213 224
205 215 226
203 214 224
200 210 218
206 215 223
205 215 224
203 213 221
205 215 222
200 210 216
203 213 223
205 215 226
200 211 219
201 211 217
200 209 216
202 212 219
200 211 219
194 205 211
195 206 213
197 208 216
198 208 215
194 205 210
195 205 210
201 211 217
193 203 207
192 203 207
183 195 194
154 170 159
131 152 127
131 152 129
143 160 142
146 163 145
136 155 135
137 156 136
139 156 139
141 160 143
138 157 137
146 164 148
149 167 153
159 174 165
135 154 131
156 172 162
144 162 149
165 179 170
148 165 154
144 161 145
158 173 163
152 167 155
155 172 162
164 180 172
164 178 169
159 175 166
162 177 169
172 185 182
169 183 182
164 179 172
162 177 170
154 170 160
155 172 159
160 176 166
159 175 168
157 173 165
160 175 165
156 173 162
160 176 166
158 173 162
169 183 179
170 184 179
165 180 174
164 177 170
173 187 182
173 187 183
169 184 177
167 182 176
179 192 193
180 194 192
174 186 181
177 191 189
165 179 174
144 162 146
130 150 128
121 142 114
122 144 116
120 142 115
126 146 120
127 148 121
115 137 103
113 135 102
108 132 94
107 131 94
106 131 92
98 125 78
100 126 81
96 123 73
100 127 79
99 126 77
98 125 76
96 124 74
93 120 72
96 123 73
96 123 74
96 124 74
102 127 84
145 163 148
186 198 200
206 215 224
208 218 227
206 215 224
200 210 220
199 209 215
204 214 222
208 217 223
202 213 222
205 215 225
203 213 222
205 215 225
206 215 223
207 217 228
203 214 225
201 211 220
203 213 223
208 217 226
204 215 224
209 219 228
210 219 230
206 216 225
161 176 171
122 144 115
96 123 74
94 121 72
96 123 74
94 122 74
99 126 76
93 120 71
97 124 74
96 123 74
95 123 74
95 123 73
96 124 74
94 121 73
99 126 80
167 180 174
202 212 221
206 216 224
211 220 231
199 210 219
201 211 219
206 215 225
201 211 220
208 217 225
209 218 226
203 214 223
206 216 224
208 217 227
208 218 227
208 217 225
209 218 227
211 220 231
205 215 224
207 216 225
199 209 217
203 213 220
177 189 190
167 182 177
141 159 141
119 142 109
102 127 85
101 126 83
148 165 151
203 213 221
204 213 221
203 213 221
206 216 226
200 210 218
209 219 228
204 214 223
203 213 222
209 219 229
196 208 217
207 216 227
199 209 217
206 215 219
203 214 224
205 214 222
205 215 224
207 217 227
201 211 220
209 217 225
208 217 226
204 213 220
203 214 224
203 212 221
202 212 221
208 217 227
202 212 222
205 215 225
155 171 158
112 136 97
93 121 72
96 124 74
90 117 70
96 124 74
96 124 74
98 126 75
97 125 75
95 123 74
95 123 74
95 122 73
94 121 73
100 127 81
111 134 94
117 139 106
133 153 132
147 164 149
152 168 159
184 195 197
188 200 202
200 210 216
200 210 217
203 213 219
203 214 224
198 209 217
197 207 213
207 217 227
192 204 208
141 159 143
98 126 75
97 125 75
96 124 74
97 125 75
94 121 73
94 121 72
97 125 76
96 123 74
100 128 78
96 124 74
96 123 74
97 124 74
99 126 76
95 122 73
93 120 72
97 124 75
95 123 74
95 122 73
98 126 76
97 125 75
97 124 74
95 123 74
99 127 76
96 124 74
96 123 74
96 123 74
97 125 75
103 129 85
158 173 163
204 214 221
204 214 223
202 212 219
205 215 224
207 217 227
205 215 224
203 213 223
207 216 226
202 212 220
206 216 225
191 203 210
215 223 232
207 216 224
202 212 220
208 217 227
207 218 229
202 212 221
204 214 223
207 217 227
206 216 224
203 213 220
209 218 229
204 215 225
201 212 222
201 211 218
201 211 218
195 205 212
198 209 215
176 190 190
144 161 147
155 172 159
165 179 173
178 191 191
182 195 199
199 210 215
193 203 208
202 213 223
202 213 223
205 215 224
204 213 221
204 214 222
202 211 218
200 209 214
204 214 224
205 215 225
205 215 224
201 212 222
201 211 221
208 217 227
207 217 226
200 210 218
207 216 225
207 217 226
208 218 227
203 213 220
211 220 229
200 210 219
200 210 217
156 172 164
104 129 89
97 125 75
97 124 75
99 127 77
97 124 75
95 122 73
95 122 73
97 124 76
97 124 74
94 122 73
97 125 75
95 122 73
97 124 75
99 126 76
95 123 74
98 126 76
96 123 74
94 121 72
98 126 76
99 126 77
96 124 75
94 122 73
96 123 74
93 120 72
99 127 76
95 122 74
96 124 74
107 133 89
157 173 163
198 208 214
206 215 223
199 210 218
210 219 228
203 213 222
199 209 218
200 210 217
206 215 225
206 216 226
203 214 223
203 214 223
203 213 221
209 218 228
208 218 229
202 212 220
207 216 225
210 220 229
208 218 229
207 217 228
208 218 228
208 217 226
204 214 222
211 219 227
207 217 227
209 218 228
203 213 221
198 210 220
193 204 210
159 174 163
105 128 93
97 124 74
92 119 71
95 122 73
94 121 73
94 121 72
96 123 74
97 124 74
97 124 74
98 125 75
93 120 72
94 122 73
97 124 75
98 125 76
93 120 72
92 119 71
94 122 73
98 125 75
97 124 74
92 119 71
94 121 72
98 126 76
98 125 75
96 124 75
97 124 75
98 126 75
106 131 90
159 175 166
195 205 209
202 212 219
200 210 218
204 213 221
206 216 225
202 212 220
204 214 222
201 212 220
205 215 224
204 215 224
209 219 230
195 205 211
210 220 230
205 216 225
210 219 229
203 213 221
196 207 216
202 213 222
202 212 221
206 215 223
210 219 229
198 208 215
204 213 222
210 220 232
202 212 221
213 222 231
172 185 184
134 153 133
103 130 81
96 122 73
95 122 73
97 125 78
96 124 74
100 125 82
99 126 78
99 126 78
102 128 84
98 124 82
101 127 83
104 130 87
111 134 97
107 133 89
105 130 88
103 129 84
102 126 85
97 123 78
97 124 79
114 137 99
106 131 92
112 136 100
108 132 97
107 133 93
124 145 117
167 182 177
195 206 209
201 211 217
198 208 212
200 211 218
201 212 219
193 205 212
200 210 217
199 208 214
199 210 217
195 206 212
192 204 211
204 214 222
197 207 213
194 206 214
203 213 222
205 214 223
199 209 215
206 215 224
195 206 213
212 221 232
209 218 227
201 212 220
203 213 222
207 216 225
174 187 186
128 148 124
96 124 74
95 122 72
95 122 72
96 124 74
99 126 75
97 124 74
98 126 76
95 123 74
96 123 74
95 123 73
96 123 74
97 125 75
94 122 72
98 125 75
93 120 72
95 122 73
95 123 74
93 120 71
98 126 77
99 126 76
95 122 73
96 124 74
133 152 132
175 189 187
209 219 229
207 217 227
211 219 227
207 216 225
210 220 230
205 216 226
203 214 222
203 213 223
205 215 224
207 217 225
205 214 222
202 213 222
204 215 224
208 217 226
203 212 221
205 214 222
207 216 225
199 209 217
201 211 220
205 215 224
210 219 229
175 189 188
134 153 131
103 130 82
94 122 73
94 121 73
98 125 75
98 126 75
95 122 72
92 119 71
98 126 75
94 122 73
94 121 72
96 123 74
95 122 73
96 124 74
108 133 91
158 173 164
204 213 221
209 219 229
208 217 227
204 213 221
203 214 222
207 216 227
201 212 222
206 216 226
209 218 226
201 211 218
207 217 227
211 220 230
198 208 216
212 221 231
203 213 222
205 215 223
203 213 221
211 220 227
205 214 221
199 209 216
203 213 221
205 215 222
189 200 204
177 189 188
155 170 156
138 156 136
166 180 172
197 209 218
200 211 220
196 207 214
207 216 225
205 215 225
205 215 225
204 214 223
203 213 221
201 212 220
203 214 222
199 209 216
194 204 212
207 217 225
197 209 218
211 219 228
205 214 221
202 212 220
208 218 229
206 215 223
204 214 224
200 211 219
203 213 221
202 211 219
203 213 222
205 215 224
198 208 214
198 209 217
176 189 187
103 128 86
95 122 73
96 123 74
93 120 71
96 123 74
96 124 74
96 124 75
98 125 75
98 126 76
95 123 74
94 122 73
98 125 74
92 120 72
94 122 74
96 123 74
100 127 76
99 125 83
108 132 97
127 147 119
147 163 145
152 167 157
172 185 182
194 205 210
201 211 218
199 209 216
204 214 223
203 212 219
187 198 199
145 163 146
93 120 72
100 128 77
97 124 73
97 125 75
96 123 73
95 122 73
98 126 76
98 125 75
97 125 75
98 125 75
98 126 76
97 124 75
93 121 72
97 125 76
93 121 72
96 123 74
96 123 73
95 123 74
96 124 75
98 125 75
96 124 74
93 121 72
94 120 71
98 125 74
96 124 74
98 125 75
95 122 73
115 138 103
161 176 168
193 204 211
206 216 226
200 211 220
204 214 223
203 213 222
205 214 221
210 220 230
211 221 232
204 214 220
208 217 227
207 217 225
208 218 228
200 210 218
201 213 224
208 217 225
205 215 223
207 216 225
201 212 221
204 214 221
201 212 220
208 218 226
199 210 217
213 221 229
204 215 225
200 212 224
206 215 224
206 215 221
204 214 222
168 181 176
129 149 126
102 128 87
118 139 109
128 149 126
132 152 131
144 161 144
173 185 179
168 182 177
180 192 191
190 202 205
203 212 219
203 213 221
203 213 220
208 217 225
198 208 216
206 215 225
204 214 222
208 218 228
203 214 224
198 209 217
209 219 229
197 207 215
205 213 221
204 214 224
200 211 218
210 219 227
211 221 230
202 212 220
191 203 209
150 167 150
103 130 87
95 122 73
97 125 75
98 126 75
96 124 74
94 122 73
94 122 73
100 128 77
99 127 77
97 125 75
96 124 74
97 124 75
95 122 73
95 123 73
97 125 75
94 121 73
97 124 74
97 125 75
94 121 72
99 127 76
93 120 72
98 125 75
94 121 73
95 122 74
99 126 76
97 124 74
95 122 73
121 142 113
173 186 183
203 214 225
203 213 221
207 218 228
207 217 226
201 211 220
198 209 216
199 211 222
198 209 217
202 212 220
203 213 222
206 216 226
205 215 225
206 216 226
204 214 223
206 215 223
202 212 220
202 212 221
206 217 227
206 215 223
205 214 224
202 212 222
202 213 222
203 214 223
207 216 225
208 218 227
204 213 219
209 219 229
188 200 202
136 155 135
104 131 83
94 121 72
93 121 73
99 126 76
95 123 73
95 123 74
97 124 75
96 124 74
97 125 74
96 123 74
97 125 75
95 122 73
94 121 73
95 123 74
97 124 75
99 126 76
97 125 75
98 125 75
95 123 74
95 122 73
95 122 73
96 124 75
98 126 76
93 120 73
95 123 74
96 124 74
132 151 128
184 196 194
208 217 224
208 217 225
205 215 224
207 217 225
209 218 226
201 211 220
209 219 228
203 213 222
209 217 226
209 218 226
202 213 221
205 216 227
201 211 220
205 214 223
194 206 216
210 220 229
200 210 218
209 219 229
203 213 220
205 214 222
204 214 225
205 216 225
202 213 222
210 220 230
208 218 226
201 211 219
157 172 163
120 143 112
95 122 72
95 122 73
98 126 76
98 125 75
95 122 73
97 125 75
97 125 76
97 124 75
98 126 76
97 125 75
96 124 74
96 124 75
94 121 72
96 124 74
95 123 74
95 122 72
97 125 75
96 123 73
96 123 74
95 122 72
99 126 76
97 124 75
95 122 73
98 125 75
130 150 126
168 182 178
206 215 222
206 216 226
199 209 216
208 217 227
201 211 219
207 216 223
197 208 217
205 215 224
203 213 221
210 219 229
205 215 224
203 212 219
203 214 223
205 215 225
208 218 227
207 216 225
204 214 222
201 210 217
204 214 222
206 216 226
210 219 228
198 208 215
208 217 226
191 201 206
147 164 151
107 132 91
97 125 75
98 125 75
97 124 75
94 121 71
97 124 75
100 128 77
98 126 76
96 123 73
99 126 76
96 124 74
97 125 75
95 122 72
94 121 72
94 122 73
97 125 75
97 124 74
94 122 72
96 123 73
98 125 75
95 122 73
95 123 73
119 140 110
164 179 172
192 203 208
200 210 216
203 213 220
201 211 220
205 215 224
206 216 225
201 211 219
202 212 223
204 214 223
199 210 220
197 207 214
204 213 220
201 211 219
203 213 223
207 217 226
206 216 226
207 216 225
199 209 216
199 210 218
202 211 220
202 213 221
195 205 210
156 172 161
102 128 84
93 120 71
98 125 75
97 125 75
95 122 74
96 123 74
95 122 73
96 124 74
95 123 74
95 122 73
100 127 76
96 123 74
98 125 75
95 123 74
103 130 82
159 173 163
195 207 215
198 209 217
204 214 222
210 219 227
201 211 221
207 216 224
212 220 228
204 214 222
206 216 224
206 216 226
201 211 220
206 216 226
203 214 223
199 208 214
205 215 224
206 216 226
198 209 217
204 215 224
207 217 226
204 213 221
206 215 224
205 216 227
208 218 228
200 211 220
194 205 211
181 193 195
165 179 174
182 194 193
200 210 214
206 215 222
208 217 225
199 209 215
206 216 226
200 211 220
200 209 215
207 217 226
200 211 220
206 216 224
202 212 220
203 214 223
199 210 219
202 212 219
203 214 225
206 216 227
208 217 226
202 212 222
209 218 229
204 214 224
207 216 225
204 214 224
206 216 226
206 216 225
208 217 227
201 212 222
165 179 173
102 127 86
95 122 73
96 123 73
98 126 76
97 124 75
97 124 74
97 125 75
93 119 71
96 123 74
100 128 78
98 126 76
95 122 73
96 123 74
97 124 74
96 124 75
95 122 73
97 124 74
96 123 74
93 121 72
101 127 86
107 131 93
126 146 118
154 169 156
158 173 163
185 198 200
191 203 206
197 207 212
188 200 204
147 165 149
100 126 83
95 122 73
95 122 74
97 125 75
96 124 75
94 121 72
97 124 74
93 120 72
94 121 72
97 124 74
96 124 74
96 124 74
96 123 73
96 123 73
96 123 73
94 121 72
93 120 71
97 124 75
95 123 75
92 119 71
98 125 74
96 124 74
97 125 75
98 126 76
95 123 74
96 124 75
98 126 75
122 144 117
177 190 190
195 205 211
203 213 221
204 214 224
199 210 220
202 211 219
202 212 220
203 213 221
197 208 216
207 217 228
205 214 222
200 210 219
202 212 222
202 213 222
207 216 224
198 209 217
204 214 224
203 214 222
200 210 217
199 210 218
208 217 224
209 218 227
202 212 222
206 216 225
206 216 225
199 209 217
208 217 227
197 207 214
198 208 216
160 175 167
112 135 99
95 123 73
96 124 75
101 128 78
100 127 81
107 132 92
102 126 90
125 146 120
135 153 131
149 166 151
154 171 160
175 188 186
172 186 184
187 198 198
199 209 215
199 209 216
198 209 217
202 212 219
207 217 226
202 212 219
205 215 226
205 215 224
205 214 222
206 216 225
210 218 227
210 220 230
208 218 228
201 211 220
173 187 183
126 147 121
97 124 75
95 122 73
94 121 72
97 124 74
96 123 73
97 125 74
95 122 73
94 122 73
98 125 75
95 122 74
95 122 73
96 124 74
95 122 73
93 120 72
94 121 73
95 122 74
96 123 73
96 124 74
94 121 72
98 125 75
93 120 72
98 125 75
97 125 75
96 124 74
95 123 74
96 124 74
99 126 81
136 154 133
173 186 184
206 216 224
210 219 229
207 217 227
206 215 224
205 215 224
209 218 227
203 213 224
210 220 231
196 206 215
205 216 226
204 213 220
200 210 217
204 214 223
203 213 223
200 211 221
199 210 220
202 213 222
207 216 225
199 210 219
207 217 228
201 211 219
207 217 225
201 212 219
199 209 217
207 216 227
201 211 219
203 213 219
171 185 180
120 142 111
97 124 74
96 123 73
95 122 73
97 125 75
100 128 77
94 122 73
95 123 74
94 121 72
97 124 75
94 121 72
98 126 75
99 126 76
96 123 74
95 123 73
95 122 73
96 124 74
94 121 72
95 122 74
94 121 72
95 122 73
96 123 74
96 124 75
99 127 77
96 124 74
96 124 75
108 132 93
149 166 152
186 199 201
200 211 220
203 214 225
203 212 220
208 217 226
198 208 214
208 217 227
204 214 224
201 211 219
205 214 221
209 218 228
194 205 215
204 214 223
210 219 229
200 210 217
200 210 218
203 214 224
208 217 226
205 214 222
200 211 220
202 212 220
201 211 218
206 215 223
201 211 218
193 204 210
202 211 218
187 199 202
135 154 136
97 124 76
96 123 74
97 124 75
97 124 74
97 124 75
98 126 75
96 123 73
96 123 74
94 121 72
98 125 75
95 122 73
98 126 76
95 122 73
98 125 75
96 123 73
96 123 73
94 122 73
99 126 75
97 124 74
97 124 74
94 121 72
97 124 74
99 126 76
94 122 74
119 141 109
167 181 175
192 203 210
201 211 218
208 218 227
208 217 226
194 206 214
196 206 211
209 219 227
204 213 221
192 203 210
208 217 227
197 208 217
203 214 223
208 217 226
202 213 221
205 216 226
207 217 226
210 219 228
210 220 232
196 208 215
205 215 223
204 213 222
207 217 227
208 218 227
200 210 218
164 179 172
122 143 113
94 121 72
96 123 74
96 123 74
96 123 73
97 124 74
93 121 72
97 125 75
98 126 76
95 122 73
99 127 77
96 123 74
96 124 75
96 124 74
95 122 73
93 120 72
97 125 75
98 126 76
96 123 74
99 127 77
98 126 75
95 123 74
98 125 79
145 162 146
193 204 207
203 213 222
199 208 214
203 213 222
204 213 220
208 217 227
203 213 222
204 213 221
204 214 223
206 215 223
208 217 226
206 215 224
205 214 222
202 212 220
202 212 220
202 212 221
193 204 211
205 215 227
200 211 221
210 220 229
201 211 218
197 208 214
160 175 167
102 129 85
97 124 74
94 121 73
98 125 75
96 124 75
93 120 72
95 122 74
97 125 75
96 123 74
94 121 72
96 123 77
98 125 75
97 124 74
98 125 75
95 122 72
96 123 74
140 157 140
193 204 209
203 212 221
197 207 215
202 212 220
200 211 218
208 217 227
212 220 229
207 216 224
201 212 221
201 211 219
212 222 233
205 215 226
205 215 226
204 213 221
202 213 222
206 216 227
212 220 231
203 213 221
201 211 219
213 222 231
203 213 223
206 216 224
198 208 217
203 212 222
205 214 223
202 212 220
187 199 199
130 150 125
133 152 134
161 176 166
177 189 189
198 208 214
203 213 218
199 210 218
201 211 218
201 212 220
204 214 225
202 213 223
201 212 221
204 214 223
203 214 223
210 219 228
195 207 217
200 210 218
213 221 231
204 214 222
201 211 219
206 216 227
198 208 214
208 218 229
202 212 221
202 211 218
207 217 227
198 209 217
168 182 178
109 133 95
97 124 75
96 123 74
98 125 75
97 124 75
93 120 72
97 124 74
96 123 74
95 122 73
96 124 75
97 125 75
95 122 73
99 126 76
96 123 73
99 127 77
96 124 74
96 124 74
96 123 74
95 122 73
96 123 74
98 125 75
90 118 70
98 125 80
116 139 105
123 144 117
137 156 136
156 171 162
165 180 171
141 159 140
116 138 102
100 127 79
98 126 76
96 124 74
99 126 76
94 121 71
96 123 74
97 125 75
95 122 73
94 121 73
96 123 74
95 123 73
96 123 74
96 122 73
97 125 75
92 119 71
95 122 73
98 126 76
94 122 74
94 121 73
98 126 76
97 125 75
94 121 72
98 126 75
96 124 74
99 127 77
94 121 73
129 149 122
183 194 195
208 217 225
207 216 225
200 210 218
203 212 219
203 213 223
206 216 224
204 213 221
203 213 220
209 218 228
210 218 226
205 215 224
209 218 228
205 215 223
208 217 228
206 217 229
201 211 219
206 216 225
206 215 224
213 222 231
199 210 217
207 217 229
202 212 219
206 216 225
207 217 227
202 211 218
202 212 219
211 219 228
196 207 213
138 157 139
105 130 87
99 126 76
94 122 73
96 123 74
94 121 72
94 122 73
94 121 72
95 123 73
98 125 78
108 133 93
105 130 89
109 134 96
142 159 141
141 159 140
148 165 151
174 188 184
175 188 185
187 199 201
197 207 213
192 204 211
207 216 224
205 215 223
207 217 226
200 211 220
199 209 215
200 210 216
203 213 223
196 207 212
159 173 163
116 137 108
99 127 76
95 123 74
97 124 74
100 128 77
98 126 76
94 121 72
102 129 78
91 119 71
95 122 73
95 122 73
95 122 73
95 122 73
95 122 73
98 126 76
93 120 72
93 120 71
94 121 72
96 123 74
94 121 73
96 124 74
97 124 74
96 124 75
96 124 74
101 128 77
96 124 75
94 121 73
103 128 88
142 159 140
188 199 201
209 218 227
204 214 221
206 215 223
201 211 220
210 219 229
195 206 212
206 216 225
212 220 230
202 212 221
205 215 224
196 206 213
207 216 225
208 218 228
209 218 227
206 215 225
203 213 224
207 217 227
207 216 225
203 213 220
203 214 224
199 210 217
208 217 227
202 212 220
207 217 226
208 217 226
208 217 226
187 199 201
141 158 140
107 132 92
97 124 74
94 122 73
96 123 74
95 122 73
96 124 75
95 122 73
94 121 72
96 124 75
97 124 74
98 126 76
98 126 76
94 122 73
93 120 72
93 120 72
95 122 73
97 125 75
95 123 74
91 118 70
96 123 74
96 124 75
92 119 72
94 121 72
97 125 75
95 122 73
94 122 73
114 137 105
169 183 178
196 206 212
198 209 216
208 218 227
201 211 218
204 214 224
211 220 230
193 204 212
201 211 219
202 213 223
207 217 226
200 211 219
205 215 221
201 212 222
205 215 223
204 213 222
205 214 222
208 218 230
202 212 220
204 214 222
203 213 223
202 212 221
209 218 226
199 209 218
204 214 224
201 210 216
194 204 211
157 172 161
117 141 109
95 122 73
96 124 74
93 120 72
96 124 75
98 126 76
96 124 74
97 125 74
96 123 74
97 124 75
95 123 74
98 126 76
95 122 73
98 126 76
94 121 73
100 128 77
98 125 76
95 122 73
95 123 73
95 123 74
96 123 73
89 116 68
94 121 72
98 126 76
97 124 75
137 156 140
181 193 193
203 213 219
196 207 215
207 217 228
207 217 227
204 214 224
205 215 223
205 215 224
198 209 218
201 212 220
209 218 227
200 210 218
205 214 221
204 214 222
204 213 221
199 209 217
200 210 218
209 218 227
196 207 215
206 215 223
206 216 225
197 206 214
212 221 229
211 220 230
190 201 203
142 160 143
99 126 79
96 122 73
94 121 72
95 123 74
97 124 74
95 123 73
98 125 75
97 124 75
95 122 73
98 126 77
97 124 75
97 124 74
99 127 76
97 125 75
99 126 76
97 125 75
97 125 76
97 125 75
93 121 72
97 125 75
94 121 72
93 120 72
128 148 125
172 185 182
199 210 218
206 216 225
205 215 223
209 219 230
212 221 231
213 222 233
207 216 226
203 214 224
206 215 222
199 210 217
196 207 215
205 215 223
204 213 222
211 220 230
209 217 225
197 208 216
201 212 222
200 211 220
200 210 217
208 218 227
203 214 222
174 188 182
122 143 115
99 126 78
96 122 73
93 120 72
95 122 73
96 123 74
95 122 73
98 126 76
94 121 72
99 127 76
97 124 75
139 157 139
108 132 95
97 125 77
92 119 71
99 127 76
95 122 72
117 139 108
188 200 205
201 212 222
198 209 218
207 217 227
203 213 221
200 212 222
206 215 224
202 212 220
212 221 231
204 214 224
200 210 217
206 215 223
201 211 219
210 219 228
208 217 227
208 218 227
199 210 218
207 216 223
205 215 223
203 213 223
202 212 222
201 211 220
207 216 225
205 215 223
202 212 220
204 214 226
185 196 195
111 134 100
101 128 82
106 131 90
128 148 119
149 165 151
168 183 177
188 199 201
202 213 222
207 217 225
205 215 225
208 218 226
192 203 210
207 217 225
199 210 217
208 217 225
204 215 224
204 214 223
203 213 222
206 215 224
203 212 220
209 218 227
203 213 220
205 214 222
203 213 221
205 215 224
206 215 222
203 214 224
171 184 179
115 138 104
95 122 73
95 122 73
99 127 77
93 121 73
94 121 73
99 127 76
94 121 72
96 124 75
96 123 74
96 124 74
96 123 74
94 121 73
93 120 71
96 122 73
96 124 74
96 123 74
94 121 73
98 126 76
97 124 75
96 123 75
99 126 76
98 126 76
97 124 74
97 124 75
103 129 87
111 135 99
136 155 136
161 175 167
160 175 167
128 149 126
121 143 116
114 137 105
102 127 83
93 120 72
93 120 71
95 123 73
95 122 73
96 124 75
99 126 75
98 126 76
97 125 75
96 124 74
98 125 75
96 124 75
93 120 72
94 121 72
95 122 73
97 125 75
98 126 75
95 123 73
95 122 73
94 122 73
92 119 72
99 126 75
95 122 72
125 146 120
185 197 197
205 215 224
198 209 218
198 209 217
202 212 221
206 216 226
199 208 215
206 215 224
200 209 216
200 211 219
198 209 217
203 213 220
196 207 215
206 216 227
201 211 218
209 218 227
200 211 221
203 213 223
205 215 225
209 217 225
200 210 219
203 214 224
192 204 211
203 213 221
202 212 219
202 212 221
203 214 224
204 216 227
184 197 199
147 164 148
103 129 84
99 126 76
99 126 75
95 123 74
92 119 71
95 122 72
93 121 72
95 123 74
91 118 71
99 126 76
96 124 75
96 124 75
100 126 80
100 125 82
110 134 100
109 133 97
133 153 132
135 154 137
147 165 152
170 183 176
169 183 179
170 185 182
189 201 205
188 200 203
198 208 215
204 213 220
199 209 216
191 202 204
153 170 160
115 138 102
96 124 74
97 125 76
99 126 75
97 124 75
96 124 75
97 125 75
97 125 75
97 124 75
97 125 75
95 122 73
96 123 74
97 125 75
94 122 73
96 124 74
98 126 76
95 123 74
97 124 75
95 121 72
92 119 71
97 124 74
95 122 73
94 122 73
95 122 73
99 127 76
99 126 75
95 122 74
111 135 100
172 186 184
200 211 219
203 213 220
195 206 213
203 213 223
204 214 222
208 218 229
206 215 223
207 217 226
204 214 223
197 208 216
208 217 226
198 209 217
205 215 225
205 215 224
206 217 228
202 212 220
203 213 220
204 214 223
209 218 227
206 215 223
202 212 219
202 211 218
206 216 225
202 213 222
211 220 229
203 212 219
200 210 218
175 188 186
135 154 132
98 125 77
100 127 77
94 121 72
96 124 74
94 121 73
96 124 74
92 119 71
99 126 75
95 123 74
96 124 75
97 124 75
96 123 74
94 121 72
97 125 75
94 122 73
96 124 74
96 124 74
92 118 70
93 119 71
98 125 75
94 122 74
92 119 71
97 124 75
95 123 73
94 121 73
97 125 75
137 156 139
182 194 195
203 213 222
206 215 224
192 203 209
202 212 220
203 214 223
207 216 225
201 212 221
201 212 221
204 214 224
197 209 218
204 214 224
199 209 217
200 210 217
204 215 225
206 215 225
206 216 225
204 214 223
208 218 229
206 215 222
204 214 223
210 219 228
208 217 228
209 219 229
196 206 213
203 212 218
179 192 193
143 159 143
98 124 79
97 124 74
94 122 73
96 124 74
98 126 76
96 123 74
95 122 73
96 124 75
96 123 73
95 122 73
92 118 70
94 121 72
96 123 74
93 120 72
96 123 74
98 126 76
96 124 75
97 124 75
96 124 74
96 124 75
95 122 72
97 125 75
97 124 74
95 122 73
114 136 107
174 187 186
195 206 211
206 216 226
205 215 225
202 212 221
210 219 229
204 214 224
205 215 223
206 216 227
205 215 224
207 215 222
204 214 223
212 221 232
199 209 217
209 219 228
199 210 219
204 214 223
205 214 222
205 215 224
210 219 229
201 211 220
204 213 221
205 215 225
212 221 231
194 205 212
143 160 145
109 133 96
93 120 71
96 123 74
95 122 73
96 123 74
95 122 73
96 123 74
96 123 74
100 127 76
99 126 76
96 122 73
98 126 75
101 128 77
101 129 77
93 120 72
97 124 74
97 124 74
92 118 70
97 124 75
97 125 75
97 125 74
94 121 73
114 137 103
174 187 182
192 204 211
205 216 226
200 210 217
206 215 224
204 213 221
205 215 224
202 212 219
197 208 214
204 214 223
197 208 218
206 216 226
205 214 222
200 211 220
205 214 223
210 220 230
209 218 228
201 211 220
203 213 221
204 213 221
209 218 227
200 210 218
191 204 210
128 149 124
100 126 81
94 122 72
98 126 75
98 126 75
97 124 75
94 121 73
98 125 75
89 116 69
96 124 74
94 121 73
96 123 73
188 200 204
183 196 196
154 170 157
115 137 105
103 129 87
96 123 73
114 137 103
172 185 180
205 215 224
202 212 221
199 210 218
209 219 230
204 214 221
204 214 224
201 211 220
210 219 229
197 208 215
205 214 223
201 212 222
201 211 219
193 204 211
211 220 229
206 216 225
199 210 218
205 215 223
204 215 224
198 208 217
202 212 221
199 209 215
205 215 225
211 220 230
206 217 228
201 212 221
181 193 194
123 144 115
95 122 73
94 120 71
101 129 77
100 126 78
116 139 107
129 149 126
166 180 172
163 178 171
180 193 194
197 208 216
202 211 218
201 211 219
200 210 216
201 211 218
206 216 225
202 212 219
202 212 220
189 201 205
194 206 214
205 214 222
198 209 217
206 215 223
201 211 219
201 211 219
204 214 222
203 213 220
164 179 172
95 121 77
95 123 74
97 125 75
97 125 75
93 120 71
96 124 75
95 123 74
96 124 74
95 123 74
96 124 74
97 124 75
97 125 75
95 122 72
96 124 74
95 121 72
95 122 73
96 123 74
95 122 72
97 125 75
98 125 75
94 121 72
97 124 74
99 127 76
96 123 73
94 122 74
96 123 74
95 122 73
130 150 123
185 197 198
193 204 210
186 198 201
179 192 191
163 179 173
143 161 145
134 153 130
113 135 103
97 124 76
97 125 75
98 126 75
95 123 73
94 121 72
96 123 73
95 122 73
94 121 72
93 120 71
94 121 72
94 121 72
94 121 73
94 121 72
98 125 75
94 121 72
95 122 73
96 124 74
96 123 74
97 124 75
98 125 75
132 152 127
177 191 192
209 218 228
199 209 216
207 216 225
204 214 225
201 211 218
202 212 220
193 204 211
201 212 222
202 212 220
202 212 221
199 210 219
206 216 226
205 214 222
203 213 223
206 215 224
204 214 222
196 207 217
200 211 220
203 213 221
207 217 228
208 217 226
205 215 223
200 211 220
204 214 223
208 217 227
209 219 229
206 215 223
193 204 207
135 154 135
95 123 73
96 123 74
95 123 74
94 122 73
93 120 71
96 123 74
97 125 75
97 124 74
95 122 73
96 124 74
94 121 71
99 127 76
98 125 76
97 124 74
96 123 73
94 121 73
94 121 73
101 127 81
108 131 93
116 139 106
118 140 112
125 145 117
151 168 155
161 176 166
160 174 165
162 176 170
190 201 203
175 189 186
144 162 147
104 129 86
98 125 78
96 123 74
95 122 73
97 124 74
98 125 75
98 126 76
93 121 73
96 123 74
97 124 74
97 125 74
97 124 75
95 122 73
96 123 74
96 123 74
96 124 74
97 124 74
95 123 74
92 119 71
95 122 73
100 127 75
95 122 73
94 122 72
98 126 75
94 121 72
99 127 77
94 121 73
132 151 128
179 192 190
211 220 230
210 219 228
209 218 228
204 213 221
204 214 222
203 212 220
213 222 232
210 218 227
205 215 224
203 212 220
205 214 222
200 210 218
206 215 225
203 212 222
202 213 223
205 215 224
204 214 224
199 210 216
209 219 229
206 216 224
202 212 220
208 217 226
201 210 217
203 213 221
211 220 229
209 218 228
203 213 219
172 186 182
112 136 101
96 123 74
95 122 73
98 125 75
97 124 74
94 121 72
97 124 75
96 124 74
96 123 73
96 124 75
95 122 73
98 126 75
95 122 73
95 123 73
93 120 71
96 124 74
96 124 74
96 124 74
96 123 74
94 121 73
93 120 72
94 121 72
97 124 75
95 122 73
96 123 74
96 123 74
115 139 105
170 183 179
197 209 217
203 213 223
205 215 225
207 216 226
212 221 230
205 214 220
201 212 221
205 215 223
202 212 220
202 213 224
200 210 218
204 215 225
205 215 223
205 215 225
205 215 224
207 217 226
201 211 219
199 209 218
202 211 219
210 220 231
208 217 226
202 212 220
204 214 223
196 207 212
202 212 220
195 206 213
153 169 156
115 138 104
97 124 74
98 125 75
97 125 75
96 123 74
95 123 73
95 122 73
99 126 76
96 123 73
96 124 74
98 125 75
96 124 74
95 122 73
98 126 75
97 125 75
96 124 74
96 124 74
99 126 76
95 122 73
93 120 72
98 125 75
98 125 75
98 125 75
95 123 74
100 127 84
157 172 162
185 196 197
203 213 225
204 214 222
203 212 219
206 216 224
204 213 220
193 205 213
204 214 224
209 219 230
205 215 225
203 212 219
208 217 227
200 210 217
205 214 222
199 209 216
196 207 216
207 215 222
198 208 215
196 207 215
205 215 226
208 217 227
205 215 223
198 209 218
201 211 220
175 187 184
126 146 118
98 125 75
96 123 73
96 123 74
94 121 72
95 122 73
94 122 72
94 121 73
98 125 75
98 125 74
94 121 72
94 121 72
92 119 71
97 124 75
94 121 71
95 122 73
95 121 72
95 122 73
97 124 74
91 118 70
94 121 73
97 125 76
102 128 82
141 157 141
179 191 192
202 212 220
198 209 215
209 219 231
212 221 231
205 214 222
206 215 222
205 215 225
210 219 228
205 215 224
199 209 216
203 211 218
201 212 221
208 217 226
206 215 224
207 217 226
207 215 223
198 208 216
201 211 219
205 215 224
206 216 224
192 203 208
145 162 147
107 131 95
95 123 73
93 120 72
99 127 77
97 124 75
95 122 73
99 127 76
98 125 75
94 122 73
96 123 74
95 122 73
97 125 75
206 217 229
212 221 231
201 211 219
175 188 187
166 181 175
140 158 135
119 141 111
176 189 185
206 215 223
210 220 229
201 211 219
195 205 212
209 218 228
203 213 222
201 211 221
199 211 220
205 215 225
200 211 220
207 217 226
210 219 230
207 216 225
207 217 226
207 216 226
197 207 215
198 209 220
199 209 218
205 214 223
207 217 227
200 211 221
202 211 219
202 212 221
199 210 217
201 211 216
192 203 204
125 145 121
94 121 73
99 127 76
95 122 74
97 125 75
98 125 75
98 126 78
101 127 84
124 145 116
142 159 142
163 177 168
174 187 187
196 207 213
209 219 229
193 203 210
208 217 224
203 214 224
204 214 224
202 212 221
209 217 226
200 210 216
197 208 216
206 216 224
204 215 226
204 214 222
207 217 226
201 211 218
168 182 177
101 127 82
97 125 75
96 124 74
93 120 72
95 122 73
93 120 72
97 125 75
95 122 73
98 126 76
93 121 72
96 123 74
93 120 72
95 123 74
95 122 74
97 126 77
90 118 70
98 125 75
96 124 75
96 123 74
98 126 76
97 125 75
94 121 73
97 125 75
97 125 75
98 126 75
93 120 71
101 128 80
126 146 125
186 197 199
194 206 212
204 215 226
199 210 218
192 203 210
195 206 210
182 195 197
164 179 173
149 165 153
142 160 143
116 138 106
105 129 91
103 129 85
93 121 72
93 121 72
97 124 74
98 126 76
97 124 75
97 124 74
98 125 75
96 124 75
100 127 76
96 124 75
95 123 73
96 123 73
95 122 73
94 121 72
100 127 82
141 158 141
187 198 201
207 216 224
205 214 220
206 216 227
206 216 226
202 212 220
197 207 214
206 216 226
194 205 213
208 218 226
205 215 223
207 217 227
202 212 220
202 212 221
193 204 212
202 212 221
203 212 220
196 207 216
201 211 220
201 211 220
206 216 225
205 215 223
200 210 218
197 208 215
195 206 212
193 204 210
206 216 224
207 217 225
167 181 176
130 150 127
93 120 71
97 125 75
96 123 74
96 124 74
94 121 72
99 127 76
94 121 72
97 125 75
98 125 75
96 123 73
95 123 74
96 123 74
96 123 74
93 120 71
98 126 76
92 120 72
96 124 74
95 123 74
97 124 74
98 126 76
95 123 74
98 125 78
101 127 84
102 127 85
118 141 109
118 139 110
150 168 155
159 175 166
177 189 185
148 164 153
136 154 139
127 148 126
123 144 113
121 143 108
103 128 86
96 123 76
94 121 72
95 122 73
99 127 76
94 121 72
93 120 72
94 121 73
96 124 74
96 124 74
96 123 73
96 124 74
92 119 71
94 121 72
93 121 72
96 123 74
93 120 71
94 121 72
95 123 74
98 126 76
97 125 75
106 131 91
160 175 164
191 202 204
200 211 221
204 214 223
199 209 217
206 216 224
207 217 225
200 210 218
209 218 229
200 211 220
202 212 221
205 215 225
205 215 225
202 212 220
205 215 223
197 208 216
206 215 222
203 213 221
198 208 216
196 206 214
204 213 221
206 216 225
201 210 217
201 211 219
199 210 219
204 213 221
200 210 221
201 210 218
181 193 193
152 168 157
100 127 81
98 126 75
95 123 74
94 121 72
97 124 75
96 123 73
96 124 75
96 123 74
97 125 75
98 125 75
101 129 77
97 124 74
95 122 73
98 126 75
97 124 75
93 120 71
99 126 76
99 126 76
99 127 77
92 119 71
91 118 70
94 121 72
96 123 74
96 123 74
95 122 73
97 124 74
137 155 136
177 189 188
210 219 229
205 215 225
200 210 218
203 212 222
201 211 220
199 209 216
199 209 216
203 213 222
203 213 222
203 212 220
207 216 224
206 216 225
192 204 210
203 212 220
205 215 222
202 212 221
204 214 224
203 213 221
196 206 213
208 218 227
199 209 215
211 220 229
195 206 213
202 212 221
198 208 215
179 192 192
135 154 131
98 124 77
98 126 75
98 126 76
96 123 74
98 125 75
96 123 73
96 124 75
96 123 74
96 123 74
97 125 75
96 123 74
97 124 74
96 123 74
92 119 71
97 124 74
98 125 75
94 121 72
96 124 75
95 123 74
94 122 73
96 124 75
96 123 73
94 121 73
97 124 75
114 136 107
160 174 166
198 209 215
204 215 227
204 215 224
199 209 216
213 221 231
204 214 223
204 214 223
203 213 219
198 208 216
209 218 227
200 211 222
202 212 221
208 217 225
211 219 228
206 216 225
205 215 224
212 221 232
207 217 228
208 218 226
206 216 224
202 212 219
206 215 224
202 212 221
180 193 193
139 155 140
104 128 88
98 126 76
98 126 76
94 122 73
97 124 74
94 121 71
98 125 75
94 122 73
95 123 74
97 124 75
95 122 74
90 116 68
96 123 74
95 123 74
99 127 76
95 123 74
96 123 74
94 121 73
94 122 73
97 124 75
94 121 72
96 124 74
121 143 117
178 190 189
195 206 213
199 209 216
200 210 218
207 216 225
204 214 223
207 217 227
203 213 221
207 217 226
203 213 222
212 221 232
204 214 223
199 210 218
205 214 223
208 217 226
200 210 219
200 210 218
196 208 216
210 218 226
207 217 226
205 215 223
211 219 226
154 169 157
116 137 110
94 122 73
94 122 73
96 123 74
98 125 75
100 127 76
96 123 73
97 124 75
97 125 74
95 122 73
97 124 74
98 125 75
92 119 71
206 215 222
206 215 225
204 213 221
204 215 224
197 207 213
186 198 201
172 185 181
175 189 188
192 203 208
208 216 223
202 212 221
207 216 223
212 220 229
202 211 220
203 213 222
198 209 216
197 208 215
204 214 223
202 212 222
206 215 226
200 211 221
204 214 223
210 221 234
197 209 217
202 212 221
198 208 216
210 219 230
209 217 225
206 216 225
198 209 218
204 215 224
204 215 225
202 212 221
192 203 207
124 145 119
100 127 76
97 124 74
96 123 74
94 121 73
95 121 72
96 124 75
91 118 70
97 124 74
99 125 80
108 131 94
122 143 117
148 164 151
164 180 174
183 195 195
195 206 212
193 203 210
198 208 214
204 214 223
207 216 224
209 218 229
201 211 219
208 219 230
205 214 223
207 217 225
197 209 217
195 206 212
166 181 174
102 128 84
94 122 73
95 122 73
97 125 75
95 123 73
97 125 75
96 123 74
94 121 72
93 120 72
96 123 74
95 123 74
95 123 73
96 123 74
95 122 73
97 124 75
93 120 72
94 121 71
97 124 75
97 124 75
95 122 72
94 121 73
94 122 73
95 123 74
92 119 72
95 122 73
97 124 74
96 123 74
129 149 124
192 203 207
196 206 214
206 216 225
207 217 226
210 219 228
197 207 215
204 214 222
200 210 216
196 206 212
180 193 197
176 189 189
142 160 145
135 155 133
112 136 101
114 137 102
99 126 81
97 125 75
95 122 72
95 123 73
99 126 76
97 124 75
94 121 72
93 120 71
96 123 73
96 123 73
94 121 73
98 125 76
107 132 93
148 165 151
193 204 209
203 214 224
205 215 224
206 215 225
195 206 215
193 206 216
201 212 221
206 217 229
202 211 218
210 218 227
205 215 224
198 209 218
204 215 225
201 211 220
202 212 220
205 215 223
212 220 228
197 207 215
204 214 221
202 212 219
206 215 223
206 216 224
205 214 221
199 208 214
210 219 230
196 207 214
208 218 227
197 208 216
176 188 186
113 137 99
96 124 74
98 125 74
94 121 73
95 123 74
96 122 73
99 126 76
95 122 73
95 122 72
98 126 76
95 122 73
96 123 74
94 122 73
95 122 73
98 125 75
94 121 73
96 124 74
95 122 72
96 123 74
98 126 76
97 124 74
94 121 72
95 123 73
95 123 74
93 120 72
94 122 73
98 126 76
100 127 79
141 159 143
188 199 203
194 205 210
177 189 187
181 193 193
173 186 182
171 184 181
155 170 159
147 163 150
126 147 118
124 144 117
111 134 98
99 125 88
104 129 89
96 123 73
95 122 74
97 124 74
100 128 77
95 122 73
94 121 72
95 122 73
93 121 73
93 120 72
97 125 75
98 126 76
93 120 71
95 123 74
94 121 72
118 141 106
173 187 185
196 206 213
197 207 214
205 215 224
202 212 221
206 215 224
206 215 223
198 208 216
201 211 220
205 214 223
203 213 222
209 219 230
201 212 220
202 214 225
204 214 221
197 207 211
200 211 219
204 214 222
205 215 224
211 220 228
206 216 227
203 213 220
197 208 216
198 209 216
205 215 224
207 216 226
199 209 217
200 211 218
169 183 181
129 150 125
94 121 72
98 126 77
95 123 74
98 125 75
95 122 73
95 122 73
95 123 74
96 123 73
95 123 74
98 125 75
95 122 73
93 119 71
98 126 76
95 122 72
93 119 71
95 123 73
97 124 74
94 121 73
95 122 74
91 118 70
94 122 74
92 119 71
93 121 73
93 119 71
95 122 73
108 132 93
146 164 152
189 200 204
200 210 218
203 213 222
202 213 223
206 217 227
216 224 235
203 213 222
211 220 230
196 206 211
207 216 224
208 217 226
202 212 219
205 216 226
203 213 222
206 216 227
202 212 221
207 217 227
210 219 229
198 209 217
206 216 225
204 214 224
208 218 226
202 212 218
200 210 219
204 214 221
196 206 212
166 180 173
111 135 98
93 121 72
98 126 76
96 123 73
95 123 73
97 125 75
94 121 72
96 124 74
96 124 75
96 123 74
97 125 74
94 121 73
96 123 74
92 118 71
96 124 75
93 120 71
93 120 72
98 126 75
95 123 73
95 123 73
94 121 72
95 122 73
96 124 74
96 123 73
101 127 83
161 175 163
192 203 208
203 213 222
193 204 211
201 211 219
207 215 222
204 215 225
210 219 228
204 214 224
197 209 217
204 212 219
200 210 218
204 214 222
209 218 228
206 215 224
206 215 224
204 214 223
210 219 229
207 216 227
202 212 221
204 214 222
208 217 223
205 216 226
209 218 227
195 206 212
167 181 177
122 144 113
94 122 73
98 126 76
97 124 74
96 123 73
96 123 74
94 121 73
98 126 75
95 123 74
94 121 72
95 122 73
98 126 75
94 120 72
92 119 71
97 123 74
96 124 74
96 123 74
98 125 75
97 124 75
98 126 75
95 122 73
98 124 74
107 132 91
154 170 162
197 208 215
203 213 221
204 213 224
203 213 223
197 207 213
207 217 228
197 208 216
199 210 219
201 211 219
206 216 227
198 208 215
197 208 217
201 211 218
205 215 225
203 213 221
204 213 223
200 210 218
204 213 221
194 206 214
190 201 206
198 208 216
175 188 186
137 155 136
96 124 74
96 123 74
97 125 75
92 120 72
97 124 74
94 121 73
97 124 74
93 120 71
98 126 75
96 124 74
97 124 74
96 124 75
97 124 75
191 203 210
207 216 223
204 214 222
199 209 216
204 215 223
202 212 222
200 210 216
162 176 168
142 160 144
160 175 169
190 202 207
190 202 210
201 211 218
207 216 225
201 212 219
198 209 220
203 213 222
200 211 219
202 212 220
203 213 224
195 206 213
206 215 223
198 208 215
209 218 228
204 213 220
206 216 226
204 214 223
201 212 222
200 211 220
199 209 217
206 216 226
203 214 224
200 210 218
194 205 210
149 165 150
96 124 75
94 121 72
98 126 76
97 125 76
97 125 75
98 125 75
94 121 71
96 124 74
100 128 77
96 123 74
93 120 72
97 123 77
110 134 98
133 152 132
156 172 162
171 184 180
196 206 211
197 208 214
204 214 222
199 210 218
209 219 228
201 210 217
199 210 218
200 210 217
204 214 222
199 209 218
163 179 174
104 129 85
96 124 75
95 123 74
95 122 73
96 123 74
97 124 74
93 120 71
97 125 75
93 121 72
99 126 76
94 121 73
94 121 72
94 121 73
93 121 72
96 124 74
94 121 73
93 120 72
95 122 73
96 123 74
96 124 74
96 124 74
95 123 74
98 126 75
95 122 73
95 122 73
93 120 72
96 122 76
142 160 142
187 199 201
206 216 224
205 215 224
196 206 211
205 215 223
211 220 230
201 210 218
204 213 221
204 213 221
210 218 226
203 212 220
195 206 212
183 195 196
174 188 184
162 176 169
150 167 154
130 150 126
113 134 105
106 132 89
95 123 73
96 123 73
90 117 70
97 125 75
100 127 76
98 125 76
93 120 72
96 123 73
102 127 85
146 162 146
188 200 205
208 217 227
204 214 223
200 210 218
204 215 223
209 218 228
203 213 221
204 214 224
195 205 212
211 220 230
210 220 230
196 207 214
201 212 220
209 218 227
202 212 219
203 213 221
204 213 222
199 210 219
206 215 224
206 216 225
204 215 225
208 217 226
207 217 227
207 217 228
205 215 223
202 212 221
206 216 225
196 207 214
150 166 153
107 133 91
99 127 77
97 125 75
96 123 74
95 123 74
92 119 71
94 121 72
92 119 70
97 124 75
98 126 75
94 121 73
97 124 74
100 127 77
95 122 73
93 120 73
93 120 72
97 124 75
95 122 73
99 126 76
94 122 73
99 126 76
92 119 71
101 128 76
96 123 73
96 123 74
99 127 77
92 119 71
122 144 113
167 180 172
203 213 219
205 216 226
206 216 226
207 216 224
201 212 220
200 210 217
197 208 214
194 206 211
172 185 183
175 188 185
172 185 181
158 174 163
150 166 155
131 151 126
117 138 111
117 140 111
104 129 90
99 124 81
98 125 80
99 127 79
94 120 72
99 126 76
95 122 73
96 124 74
96 123 74
95 122 73
95 123 73
127 147 124
179 192 193
202 212 222
196 206 213
207 217 226
202 213 222
202 212 222
205 214 220
204 214 224
211 220 230
202 212 221
203 214 224
203 213 222
195 205 211
199 209 214
199 210 216
203 212 221
202 211 218
202 212 220
203 213 222
197 207 214
198 208 215
206 215 223
203 213 220
209 218 227
199 209 215
201 210 218
204 214 225
196 206 210
154 170 158
100 126 81
97 125 75
92 118 70
93 119 70
99 127 76
99 126 75
99 127 77
99 126 76
98 125 75
95 122 73
98 126 76
98 125 75
97 125 75
95 123 74
97 124 74
95 122 73
94 121 72
98 125 75
95 122 73
94 122 73
95 123 73
95 123 73
99 127 76
96 123 74
98 126 76
93 120 71
142 160 143
183 195 195
205 214 221
203 213 221
204 213 221
211 220 229
197 208 213
203 213 223
205 216 226
200 210 218
208 217 226
210 218 228
201 211 219
205 214 224
202 212 221
202 212 221
203 213 222
206 215 224
201 211 218
201 212 221
205 215 225
203 213 222
201 211 218
204 214 222
205 215 225
211 221 232
207 217 227
190 201 203
130 149 125
98 124 77
96 123 73
97 125 76
96 124 74
96 123 74
95 122 73
97 124 74
95 122 73
98 126 76
98 125 75
93 120 71
97 124 75
90 117 69
98 126 76
94 122 73
98 126 76
95 122 73
95 122 73
98 125 74
93 120 72
98 126 76
97 125 75
96 124 74
95 122 74
128 148 122
180 193 191
202 212 220
201 211 219
199 209 217
207 216 225
205 214 221
205 215 224
202 212 221
214 223 234
200 210 218
206 216 226
210 219 226
199 209 216
202 213 223
204 214 222
208 218 228
205 214 223
202 213 222
204 215 225
204 214 223
203 212 219
203 213 221
213 221 228
201 211 218
179 191 192
134 154 133
91 118 70
95 122 73
96 124 74
99 126 76
97 124 74
95 122 73
98 125 75
98 126 77
94 121 72
96 124 75
97 124 74
91 118 71
93 120 71
100 128 77
97 124 75
99 126 76
98 126 75
95 122 72
97 124 75
96 124 74
94 121 73
103 128 86
133 152 133
186 198 200
196 206 213
208 217 225
204 214 222
204 214 223
206 216 225
211 220 232
198 208 216
208 217 227
197 209 219
197 208 215
201 211 218
208 217 228
199 210 217
201 211 219
207 217 228
201 211 219
207 217 227
205 215 224
192 203 210
200 210 217
193 203 208
131 151 128
94 121 76
95 122 73
93 121 73
90 117 70
95 122 73
95 123 74
95 122 73
96 124 74
93 120 71
96 124 74
94 121 72
95 122 73
94 121 72
98 126 76
203 213 222
198 208 215
204 214 223
204 213 221
202 211 219
202 211 219
209 218 228
167 182 179
108 130 95
109 133 95
126 148 123
160 176 168
175 188 188
196 207 214
208 217 226
197 208 214
211 220 230
205 215 224
201 211 218
211 219 228
213 222 231
201 211 219
204 213 220
201 211 219
201 211 220
209 219 228
198 209 217
200 210 217
203 213 219
202 213 221
206 216 225
209 218 228
200 210 219
198 208 213
147 164 149
101 128 80
92 119 71
99 126 76
92 119 72
98 125 75
95 122 73
95 122 73
97 125 75
97 125 75
97 124 74
96 123 73
92 119 71
95 123 74
94 121 73
104 129 89
111 135 99
132 150 126
157 174 163
177 190 191
198 209 216
198 208 213
199 210 219
205 215 226
207 217 227
207 216 225
198 209 217
161 177 170
118 140 108
94 121 72
92 119 71
96 123 74
95 123 74
93 120 71
92 119 70
91 119 71
98 126 76
96 123 74
100 127 77
96 123 74
96 123 73
96 124 75
93 120 72
94 121 73
95 122 72
94 121 73
96 123 74
96 123 73
96 124 74
99 126 76
97 124 75
96 124 74
97 124 75
96 123 74
95 122 74
133 153 131
184 197 199
204 214 223
204 214 223
202 211 218
199 210 219
202 212 221
207 216 226
204 214 223
207 216 225
209 218 226
206 215 224
211 219 228
211 221 231
196 207 216
190 201 208
187 198 201
180 193 195
172 186 180
158 172 162
127 146 125
128 149 121
110 135 94
94 122 73
93 120 72
93 120 72
98 125 76
93 120 72
111 133 102
171 185 181
199 209 217
205 215 224
198 209 217
201 211 221
201 212 221
206 216 224
209 219 229
204 213 222
206 216 226
199 209 218
199 209 216
207 216 226
204 214 224
204 214 224
206 215 225
196 208 217
209 219 229
199 209 218
203 213 220
207 216 225
205 215 223
205 215 224
205 215 224
204 214 221
201 211 221
205 215 224
204 213 222
188 200 204
146 164 147
99 124 79
93 121 72
99 127 76
96 124 75
91 118 70
91 118 71
89 116 69
94 121 73
96 123 73
95 123 74
99 127 76
98 125 75
94 121 72
95 122 73
99 126 76
99 127 77
91 117 69
99 127 77
98 125 76
94 122 73
94 121 72
94 121 72
95 122 73
97 124 75
98 126 76
98 125 75
95 123 73
129 148 123
182 194 193
206 216 224
202 212 220
203 213 221
197 208 216
202 213 221
204 214 223
209 219 228
206 216 227
206 216 226
207 216 224
198 208 215
197 208 217
183 195 197
174 187 185
178 190 189
154 171 162
149 165 154
163 178 167
131 150 128
125 146 121
121 143 115
112 135 106
109 133 94
99 125 80
100 127 79
97 125 75
97 122 80
157 172 164
196 207 212
196 206 212
203 214 225
203 212 219
208 217 228
207 216 226
204 213 223
205 215 225
209 218 227
199 210 218
206 215 225
194 205 211
197 208 217
204 214 221
202 212 220
204 214 224
197 207 214
198 209 215
201 210 215
198 209 216
205 214 224
204 214 223
202 212 220
201 211 218
199 209 217
207 216 225
201 211 220
183 195 197
128 149 123
97 125 75
98 126 75
96 123 74
93 121 72
96 124 75
95 122 73
97 125 75
93 120 72
95 123 74
95 122 73
92 119 71
95 122 73
97 124 74
97 124 74
95 123 75
96 123 74
96 123 74
95 122 74
97 125 75
98 125 75
96 124 74
92 119 72
94 121 72
91 119 72
96 123 73
106 131 89
160 175 167
193 204 208
197 208 217
202 212 221
200 211 219
204 215 224
202 212 220
209 218 229
200 211 219
202 212 222
196 206 213
206 216 226
198 209 216
202 213 223
204 214 223
206 216 225
205 215 225
201 212 221
203 213 220
201 211 218
206 216 224
210 219 226
205 215 224
209 218 227
202 212 220
209 218 228
188 200 204
162 176 167
112 135 98
93 120 71
96 123 73
93 120 71
92 119 71
94 121 73
97 125 75
94 121 72
99 126 76
94 121 73
96 123 74
95 122 72
96 123 73
98 125 75
97 124 74
97 124 75
93 119 71
97 124 74
96 123 73
98 126 75
95 123 73
94 120 72
97 124 74
94 121 72
115 138 104
162 177 169
188 199 202
193 203 210
203 213 222
205 215 224
206 215 224
205 215 224
208 217 226
202 213 224
202 213 223
204 214 224
212 220 230
202 212 220
200 211 218
206 216 225
202 213 224
196 207 215
201 211 219
203 213 221
208 218 229
204 214 222
206 215 223
207 217 227
199 209 215
203 213 220
170 185 180
114 137 104
98 125 75
97 124 74
97 124 74
96 123 74
93 121 72
96 123 73
93 120 72
95 123 74
98 126 76
96 123 74
98 126 75
91 118 71
95 123 74
94 121 73
94 121 73
97 126 76
98 125 75
96 124 74
95 123 74
97 124 75
98 125 77
126 145 120
179 192 194
194 205 212
203 214 223
206 216 225
202 212 220
210 219 227
203 212 217
201 211 219
197 208 217
201 211 219
202 212 221
205 214 223
208 218 227
206 216 225
212 220 229
202 213 223
205 215 222
203 214 223
207 216 225
205 215 224
206 216 227
197 208 215
156 171 160
112 136 101
93 120 71
92 119 71
95 122 73
94 121 72
94 121 72
93 120 72
94 121 73
94 121 72
97 125 75
94 122 73
98 126 76
95 123 73
97 125 75
97 124 75
208 217 227
201 212 223
208 217 226
198 209 216
194 205 214
198 209 218
206 215 223
183 196 194
123 143 118
99 123 83
103 128 84
114 137 105
114 137 103
148 165 151
170 183 180
192 203 207
199 209 215
202 212 221
203 214 222
188 199 204
206 215 225
200 211 219
196 207 214
202 212 221
200 210 218
202 211 218
200 211 218
199 209 217
204 214 220
203 213 222
197 209 218
208 217 224
200 211 220
194 205 210
156 172 160
101 126 83
103 128 86
96 123 76
102 129 82
104 129 85
99 125 82
103 128 83
98 124 77
97 123 79
104 129 86
97 124 77
95 123 75
95 123 74
95 122 76
98 124 79
103 129 87
90 117 70
108 132 97
120 140 117
148 165 148
161 175 169
186 197 200
195 205 211
203 212 219
201 211 218
195 206 211
162 177 168
113 136 103
100 126 83
98 125 77
99 126 78
98 125 78
97 124 76
98 125 80
103 129 87
95 122 75
96 123 76
93 120 71
97 123 79
94 120 74
91 118 71
102 127 85
105 131 86
93 120 72
101 128 82
99 126 78
101 127 81
98 125 77
98 125 75
99 126 78
99 124 79
98 125 78
96 122 73
100 126 80
143 160 145
191 202 206
201 210 217
202 212 220
202 213 223
198 208 215
202 212 221
204 214 222
205 215 223
206 217 228
202 212 217
206 216 225
198 208 215
203 213 222
199 209 217
204 214 223
198 209 219
203 214 222
197 208 217
185 197 199
176 189 189
177 189 189
145 163 151
144 162 145
116 138 108
103 127 88
98 124 80
98 125 78
111 134 98
168 182 178
207 216 224
200 211 218
192 203 209
206 215 224
198 209 217
208 217 224
201 211 220
197 208 215
201 211 219
205 215 223
203 213 221
201 212 221
202 212 221
200 210 218
204 214 224
204 214 222
203 212 220
206 216 225
203 213 220
205 216 226
196 207 215
206 216 226
201 211 219
205 216 227
203 214 223
198 208 215
200 210 218
181 194 197
143 161 145
97 124 78
96 124 74
98 124 79
97 124 74
95 122 75
95 122 75
94 120 74
96 122 76
93 120 72
94 121 73
96 123 76
95 122 75
100 127 83
103 129 84
101 126 81
100 126 80
98 125 78
97 123 76
96 124 77
98 124 79
97 123 76
97 124 75
97 124 77
100 126 80
103 129 84
95 122 73
100 127 79
120 141 111
171 185 183
203 212 221
203 213 221
209 218 227
200 210 217
204 214 222
197 208 215
200 211 219
200 210 219
197 208 216
198 209 219
200 211 218
204 214 221
200 211 219
192 203 208
201 212 221
200 210 218
192 203 209
194 205 211
183 195 198
184 195 195
168 182 176
173 187 184
153 169 157
150 168 156
134 154 136
123 143 115
127 147 124
162 177 170
194 205 211
197 208 215
201 211 218
206 215 224
201 211 220
206 215 223
212 221 232
191 201 207
204 214 224
195 206 215
199 209 216
197 207 213
202 211 217
204 213 220
197 208 217
210 220 229
200 211 219
197 208 217
208 217 226
202 212 219
196 207 214
207 216 226
208 217 225
208 218 228
202 213 221
204 213 222
196 206 212
164 178 171
122 143 118
99 125 80
97 124 75
102 129 82
99 126 78
94 121 75
99 126 78
93 120 72
100 128 79
100 126 81
97 123 76
98 126 76
92 119 71
95 122 74
95 122 75
97 125 75
93 120 71
98 125 77
98 125 78
99 126 78
98 125 78
95 121 74
95 122 75
103 130 86
96 122 78
95 122 72
121 143 115
173 186 183
194 205 210
204 213 220
204 214 221
199 210 220
198 208 213
197 209 219
210 219 228
196 207 215
202 211 217
199 210 219
208 217 228
203 213 222
203 212 220
204 214 223
205 214 224
200 209 215
206 215 222
204 214 223
203 213 223
203 212 220
199 210 217
202 212 221
195 206 213
206 216 224
206 215 222
181 193 195
147 165 150
103 130 83
97 124 77
94 121 73
99 126 79
96 123 76
98 125 78
98 126 76
97 124 75
99 125 80
98 124 77
96 122 78
98 125 80
98 126 76
99 126 76
106 131 88
99 126 78
101 126 85
101 127 79
98 126 79
96 123 76
99 127 79
98 124 79
97 124 77
102 128 84
133 151 131
184 197 197
211 220 229
199 210 218
198 209 217
204 214 222
203 213 222
208 218 226
205 215 225
209 218 227
207 217 226
212 220 228
205 215 225
196 207 215
197 208 215
198 209 217
202 212 219
203 213 222
206 216 226
208 218 227
200 210 217
196 207 215
195 205 212
205 215 224
204 213 220
187 199 200
124 144 117
101 126 83
95 123 74
103 129 84
105 131 88
93 120 75
99 126 81
101 128 85
97 125 75
103 129 84
95 122 77
105 130 89
98 126 79
97 124 74
98 124 79
105 130 89
106 131 86
97 123 77
98 125 77
95 121 77
101 128 84
103 129 85
106 131 90
157 173 164
196 206 211
207 216 224
205 215 224
201 211 218
203 213 222
196 207 214
193 204 210
208 217 225
206 216 224
202 212 221
202 212 219
204 214 223
202 212 221
195 205 210
197 208 215
201 211 220
202 211 217
202 212 219
199 210 217
193 203 208
194 206 214
185 197 196
125 146 118
100 124 84
102 126 85
95 122 73
97 124 80
106 130 91
112 135 100
100 126 83
102 128 84
106 130 90
104 128 91
107 132 93
107 132 95
102 128 81
101 126 85
111 135 98
143 160 143
144 161 145
151 167 155
155 171 158
146 163 150
142 160 147
157 172 161
151 168 158
165 178 170
167 181 174
146 162 148
166 180 173
166 180 174
159 175 166
174 187 184
189 199 203
193 204 210
182 194 194
172 185 180
160 175 167
151 167 157
154 170 157
159 173 167
161 175 165
167 182 176
159 174 167
152 169 158
154 170 160
158 173 165
164 179 174
161 177 170
175 188 185
168 180 176
165 180 175
145 163 149
148 165 153
149 165 151
154 170 159
155 172 161
164 177 171
152 167 154
145 162 148
151 167 155
144 162 147
164 178 168
156 172 165
153 169 156
154 169 159
152 168 157
159 174 163
157 173 163
140 158 141
150 166 158
156 171 162
159 174 164
158 172 162
178 190 189
181 194 197
191 203 208
191 203 208
177 191 190
163 177 171
151 168 156
151 167 155
138 156 136
142 160 144
149 165 153
152 167 157
149 165 151
161 175 167
143 160 145
146 162 147
148 164 153
142 158 144
162 177 168
156 172 160
146 163 148
150 166 151
155 171 161
144 161 147
150 167 156
150 166 151
139 157 137
141 159 147
138 156 141
147 164 148
139 158 138
141 159 145
155 170 159
162 176 166
168 182 178
173 185 183
170 185 184
184 196 195
166 181 176
178 191 188
184 196 198
157 173 164
180 192 191
167 180 175
175 188 185
166 180 173
175 188 185
178 191 190
181 193 191
167 182 177
177 190 185
156 172 163
169 183 179
172 186 183
171 184 179
158 173 165
165 179 174
141 160 147
119 141 113
106 131 92
116 139 104
132 151 128
155 171 161
168 182 177
171 184 180
178 191 188
176 188 187
179 192 190
165 179 173
174 187 185
178 190 189
174 187 186
164 177 172
185 198 198
180 193 193
182 194 194
168 181 175
182 195 196
172 186 185
170 184 180
186 198 200
170 184 181
183 195 196
180 194 195
176 189 187
174 186 182
177 190 189
178 191 191
181 194 194
163 178 173
162 176 170
168 182 176
142 159 145
152 168 155
133 153 135
138 156 135
138 156 138
143 161 145
139 158 142
132 151 133
133 151 131
143 160 144
130 150 126
136 155 134
141 158 139
131 151 128
138 156 137
143 161 144
134 152 134
150 167 153
138 157 140
146 164 149
130 149 129
143 161 145
136 155 136
142 160 142
145 162 147
142 161 142
143 160 144
153 169 156
168 181 177
179 191 190
169 183 182
166 180 175
177 189 188
171 185 181
176 189 188
167 181 177
177 190 190
168 182 180
174 188 191
172 185 182
168 182 178
176 189 187
167 181 178
186 198 198
172 185 184
175 188 184
179 193 194
170 185 182
168 182 180
170 184 177
179 191 189
169 183 176
168 182 177
162 176 171
150 167 150
140 158 144
180 193 192
188 199 204
197 207 213
205 215 226
199 209 214
192 203 206
190 202 206
184 196 196
183 195 196
179 191 191
175 189 188
168 182 175
164 179 173
173 186 186
178 191 190
175 187 183
175 189 187
175 187 186
185 198 201
183 195 196
188 199 202
169 183 180
175 188 186
183 195 196
171 184 180
180 193 193
169 183 181
176 188 186
161 176 170
148 165 149
129 148 123
143 161 144
148 165 149
141 159 146
147 164 151
129 148 127
151 168 157
136 154 134
144 160 146
148 164 150
139 158 140
146 164 149
145 162 148
136 154 136
135 154 134
142 161 143
141 159 142
140 157 141
142 160 141
141 158 141
151 166 154
145 163 147
140 157 139
139 157 139
137 155 137
141 159 145
160 174 166
180 192 194
172 187 183
176 189 189
174 187 185
168 183 180
173 186 182
176 189 189
176 189 189
179 193 195
173 186 184
178 191 188
177 190 187
179 191 189
184 195 197
169 182 180
175 188 188
175 189 188
176 190 189
175 189 188
178 190 187
182 195 193
182 194 192
172 185 182
171 184 178
182 195 195
175 188 186
153 168 158
143 161 147
153 170 156
140 158 138
133 152 130
143 161 146
138 156 137
145 162 149
140 159 142
141 159 143
152 168 153
143 160 146
142 159 143
138 157 137
156 171 161
149 166 151
148 166 151
146 163 147
137 155 138
142 160 142
146 163 149
146 164 151
149 165 151
144 160 146
141 158 141
136 155 136
156 172 161
168 182 176
162 177 169
179 191 190
164 179 173
172 185 183
160 175 169
173 187 185
169 182 178
172 186 184
164 178 174
177 190 187
171 184 180
175 188 185
165 179 172
166 179 174
183 195 195
159 174 170
161 176 168
152 168 157
165 179 173
167 181 176
177 190 187
178 190 186
179 192 192
151 167 155
144 162 147
153 170 159
146 162 147
152 168 157
163 177 168
150 166 157
148 165 152
158 173 165
158 173 164
145 163 150
160 175 164
137 155 133
134 153 135
157 173 162
158 173 165
157 172 165
157 172 161
150 166 155
153 168 157
162 177 169
143 160 147
125 146 124
143 160 142
160 175 167
157 174 167
158 173 164
152 167 159
159 174 164
157 172 159
156 171 160
157 173 164
151 167 155
168 183 178
156 172 161
150 166 157
160 176 168
162 177 171
168 182 180
158 173 162
151 167 157
153 168 159
172 185 181
156 172 162
178 191 190
178 191 190
167 182 178
147 165 152
166 180 174
167 181 179
158 174 167
162 177 172
164 179 172
167 181 176
163 176 168
150 165 156
161 177 168
152 168 157
166 180 173
146 164 150
152 168 154
131 152 128
96 123 76
92 119 71
93 119 74
99 125 78
99 126 78
95 123 74
100 127 79
115 137 103
177 189 186
200 210 217
198 209 217
204 214 223
204 214 223
207 217 228
202 211 219
201 211 218
196 207 217
191 202 203
171 185 181
145 162 147
135 154 133
112 136 101
103 129 84
93 120 71
95 122 76
100 127 81
101 127 84
99 125 82
99 126 78
103 129 85
107 132 89
101 126 83
100 127 82
105 130 88
152 169 157
203 214 223
198 208 214
198 209 217
194 205 211
203 212 220
196 207 213
196 207 214
193 204 211
202 212 221
197 206 212
200 211 221
200 210 218
194 204 209
200 210 215
195 206 212
196 207 213
191 203 210
202 212 221
188 199 206
198 208 215
196 207 212
199 209 216
198 208 216
194 205 211
198 209 215
174 187 183
172 185 182
170 183 180
192 202 206
191 203 210
197 207 213
200 210 218
194 204 209
192 203 210
188 199 203
200 211 219
196 207 212
182 194 198
195 205 209
193 204 211
190 202 206
200 211 219
196 207 214
203 213 221
197 208 214
192 203 208
193 204 209
195 204 209
195 205 211
197 207 213
189 200 206
196 207 213
197 207 212
192 203 207
166 180 173
124 145 117
117 139 110
108 132 95
106 131 90
118 140 106
112 137 99
112 136 97
115 137 108
116 138 108
116 139 102
113 137 101
116 138 108
111 135 99
116 138 106
114 138 104
109 133 96
128 149 120
123 144 115
120 142 113
125 145 116
116 138 106
105 129 91
117 139 109
111 135 101
118 141 112
96 124 74
101 127 83
131 151 129
150 167 157
170 184 179
149 166 153
127 146 125
132 152 127
117 140 107
123 145 116
115 138 105
119 141 112
115 137 107
119 140 113
117 139 108
120 141 111
117 139 109
120 142 111
122 144 114
116 138 109
123 143 119
110 133 101
126 147 120
115 139 104
117 139 106
133 152 127
119 140 111
119 142 111
129 149 124
120 141 114
119 139 115
166 181 178
172 185 183
194 205 210
195 206 210
194 205 210
191 202 206
185 198 202
194 204 211
185 197 202
181 193 193
186 198 201
190 202 206
192 203 206
195 207 216
193 204 208
192 203 206
183 194 196
191 202 204
188 200 204
192 203 209
188 199 201
189 200 205
195 206 209
192 204 209
183 195 197
187 199 205
190 202 207
189 200 205
179 191 192
151 168 156
123 143 118
123 144 117
119 141 110
131 150 127
117 139 110
116 139 110
116 138 106
123 143 116
115 138 108
119 142 115
127 149 121
116 139 108
114 137 107
121 143 113
124 144 118
130 150 126
126 146 118
112 134 102
123 144 116
122 144 114
119 142 113
125 147 117
113 136 102
110 134 99
128 146 121
119 140 110
127 147 122
165 179 171
175 188 189
194 205 209
202 212 219
204 214 221
200 210 218
182 195 197
181 194 197
179 192 191
175 188 187
157 173 164
158 174 163
159 174 163
139 158 139
126 146 120
120 142 115
131 151 128
120 142 113
116 137 107
122 144 115
121 143 113
127 146 124
118 140 108
124 146 113
124 144 117
128 148 124
107 131 97
117 139 110
169 183 178
178 193 196
185 197 200
187 199 204
187 199 204
191 202 206
194 205 212
184 196 200
198 208 213
189 200 203
187 198 201
185 197 198
188 200 203
187 199 200
184 196 200
183 197 202
186 198 202
196 206 210
185 197 197
185 196 199
190 202 205
191 203 209
197 207 212
195 206 210
195 204 209
186 198 202
189 200 204
172 185 183
142 159 142
117 139 108
129 149 126
121 143 116
110 133 101
115 139 106
121 143 114
120 142 113
121 142 113
127 148 122
109 132 97
113 137 103
116 138 108
121 142 113
112 134 102
104 128 89
120 142 113
120 142 111
121 142 116
121 142 113
120 142 111
121 143 113
115 137 105
119 141 111
124 146 117
116 138 109
150 167 153
177 189 187
196 208 215
195 206 212
183 197 200
192 202 206
196 207 215
196 207 214
194 206 212
195 206 211
186 198 202
189 202 206
197 208 213
185 197 198
187 199 202
192 203 208
190 202 208
189 201 205
183 196 197
198 208 212
195 205 208
189 201 206
194 205 210
191 202 206
187 199 203
189 200 204
156 172 164
121 142 117
111 135 98
111 134 97
118 140 110
108 132 95
113 136 104
113 135 102
111 135 98
111 135 99
109 133 95
111 133 101
109 132 96
103 129 84
116 139 106
110 134 98
108 134 94
108 133 96
107 131 95
114 138 100
108 132 95
107 131 92
109 133 96
102 128 87
120 142 115
172 185 181
194 205 211
198 209 214
197 209 215
192 203 211
197 208 214
197 208 216
195 206 214
196 207 214
193 204 210
191 203 209
197 207 212
197 208 217
195 205 211
191 203 208
201 211 218
199 210 218
199 210 218
197 208 215
202 213 223
200 208 214
194 205 210
195 206 212
174 188 185
134 152 129
103 128 89
107 132 95
98 123 81
109 134 96
102 129 85
101 126 85
101 127 86
94 121 75
104 129 90
102 127 83
109 133 100
96 123 77
105 130 91
99 125 78
94 120 75
103 127 86
98 124 77
99 124 79
96 123 76
101 127 81
132 152 126
169 183 179
206 215 223
199 209 216
190 201 207
199 210 216
197 207 214
194 204 209
194 205 210
193 204 210
188 200 203
174 187 185
177 189 188
146 163 149
147 163 151
135 154 133
118 141 112
108 133 98
108 133 91
97 125 75
95 122 73
96 124 75
97 125 75
96 123 74
93 121 72
97 124 74
100 125 82
173 186 182
202 212 218
201 211 217
202 211 220
203 213 223
209 218 226
200 210 216
201 211 218
206 215 223
200 209 216
199 209 217
200 211 218
176 189 187
165 180 173
142 160 141
114 137 105
99 126 78
97 124 74
95 123 74
94 121 73
96 124 74
96 124 74
95 122 73
95 122 73
96 124 75
96 123 74
152 168 157
207 216 223
208 217 227
205 215 226
204 213 221
203 212 219
205 216 226
202 213 222
205 214 224
202 212 220
200 210 217
199 210 217
207 217 227
202 212 220
198 209 219
209 218 227
204 214 224
201 211 220
205 215 225
204 214 221
199 209 217
208 217 226
199 209 219
201 212 221
208 218 227
206 216 226
199 210 218
170 184 179
138 157 136
149 166 153
154 170 163
183 195 197
196 206 211
194 204 210
202 211 219
199 209 217
201 211 220
201 212 220
202 213 222
204 214 224
207 216 225
200 210 217
201 212 221
204 214 222
199 210 218
205 215 223
208 218 228
199 209 218
198 208 216
201 211 219
199 209 217
202 212 219
197 207 213
202 213 222
202 212 220
161 176 169
97 124 80
93 120 72
95 122 73
93 119 71
96 123 74
95 122 72
95 123 73
98 125 75
94 121 72
96 124 75
100 128 77
93 120 71
96 124 75
94 122 73
95 122 73
95 122 73
92 119 71
95 122 74
98 125 76
96 124 74
96 123 74
96 123 74
91 118 71
95 122 73
93 120 72
95 121 72
95 122 73
136 155 135
177 190 187
188 200 205
180 192 192
170 184 183
157 171 161
144 162 146
127 147 121
104 128 89
103 128 88
100 126 81
98 125 75
97 124 74
96 124 74
95 123 74
92 119 71
97 125 75
96 123 74
97 124 75
92 119 71
96 123 73
93 120 72
96 123 74
98 125 75
93 120 71
93 120 72
97 125 75
97 125 75
103 128 90
158 173 166
193 204 212
207 216 224
203 212 221
202 213 223
205 215 225
201 210 218
206 216 226
204 215 225
205 214 222
202 211 219
209 218 228
203 212 219
196 207 214
203 213 222
201 212 222
204 214 223
200 211 219
199 210 221
208 218 228
197 207 214
203 213 222
202 212 219
202 213 222
204 214 222
209 218 228
192 203 208
210 219 229
182 194 194
128 148 125
92 119 72
98 125 75
93 120 72
93 120 72
91 117 70
97 125 75
98 125 75
97 124 75
96 124 74
95 123 74
91 118 70
91 117 70
93 120 71
93 120 71
96 122 73
94 121 72
97 125 76
99 126 76
96 123 74
92 119 70
95 122 73
95 123 74
92 119 71
93 119 71
98 125 75
95 122 73
107 132 95
164 178 172
199 209 216
201 211 218
203 214 225
196 207 215
203 212 221
196 207 216
202 212 220
190 201 208
190 202 207
188 200 208
194 205 211
178 190 190
178 191 189
167 181 177
160 175 171
151 167 153
143 161 148
133 152 131
124 144 120
124 144 121
116 138 105
111 135 98
105 131 88
102 129 84
100 127 79
95 122 73
120 141 110
156 172 162
201 211 219
206 216 227
204 213 221
207 217 226
204 213 221
202 212 221
196 207 216
205 214 224
199 209 218
200 211 221
204 214 222
212 220 228
205 215 223
210 220 230
196 206 211
200 211 220
198 208 214
204 214 223
202 212 218
189 201 205
200 211 219
195 206 213
205 216 225
196 207 215
196 207 213
199 209 216
165 180 176
128 148 120
97 125 75
94 121 72
97 124 75
97 124 75
93 120 72
97 125 75
98 125 75
97 125 75
94 121 72
99 127 76
95 123 73
95 122 74
97 124 74
97 124 74
95 122 73
94 121 72
95 123 73
99 127 76
95 122 73
94 122 73
93 120 72
93 120 72
95 122 73
95 123 74
102 128 84
157 173 163
198 208 213
207 217 226
200 210 216
197 208 216
206 216 227
200 210 218
185 197 201
202 212 221
200 211 221
207 217 226
209 219 228
210 219 229
200 209 216
203 213 222
209 218 227
196 207 213
197 208 215
207 218 229
199 210 219
203 212 220
204 214 224
200 211 220
203 212 221
203 213 221
193 203 208
149 165 151
97 123 79
96 123 74
98 126 75
96 124 75
97 125 75
96 123 74
93 120 72
95 122 73
94 122 73
92 119 71
95 122 73
96 124 75
95 123 74
95 122 73
94 121 72
97 125 75
96 123 74
92 118 70
91 118 69
92 119 71
92 119 71
97 125 75
102 128 84
141 158 140
191 203 207
205 215 225
201 211 219
208 217 225
200 211 218
204 214 223
204 214 223
204 214 222
197 207 215
198 209 216
200 209 215
206 216 226
200 211 220
204 214 225
193 204 213
201 211 219
199 209 217
200 211 219
206 215 224
199 209 217
202 211 218
206 216 225
188 199 205
159 175 167
102 127 84
95 123 73
97 125 75
96 122 73
97 124 75
95 123 74
96 123 73
91 118 70
91 118 70
94 121 72
96 123 73
90 116 69
94 121 71
94 122 73
95 122 73
95 122 73
93 121 72
95 123 73
95 122 74
91 118 71
115 138 104
155 171 159
190 201 206
186 198 203
190 201 204
172 185 183
174 187 184
169 183 179
161 176 167
157 173 162
133 151 131
122 143 121
114 136 103
115 138 102
96 123 74
97 124 77
94 121 72
95 124 75
96 123 74
95 123 74
94 121 73
97 125 75
94 121 72
96 123 74
99 126 76
93 120 71
96 124 74
95 121 75
157 172 162
195 206 212
201 212 222
204 213 221
204 214 222
204 215 226
200 211 222
207 216 225
199 210 218
204 212 220
208 217 226
198 208 215
206 215 225
204 213 221
193 205 211
182 194 195
148 165 154
130 151 123
100 127 81
98 125 77
96 123 74
96 124 75
93 120 71
92 119 71
97 124 74
99 125 80
144 161 145
191 202 209
206 216 225
198 209 216
202 212 222
206 215 223
201 211 219
198 210 220
207 216 225
208 218 227
200 211 219
201 211 220
202 212 219
199 210 217
206 216 227
198 208 213
198 208 214
200 210 216
203 213 221
198 209 216
206 215 223
202 213 223
200 210 215
206 216 226
194 205 212
205 214 222
202 212 219
165 179 172
103 129 84
101 128 82
105 130 89
130 150 131
143 161 145
160 175 170
185 196 196
193 204 211
199 209 218
196 205 211
206 216 227
198 208 215
206 216 225
207 217 225
206 216 226
201 212 221
202 212 220
197 208 215
196 207 215
208 218 229
203 213 224
201 212 220
203 214 225
199 210 220
206 216 227
194 205 213
201 212 221
155 171 162
112 136 101
93 120 72
89 116 69
98 126 75
96 123 74
97 124 74
94 121 72
95 123 74
93 120 71
90 116 69
98 125 76
94 122 73
94 122 73
95 123 74
98 125 75
94 121 73
93 120 71
98 125 75
96 123 74
97 124 74
96 123 74
95 122 73
94 121 73
94 122 74
96 124 74
94 121 72
95 122 75
149 165 149
191 203 209
208 217 225
206 216 225
209 218 227
200 210 217
190 201 203
178 191 191
175 187 186
146 163 148
142 160 142
141 160 141
110 135 98
102 127 88
97 124 77
93 120 71
95 121 72
98 125 75
94 121 72
92 119 71
94 122 73
97 125 75
95 121 72
97 124 75
93 120 71
90 117 70
92 118 70
94 121 72
112 136 101
174 187 183
212 221 232
201 211 220
205 215 224
211 220 229
202 212 219
197 207 213
210 219 229
199 209 217
205 215 226
198 207 214
209 218 228
204 214 224
208 217 225
199 210 219
201 210 216
197 208 216
197 208 216
193 205 213
204 214 223
196 207 214
199 210 220
204 214 222
201 211 221
213 221 231
203 213 219
200 210 218
205 214 222
173 186 185
119 140 110
91 118 71
98 125 74
98 126 75
93 120 71
94 120 72
94 121 73
94 121 72
94 121 72
92 119 72
96 123 73
95 122 73
97 125 75
96 124 73
96 123 74
96 123 74
97 124 74
95 123 73
96 124 75
97 124 74
92 118 70
97 124 74
92 119 71
93 121 72
97 125 75
94 122 73
101 128 79
128 149 123
183 195 198
206 215 223
209 218 226
206 215 222
198 209 217
194 204 210
195 206 213
202 212 220
203 214 223
205 214 223
204 214 224
203 213 221
203 213 221
201 212 221
201 212 221
195 206 214
201 211 219
198 209 214
189 200 206
178 190 192
180 192 191
178 191 191
164 178 171
159 174 168
146 163 149
146 162 149
135 154 137
128 146 124
162 177 172
185 197 200
195 206 212
203 212 219
204 214 222
204 214 222
207 216 225
203 213 222
206 216 228
201 210 219
199 210 217
194 205 212
197 208 217
202 212 222
205 214 221
204 214 222
199 209 217
207 217 228
199 210 218
199 210 218
204 215 224
210 220 231
203 212 220
199 210 219
203 212 219
200 211 218
196 206 212
150 167 155
109 133 97
95 122 73
95 122 74
98 125 76
96 123 74
96 123 74
93 120 71
96 124 75
95 121 72
94 122 73
92 119 71
101 128 77
93 120 72
94 121 72
99 126 75
93 121 72
98 125 75
95 123 74
94 121 72
95 122 74
97 124 73
95 122 73
97 124 75
96 123 74
95 123 73
142 159 143
181 193 195
200 211 219
210 219 228
201 210 219
205 215 224
208 218 226
205 216 227
200 210 217
204 214 223
203 213 222
206 216 225
209 219 231
199 209 217
203 213 221
204 213 221
205 215 223
200 209 218
201 211 220
204 214 224
199 209 216
201 211 220
201 211 218
203 213 222
207 217 227
199 210 219
158 173 165
108 132 97
94 121 72
98 126 76
92 119 71
97 124 74
95 122 72
94 121 72
95 122 73
98 126 76
98 125 75
95 122 73
94 121 72
92 119 71
99 126 76
95 122 73
94 122 73
96 123 74
96 123 74
94 121 72
93 120 71
94 121 73
95 122 73
92 119 71
127 147 120
167 182 178
188 200 207
196 207 214
197 207 215
201 212 223
204 215 226
201 211 218
207 217 227
198 209 216
205 215 223
196 207 215
197 208 217
200 211 221
199 208 217
211 220 230
198 209 218
204 213 221
199 209 215
194 204 210
203 213 222
203 213 222
203 213 220
195 206 213
170 184 180
108 132 92
91 118 71
96 124 74
96 124 74
96 124 74
101 129 78
94 121 72
96 124 75
95 122 73
97 125 75
94 121 73
96 123 74
101 127 82
99 125 80
100 126 83
111 134 96
103 128 89
116 138 110
129 148 127
127 147 123
138 156 142
115 137 107
136 155 135
137 156 136
133 153 134
116 139 111
110 132 98
110 135 96
103 128 88
96 122 77
93 120 71
95 122 73
97 125 75
95 122 73
94 121 72
96 123 74
97 125 75
94 121 73
91 118 70
92 118 70
96 124 75
96 123 73
96 123 74
92 120 72
96 123 73
96 123 74
92 119 72
93 120 72
94 121 72
142 160 143
190 202 206
198 209 219
208 218 226
202 213 224
199 209 216
198 208 216
203 212 220
194 205 212
202 212 221
202 212 219
203 213 221
195 205 213
195 207 217
201 211 217
202 213 224
204 214 221
183 194 197
168 183 181
131 151 131
120 141 111
98 125 81
94 122 73
96 124 74
95 123 74
97 125 75
140 157 139
188 200 205
208 217 227
198 208 214
199 209 216
205 215 226
203 213 221
195 206 212
204 215 225
201 211 220
199 210 219
194 205 213
202 212 219
200 210 218
195 206 211
207 216 225
210 219 229
208 217 227
198 209 218
193 204 213
207 216 226
201 210 217
205 213 219
194 205 212
198 208 214
206 216 225
204 213 220
166 180 173
108 132 92
94 121 73
98 126 76
95 121 72
99 126 78
101 126 85
119 140 113
141 159 144
164 179 172
187 199 202
197 207 215
204 214 221
203 213 223
201 211 219
202 212 220
200 210 217
200 211 219
203 213 220
199 209 216
200 210 215
203 213 220
206 216 225
203 214 224
205 215 224
208 217 226
209 218 226
196 206 210
149 165 153
102 127 86
98 125 75
98 125 75
97 124 74
93 120 72
96 123 74
98 125 76
96 123 74
92 118 70
92 119 70
94 121 72
91 118 70
96 123 74
95 122 73
95 122 73
92 119 71
95 123 74
95 123 74
94 121 72
94 121 72
94 121 73
93 119 71
95 122 73
94 121 73
99 127 76
96 123 73
95 122 76
162 176 167
197 207 214
197 208 216
197 208 217
205 214 224
207 216 227
198 208 217
209 218 227
206 216 226
198 209 217
184 195 198
177 190 190
155 171 162
148 165 152
140 158 141
136 155 135
107 132 91
98 125 80
98 124 77
95 123 74
95 123 75
93 120 72
99 127 77
99 127 76
95 122 73
97 125 75
96 123 74
94 121 72
129 149 126
184 196 199
206 215 223
205 215 225
195 206 215
201 212 222
206 216 226
195 206 213
206 215 223
204 214 223
196 207 213
203 213 221
198 209 217
192 203 209
203 213 222
197 207 214
201 212 221
198 209 216
202 212 221
203 212 218
209 218 226
196 206 213
191 201 208
187 199 204
202 213 224
199 210 218
208 218 228
201 211 218
201 212 221
165 179 173
109 132 95
95 122 73
94 122 74
90 117 69
97 124 74
95 122 73
91 118 70
94 121 73
98 126 75
94 121 72
96 123 74
94 121 72
95 122 73
94 121 72
95 122 73
93 120 72
100 128 77
96 123 74
98 126 76
95 123 74
91 117 69
96 124 76
95 122 73
97 125 75
90 116 69
96 124 74
96 123 73
145 163 146
200 210 216
203 214 223
203 213 221
202 212 220
195 206 212
203 213 220
199 209 217
207 216 224
202 212 221
203 213 221
207 217 226
207 216 225
199 209 218
202 212 219
196 207 213
197 207 214
206 216 226
200 210 218
210 219 228
208 216 223
205 215 224
207 216 224
191 203 210
187 200 205
192 202 206
187 199 201
179 192 193
153 170 158
134 154 134
147 164 150
167 181 174
156 171 163
160 176 167
178 190 190
180 192 190
177 190 188
186 198 198
195 206 213
202 212 220
196 207 212
195 206 213
206 215 224
196 207 215
200 211 220
195 206 213
207 217 226
204 214 224
200 210 219
209 218 226
195 207 214
197 208 216
197 208 217
203 212 220
198 208 213
183 194 195
126 147 121
99 126 78
97 123 74
93 121 72
96 123 73
95 122 73
96 124 74
97 125 75
95 122 73
97 124 75
96 124 75
96 124 74
93 120 72
93 120 72
92 119 71
97 125 75
95 122 73
99 126 75
93 120 71
97 125 75
99 127 77
93 120 73
96 124 75
95 122 73
94 121 73
110 133 97
167 182 176
204 215 224
196 207 213
201 211 217
202 212 221
202 212 220
201 212 221
199 210 220
198 208 216
207 217 225
207 217 225
200 210 217
200 211 221
207 217 227
198 208 216
204 214 223
203 213 222
205 214 224
196 206 215
202 212 219
209 218 228
210 219 228
203 213 219
206 215 222
204 214 223
190 201 206
127 147 125
93 120 71
93 121 73
91 118 71
93 120 71
94 121 73
94 122 73
95 123 74
95 122 73
97 125 75
98 126 75
95 123 75
91 118 70
98 125 75
96 123 73
95 123 74
92 120 72
94 121 72
97 124 74
96 123 74
98 126 76
92 119 71
94 121 73
102 127 85
149 165 153
195 206 211
200 210 218
201 211 218
194 205 212
204 214 221
196 207 214
201 212 220
211 220 229
203 212 220
197 208 215
210 219 229
199 209 217
198 208 215
201 212 222
198 208 214
198 207 214
205 214 222
203 212 221
213 222 233
197 208 215
207 216 225
192 203 211
177 189 187
139 155 140
96 122 77
92 119 72
94 121 73
92 118 73
97 125 75
96 122 75
104 127 88
107 132 91
121 141 117
124 144 119
138 158 137
135 153 135
152 168 153
163 177 168
175 188 187
164 178 171
183 196 198
179 192 194
195 206 214
200 211 220
172 186 184
117 139 110
92 120 71
96 124 74
93 120 72
94 122 74
99 127 77
94 121 72
99 127 76
91 118 70
96 123 73
95 122 73
94 121 73
98 126 75
96 123 74
93 121 72
95 122 73
93 120 72
93 120 72
95 122 72
99 126 82
91 118 70
93 121 72
97 125 75
93 120 72
92 119 71
96 124 75
95 122 73
94 122 73
122 142 116
188 198 203
197 208 217
209 218 228
192 203 209
201 211 219
209 218 228
194 204 212
195 206 216
201 211 220
194 204 211
198 208 215
198 209 217
205 215 222
200 211 219
200 210 217
206 215 224
204 214 221
208 217 227
191 202 207
180 192 192
130 150 126
138 157 138
110 135 96
98 125 78
96 123 74
143 161 142
200 210 218
193 204 212
193 204 209
200 211 219
191 203 210
193 205 212
208 218 226
200 210 215
202 213 221
201 211 219
200 210 220
196 207 216
206 216 226
207 216 226
199 210 219
208 216 224
205 215 222
206 216 226
204 214 224
200 210 219
197 207 214
202 213 222
199 210 218
200 210 219
198 208 216
204 214 224
177 190 191
107 131 94
97 125 75
93 120 72
96 123 74
93 120 72
96 124 74
98 125 77
97 124 77
124 144 117
128 149 122
136 154 136
176 190 187
186 197 198
195 206 212
203 214 222
198 208 215
193 205 211
202 212 222
199 209 216
200 211 220
196 207 214
202 212 219
206 215 223
197 208 217
207 216 225
204 214 222
202 212 220
146 163 146
103 128 86
95 122 74
93 120 72
96 123 74
98 126 75
94 121 72
93 120 71
95 122 73
93 120 72
94 121 72
95 122 73
96 123 74
92 119 72
97 124 74
95 122 73
96 123 74
95 122 73
90 117 70
93 121 72
96 123 74
97 125 75
92 120 73
93 120 72
97 125 76
93 120 72
95 122 73
104 129 89
163 178 174
204 213 221
204 214 222
200 210 218
203 213 222
198 208 215
206 215 223
202 212 220
200 211 221
201 211 218
202 212 222
201 212 221
199 211 220
198 208 217
192 202 205
177 190 191
164 180 177
162 177 167
130 151 127
118 139 110
115 138 104
104 130 89
96 123 76
96 124 74
95 122 73
93 120 72
93 120 72
94 121 72
139 158 138
190 201 202
204 214 222
195 207 215
199 209 217
201 212 220
203 212 220
200 210 220
201 211 220
200 210 218
201 211 220
197 207 215
199 210 217
206 215 224
205 215 223
204 214 222
200 211 218
202 212 219
207 216 224
198 208 217
194 204 209
203 212 220
203 213 221
200 210 217
202 213 222
206 216 227
199 210 219
198 209 216
191 202 206
151 166 155
102 127 89
93 120 71
93 120 71
91 118 70
96 123 74
96 124 74
94 121 73
94 121 72
98 125 75
91 118 69
94 122 72
93 120 72
97 125 75
96 124 75
95 122 73
98 126 76
97 125 75
96 124 74
97 125 76
93 120 71
93 120 72
93 120 72
93 121 72
95 122 73
95 122 74
96 123 74
105 130 90
155 170 162
197 207 212
205 214 224
204 214 223
195 207 217
206 216 224
198 208 215
203 214 223
205 215 225
205 214 222
199 210 219
196 207 216
202 213 223
203 213 222
199 210 218
198 208 215
198 209 218
201 212 219
200 210 217
202 212 221
200 211 221
209 218 228
198 209 217
197 207 213
200 211 220
199 210 217
200 211 219
189 201 205
150 166 155
98 124 79
105 131 88
99 126 80
106 129 95
113 136 99
118 141 107
124 145 116
124 145 119
139 157 141
136 154 134
147 163 150
148 164 153
164 178 172
162 175 168
166 181 176
171 185 185
175 189 187
185 197 198
179 192 194
191 202 205
199 208 213
197 207 214
187 198 202
198 208 214
197 209 217
199 209 214
159 174 166
107 131 92
97 124 77
91 118 70
95 123 74
97 124 75
96 124 74
96 124 74
94 121 73
92 119 71
95 122 73
97 124 74
96 123 74
96 124 74
94 122 74
97 124 75
94 122 74
96 123 73
96 124 75
97 124 75
95 123 74
97 125 75
96 124 74
96 124 74
98 125 74
96 123 74
131 150 130
178 190 191
195 206 214
191 204 213
209 219 230
197 208 214
209 218 226
196 207 214
200 210 217
197 208 218
205 214 223
205 214 221
201 211 221
206 216 225
205 214 224
204 214 223
205 215 226
200 210 218
200 210 219
197 209 218
205 214 222
202 212 222
198 208 213
209 218 227
206 215 224
187 199 203
149 167 157
104 128 92
95 123 74
91 118 71
94 121 72
95 122 72
93 120 72
91 118 71
94 121 72
95 122 73
96 123 74
93 120 72
96 123 74
90 117 70
93 120 72
95 122 73
96 124 74
95 122 73
95 123 73
96 124 74
98 126 76
92 119 71
96 123 74
97 124 77
131 151 126
194 205 209
192 203 208
203 212 219
195 206 215
195 206 215
197 207 214
202 212 221
196 208 217
202 212 219
207 217 227
199 209 217
196 206 213
202 212 221
206 215 224
204 213 222
203 213 222
204 214 223
199 209 217
202 213 222
199 209 217
202 212 219
193 204 211
195 206 212
156 172 162
126 147 120
131 149 127
141 159 141
134 152 134
138 156 138
148 165 152
159 174 165
171 183 178
178 191 190
177 190 190
186 197 201
195 205 208
195 207 213
199 210 220
185 196 201
197 208 215
206 216 226
194 205 212
197 208 214
204 214 223
200 210 215
149 166 154
96 123 77
98 125 75
96 123 74
96 123 74
93 120 72
97 124 74
97 125 75
96 123 74
95 122 72
92 120 72
98 126 75
97 124 74
96 123 73
92 119 71
95 122 73
96 124 74
93 120 71
96 124 74
103 130 83
146 164 151
100 126 85
95 123 74
97 124 75
95 122 72
91 117 70
93 120 72
91 118 70
92 119 72
111 133 103
185 197 201
194 205 211
202 212 221
206 215 225
201 211 220
206 216 225
205 215 225
203 212 219
208 217 225
203 213 221
203 213 223
202 212 222
195 207 215
205 215 224
201 210 218
205 215 223
208 217 226
207 216 225
196 207 215
195 207 215
189 201 206
179 192 193
174 187 182
137 155 138
115 138 104
142 161 143
194 204 209
199 209 216
202 212 221
205 214 223
199 210 216
204 214 224
205 214 223
205 216 227
209 218 228
205 215 224
200 210 218
205 216 227
201 210 218
201 211 219
197 208 214
195 207 215
198 208 216
191 203 208
200 210 216
196 207 217
203 213 224
201 211 220
205 215 224
207 217 228
200 210 219
193 205 213
167 180 175
108 133 94
95 122 73
92 119 71
94 122 74
95 122 74
94 121 72
93 120 72
98 126 76
94 120 71
94 121 73
99 125 77
100 127 81
131 151 130
151 167 155
159 174 168
193 203 207
183 195 198
201 211 219
203 213 223
196 207 216
197 208 217
205 214 221
201 211 219
196 207 215
196 207 215
210 219 229
199 209 216
156 171 159
99 126 80
93 120 72
98 125 75
95 121 72
91 118 70
92 119 72
96 123 74
96 123 74
93 120 72
94 122 73
94 121 73
93 120 72
93 119 71
96 123 74
95 123 74
90 117 70
96 123 74
94 121 73
96 124 74
89 115 68
96 124 74
95 123 74
97 124 75
97 124 74
94 121 72
92 119 71
111 135 97
172 185 180
201 211 220
198 208 214
202 212 221
198 208 216
202 212 221
196 207 216
205 216 226
205 214 222
206 215 222
192 203 210
201 211 219
203 213 223
203 212 219
201 211 220
202 212 221
204 214 224
194 205 210
183 195 197
169 182 178
165 180 177
157 173 164
137 155 137
123 145 114
111 135 99
106 131 93
94 121 72
94 121 73
147 163 150
197 209 217
193 204 211
210 219 228
197 207 212
201 211 220
202 212 222
215 223 233
199 209 218
205 215 224
195 205 213
199 209 218
201 211 220
199 209 217
192 204 212
203 213 221
201 210 218
199 209 217
203 213 223
198 208 215
199 210 220
203 213 223
198 209 218
200 209 218
203 213 223
203 213 222
207 217 225
199 209 217
175 188 186
126 147 121
94 122 73
97 124 75
97 124 74
91 118 70
96 123 74
94 121 72
94 121 73
96 123 75
97 125 75
94 121 72
93 120 71
96 124 74
95 122 72
94 121 72
96 123 73
92 119 71
95 122 72
94 121 71
97 125 75
94 122 73
96 124 75
97 124 75
95 122 73
99 126 75
94 122 73
98 125 75
128 149 123
179 190 188
203 213 222
200 211 218
199 209 217
204 214 224
199 210 218
202 212 220
197 207 215
195 205 211
200 210 220
204 214 224
202 212 223
196 206 212
200 211 220
202 212 222
202 212 222
204 214 223
204 214 222
207 217 226
201 211 219
199 209 217
208 217 226
200 210 217
202 212 220
200 210 218
203 213 222
202 212 220
179 192 192
115 137 107
94 121 72
96 123 73
98 126 75
97 125 75
93 120 72
97 124 75
96 123 73
88 115 68
97 125 75
97 125 75
96 123 74
98 125 81
104 129 89
116 139 104
111 135 101
120 141 113
118 140 109
124 144 118
138 156 138
140 157 139
144 161 144
143 160 146
135 155 137
151 167 157
170 184 178
158 173 164
162 175 168
142 160 146
130 150 127
127 147 125
130 150 128
120 142 113
115 137 103
120 142 113
111 133 101
108 131 94
102 128 84
106 130 90
109 133 96
104 129 87
104 130 87
94 121 72
98 125 75
96 123 74
97 124 77
96 124 75
99 126 76
91 118 70
95 122 73
96 124 75
96 123 74
101 127 86
162 176 168
197 207 213
201 210 217
202 212 220
199 209 219
202 212 222
205 216 225
198 209 216
200 210 218
207 216 223
207 216 224
192 204 212
190 200 206
202 212 221
190 201 206
200 211 219
207 216 226
203 213 222
200 211 221
191 202 208
204 214 223
194 204 211
209 218 227
206 215 223
201 211 218
182 195 196
133 152 130
99 126 78
93 120 72
92 119 71
97 124 74
97 125 75
91 118 70
96 123 73
95 122 74
95 122 73
95 122 73
92 119 70
96 123 74
94 121 73
97 124 75
99 127 76
95 123 74
94 121 72
92 119 71
95 122 73
93 120 72
94 121 72
91 118 71
113 137 104
160 175 170
205 216 225
193 204 209
205 216 226
195 206 212
201 211 218
195 207 216
195 206 212
206 215 222
202 211 217
192 202 209
192 204 209
192 203 209
180 193 195
180 193 196
182 195 198
174 187 186
170 183 179
163 177 171
161 177 169
153 170 158
154 170 161
146 163 147
168 182 179
183 196 195
179 191 190
182 194 194
188 200 204
202 211 219
198 208 214
196 207 213
193 204 210
205 214 222
195 205 212
196 206 214
197 207 215
209 219 229
205 215 224
203 213 221
207 217 226
199 209 216
197 208 214
209 218 228
196 207 214
201 211 219
143 161 148
98 125 78
97 124 74
95 122 72
92 119 71
97 125 75
96 123 74
95 122 73
97 125 75
95 122 73
98 125 74
95 122 73
97 125 76
93 120 71
94 120 72
93 121 72
96 123 74
94 122 73
92 118 71
101 128 81
134 153 135
184 196 199
168 181 177
145 161 143
108 133 98
97 124 77
95 123 74
93 120 72
93 120 72
93 120 72
110 134 96
174 187 187
202 213 222
192 203 210
205 215 225
196 208 219
203 214 223
201 211 219
205 215 224
207 217 226
212 222 234
203 213 222
202 212 221
201 210 216
209 218 226
200 211 220
208 217 227
201 211 220
206 216 225
197 207 212
196 207 213
194 205 214
202 212 220
201 211 217
194 205 212
187 199 203
163 176 172
174 187 185
194 205 210
204 214 223
206 215 224
198 209 216
200 210 217
198 208 216
199 210 220
196 207 214
205 214 225
207 217 227
203 213 223
200 210 219
200 210 219
206 215 223
201 212 221
201 211 219
202 213 221
205 214 223
211 220 231
201 211 219
199 209 217
203 213 221
209 218 228
199 209 217
201 211 220
176 189 186
119 141 111
94 122 72
89 116 70
95 122 73
95 123 73
96 123 74
98 125 75
96 123 74
94 122 73
92 119 71
97 124 75
97 125 75
92 119 70
92 119 71
108 134 100
129 148 122
143 159 143
154 170 160
193 204 207
193 204 210
208 217 225
199 210 217
203 212 219
194 204 210
210 219 228
202 212 221
186 198 202
145 162 149
95 122 72
98 125 74
94 121 72
96 124 74
93 120 72
97 126 76
88 115 68
94 120 72
95 122 73
93 120 72
97 124 74
93 120 72
93 120 71
97 124 74
96 123 74
96 124 75
95 123 74
93 120 72
96 123 74
97 124 75
92 120 72
97 124 74
94 122 73
93 120 72
96 123 73
91 118 71
118 139 111
175 187 185
200 210 218
201 211 220
205 215 223
201 213 223
206 216 226
204 215 225
201 211 220
207 216 225
201 211 219
188 198 203
199 210 218
201 213 222
205 214 222
202 212 219
207 216 225
202 213 222
197 207 215
207 216 225
194 205 211
189 200 207
194 204 209
193 204 209
190 201 206
166 180 172
163 177 172
127 147 123
143 160 145
157 172 162
191 202 205
201 210 218
203 213 220
200 209 215
198 207 215
200 210 219
210 219 228
202 211 218
195 206 213
194 206 215
213 222 231
191 201 208
196 207 213
204 214 224
197 206 211
203 213 221
199 210 220
206 215 224
199 210 218
205 215 224
198 208 214
207 217 228
204 214 222
207 217 227
196 206 214
201 211 220
196 206 212
161 176 168
108 132 97
96 123 74
96 123 72
90 117 70
93 120 72
92 118 71
93 120 72
92 118 70
91 118 70
94 122 73
91 118 70
87 114 68
95 123 74
94 121 72
94 121 73
95 123 74
94 121 72
92 119 71
97 124 74
94 121 72
94 121 72
97 124 74
94 122 73
93 120 72
97 124 75
97 125 75
98 124 77
144 160 145
183 194 196
205 214 222
200 210 218
201 211 218
202 212 219
200 210 218
203 213 222
201 212 221
203 213 223
207 216 225
202 212 221
209 218 227
199 210 219
203 213 222
213 222 233
205 214 223
206 216 224
202 212 219
203 213 223
203 213 223
205 215 222
197 208 215
202 213 222
195 206 215
202 213 224
195 207 215
198 208 215
159 175 164
110 133 96
96 124 74
95 122 73
94 121 72
89 116 68
94 121 73
98 126 75
95 122 72
89 116 69
98 126 76
91 118 71
94 122 74
96 124 75
93 120 72
95 122 73
97 124 74
91 118 70
97 124 75
92 119 72
96 124 74
94 122 73
98 125 77
101 127 81
92 119 70
103 128 88
114 136 105
154 170 162
182 193 194
188 200 204
197 208 216
192 202 204
190 201 207
169 183 179
182 194 192
180 191 192
183 195 196
169 183 179
171 184 179
160 175 168
165 180 174
140 157 142
147 164 150
158 174 164
139 157 139
138 156 136
147 163 151
133 152 131
124 145 119
135 153 133
132 150 129
118 140 109
133 152 130
128 147 120
180 192 190
195 205 211
194 205 209
190 201 207
195 206 212
197 207 212
188 200 205
199 210 218
192 203 210
195 206 212
191 202 207
197 208 215
202 211 217
205 215 223
198 209 217
194 206 215
199 209 216
202 213 220
203 213 220
199 210 219
194 205 213
206 216 226
197 207 213
195 205 212
193 204 208
161 176 170
107 131 94
95 123 73
104 130 87
100 126 81
100 126 83
108 132 92
104 128 88
106 132 88
99 125 82
106 130 89
103 129 87
111 134 100
110 134 98
104 128 88
111 134 100
124 147 118
111 134 96
120 142 111
118 141 109
118 139 111
119 140 110
135 154 135
127 147 122
142 159 141
167 181 177
164 180 176
178 192 193
170 183 180
160 174 167
150 166 152
151 167 156
148 165 153
168 181 176
145 162 146
140 158 138
149 167 152
129 148 125
130 149 124
119 140 112
116 138 106
116 138 109
105 130 89
107 131 94
100 126 81
102 127 84
97 124 77
138 158 142
193 204 209
203 213 219
196 206 214
202 212 221
200 210 217
204 214 222
195 206 212
203 212 219
195 206 215
201 211 219
201 211 218
197 207 213
200 210 218
198 208 215
197 207 214
209 218 227
201 211 220
200 210 217
207 217 227
205 214 222
198 208 215
159 174 168
119 141 107
94 121 72
93 120 72
92 118 70
95 123 74
96 123 74
97 124 74
94 121 72
91 118 71
92 119 71
94 121 72
94 121 73
97 124 75
92 119 71
95 122 73
94 122 73
94 121 73
92 120 72
99 126 76
120 141 112
178 191 190
201 210 219
201 210 216
189 201 209
176 188 184
159 174 166
117 139 110
98 125 80
95 122 73
94 121 73
94 120 77
153 169 157
197 208 215
202 212 220
207 217 229
201 211 218
199 210 218
201 212 224
195 207 215
198 208 215
202 211 220
198 209 218
199 209 217
206 216 225
205 215 223
202 213 220
200 210 217
202 212 221
199 210 218
198 209 217
198 209 219
205 215 224
204 214 225
201 211 221
206 216 226
200 212 222
189 201 207
150 167 153
135 153 132
171 184 180
185 197 199
195 206 211
197 208 216
194 205 212
205 214 222
200 211 221
211 219 228
196 207 214
205 214 220
202 212 222
205 215 224
200 210 218
198 208 214
201 211 218
210 219 228
199 209 217
204 213 223
205 215 223
203 213 223
199 210 218
199 208 214
195 206 215
199 209 217
168 181 177
102 128 84
92 119 71
94 122 73
95 123 74
89 116 69
92 119 71
94 122 73
95 123 74
94 121 73
94 120 72
97 124 75
95 122 74
91 118 70
96 124 74
90 117 70
91 118 71
93 120 72
105 131 88
128 148 124
132 151 129
164 179 174
179 192 192
185 196 198
196 208 213
197 207 213
207 216 225
194 205 209
134 153 133
94 121 72
93 120 72
98 125 76
95 122 73
95 122 73
96 123 74
90 117 70
92 119 71
95 122 73
94 121 73
96 124 74
94 122 73
95 123 73
91 118 71
94 121 72
89 116 69
92 119 71
98 125 75
94 122 73
95 123 74
92 119 72
96 124 75
93 120 72
95 122 73
98 126 76
95 123 73
116 139 108
172 185 183
202 211 219
203 213 223
197 208 214
206 216 225
200 211 219
204 213 223
197 208 216
196 206 215
205 215 224
198 209 217
196 207 215
200 210 219
209 218 228
209 218 227
201 211 219
204 214 224
212 220 231
205 215 225
199 209 216
205 215 224
204 214 223
192 204 211
189 200 207
206 215 224
195 205 212
187 198 199
176 189 188
152 167 159
168 182 174
173 186 187
180 193 197
197 207 213
193 204 210
203 213 222
196 207 215
198 209 218
199 210 220
202 212 222
206 215 223
203 213 224
205 214 222
212 221 230
196 206 214
205 214 223
200 211 219
194 206 213
204 214 225
202 211 219
201 212 220
206 216 224
204 213 221
209 218 228
200 211 219
208 217 226
190 202 208
162 176 167
100 125 85
97 124 74
92 119 71
97 124 74
97 124 74
95 122 72
95 122 72
93 120 72
94 121 73
96 123 73
99 127 76
94 121 73
96 123 74
93 120 71
97 125 75
93 121 73
96 123 74
95 122 72
89 117 70
94 121 72
94 121 74
93 120 71
94 121 73
94 120 72
98 126 75
97 124 74
107 132 95
155 170 162
198 209 216
205 215 225
197 207 215
201 212 222
199 209 217
202 212 218
203 214 222
203 213 223
195 205 213
202 213 223
200 211 221
208 217 226
201 211 218
207 216 228
199 209 217
202 212 219
200 210 218
206 216 226
203 213 221
200 211 220
204 215 225
207 216 225
205 216 226
207 217 227
202 212 221
206 216 225
179 191 191
146 164 149
95 122 73
95 122 73
95 122 73
97 124 75
97 125 74
97 125 75
96 124 74
95 123 74
94 120 71
97 124 75
93 120 72
95 122 73
95 122 73
90 117 70
96 124 74
96 123 73
97 125 76
97 124 75
93 120 71
95 122 73
96 123 73
98 126 76
96 123 74
93 120 71
92 119 71
126 146 120
176 189 187
203 213 222
200 210 217
205 215 223
198 208 216
201 211 220
202 212 220
205 214 223
205 214 222
201 210 218
200 211 219
199 209 218
196 206 212
197 209 218
197 207 213
196 207 216
197 208 215
189 200 202
188 200 204
198 208 216
183 196 200
195 205 210
184 195 197
170 183 182
182 195 198
177 191 190
139 156 141
144 162 144
138 156 136
146 163 146
145 162 148
143 160 142
143 160 143
133 151 134
151 168 155
147 163 153
152 168 157
162 177 171
160 176 166
166 180 174
150 166 153
149 165 151
150 166 154
168 182 177
154 169 162
164 178 170
160 175 167
155 170 160
155 171 165
161 176 169
161 175 167
179 191 192
168 182 177
134 152 135
165 180 174
159 174 165
165 178 172
161 175 166
151 167 160
156 171 160
169 183 178
165 178 173
162 176 172
171 184 181
162 176 172
162 177 171
165 179 175
168 181 178
172 185 181
169 183 177
171 185 184
188 199 201
183 195 197
192 204 210
182 195 200
178 190 189
110 133 99
124 146 118
115 138 106
115 137 104
101 126 85
103 129 87
106 129 93
97 124 80
98 124 82
96 122 76
93 119 74
94 121 73
94 121 72
97 124 75
96 124 74
93 120 72
98 126 75
95 123 73
95 122 74
96 123 74
95 123 74
94 122 73
117 139 109
170 184 179
200 210 219
200 210 218
201 211 220
207 216 225
199 208 216
203 213 221
205 214 222
204 214 223
207 217 227
196 206 211
209 218 227
204 214 223
202 212 221
203 213 223
199 209 217
196 207 214
200 210 220
197 207 214
204 214 223
202 212 218
181 193 193
127 147 121
94 121 72
93 120 72
97 124 74
95 122 74
91 118 70
98 125 75
91 118 70
98 126 75
93 120 72
97 124 74
92 119 71
96 123 74
93 120 71
97 124 75
93 120 72
97 124 75
98 125 75
98 126 76
106 131 92
165 179 176
200 210 219
202 212 220
199 209 215
204 214 224
199 210 220
198 208 213
186 198 201
166 179 172
123 144 115
104 128 86
96 122 78
142 160 146
204 213 222
192 204 212
204 213 221
203 214 223
200 211 219
205 214 224
204 214 222
201 211 219
194 205 214
194 206 215
192 203 209
202 212 221
195 205 213
197 208 217
196 207 216
197 208 215
205 214 222
199 209 214
205 214 223
206 215 224
204 214 224
210 219 228
202 213 220
203 213 222
188 199 201
138 156 133
96 123 77
100 126 82
126 146 124
143 160 147
172 185 182
180 192 194
194 205 211
206 216 226
203 213 222
194 205 216
192 203 210
198 207 215
207 217 229
194 205 212
194 205 213
204 214 223
205 215 225
203 213 221
200 211 221
193 204 214
207 218 228
200 212 223
205 214 224
199 210 219
203 212 220
168 182 181
104 129 91
96 123 74
92 119 71
94 121 72
93 121 72
91 118 71
94 120 72
94 121 72
94 120 72
95 122 73
97 124 74
99 127 76
92 119 71
94 121 73
95 122 73
94 121 72
92 118 70
94 121 72
91 118 71
95 122 73
100 125 85
115 138 102
144 162 147
147 164 150
161 176 171
191 203 206
185 197 200
129 150 123
96 124 74
95 122 73
91 118 71
91 118 70
90 117 69
96 123 74
94 121 73
96 123 74
95 122 73
94 121 72
97 124 74
94 122 73
95 122 74
97 124 75
94 121 73
97 124 74
91 118 70
93 120 72
97 124 74
96 123 74
97 125 75
97 124 75
98 125 75
97 124 75
93 120 71
94 121 72
134 152 133
188 199 202
198 209 216
205 214 222
199 209 218
205 214 221
197 208 216
204 215 226
197 207 215
200 210 218
198 208 216
210 219 230
201 212 223
197 208 216
200 210 216
202 212 218
197 208 215
193 205 213
205 215 224
200 210 219
196 205 211
205 215 226
197 207 216
199 209 219
203 214 224
205 215 224
206 216 224
204 214 223
175 188 185
115 137 109
103 127 88
117 138 105
128 147 125
138 156 141
154 170 160
169 183 179
183 194 194
192 202 204
196 207 212
193 205 209
198 209 217
192 203 211
201 211 220
189 200 206
206 216 224
202 211 218
209 218 227
208 217 227
192 204 211
198 209 218
197 209 218
205 214 222
199 209 216
203 214 223
197 207 214
198 208 215
179 192 194
129 149 128
99 126 79
96 123 74
97 124 74
93 120 71
95 122 73
94 122 73
96 124 75
93 120 71
91 118 71
92 120 72
96 123 73
96 123 74
95 122 73
95 123 74
93 121 72
94 121 72
95 122 73
93 120 71
96 123 74
91 118 71
94 121 73
95 122 73
94 121 73
98 126 76
95 122 73
91 117 70
126 145 122
176 189 192
200 210 220
198 209 218
210 219 228
204 213 222
204 214 223
203 213 221
207 217 227
202 212 219
203 213 222
203 213 222
194 205 213
205 215 224
207 217 227
203 213 223
207 215 223
199 209 215
204 214 222
204 214 222
198 209 216
205 214 222
197 207 215
195 207 217
206 216 226
210 219 229
205 215 223
197 207 214
149 166 154
107 131 92
95 122 74
95 123 74
98 126 75
92 119 71
96 124 74
93 120 72
96 123 74
97 125 75
96 123 74
93 121 72
93 120 72
95 122 73
96 124 74
95 123 74
98 126 76
97 124 74
97 124 75
91 118 71
94 122 72
96 123 74
96 123 74
95 122 73
98 126 76
92 119 71
96 122 75
143 161 147
191 203 209
199 210 219
200 209 217
198 209 218
203 213 220
201 212 220
205 214 222
198 208 215
201 211 220
201 211 220
201 211 217
197 208 217
192 204 213
196 207 215
202 211 218
205 215 225
199 210 218
198 209 217
200 210 218
195 205 211
199 209 216
200 210 217
203 213 223
211 220 231
200 210 216
171 183 182
122 143 113
91 119 71
93 120 72
98 124 79
98 124 79
94 120 76
101 125 85
100 126 81
99 126 79
103 128 86
104 129 88
93 119 74
101 128 84
102 126 84
103 129 87
100 127 81
105 131 90
100 125 85
105 130 91
111 134 98
111 135 99
107 132 95
99 123 84
103 128 88
130 149 128
166 180 177
196 207 213
195 206 215
197 207 213
196 207 213
193 205 215
206 216 225
201 211 219
200 210 217
194 205 212
204 214 222
193 204 213
200 211 219
208 218 227
203 213 222
198 208 215
195 205 211
195 205 210
201 211 220
201 211 218
196 207 216
202 212 221
200 210 216
192 204 209
161 177 173
100 126 85
93 120 72
95 122 73
95 122 73
96 123 73
94 120 72
96 123 74
96 124 74
96 123 74
93 121 72
94 121 73
96 124 75
93 119 71
93 120 72
96 123 74
98 126 75
92 119 71
94 120 72
94 120 71
92 119 71
95 123 74
104 129 89
162 176 169
198 209 216
196 206 212
202 212 220
192 203 210
202 212 220
198 208 216
200 211 219
200 210 217
201 211 221
202 213 221
205 215 223
203 213 221
206 215 225
197 208 216
198 209 215
196 207 217
201 212 221
205 215 223
207 216 225
200 210 219
177 189 191
135 154 134
100 125 85
96 124 74
93 121 72
94 122 73
96 123 74
94 122 73
98 126 76
96 124 74
97 125 75
98 126 75
93 120 72
93 120 72
96 123 74
98 126 76
97 124 74
96 124 74
92 118 70
92 119 72
109 133 98
148 164 153
204 214 222
196 207 215
201 212 221
200 210 218
204 214 221
197 208 215
203 212 219
198 208 214
188 199 205
197 208 216
176 189 189
144 161 147
156 172 161
205 216 227
202 212 220
200 210 219
201 211 219
203 213 222
196 207 215
198 208 215
204 214 222
204 215 224
195 206 212
195 207 216
201 211 218
199 210 219
203 212 220
202 212 221
196 206 213
194 205 211
196 206 212
198 210 219
206 215 221
196 206 211
199 210 220
207 216 224
210 219 229
184 196 200
131 151 129
93 120 72
95 123 73
96 124 75
96 123 77
102 127 88
120 141 114
151 168 156
177 189 188
183 196 197
200 210 217
206 216 227
203 213 221
199 210 220
205 214 222
200 210 218
198 209 217
199 210 217
196 208 217
198 209 218
200 210 219
196 207 216
196 207 215
206 216 226
209 218 227
200 210 218
168 181 176
107 131 92
97 125 75
94 121 73
96 123 74
95 122 73
95 122 74
95 122 73
96 123 73
97 124 74
94 120 72
93 121 72
95 122 73
96 123 74
97 125 75
98 126 76
95 122 73
96 123 74
94 122 73
95 122 73
94 121 73
98 126 75
97 124 75
95 123 75
102 128 82
110 133 98
125 146 120
136 153 136
147 164 149
133 151 129
97 122 80
100 125 83
98 125 77
93 119 71
97 124 74
94 121 72
97 124 74
93 121 72
98 126 76
95 122 73
96 124 75
92 119 71
95 123 74
98 125 75
94 122 74
96 124 74
95 122 72
92 118 71
94 121 73
95 122 73
94 122 73
92 119 71
97 124 74
96 124 74
93 120 73
144 161 145
183 194 195
203 213 221
198 209 218
201 211 218
207 216 224
202 212 221
194 205 211
198 208 214
206 216 224
201 210 216
196 207 215
205 215 224
200 210 216
200 210 218
205 215 225
201 212 222
204 214 222
203 213 222
196 207 215
198 208 216
200 210 217
194 204 209
198 209 219
203 213 221
197 208 215
196 206 213
200 210 218
184 196 198
109 133 95
93 120 71
93 120 72
91 118 71
97 124 78
107 132 91
108 133 96
129 149 123
137 155 137
140 157 142
162 176 167
173 186 182
187 199 200
190 201 205
202 212 220
191 203 210
199 209 217
206 215 224
200 210 218
207 216 225
200 211 220
199 209 217
197 208 216
196 206 213
198 209 217
197 208 216
204 215 226
162 176 169
120 142 115
96 124 75
95 122 73
93 119 71
90 117 70
93 120 71
94 121 72
99 127 76
96 124 74
96 124 74
95 122 73
95 123 74
95 122 73
90 117 70
95 122 73
94 121 72
95 122 73
93 120 71
96 124 74
95 123 74
94 122 72
96 123 74
96 123 74
95 123 74
94 121 72
96 123 74
104 128 86
154 170 159
189 200 204
198 208 216
210 218 228
203 213 222
199 209 216
201 212 221
208 217 224
209 218 226
214 222 231
201 210 216
202 212 220
200 210 220
205 214 224
198 209 217
201 212 221
205 215 225
203 213 222
199 210 217
198 208 215
194 205 211
195 205 211
206 214 222
198 209 215
209 218 228
198 207 213
205 216 227
191 203 208
145 162 147
98 125 78
92 119 71
93 120 72
91 118 71
95 121 72
92 119 71
93 121 73
94 121 72
96 123 74
94 122 73
97 124 73
97 125 75
93 119 70
97 124 74
96 124 74
96 123 74
96 123 73
92 118 71
94 121 73
90 117 70
93 120 72
90 117 70
94 122 73
92 119 71
98 126 76
120 141 112
167 180 178
204 214 223
208 218 228
198 209 216
198 208 214
206 215 224
209 218 227
203 213 223
199 209 216
187 199 205
197 208 218
200 210 216
198 209 217
206 216 225
195 205 211
205 214 222
201 210 217
198 209 218
199 209 217
199 210 220
203 212 221
199 209 218
210 219 229
206 215 225
209 218 225
197 208 217
153 169 158
103 129 83
95 122 73
94 120 71
97 124 74
94 122 74
94 121 72
97 124 74
93 120 72
91 118 71
96 124 75
97 124 74
96 124 74
95 122 73
96 124 74
93 120 72
95 122 73
97 124 75
89 116 69
96 123 73
97 124 74
93 120 72
94 121 73
93 120 71
95 122 75
158 173 164
192 204 209
194 205 211
185 197 203
201 211 219
202 212 220
202 213 222
201 211 221
204 213 220
200 210 218
196 207 214
203 213 221
201 211 220
199 209 215
191 203 212
201 211 218
198 209 217
204 214 224
196 206 214
208 217 226
200 210 217
206 216 225
208 217 226
196 207 213
178 190 190
114 136 104
94 121 73
96 124 75
95 123 74
97 124 75
93 120 72
96 124 75
92 119 71
98 125 74
96 123 73
95 122 74
100 127 76
97 125 75
99 126 76
94 122 74
96 123 74
98 125 76
99 127 77
95 123 74
96 123 73
94 121 72
94 121 75
137 154 139
175 188 188
195 205 213
204 213 221
197 208 217
199 210 220
199 210 220
202 212 221
198 209 217
203 212 218
204 214 223
207 217 225
205 216 226
197 208 215
201 211 221
194 205 212
214 223 234
207 216 224
190 202 209
205 214 221
198 208 216
193 204 211
150 166 152
102 128 85
94 121 73
96 123 74
95 123 74
90 117 70
96 123 74
94 121 73
96 124 74
94 122 73
95 123 75
96 123 74
91 118 70
97 124 74
96 123 74
95 122 73
93 120 71
94 122 73
95 123 74
101 127 81
153 169 157
199 210 217
207 217 226
201 210 217
206 216 223
195 206 214
203 213 221
200 211 221
201 211 217
199 209 218
200 211 219
201 211 220
199 210 219
197 207 214
163 179 174
162 176 169
177 190 188
188 199 203
199 210 217
200 211 220
197 209 218
193 205 213
205 215 225
195 205 211
204 215 225
195 206 213
197 207 214
206 216 225
190 202 209
207 215 225
202 212 221
195 206 213
204 214 222
197 208 216
204 214 224
193 205 213
196 207 215
204 214 223
202 212 221
189 201 207
148 166 154
90 118 71
94 122 73
93 120 71
97 124 74
92 119 71
96 123 74
98 126 76
109 133 97
121 142 115
149 166 154
166 180 180
192 203 207
198 208 216
198 210 219
204 213 221
203 214 225
206 216 225
201 211 219
202 211 219
198 207 213
197 208 219
204 213 221
197 207 216
204 215 225
208 217 226
175 188 187
108 132 93
91 118 70
95 123 74
92 118 70
93 119 71
94 121 73
93 120 71
94 121 72
96 124 75
96 123 74
95 122 73
97 125 75
94 122 74
95 122 74
94 121 72
93 120 72
93 120 71
97 124 75
92 120 71
93 119 71
97 124 74
95 122 73
95 122 73
97 125 75
96 123 74
94 122 74
135 153 132
181 193 192
188 199 202
162 176 173
156 171 161
129 148 127
109 132 95
99 126 81
99 126 78
96 123 74
97 124 75
95 122 73
95 122 73
95 121 72
91 118 70
95 123 74
94 121 73
92 119 71
93 121 73
91 118 70
97 125 75
93 120 72
95 122 73
91 118 70
96 123 73
94 121 72
94 122 73
94 120 74
155 170 159
184 195 198
206 216 225
194 205 212
206 215 224
202 213 223
198 208 216
205 215 225
207 216 225
205 214 222
198 209 218
211 220 231
205 216 226
197 207 214
195 204 211
197 207 215
205 214 222
199 209 218
201 211 218
184 196 200
196 206 213
202 211 218
197 209 219
192 203 209
207 217 226
202 211 219
202 211 217
200 211 217
159 174 166
102 126 87
95 122 73
96 123 74
97 124 74
95 122 74
93 120 71
99 126 76
97 125 75
94 121 72
98 125 80
103 128 89
103 128 89
124 143 117
146 162 148
157 172 163
160 176 169
183 194 196
195 205 209
194 205 211
193 205 212
197 208 215
207 216 223
196 206 213
202 213 223
198 208 217
199 209 218
198 208 216
173 186 184
105 130 92
93 120 72
92 119 72
93 121 73
93 120 72
97 124 74
92 119 71
94 121 72
95 123 74
91 118 71
94 122 74
96 123 74
94 121 72
90 117 70
89 116 69
94 122 73
96 123 74
93 120 72
93 120 71
96 124 74
96 123 74
92 119 71
93 120 72
95 122 73
95 122 74
92 118 70
110 134 98
162 177 171
199 209 216
197 207 215
196 206 211
207 217 226
196 206 214
198 208 215
195 207 215
199 210 219
200 211 221
199 208 213
201 212 221
201 211 219
201 212 221
201 211 219
206 216 226
191 202 210
205 215 226
212 221 230
206 215 225
208 217 227
198 208 215
204 214 226
201 211 219
191 203 211
195 206 214
200 210 218
174 187 188
126 145 119
96 124 74
94 121 73
94 121 73
95 122 73
94 121 72
95 123 74
95 123 74
95 123 74
93 121 72
95 122 72
95 122 72
93 120 71
95 122 73
93 121 72
94 122 73
95 123 74
95 121 72
95 122 73
98 126 76
93 121 72
94 122 73
94 121 73
95 122 73
96 124 74
99 126 78
147 163 148
187 198 202
203 212 219
206 216 224
203 213 223
202 212 220
199 210 219
198 209 215
203 212 221
197 209 218
207 217 227
202 211 218
198 209 217
199 210 217
208 218 227
199 209 217
196 206 213
199 209 219
206 216 227
199 209 216
201 210 218
202 212 220
190 202 207
208 218 228
202 212 220
195 206 213
171 185 184
110 133 100
95 122 73
99 126 76
94 121 73
96 123 74
94 121 73
95 123 74
95 123 74
93 120 71
91 118 70
94 121 73
93 120 71
94 121 72
96 124 74
96 123 74
98 125 76
93 120 72
92 119 71
93 120 71
97 124 74
93 119 71
96 123 73
96 123 74
97 125 75
125 146 120
185 197 198
205 215 224
195 206 215
206 215 224
205 214 222
207 216 226
191 201 206
196 207 216
201 211 219
196 206 213
195 206 215
198 207 213
205 216 226
207 216 225
199 209 216
203 213 223
201 211 222
205 215 226
202 213 221
197 207 214
206 216 225
209 218 228
201 210 218
191 202 204
134 153 132
95 122 76
96 123 74
95 123 74
95 122 73
92 120 71
96 123 74
91 118 70
93 120 71
95 122 73
92 119 71
93 121 72
91 118 70
96 123 74
95 123 74
95 122 73
92 119 72
94 121 73
95 122 73
95 122 74
93 120 72
95 122 75
123 143 118
173 187 186
193 204 211
206 215 225
201 212 222
206 216 224
198 209 219
204 214 224
209 218 228
203 212 221
202 212 222
193 204 211
202 212 221
209 219 230
202 212 219
194 205 210
205 214 222
201 211 220
204 214 224
207 217 227
198 209 217
197 208 215
176 188 185
116 138 109
96 123 74
94 121 72
93 120 71
95 122 73
93 120 72
94 121 72
96 124 74
96 124 74
96 123 74
92 118 71
92 118 70
92 118 70
93 121 72
96 123 73
93 120 72
92 119 71
91 118 71
105 129 89
140 158 140
189 200 204
202 212 220
194 205 212
197 209 217
204 213 222
204 215 224
196 207 216
197 207 214
198 209 216
196 207 215
203 213 222
204 214 223
201 212 220
202 212 220
185 198 203
124 145 116
128 148 123
140 157 142
171 185 181
190 201 203
197 208 218
205 215 226
203 213 222
204 214 223
194 206 215
201 212 219
193 204 211
200 210 217
206 216 224
194 205 212
203 212 222
203 212 217
201 211 219
202 213 223
205 215 223
205 215 224
202 213 223
198 208 217
204 213 222
198 208 215
155 170 157
95 122 73
93 120 72
93 120 71
89 115 68
95 122 73
94 121 72
93 119 71
96 123 74
95 121 72
99 124 81
107 131 94
142 159 144
158 173 166
166 180 178
185 197 201
200 210 217
207 217 226
195 206 214
202 212 222
204 214 223
192 203 209
195 205 213
206 215 224
207 217 228
206 215 224
165 178 175
99 124 82
94 121 72
91 118 71
95 122 73
95 123 74
91 117 70
91 117 69
92 118 70
93 120 72
94 121 73
93 120 71
93 120 72
95 122 73
91 118 71
93 120 72
98 125 75
93 120 71
93 121 73
93 120 72
95 123 73
93 121 72
97 125 75
95 122 73
93 120 71
94 121 72
97 124 76
134 154 133
189 202 207
206 215 223
192 203 210
189 200 206
185 197 201
176 188 189
168 182 177
145 162 147
116 139 107
100 125 87
99 125 80
96 124 74
97 124 74
94 121 72
95 122 72
94 122 74
95 121 72
94 121 73
93 120 71
93 120 71
93 119 70
94 121 72
96 123 74
96 124 74
95 122 74
96 123 73
97 123 81
154 169 159
199 210 219
205 214 222
195 206 214
200 211 221
190 201 208
201 210 219
204 213 220
198 208 217
203 213 221
200 210 220
195 206 214
205 216 227
190 202 211
201 211 219
202 212 219
198 208 215
206 216 224
201 211 219
201 210 218
198 208 216
198 208 216
198 209 219
203 214 223
196 206 214
203 212 220
198 208 215
188 199 205
159 174 165
97 122 79
94 121 72
93 120 71
93 121 72
96 123 74
94 120 72
89 115 68
93 121 73
92 119 71
95 122 73
92 119 71
91 119 71
91 118 70
97 123 76
92 119 71
101 125 91
120 141 111
133 152 132
141 159 144
164 179 173
162 176 170
173 186 184
186 197 198
197 207 211
197 207 213
199 209 216
188 199 203
154 169 160
97 123 76
95 123 74
93 120 72
93 120 71
95 122 74
96 123 73
97 125 75
92 118 70
95 122 72
91 118 70
94 122 74
94 121 72
95 122 74
95 122 73
96 123 74
100 127 77
92 119 71
92 119 71
94 122 73
96 123 74
92 118 70
96 124 75
93 121 72
92 119 71
93 120 72
93 120 72
125 145 122
182 194 194
198 208 216
197 207 216
201 212 222
208 217 225
204 214 222
197 207 214
198 209 219
204 214 223
201 212 222
196 207 215
195 206 213
208 217 227
200 210 217
200 211 219
191 202 209
207 217 228
199 209 216
197 207 212
199 208 216
199 209 218
202 213 220
193 204 210
199 210 220
198 210 220
198 209 217
195 205 211
151 167 155
94 121 73
95 122 73
96 122 73
98 126 76
96 123 74
92 119 71
97 124 74
95 122 74
90 117 69
94 122 73
94 122 73
93 121 72
93 120 71
94 121 73
93 120 71
95 122 74
96 124 74
93 121 73
95 122 73
91 118 70
93 120 71
94 121 73
94 121 72
94 121 73
95 122 74
114 138 107
172 186 181
203 212 219
201 211 218
197 208 216
197 207 214
194 205 210
202 212 220
205 214 222
204 215 226
204 214 223
202 211 219
196 207 216
199 210 221
196 206 214
196 206 213
204 214 222
201 210 217
189 200 205
199 211 222
193 204 211
208 218 227
198 208 216
200 211 220
205 215 225
200 210 220
184 197 200
143 160 146
98 125 80
92 118 70
96 123 73
97 125 75
94 122 73
95 123 73
95 123 73
97 124 74
97 124 74
91 118 70
92 119 71
97 124 75
97 124 74
95 122 73
94 121 73
91 118 71
93 120 73
95 122 73
90 117 70
95 122 73
94 121 72
92 119 71
92 119 71
110 132 98
167 181 177
207 216 225
200 211 220
196 207 215
201 210 216
204 214 223
194 206 216
202 212 221
194 205 214
204 214 224
199 210 221
196 207 216
195 205 212
201 211 219
196 208 216
199 210 219
205 215 223
200 211 221
206 216 224
200 210 216
209 218 227
204 214 224
200 211 220
188 199 203
154 170 159
102 128 87
97 125 75
97 124 75
94 120 72
99 126 76
94 121 72
96 123 73
97 125 75
92 119 71
95 122 73
96 123 74
99 126 75
98 125 75
92 119 70
93 120 71
92 119 71
93 120 73
91 118 70
94 121 72
96 124 74
92 119 71
117 138 109
165 180 176
199 209 215
202 213 222
204 214 223
201 213 224
205 216 227
208 218 227
200 211 219
203 213 222
201 212 222
205 215 226
208 217 223
203 214 223
205 215 225
204 215 225
205 214 222
204 214 223
201 212 222
199 209 216
204 215 225
205 215 224
184 196 197
121 142 111
94 122 73
95 123 73
91 119 71
97 124 75
95 123 74
91 118 71
93 120 71
97 125 75
93 120 72
95 122 72
95 122 73
94 121 73
94 121 73
93 120 72
94 120 72
92 120 72
96 123 73
102 127 85
116 138 109
191 202 209
200 210 218
195 205 213
194 205 214
203 214 224
201 212 221
192 204 212
201 210 216
204 214 224
205 215 223
197 207 213
196 206 211
197 207 215
200 210 217
203 213 221
202 212 221
124 144 121
97 125 75
93 120 72
94 121 75
127 147 121
157 172 162
179 191 190
194 204 211
200 210 217
204 213 222
203 212 220
202 213 222
183 195 199
199 210 217
203 213 223
204 214 222
206 215 223
200 210 218
195 205 211
195 207 215
198 208 217
191 202 209
203 213 222
200 210 218
196 206 210
167 181 177
96 123 77
94 122 73
98 126 75
95 122 73
97 125 75
93 120 72
95 123 74
95 123 73
93 119 71
98 126 77
94 121 72
95 122 72
112 134 100
127 147 123
138 156 135
166 180 176
183 195 197
196 207 213
198 208 216
197 208 218
200 210 218
210 219 228
204 214 224
210 218 227
197 207 215
178 191 189
108 131 98
96 124 74
94 121 73
92 119 72
97 125 75
94 121 73
95 122 73
97 124 75
95 122 73
95 122 73
92 118 70
94 121 73
97 125 75
93 120 72
91 117 70
93 120 72
92 119 71
94 122 73
94 121 73
95 122 73
95 122 73
95 122 74
98 125 75
93 120 71
93 120 72
94 121 73
133 151 134
175 188 188
202 213 221
200 210 219
201 211 220
202 212 221
200 209 215
198 210 220
195 206 213
180 192 192
158 173 164
147 164 149
130 149 126
116 138 109
102 129 82
95 122 76
96 124 74
97 124 74
89 116 68
95 122 74
94 121 72
95 123 74
92 119 71
97 124 75
96 123 72
93 120 72
92 119 71
110 134 97
168 181 175
207 215 223
206 215 223
200 210 219
205 215 226
194 205 211
197 208 216
204 215 225
196 207 217
204 214 224
205 215 224
198 209 218
197 208 214
204 213 223
188 200 207
206 216 225
206 216 226
200 211 220
203 213 223
203 213 223
201 211 220
197 207 214
206 216 224
204 214 222
200 211 220
193 204 212
193 204 213
187 198 202
136 154 134
98 124 79
93 120 71
94 122 73
94 121 72
98 125 75
97 125 75
91 119 71
93 120 72
92 119 71
93 120 71
95 122 73
94 121 72
93 120 72
92 119 71
95 122 74
93 120 72
93 120 72
95 122 73
94 121 74
101 126 83
110 133 97
129 149 126
123 143 122
129 149 126
162 177 170
151 167 158
167 181 176
143 162 146
122 143 116
101 126 86
101 127 85
94 122 74
95 122 73
95 122 73
94 121 72
93 121 72
94 122 73
94 121 72
93 120 72
94 121 73
97 125 75
98 125 75
96 123 73
96 123 73
96 123 74
96 123 74
95 122 73
95 123 73
94 122 74
96 122 73
96 124 74
94 121 72
94 121 73
102 128 82
145 162 145
189 201 205
200 210 218
197 208 215
206 216 226
193 204 212
207 216 225
203 213 221
197 208 218
203 213 221
199 209 216
199 209 217
193 205 212
204 214 223
205 214 223
193 204 212
196 207 214
198 207 214
204 214 224
189 201 208
202 211 216
198 208 215
200 211 220
200 211 221
199 209 215
204 214 223
202 212 220
181 193 194
125 145 121
96 122 75
94 122 73
96 123 74
94 121 72
94 121 72
95 122 72
92 119 72
96 123 74
96 124 74
94 121 73
93 120 72
96 124 75
93 120 72
95 123 73
94 121 72
94 122 73
93 120 72
94 122 73
96 123 74
94 121 73
95 123 73
95 122 73
96 124 74
93 120 71
96 122 75
145 163 147
178 190 191
196 207 214
205 214 224
204 214 223
196 208 215
193 203 208
201 210 218
201 212 221
202 212 220
198 208 217
206 216 224
202 211 220
198 209 218
199 210 219
199 210 219
198 209 218
200 211 219
203 213 221
194 205 214
204 214 224
200 210 220
203 213 223
204 213 221
197 208 216
192 203 212
164 178 172
115 137 103
94 121 72
93 119 70
95 122 73
94 121 72
94 122 73
90 117 70
94 121 72
92 118 71
92 119 71
90 116 70
93 120 72
93 120 72
97 124 74
97 125 74
94 121 72
93 120 71
94 122 73
94 121 73
93 121 73
94 121 73
95 122 73
91 118 71
99 125 80
133 152 134
183 194 196
206 216 227
196 206 214
206 216 225
205 215 225
196 207 216
204 214 222
203 214 223
204 214 224
201 212 221
196 207 214
202 212 221
196 207 216
199 209 217
197 207 214
189 201 207
199 209 217
204 214 223
195 206 213
188 199 206
201 212 222
199 209 215
198 209 217
162 176 171
121 143 114
95 122 73
94 122 74
91 118 70
93 120 72
93 121 73
91 118 70
94 122 73
89 115 68
93 120 72
94 121 72
92 119 71
98 125 76
93 120 72
91 119 71
91 118 70
93 120 71
93 120 72
95 123 74
95 122 74
94 121 72
94 119 76
150 165 155
201 212 221
198 208 214
205 214 223
206 215 224
199 209 216
200 210 217
199 210 220
197 207 214
197 207 215
195 206 214
200 211 217
205 216 227
201 211 219
202 212 220
203 214 224
205 216 226
196 206 213
199 210 217
198 208 215
202 211 219
175 188 189
124 143 117
96 123 75
92 119 71
92 119 70
96 124 74
93 120 72
90 118 70
93 121 73
94 121 72
94 121 72
92 119 71
92 118 70
94 122 73
92 119 71
97 124 75
92 119 71
92 119 72
92 119 71
91 118 71
129 149 124
181 194 196
202 212 221
196 206 213
212 221 232
197 207 214
193 204 212
196 207 216
195 206 216
199 209 215
202 212 221
190 202 210
201 211 219
194 205 213
201 211 221
190 201 209
197 207 213
202 211 219
138 155 138
94 122 73
94 121 73
91 118 69
96 124 74
93 121 72
109 132 95
131 151 132
172 186 181
184 197 202
199 210 217
200 210 218
193 204 210
200 210 218
197 207 214
197 207 214
202 212 220
200 210 220
200 210 218
189 201 211
197 207 213
199 210 220
207 216 224
199 210 219
197 208 213
154 170 162
100 126 80
95 122 73
94 121 73
93 120 71
93 120 71
95 122 73
93 120 72
96 123 73
92 118 70
96 123 75
94 121 73
93 120 72
93 120 71
93 120 72
99 126 76
100 125 82
127 146 124
136 154 134
164 178 171
190 201 203
199 209 216
207 217 227
202 212 221
205 214 224
196 207 216
164 178 176
105 129 91
94 121 72
95 123 74
94 121 72
92 119 71
88 114 68
94 121 72
93 120 71
96 123 74
94 120 72
94 122 74
92 119 71
94 121 72
97 125 75
95 122 73
93 120 71
94 122 73
96 124 75
97 124 74
95 122 73
94 121 72
91 118 71
94 121 73
96 124 75
93 119 71
94 121 73
134 153 132
191 202 208
202 213 222
202 212 221
196 207 216
198 208 216
203 213 222
201 211 218
189 200 206
197 208 215
197 208 217
196 206 214
182 194 194
173 187 184
159 173 164
133 152 137
115 137 107
108 133 94
99 124 82
96 122 76
97 125 76
95 122 73
92 119 71
91 117 70
92 119 71
95 122 73
97 124 75
113 137 101
169 183 180
207 216 225
206 216 227
210 220 232
207 217 227
196 206 214
199 210 219
197 208 214
203 213 222
205 215 225
196 206 214
199 210 216
199 209 215
205 214 223
204 214 226
199 210 219
197 207 215
202 212 221
201 211 219
206 215 224
211 220 229
203 213 222
195 206 213
198 209 218
200 210 219
206 216 226
202 212 220
193 203 206
115 136 108
95 122 73
94 121 72
93 121 72
97 124 74
95 123 74
96 123 74
93 121 72
93 120 71
93 119 71
92 119 71
94 121 72
96 124 75
96 123 73
93 121 72
91 118 71
91 119 71
94 121 72
93 120 72
95 122 73
94 121 72
96 124 75
96 123 74
92 119 71
94 121 72
101 127 84
114 137 103
155 171 162
169 182 179
162 176 171
160 174 167
164 179 172
151 167 154
129 148 126
117 139 109
109 133 96
102 129 85
92 119 71
92 118 73
95 122 73
97 125 75
96 122 73
94 121 72
97 124 74
94 122 74
90 117 69
91 118 70
96 124 74
98 125 76
96 124 75
95 122 73
89 116 69
93 120 71
92 119 71
105 129 93
155 170 161
199 210 219
199 209 217
196 207 216
202 213 221
205 215 223
199 209 215
206 216 225
198 208 216
198 208 215
196 208 219
194 204 210
201 211 219
201 211 217
201 211 221
196 207 214
194 205 213
199 210 220
198 208 216
205 215 225
200 210 217
197 207 217
193 204 211
204 213 220
198 209 217
190 202 208
193 203 207
169 182 179
109 132 97
91 117 70
93 120 72
93 120 72
95 122 73
92 119 71
93 120 72
91 118 70
96 123 73
95 123 74
97 124 74
88 115 69
94 121 73
97 125 75
93 120 72
95 123 74
90 117 69
94 121 72
93 119 71
100 128 77
95 122 73
94 121 73
90 116 69
91 118 71
94 121 73
113 136 103
165 179 175
199 209 216
206 216 225
201 211 220
193 203 210
192 203 210
190 201 207
204 215 225
199 208 215
200 210 215
193 204 210
194 205 213
201 212 221
203 213 221
208 217 227
198 208 216
203 212 222
200 209 217
203 211 218
191 202 208
203 213 222
200 210 216
198 209 218
204 214 223
200 210 219
189 201 206
141 159 140
92 118 70
93 120 71
92 119 71
92 119 71
92 119 71
90 117 70
91 119 71
93 120 72
96 124 74
96 123 74
96 123 74
95 123 73
94 121 72
97 124 74
91 118 70
95 122 73
95 122 73
95 122 73
97 124 74
93 119 71
94 121 71
96 124 74
93 120 72
130 150 126
172 186 185
199 210 218
197 207 214
205 214 221
204 214 224
205 215 226
203 212 219
200 211 220
201 211 219
201 212 221
200 211 220
200 210 219
200 210 217
199 209 217
203 213 222
199 209 217
203 213 222
191 203 211
205 214 222
199 210 220
197 207 215
202 213 223
198 209 217
178 190 190
149 166 151
93 119 74
95 123 74
98 126 76
96 124 74
97 124 74
90 117 69
96 123 74
89 116 69
94 121 72
94 121 73
95 123 74
91 118 71
95 123 74
94 121 72
91 118 71
97 125 75
94 122 73
97 124 75
93 121 73
94 121 73
97 124 75
127 147 123
184 196 199
198 208 216
194 205 212
206 216 226
203 213 221
203 213 223
205 215 224
204 214 222
197 207 214
201 211 218
199 210 217
206 217 229
196 207 216
202 212 219
201 211 221
199 210 218
200 210 218
204 214 223
200 210 218
200 210 217
201 211 217
141 158 142
96 122 78
93 120 72
94 121 73
97 124 75
95 122 73
96 124 74
92 119 71
94 121 73
96 124 74
97 125 75
93 120 72
96 123 74
94 121 72
94 120 72
96 124 74
94 121 72
94 121 72
95 123 74
118 140 110
175 188 185
200 210 219
197 207 214
199 210 219
204 213 222
204 213 221
198 209 217
182 194 195
195 205 212
200 210 218
201 211 218
202 212 220
206 216 226
201 211 222
199 210 219
205 215 224
203 213 221
199 209 217
156 172 164
97 122 77
92 120 72
94 121 73
93 120 72
94 121 73
94 122 72
95 122 73
102 126 87
128 149 122
138 158 141
178 191 191
190 201 206
201 211 219
193 203 210
199 208 215
200 210 218
202 213 221
199 210 219
207 216 224
197 208 216
196 206 212
198 209 217
198 210 220
200 210 219
183 195 197
97 123 79
95 123 74
96 124 75
93 120 72
94 120 72
93 120 72
95 123 74
94 121 72
96 123 73
98 125 75
93 120 72
91 118 70
96 123 74
89 116 69
95 122 73
95 123 74
97 125 76
95 122 75
94 122 73
125 145 122
147 164 150
162 176 170
191 203 207
196 206 213
205 215 223
170 182 179
111 134 100
95 122 73
97 125 75
93 120 72
98 125 76
94 121 72
95 122 73
95 123 74
93 120 72
96 123 74
94 122 73
93 120 71
94 121 73
92 119 71
96 124 74
95 123 73
96 124 74
95 122 73
95 123 74
93 121 73
97 124 74
93 120 72
93 120 72
92 119 71
96 123 73
100 127 79
150 166 157
195 206 213
204 214 223
208 217 226
200 211 222
193 204 211
196 207 215
208 217 225
194 204 213
206 215 222
199 209 216
197 208 217
200 210 221
203 213 222
199 209 217
186 199 205
183 195 197
167 182 177
151 168 156
127 148 125
120 142 111
98 124 82
95 120 76
94 122 73
94 121 72
93 120 72
96 123 74
119 140 110
176 188 186
205 215 223
196 207 216
202 211 219
203 213 221
191 202 209
200 210 219
197 208 217
193 204 212
202 213 223
205 215 223
198 207 214
201 211 220
202 211 218
198 209 217
203 212 221
200 211 219
198 209 217
198 209 217
206 215 224
200 211 219
206 216 227
194 203 210
205 215 224
202 212 220
191 203 212
199 209 216
177 190 188
108 132 95
94 122 73
95 122 73
94 121 72
95 122 73
95 122 74
95 122 73
93 121 72
96 124 74
87 114 67
93 121 72
89 116 70
98 125 76
90 117 69
90 117 69
93 120 72
95 123 74
96 123 73
93 120 72
94 121 73
94 121 73
95 122 73
91 118 71
98 126 76
93 120 72
97 125 75
108 131 95
156 171 163
197 208 217
200 210 218
201 211 219
195 206 211
191 203 210
186 198 199
175 189 190
163 178 173
155 170 162
152 167 157
136 155 136
132 152 131
114 137 105
110 134 95
97 123 79
100 125 83
95 122 73
93 120 71
91 118 70
94 121 73
94 121 72
92 119 71
92 118 71
91 118 70
93 120 72
97 124 75
126 146 121
180 193 193
203 213 221
200 210 218
199 210 219
195 205 212
198 209 216
199 209 216
197 207 215
194 205 213
201 212 222
209 218 227
197 207 214
199 209 217
202 213 225
199 210 219
194 204 212
204 213 221
192 203 210
204 214 223
198 208 218
206 216 225
198 208 216
193 203 210
206 217 228
202 211 218
200 210 218
188 200 207
137 155 136
95 122 73
91 118 70
96 123 73
93 121 73
92 119 71
95 123 74
96 123 73
93 120 71
97 125 75
97 125 74
90 117 69
93 120 72
98 125 76
94 121 73
95 123 74
92 119 70
91 118 70
95 122 73
94 122 73
89 116 69
94 121 72
95 122 73
96 124 74
94 122 73
93 120 75
144 161 148
188 199 205
196 207 214
200 210 217
195 206 214
196 207 213
197 207 216
198 209 217
195 206 213
200 211 220
193 204 211
203 213 220
200 209 214
203 213 222
202 211 219
205 215 224
205 215 225
200 210 218
203 213 221
198 208 216
203 212 220
203 213 222
195 206 213
194 205 212
193 203 208
206 216 225
164 178 173
102 127 87
97 124 75
97 125 75
91 119 71
91 118 71
95 123 73
94 121 73
95 123 73
96 123 74
96 123 74
94 121 72
92 119 71
91 118 71
96 124 74
95 122 73
95 122 73
93 120 72
95 123 74
92 119 71
91 118 70
91 117 70
99 127 76
88 114 67
107 131 92
150 167 158
200 211 219
202 213 222
198 208 217
194 206 212
198 207 214
202 212 221
194 206 215
200 210 219
191 201 207
209 218 228
195 206 212
192 203 209
202 212 221
194 204 211
199 209 218
205 216 226
203 212 219
199 209 217
197 208 216
203 213 221
194 205 213
197 208 216
200 211 219
150 166 156
102 126 87
94 121 74
92 119 70
96 123 73
93 120 72
94 121 73
91 118 70
92 118 70
92 119 71
91 117 70
94 120 71
94 122 73
94 121 72
95 123 74
99 126 75
92 119 70
97 124 74
95 122 73
92 119 71
93 120 72
88 115 68
117 140 111
182 194 197
199 208 216
188 200 206
199 209 217
196 207 215
189 200 207
194 206 214
201 211 222
201 211 218
202 212 220
205 213 219
203 213 221
199 210 220
199 210 219
203 212 220
204 213 220
203 213 223
207 217 227
198 208 216
199 210 219
200 211 219
149 165 153
101 128 82
97 124 74
94 121 72
93 120 72
96 123 73
98 126 75
95 122 72
94 121 73
95 123 74
89 116 69
94 122 73
93 120 72
94 121 72
94 121 73
89 116 69
94 121 73
91 119 71
93 120 72
108 132 93
165 179 174
195 206 212
189 201 209
182 194 196
175 187 186
149 165 151
140 158 142
121 141 117
115 138 107
204 214 223
195 207 216
204 213 222
189 200 206
198 209 216
194 205 213
192 203 209
189 200 206
203 214 224
197 208 215
172 185 181
95 122 75
94 120 71
97 123 74
94 122 73
100 127 76
96 124 76
95 122 73
94 121 73
93 120 72
99 126 75
95 122 78
135 153 136
159 174 169
180 194 197
188 201 207
199 209 217
202 212 221
198 208 214
193 204 210
202 212 221
201 212 221
198 209 217
200 210 218
199 209 216
167 181 179
105 128 91
92 119 71
95 123 73
94 122 74
93 120 72
94 122 73
95 123 73
94 121 72
94 121 72
94 122 73
87 114 68
93 120 72
94 121 72
96 123 74
96 123 73
92 119 71
95 122 72
96 123 74
98 125 75
92 120 72
96 123 73
101 127 84
119 139 115
140 157 143
167 181 177
157 173 165
114 136 105
98 124 77
96 123 73
94 121 73
94 121 73
97 124 74
95 122 73
95 122 73
98 125 75
94 122 73
94 122 73
94 121 73
93 120 71
96 123 74
92 119 72
95 122 74
89 116 69
94 121 73
98 126 76
91 118 70
95 122 73
96 123 74
92 119 71
94 121 73
94 121 72
98 125 80
156 172 161
189 201 207
202 213 221
200 210 217
203 213 222
197 207 215
204 214 224
204 213 221
204 213 223
197 207 215
200 210 218
197 207 215
194 205 213
191 202 211
203 213 222
197 207 214
200 210 217
197 207 215
198 208 215
196 206 211
173 187 187
161 176 167
137 156 134
124 145 116
112 136 102
104 128 88
94 122 73
120 141 114
185 196 200
207 216 225
199 209 217
191 202 208
203 214 223
196 206 213
192 204 212
190 201 208
202 212 221
203 212 220
202 212 220
198 209 217
202 212 220
195 207 216
206 215 225
196 206 212
191 201 206
205 215 225
200 210 218
204 214 223
195 206 215
201 211 220
200 210 219
210 219 229
199 209 215
202 213 222
186 198 203
157 173 162
103 127 88
94 120 72
95 122 73
96 123 74
94 121 72
92 119 71
91 118 70
94 122 73
94 122 74
91 118 70
94 121 72
96 123 74
95 123 74
97 125 75
92 119 70
90 117 69
94 121 73
94 122 73
93 120 72
91 118 69
92 120 72
96 124 74
96 123 74
94 122 73
94 121 73
91 118 70
110 133 99
178 190 189
201 211 219
201 211 220
200 211 221
191 202 207
198 208 216
201 212 221
202 212 221
205 215 226
202 212 220
195 205 210
186 197 199
183 195 198
175 189 188
166 180 176
163 177 170
153 169 159
139 157 141
115 137 107
120 142 110
116 138 108
103 129 89
102 128 81
96 123 76
91 118 70
93 120 71
96 122 78
148 165 151
198 208 216
204 213 220
192 203 212
195 206 216
198 208 215
198 209 218
204 214 223
203 213 221
200 211 221
202 211 219
207 215 224
206 216 226
198 209 220
208 217 225
196 207 215
195 206 213
206 215 224
200 210 219
205 215 223
193 204 211
201 212 222
200 210 219
193 204 212
199 210 219
209 218 229
199 209 218
171 185 179
111 134 96
90 117 69
96 124 75
94 121 72
95 122 73
95 123 74
92 119 71
98 125 75
98 125 75
94 121 73
97 125 75
95 123 74
91 118 70
93 120 73
95 122 73
91 118 70
94 121 73
96 123 73
91 117 70
96 123 74
95 122 73
93 120 71
95 122 73
94 120 72
90 117 70
100 126 81
169 183 180
196 207 212
197 207 212
203 213 221
190 201 208
190 201 209
202 211 219
204 214 222
201 210 217
200 210 219
191 203 211
204 214 224
201 211 220
202 212 221
191 202 208
198 208 214
203 214 223
206 216 225
197 207 213
199 209 217
194 205 212
203 213 220
197 208 215
205 215 224
207 217 226
182 194 197
132 152 133
94 121 75
88 114 68
97 125 74
94 121 72
91 118 71
92 119 71
95 123 73
96 123 73
94 121 73
95 123 74
91 118 70
94 121 72
98 125 75
93 120 71
94 122 73
91 118 71
91 119 71
96 123 74
95 123 73
98 125 75
91 118 71
94 121 73
98 126 76
127 146 122
184 196 199
202 211 220
196 207 215
199 210 220
207 216 224
208 218 227
200 211 221
199 209 217
203 213 221
193 204 212
196 206 211
202 212 219
201 212 222
201 210 216
197 206 213
196 207 215
199 209 217
199 210 218
192 203 210
199 209 216
202 211 218
197 208 216
198 208 214
171 184 183
105 129 95
96 123 74
95 122 74
94 121 72
93 120 72
94 121 72
90 118 70
93 120 72
96 123 74
95 122 73
94 121 72
92 119 71
94 122 73
93 120 72
96 123 74
95 122 72
93 120 71
93 120 72
88 115 68
92 119 71
95 122 73
106 130 93
177 189 190
197 207 213
204 214 223
200 211 220
194 205 213
198 208 215
205 216 226
203 214 224
199 210 217
204 214 223
198 209 217
188 199 204
196 206 213
202 213 222
193 204 209
197 208 216
197 207 214
204 214 223
196 207 215
189 201 209
203 213 222
168 182 177
116 138 105
91 118 70
95 122 72
95 123 74
93 119 71
98 126 75
90 117 70
96 123 73
93 120 72
97 125 74
96 123 73
93 120 72
94 121 72
99 126 76
92 119 74
97 121 80
112 135 100
117 139 108
131 151 129
119 140 113
150 166 152
125 145 122
120 140 115
106 129 94
94 120 78
91 118 71
97 125 75
96 124 74
92 119 71
197 208 219
197 208 215
195 206 216
196 206 214
203 213 221
201 211 218
196 207 217
199 211 221
193 204 209
200 210 218
176 189 188
116 138 107
92 119 71
96 123 74
93 119 71
93 120 72
93 121 72
96 123 73
97 124 74
90 116 69
95 122 73
94 122 72
94 121 72
96 122 78
102 127 88
152 167 156
174 187 184
188 200 207
196 207 214
210 219 229
202 212 221
203 213 219
202 211 219
197 208 217
201 211 219
168 183 182
103 129 86
91 118 70
94 121 72
95 122 74
95 123 74
90 117 69
93 120 71
91 117 69
97 124 74
95 123 74
93 120 71
94 120 72
92 119 72
92 119 71
98 125 75
94 121 72
89 116 69
96 123 74
93 120 71
93 120 72
90 116 69
94 121 73
93 120 72
92 118 73
104 129 91
125 145 121
167 181 175
147 163 151
129 148 125
108 134 92
100 125 80
95 122 72
95 122 74
92 119 71
96 124 75
91 118 70
92 119 71
93 121 72
95 122 73
97 125 75
97 125 75
93 120 71
96 123 74
94 121 72
96 123 74
93 120 72
95 122 73
93 121 72
92 119 72
93 120 72
92 119 71
100 126 83
150 166 154
200 210 219
205 214 222
199 210 218
202 212 221
196 207 215
200 210 218
198 209 217
188 200 207
201 212 220
200 211 220
199 209 217
202 212 221
197 207 216
207 217 225
194 206 215
203 213 222
200 210 218
197 208 217
209 218 228
200 210 218
205 214 222
196 206 213
185 197 202
174 187 186
155 170 160
154 170 159
153 169 158
180 193 196
192 204 212
200 210 219
201 211 217
202 212 221
197 208 217
197 209 218
213 222 232
200 210 220
194 205 212
194 205 213
191 203 211
189 200 206
195 206 213
202 212 222
201 211 217
200 210 217
199 209 216
196 206 213
202 211 220
201 212 219
202 212 220
204 213 221
205 214 222
204 213 221
195 205 212
191 203 211
135 153 138
97 123 76
94 121 73
93 120 72
93 120 72
92 119 71
93 121 72
93 120 71
96 124 75
92 118 70
92 119 71
92 119 71
97 124 74
94 121 72
97 124 75
94 121 73
95 122 74
89 115 68
96 124 74
89 116 69
95 122 73
92 119 72
93 120 71
92 120 71
94 121 73
98 126 76
91 118 71
130 148 129
179 191 192
202 211 220
198 208 216
194 205 215
198 208 216
196 207 215
197 208 217
198 208 216
201 211 219
202 212 221
195 207 216
196 208 217
207 217 229
196 209 219
196 206 213
192 203 207
185 197 200
196 207 212
186 196 197
165 179 175
156 172 166
155 171 161
144 160 147
142 159 144
132 150 128
119 140 110
117 138 111
168 180 176
200 211 220
200 211 220
200 211 221
190 201 208
198 208 215
188 200 204
200 211 220
198 209 217
200 210 219
201 211 219
203 213 220
194 205 210
195 205 211
207 216 224
193 204 213
201 212 223
198 208 216
186 198 203
201 211 220
198 209 218
198 208 218
209 218 229
200 209 216
201 212 221
200 211 219
192 203 208
150 166 155
97 122 78
92 118 70
93 120 71
97 125 75
96 124 75
97 124 75
93 120 71
92 119 71
90 117 70
95 123 74
95 122 73
95 123 74
88 115 68
93 120 72
91 118 71
92 120 72
94 121 72
90 117 71
93 120 72
94 122 74
95 122 73
93 120 72
94 121 73
91 118 70
94 121 73
146 164 150
197 209 216
204 213 219
196 207 215
205 215 225
199 211 220
196 206 212
202 212 221
204 213 222
190 201 208
201 211 221
204 214 222
209 219 230
199 210 218
198 208 215
201 211 218
196 206 214
196 206 212
206 216 225
201 211 220
197 209 220
203 213 223
199 209 218
193 204 210
199 209 218
199 209 216
161 177 171
101 127 84
93 120 71
94 121 73
95 122 73
91 119 72
96 123 74
92 119 71
93 119 71
92 120 72
93 119 71
96 123 73
97 124 74
94 121 72
96 124 74
96 123 74
98 126 75
92 119 71
97 124 74
96 123 73
92 119 71
89 116 69
97 124 75
93 120 72
113 135 103
161 175 169
200 210 217
201 211 219
195 206 212
197 207 214
194 206 216
194 205 212
188 200 207
201 212 220
203 212 222
204 214 224
195 206 211
204 214 221
196 206 215
195 206 214
194 206 214
194 205 212
194 204 211
190 200 205
201 211 220
191 203 210
200 211 220
198 209 218
179 192 197
143 161 145
96 123 74
92 119 71
93 120 72
95 122 73
94 121 72
98 126 75
97 124 75
94 121 73
93 120 72
91 118 70
93 121 73
93 120 71
96 124 75
97 124 74
93 120 71
94 121 72
96 123 73
94 120 72
93 120 71
96 124 75
88 115 68
146 163 151
197 208 216
203 213 220
196 207 216
202 212 221
200 210 220
210 220 230
204 214 223
193 204 210
200 209 216
194 205 212
197 208 216
200 211 223
189 200 205
198 209 217
203 213 222
202 212 221
200 211 220
196 206 213
206 215 223
197 209 218
180 193 193
114 136 108
95 122 73
94 121 73
94 120 72
94 121 72
87 114 68
96 123 73
93 120 72
91 118 70
95 121 77
102 126 88
110 134 96
119 139 111
141 160 143
135 153 137
160 175 168
159 173 168
184 196 199
188 199 203
156 172 162
106 131 93
95 121 74
91 117 70
96 123 74
94 121 72
92 119 71
91 118 70
96 123 73
94 121 72
96 123 74
174 187 183
194 205 210
199 210 220
193 204 212
203 213 222
202 212 221
199 209 217
197 208 215
204 214 222
199 209 218
184 196 199
108 131 96
93 121 73
95 123 73
93 119 71
93 120 72
94 121 73
94 121 72
94 121 72
93 121 72
96 123 74
97 124 74
96 124 74
98 125 75
97 124 74
95 123 74
96 122 78
126 146 122
139 157 142
174 187 186
195 205 211
197 208 217
205 215 224
201 212 222
201 211 220
182 194 196
107 131 92
93 120 72
94 121 73
92 120 72
92 119 70
93 120 72
95 123 74
94 121 72
94 121 72
97 124 74
91 118 70
95 122 73
95 122 73
92 119 71
95 123 74
96 123 73
89 116 69
93 120 72
93 119 71
94 121 73
92 119 71
94 121 73
94 121 73
97 125 75
95 123 74
151 168 158
198 208 215
200 211 218
186 198 202
169 182 178
160 176 168
127 147 123
107 130 94
93 119 71
95 123 74
94 121 72
95 122 73
93 119 71
95 123 75
92 119 71
96 124 74
91 117 70
90 117 69
92 119 72
93 120 71
97 124 75
92 119 71
94 122 73
93 120 72
95 123 74
93 119 71
103 127 88
156 171 162
204 214 224
200 210 217
194 205 214
197 208 217
203 212 220
202 212 220
205 215 224
197 207 214
199 209 216
195 206 213
197 208 216
200 209 216
196 207 216
201 212 221
202 212 220
193 204 210
198 209 219
197 208 216
205 214 223
200 211 222
198 208 217
194 204 210
206 216 225
199 210 218
196 207 215
193 205 212
158 174 165
143 159 145
161 176 166
170 183 180
184 196 198
195 206 213
196 207 215
201 211 217
199 211 221
195 205 211
198 208 217
203 213 221
199 210 221
201 211 220
194 205 214
194 205 213
207 215 223
198 208 216
195 206 214
199 209 219
202 211 218
193 204 209
209 218 228
201 210 218
201 211 221
202 212 220
200 210 220
193 204 209
125 147 121
90 117 69
91 118 71
90 117 70
95 123 73
95 123 74
90 117 71
95 122 72
94 121 72
92 118 71
94 122 73
91 118 70
91 118 71
96 124 74
92 120 71
94 121 72
95 123 73
98 125 75
93 120 72
92 119 71
94 121 72
93 120 71
92 119 71
89 116 69
94 121 73
90 117 70
101 127 87
142 160 148
194 206 213
197 209 216
203 213 222
203 212 219
202 211 219
202 212 222
205 215 223
196 206 212
202 212 220
195 206 215
205 214 224
196 207 215
205 215 223
200 210 219
198 209 219
200 210 219
201 210 217
199 209 216
196 207 215
206 215 222
198 208 215
194 205 211
197 208 215
184 195 196
181 193 195
177 190 189
153 169 161
139 156 139
163 178 173
168 182 179
180 192 193
182 195 198
186 198 200
192 203 211
197 208 215
201 211 220
207 217 226
207 216 226
201 212 220
199 209 217
192 202 206
200 210 220
197 208 215
205 214 222
194 204 210
197 208 217
206 216 227
199 209 216
198 210 220
194 205 212
203 213 223
198 208 216
198 208 218
177 189 189
112 135 104
92 119 71
96 124 74
94 121 72
95 122 73
92 119 71
95 122 73
92 118 70
93 119 71
91 118 70
92 120 72
99 127 76
94 121 72
93 120 72
93 120 71
95 122 73
89 116 68
94 120 72
91 117 69
91 117 69
92 119 71
92 119 71
93 120 71
93 120 72
93 120 72
115 137 106
152 167 157
200 210 219
200 211 221
201 212 220
193 204 212
207 216 225
203 213 223
201 211 220
206 216 225
200 210 218
197 207 214
190 201 207
205 215 226
194 205 213
202 212 220
200 211 222
200 210 218
203 213 222
199 209 215
200 210 217
202 213 224
207 217 228
196 207 217
198 208 216
197 207 217
184 196 197
127 148 122
94 122 73
91 119 71
97 124 74
94 121 72
94 122 73
95 122 73
91 118 71
92 120 72
93 120 72
96 123 73
95 122 73
92 120 72
94 122 73
95 121 72
96 124 75
98 126 76
93 120 71
96 124 74
96 123 74
93 121 72
94 121 72
94 121 72
102 128 84
144 161 146
197 208 213
202 212 221
201 212 223
196 207 216
200 211 220
199 210 218
193 204 208
202 212 220
193 204 212
206 215 224
201 211 218
202 211 220
203 213 222
200 210 219
200 210 218
201 211 220
192 203 208
200 211 221
203 213 223
197 207 215
197 207 213
196 207 215
192 203 208
145 162 148
100 125 82
93 119 71
97 124 74
97 125 75
95 122 73
92 118 70
94 121 73
90 118 70
94 121 73
93 121 72
93 120 72
92 119 72
92 119 71
92 119 71
93 120 72
91 117 69
96 123 73
96 124 75
91 119 71
91 118 70
94 121 72
126 145 124
187 199 203
199 209 215
203 213 221
196 207 216
195 206 214
199 210 220
192 203 212
196 206 212
206 216 224
204 213 221
203 214 225
206 216 225
198 208 216
202 212 221
200 210 219
193 204 211
197 208 217
198 209 218
202 213 221
207 216 227
173 185 183
123 145 119
96 123 75
94 121 72
92 120 72
98 125 80
107 130 94
107 131 94
118 139 115
129 148 127
145 162 147
160 175 165
171 185 182
174 187 187
189 201 208
199 209 216
202 212 222
199 209 217
206 216 225
189 201 207
167 182 180
110 133 99
91 118 70
92 119 72
95 122 73
91 118 70
95 122 73
93 120 71
96 123 74
96 124 75
97 125 75
95 123 73
95 121 75
118 140 107
163 177 172
177 189 189
187 199 203
206 215 222
194 205 213
200 211 219
201 211 218
194 205 213
195 206 212
136 154 136
93 120 71
91 117 70
97 124 74
95 122 73
94 121 73
96 123 74
96 123 74
96 124 75
91 117 70
92 119 71
98 125 75
98 125 75
95 121 72
93 121 72
93 120 72
88 115 67
96 123 76
98 122 81
125 145 121
167 180 180
180 192 193
189 200 204
189 201 208
182 194 196
113 136 101
93 120 71
91 118 71
94 121 72
93 120 72
95 122 72
94 121 72
90 117 70
94 121 73
91 118 71
93 120 72
94 121 72
98 125 75
93 120 71
93 120 72
94 122 73
97 125 75
94 121 72
94 121 72
95 123 74
95 122 73
91 118 70
93 120 72
92 118 71
90 116 68
135 154 134
196 206 213
202 212 220
203 212 222
201 211 219
202 211 219
191 202 207
177 189 193
152 167 159
126 146 121
106 131 90
95 121 75
94 122 73
94 122 73
92 119 71
96 123 74
96 123 74
95 122 74
97 124 75
90 117 70
93 119 71
91 119 71
93 121 73
96 123 74
92 119 71
95 122 74
109 133 94
163 176 172
206 214 221
193 204 210
195 205 210
198 208 215
196 208 218
209 219 229
196 207 214
202 211 219
202 211 219
196 208 215
200 210 218
191 202 208
200 210 218
203 213 221
196 207 214
202 211 220
195 206 214
189 200 205
196 207 216
193 204 212
203 213 223
198 208 217
201 211 220
197 207 212
202 212 221
196 207 214
148 166 156
99 124 82
100 125 80
110 134 98
121 141 114
161 176 167
156 172 159
172 186 182
185 197 199
192 203 211
201 211 219
200 210 218
200 211 220
202 212 221
200 210 219
195 206 213
201 212 222
205 215 226
199 209 217
201 211 219
196 207 213
209 218 227
199 210 217
202 212 221
203 213 223
192 204 213
199 209 217
173 187 189
118 140 110
96 123 74
96 123 74
93 120 71
95 122 73
93 121 73
95 123 74
91 117 69
92 120 72
93 120 72
94 121 72
94 121 73
89 116 69
94 122 73
89 116 70
95 123 74
93 120 72
92 120 72
96 124 74
97 124 74
95 122 73
94 121 73
96 124 74
93 121 72
92 119 71
93 120 72
116 139 108
160 176 169
195 205 211
201 211 220
206 215 224
202 212 220
194 205 212
203 213 223
195 206 213
202 212 219
190 202 206
203 212 219
202 212 221
209 217 225
200 211 220
193 205 213
205 215 226
207 217 226
201 211 219
198 209 218
197 207 215
200 210 217
202 212 220
204 214 222
204 214 224
202 212 219
196 206 215
197 208 216
138 157 136
120 141 114
104 128 90
117 139 108
112 135 102
125 145 120
143 160 144
152 168 157
142 159 146
153 168 157
175 188 186
164 179 173
173 187 186
186 198 203
189 200 204
188 199 202
196 206 212
193 204 211
190 201 206
201 210 219
204 214 222
201 210 218
201 211 220
193 204 210
204 213 222
203 213 221
197 208 216
163 176 171
97 124 79
93 121 73
95 122 73
93 120 71
93 120 72
92 119 72
96 123 73
90 117 70
93 120 71
85 111 65
94 121 73
94 122 73
88 114 68
89 116 69
93 119 71
91 118 70
88 115 68
95 122 73
92 119 70
92 120 72
92 120 72
93 120 72
96 123 74
95 122 73
98 124 80
139 157 139
192 203 206
203 214 223
198 209 217
196 206 212
194 205 212
207 216 224
200 210 220
199 209 218
196 206 211
201 212 221
195 206 213
196 206 213
201 211 219
195 206 214
201 210 217
204 214 222
194 204 211
205 214 221
200 210 217
194 206 215
202 213 221
195 206 213
205 215 225
199 211 221
198 209 217
160 175 169
97 122 82
95 122 73
94 122 74
94 122 73
94 121 72
93 120 72
93 120 72
91 118 71
98 126 76
92 118 70
96 123 73
91 118 70
91 118 70
91 118 70
92 119 71
97 124 74
88 114 68
93 121 73
96 124 74
93 120 72
91 118 70
92 120 71
96 124 74
124 145 116
175 189 188
196 207 215
199 211 220
194 205 212
202 212 221
200 210 218
199 209 215
197 207 216
199 209 217
197 207 215
200 210 218
192 203 209
199 209 218
185 196 201
197 208 217
199 209 219
203 213 219
206 217 229
203 213 222
197 208 216
200 211 219
199 209 217
204 214 223
160 174 170
124 145 118
87 113 66
94 121 73
95 122 74
91 117 69
92 119 71
92 119 71
91 118 70
93 120 72
90 118 70
93 120 72
94 121 73
91 118 70
90 117 70
93 120 71
93 120 71
98 125 75
90 117 69
91 118 70
94 122 73
98 125 78
119 139 113
174 187 187
195 205 210
199 210 220
201 211 218
206 216 227
196 206 214
194 205 213
199 210 217
199 209 217
199 209 218
203 213 222
198 209 216
198 208 216
200 210 217
203 213 222
200 210 217
192 204 211
192 203 211
199 210 219
202 212 220
189 200 207
146 161 150
114 137 105
132 150 127
142 159 143
160 175 169
161 175 170
175 187 187
182 194 196
181 192 192
190 201 205
195 206 212
205 214 222
199 208 215
204 213 222
192 202 208
199 210 219
189 201 207
202 211 220
206 216 227
175 188 189
125 146 118
94 122 73
92 119 72
95 123 74
96 123 75
94 121 73
94 121 72
92 119 71
93 120 72
91 118 70
98 125 75
92 119 72
96 123 74
91 117 70
91 118 70
103 127 86
138 157 139
166 181 179
189 200 206
195 206 214
197 208 213
204 214 224
191 203 208
153 168 156
93 120 71
93 120 71
94 121 73
93 120 72
93 121 72
91 117 69
93 120 71
95 122 74
91 118 70
96 123 74
93 120 72
92 119 71
95 122 73
93 120 72
94 120 72
94 121 72
94 121 72
92 119 71
91 118 71
98 124 79
109 132 99
134 153 136
159 174 166
175 187 187
120 140 115
99 126 76
91 118 71
94 122 73
94 122 72
95 123 74
94 121 73
95 122 73
88 114 68
92 119 72
92 119 71
96 124 74
93 120 71
95 122 73
91 118 71
93 121 73
96 123 73
94 121 73
90 116 69
92 119 71
94 122 73
91 118 70
93 120 71
96 123 74
96 124 74
129 149 124
188 200 206
198 209 218
209 219 228
191 202 208
196 207 216
197 208 216
191 203 210
199 209 216
189 200 205
189 200 205
152 167 158
134 152 133
112 136 101
99 125 80
93 120 72
97 124 75
90 118 71
94 122 73
92 119 71
94 121 72
94 121 73
94 120 72
94 121 72
91 118 71
95 122 73
109 131 96
160 174 170
197 207 215
200 210 218
200 210 217
199 210 217
205 215 225
200 210 217
200 210 218
200 210 218
199 209 217
203 212 219
192 203 208
194 205 211
201 212 222
196 206 212
201 211 218
199 209 216
196 206 213
204 213 220
205 215 225
196 206 213
198 209 217
202 212 221
206 216 227
201 211 220
199 209 216
204 213 220
141 158 141
91 117 75
94 121 72
94 122 73
91 118 71
93 120 71
103 130 86
109 133 98
133 153 132
145 162 149
154 170 161
166 180 172
181 194 195
196 206 212
195 205 213
198 207 214
195 206 215
193 203 208
193 204 211
197 208 215
197 208 218
201 211 220
197 207 214
202 212 221
203 213 221
201 211 220
196 207 216
155 171 162
118 140 108
87 114 68
92 118 70
96 124 75
92 118 70
93 120 72
95 122 73
92 119 71
94 121 72
94 121 72
90 116 69
91 119 71
96 124 74
94 122 73
93 120 72
89 115 68
96 124 74
94 121 72
95 122 73
91 118 70
92 119 72
97 125 75
96 124 75
93 120 73
95 122 73
94 122 73
118 139 110
174 187 186
203 213 220
194 206 214
197 208 216
205 215 225
201 212 221
194 205 213
202 213 221
198 209 216
185 198 203
198 208 216
200 210 218
202 212 220
195 206 214
198 208 214
202 212 221
199 209 218
202 212 220
190 200 206
195 206 212
204 214 223
194 205 210
196 207 213
196 206 213
203 212 219
201 212 223
198 208 213
135 154 137
94 121 72
98 125 75
92 119 71
95 122 73
88 114 68
92 119 71
94 121 72
104 127 89
102 127 88
109 132 97
120 141 112
123 144 117
126 146 121
136 154 136
154 170 162
148 164 153
160 175 168
157 172 166
183 195 196
178 190 192
186 197 200
196 207 213
197 208 215
191 201 206
200 209 217
181 193 196
123 144 122
95 122 72
95 121 73
96 123 74
93 120 72
99 127 76
90 117 70
93 121 73
93 120 71
93 120 71
94 121 73
95 123 75
92 119 72
94 120 72
94 121 72
93 120 71
95 123 74
95 122 73
91 118 70
91 118 70
93 120 72
96 123 73
93 120 71
94 121 72
92 119 71
101 125 86
166 181 177
197 207 214
191 202 208
205 215 226
192 203 210
195 206 213
196 206 214
206 215 224
193 204 211
198 208 217
196 208 218
200 210 217
210 218 226
197 208 217
204 213 222
202 213 223
200 209 216
198 208 216
197 208 217
203 213 222
198 209 216
204 215 224
198 209 218
193 204 212
193 203 208
178 191 191
121 141 115
92 119 70
93 120 72
91 118 71
94 121 73
92 118 70
93 120 71
95 122 74
94 121 72
95 122 73
93 120 72
96 123 74
95 122 73
97 123 73
91 118 70
95 123 73
93 120 72
95 122 73
93 121 72
97 124 74
92 119 70
96 123 74
98 126 76
101 128 84
147 165 157
192 203 209
205 214 224
202 211 219
196 207 214
204 214 224
197 208 216
194 206 213
197 207 213
200 210 218
197 207 216
203 213 222
203 214 223
190 200 206
205 216 228
199 209 215
202 211 219
191 202 211
197 208 217
189 200 207
206 216 227
198 208 216
203 214 223
181 193 196
128 149 126
94 120 74
91 118 71
90 117 70
95 122 74
98 126 75
94 121 72
95 123 74
92 119 71
89 115 68
93 120 71
94 121 72
95 122 73
93 120 72
97 125 75
94 121 72
96 123 74
93 120 71
94 121 73
94 121 73
95 122 73
99 125 83
159 174 169
193 203 209
201 211 221
192 203 210
201 212 221
197 207 214
204 214 223
187 198 203
194 206 213
202 212 221
202 212 220
200 210 219
197 208 216
189 201 206
190 202 206
187 198 201
181 193 195
167 180 177
169 183 183
153 169 162
152 168 161
182 195 199
180 193 197
191 202 205
198 208 217
193 204 211
194 204 210
202 212 222
195 205 211
198 208 215
192 203 211
188 199 205
199 208 216
205 214 224
186 198 203
195 206 212
201 211 219
194 204 211
202 213 223
196 207 215
181 193 192
113 135 104
94 121 72
94 121 72
92 120 72
94 122 74
91 118 70
92 119 71
97 125 75
95 122 73
96 123 74
90 117 70
92 119 71
96 123 74
91 118 70
96 124 74
92 119 71
97 124 75
92 119 71
97 122 78
117 138 111
152 168 158
186 197 198
198 209 216
202 212 221
159 174 168
94 121 75
91 118 70
93 121 72
93 121 72
89 116 69
93 119 71
98 126 77
94 120 72
91 118 71
91 119 71
94 121 72
94 122 72
95 122 74
96 123 74
96 123 74
96 124 75
93 120 72
96 123 73
92 119 71
94 122 74
96 124 74
95 122 72
92 119 71
125 144 121
157 171 164
132 151 131
99 125 85
102 127 86
95 121 72
91 118 71
96 123 74
93 119 71
94 122 73
97 124 75
92 119 71
91 118 70
95 123 74
90 117 69
91 118 70
93 121 73
96 124 74
95 123 75
91 118 71
92 119 71
92 120 72
94 122 73
91 118 71
93 121 72
92 118 70
140 158 140
197 208 217
198 209 216
201 211 218
201 211 220
198 208 215
188 200 206
191 202 210
192 203 211
198 209 218
196 208 216
201 212 222
190 201 206
182 194 197
163 177 174
129 148 126
121 140 113
97 122 78
95 121 77
93 120 72
95 122 73
91 118 71
93 120 71
97 124 74
93 120 71
93 121 72
103 127 88
170 184 181
192 202 208
196 207 216
201 211 220
198 208 215
204 213 221
200 210 218
207 216 224
202 213 223
198 208 216
205 215 225
196 207 214
198 209 218
197 208 217
188 199 207
198 209 217
197 207 214
204 215 224
201 210 216
196 208 217
199 209 215
197 208 216
202 212 218
200 210 218
200 210 219
201 210 217
185 197 202
137 155 138
93 120 72
94 122 73
93 120 72
91 118 71
97 124 74
97 124 74
97 126 76
95 122 74
91 118 70
100 126 85
109 132 99
126 146 125
143 160 143
158 174 168
170 183 179
182 195 196
190 202 207
200 210 218
190 202 207
189 201 207
198 208 216
201 211 218
200 211 220
199 209 217
195 206 214
188 199 204
149 165 154
100 126 80
90 117 70
91 119 72
95 122 73
93 120 71
91 118 69
89 116 70
91 118 70
93 120 71
98 125 75
93 120 71
93 120 71
95 122 73
93 120 73
94 121 73
95 122 73
93 119 71
96 123 74
90 117 70
93 120 71
95 122 73
92 119 71
95 123 73
96 123 74
92 118 69
95 121 77
144 160 147
194 205 211
198 208 215
192 204 212
193 204 213
193 203 209
199 210 218
204 214 223
197 207 216
199 209 216
204 213 222
194 205 212
197 207 216
198 209 220
193 203 211
200 210 218
198 208 216
204 213 222
199 209 216
191 202 210
197 207 214
194 205 214
206 214 221
199 211 221
195 205 214
199 210 216
208 216 225
170 184 182
123 145 114
95 123 74
90 117 70
97 125 75
92 119 70
89 116 70
92 119 71
94 120 71
89 116 70
94 121 72
91 118 70
94 121 73
92 119 71
94 121 73
94 121 72
100 126 81
92 118 73
95 121 77
112 135 102
115 138 105
115 137 108
125 146 122
145 161 148
148 165 150
154 170 160
152 169 159
170 184 182
146 163 146
136 154 138
115 137 108
128 148 124
111 133 100
102 128 87
103 128 88
101 126 85
97 123 79
94 121 72
95 122 73
96 124 74
91 118 71
94 121 72
90 117 70
91 118 70
89 116 69
91 118 70
90 117 70
94 122 73
92 120 71
93 120 72
95 122 73
92 119 71
95 122 74
141 159 139
185 198 203
199 210 218
195 206 213
199 209 218
194 204 211
189 200 208
190 202 209
201 211 217
209 218 228
206 215 223
189 201 210
205 215 225
190 201 207
201 211 219
199 210 219
197 208 215
195 206 212
194 205 211
195 206 213
200 210 218
201 212 221
192 204 210
201 211 219
198 208 216
194 205 210
154 169 158
100 125 82
92 119 71
94 121 72
95 122 73
92 119 71
92 120 72
95 121 72
94 120 72
94 122 73
95 122 73
95 122 73
93 121 73
95 122 73
94 121 73
93 120 72
90 117 70
93 120 72
94 121 72
94 121 72
92 118 70
92 118 70
92 119 71
98 124 77
138 155 141
179 192 193
198 207 214
201 210 218
196 208 217
197 207 214
196 208 217
196 208 218
207 216 223
195 205 214
203 213 222
201 211 221
191 202 210
200 210 217
200 211 220
191 202 210
203 212 221
199 210 220
198 208 216
198 209 217
207 216 227
200 209 217
203 213 222
192 204 210
144 160 145
99 126 83
92 119 71
97 124 74
95 122 73
90 116 69
90 117 70
92 119 71
90 117 69
95 123 74
93 121 72
98 125 75
94 122 74
95 122 73
90 117 69
91 118 71
92 120 72
96 124 74
90 117 70
94 121 73
91 117 69
100 126 82
152 168 155
194 205 211
194 205 211
200 210 219
195 206 215
193 204 210
194 205 212
197 207 211
187 199 202
183 194 194
181 194 196
171 184 184
151 167 157
145 161 148
141 159 142
128 148 125
116 138 109
111 135 104
105 129 91
98 123 85
102 128 85
154 170 159
190 201 208
199 210 218
193 204 211
195 206 215
203 214 226
198 209 216
197 208 218
196 207 216
197 208 219
190 201 208
197 207 212
197 208 218
198 208 215
200 211 221
200 209 217
198 208 215
194 205 212
200 209 218
178 190 192
135 154 134
91 118 70
91 118 70
96 124 74
94 121 72
95 123 74
92 119 71
92 119 71
95 123 74
94 122 73
93 119 71
94 121 73
94 121 73
93 120 72
95 122 73
94 122 74
92 119 70
91 118 70
91 119 71
90 116 69
91 119 71
93 120 73
108 131 97
136 154 133
170 183 180
168 182 179
91 117 72
89 116 69
92 119 71
91 119 71
93 119 71
93 121 72
93 120 72
95 123 74
93 121 73
92 119 71
93 120 72
90 117 70
93 120 71
94 121 73
93 121 72
92 120 72
96 123 73
97 124 75
93 120 71
96 123 74
94 121 73
96 124 74
96 123 74
106 130 92
169 183 180
197 207 213
182 195 198
167 181 178
141 159 145
118 140 111
95 121 75
91 118 70
94 122 73
93 121 72
95 122 74
95 122 73
91 118 71
93 120 72
92 118 70
93 120 72
95 122 73
91 118 71
95 122 73
94 121 73
92 118 71
89 116 69
93 120 71
94 122 73
97 124 74
119 140 115
197 207 212
204 214 223
203 212 220
194 205 212
199 210 219
199 209 216
199 210 217
198 209 217
198 209 217
196 206 214
199 209 216
201 211 220
195 206 214
195 207 216
195 206 213
185 196 196
175 188 187
144 161 147
128 147 127
100 125 85
95 119 78
95 122 73
93 120 72
91 118 70
95 122 73
112 134 102
178 191 191
199 209 216
199 209 218
196 208 216
206 215 223
200 210 218
200 210 218
193 203 211
196 206 214
194 205 212
203 213 223
200 210 219
198 208 215
208 217 226
200 210 217
206 217 229
202 213 222
204 214 224
200 209 216
203 213 222
195 206 214
208 217 226
199 209 219
197 207 213
197 208 216
189 201 207
190 201 205
118 140 114
98 125 75
91 118 70
94 121 73
89 117 70
92 119 71
92 118 70
95 122 73
92 119 71
97 124 75
96 123 73
93 121 73
92 120 72
98 125 77
97 122 81
113 136 102
129 149 124
139 156 140
147 163 152
166 180 176
177 191 193
181 193 196
193 204 210
201 211 219
198 208 217
198 208 217
184 195 200
144 162 148
93 120 72
96 124 74
96 123 74
93 120 72
94 122 73
99 127 76
94 121 72
91 118 70
95 122 73
95 122 73
94 122 73
93 120 72
93 120 72
95 122 73
97 124 75
93 121 72
97 124 75
95 122 74
92 118 70
94 121 72
93 120 72
92 119 71
89 115 69
93 121 72
95 123 73
102 128 87
158 173 165
197 207 214
189 201 210
203 213 223
200 211 218
195 205 212
202 211 219
195 206 215
198 208 216
198 208 215
192 203 210
196 207 213
196 207 216
198 208 216
199 211 222
200 210 219
208 217 225
201 210 220
201 212 222
200 210 218
197 207 215
192 204 212
206 215 223
208 217 224
198 209 216
196 207 216
189 201 209
170 184 180
96 123 79
96 123 74
93 120 72
90 117 69
92 119 71
92 120 72
93 121 72
90 116 69
93 120 72
91 118 70
92 119 71
95 123 73
94 121 73
90 117 70
94 121 73
94 121 73
89 115 69
94 121 73
94 121 73
93 120 71
92 119 71
94 121 73
98 124 79
93 121 72
90 117 70
126 145 124
154 169 162
195 205 211
186 198 202
179 192 192
177 190 190
170 183 180
164 179 173
159 174 167
150 167 157
146 164 151
141 158 145
135 154 136
133 152 133
126 146 122
114 137 105
112 134 102
104 129 89
103 127 87
112 136 99
98 125 78
100 124 87
98 125 78
94 121 72
96 123 74
92 119 71
110 133 100
154 169 161
196 206 216
200 211 220
204 214 222
205 214 222
198 209 219
210 220 233
187 199 206
196 207 215
198 209 216
206 216 225
191 202 208
204 215 225
205 216 227
205 215 223
195 206 215
197 207 216
194 205 212
201 211 220
206 217 228
205 215 224
202 213 223
194 205 212
204 213 220
196 207 214
175 189 188
111 133 103
92 119 72
95 122 73
94 121 72
89 116 69
92 119 71
93 120 72
93 119 71
92 119 71
97 125 75
88 114 67
94 121 72
93 120 72
92 119 71
95 122 73
93 119 71
91 118 70
91 119 72
93 120 72
94 121 73
96 124 75
89 116 69
94 122 73
118 141 112
174 188 188
191 201 209
199 209 219
192 203 210
204 213 222
194 205 211
204 213 220
187 199 204
196 207 215
201 211 220
191 203 210
201 212 221
194 205 212
202 213 224
205 215 226
201 211 217
193 204 209
199 209 216
202 212 221
203 213 221
198 208 214
192 203 211
190 202 209
167 180 176
114 137 101
96 123 73
93 120 71
95 121 72
94 121 72
95 122 72
96 123 74
93 120 72
92 119 71
94 121 72
93 120 72
92 119 71
92 119 71
99 125 82
101 126 83
97 123 79
104 128 91
97 123 79
110 133 99
114 137 107
108 131 98
134 153 132
167 181 173
171 184 182
168 182 180
145 161 146
142 159 142
139 156 140
133 152 132
121 142 112
111 133 101
108 130 97
96 122 81
95 120 77
93 120 72
95 123 74
93 120 73
93 120 72
94 122 73
92 119 70
95 122 74
100 126 83
135 153 135
191 201 205
190 201 207
194 205 211
198 208 215
198 209 216
207 217 228
197 207 214
201 210 218
197 208 217
194 204 210
200 210 219
204 214 223
193 203 210
193 204 212
198 209 219
196 207 214
196 206 215
204 213 221
187 198 203
133 151 132
93 120 71
89 116 70
98 126 76
92 119 71
91 118 71
93 120 71
92 118 71
91 118 70
92 119 72
92 119 71
95 122 73
92 119 71
94 121 73
92 119 70
118 139 111
119 141 115
118 141 109
118 140 111
109 132 100
109 131 100
102 127 88
96 121 81
108 132 95
96 122 78
109 132 95
130 150 128
149 164 154
134 153 130
97 123 79
97 123 79
97 125 75
93 119 71
96 123 74
91 117 70
93 119 71
95 122 73
92 120 72
96 122 76
92 120 71
98 125 75
88 115 68
93 120 72
94 121 72
94 121 72
92 119 71
94 121 72
92 118 70
92 118 70
94 120 71
102 128 84
177 189 188
199 211 222
194 204 209
195 205 214
183 195 198
191 203 209
163 177 169
137 155 138
105 129 93
103 129 85
91 118 70
92 119 71
94 121 73
96 123 74
93 120 71
91 118 70
95 122 73
95 122 73
92 118 71
91 118 71
94 121 73
89 115 68
94 121 73
90 117 70
93 120 71
126 146 122
189 200 205
187 200 208
197 207 213
192 203 212
194 204 211
200 211 221
197 208 217
203 212 222
201 212 221
207 216 225
201 212 222
196 207 215
198 209 218
200 210 217
204 215 225
196 206 215
194 206 214
194 204 210
183 195 198
176 188 186
146 162 150
126 146 123
100 124 90
102 127 90
91 118 71
123 144 115
176 188 190
190 202 208
194 204 211
198 210 221
194 204 211
204 215 224
195 206 217
202 213 222
200 210 218
197 207 213
198 208 216
194 205 213
202 212 221
188 200 206
192 204 212
206 215 223
194 205 212
196 206 214
196 206 211
194 205 213
207 217 228
194 204 211
203 213 222
200 210 218
203 213 221
200 210 216
175 188 186
104 128 91
96 124 74
95 121 73
94 121 73
94 121 72
91 118 71
94 122 73
91 119 71
93 120 71
95 122 72
97 125 76
95 122 73
94 121 73
92 119 71
93 120 71
94 122 72
91 119 71
93 120 72
95 122 76
99 124 82
119 141 110
121 142 113
138 156 139
157 172 164
179 192 192
182 195 197
170 184 185
130 150 125
92 119 70
94 122 73
89 115 69
93 120 72
94 121 72
95 122 73
92 119 70
93 120 72
91 118 71
90 116 69
95 122 73
95 123 74
94 122 73
93 120 71
93 119 70
96 123 74
94 121 72
93 120 72
94 122 73
92 119 72
95 122 73
94 121 72
91 119 71
95 122 73
94 121 73
113 135 105
172 185 184
201 212 221
196 207 217
201 211 219
201 212 221
203 213 223
208 217 225
197 207 214
194 205 212
194 205 214
191 202 209
199 209 217
192 204 212
199 209 219
201 211 220
193 205 213
196 207 214
200 211 221
197 208 217
195 206 214
199 209 219
202 212 220
200 210 218
206 216 227
191 201 206
204 215 226
192 202 206
139 157 140
90 117 70
97 125 76
92 119 71
95 122 72
94 121 72
96 123 74
92 119 70
96 123 73
94 121 72
92 119 71
95 122 73
91 118 71
89 117 70
94 121 72
95 123 74
89 116 69
90 117 70
92 119 70
91 118 70
97 124 75
91 118 70
93 119 70
93 119 71
94 121 73
96 123 79
139 156 142
188 200 203
202 211 219
197 207 213
205 214 221
201 212 220
202 213 223
192 203 207
197 208 214
196 207 215
198 208 217
188 200 207
197 207 214
184 197 200
196 206 210
172 185 185
175 188 188
169 182 180
174 186 183
161 175 170
170 183 177
147 164 150
140 159 139
141 158 142
133 151 131
139 158 139
136 153 139
155 171 164
187 198 202
184 195 199
186 198 202
190 201 208
191 202 207
196 207 215
198 208 216
188 199 204
184 197 202
204 215 224
198 208 217
200 210 217
194 204 210
187 198 204
197 207 214
201 211 219
204 213 223
197 208 218
197 208 217
198 210 219
192 202 206
201 211 220
200 210 217
188 198 201
131 149 129
96 123 73
91 117 69
91 118 71
92 119 71
91 118 70
94 121 73
89 115 68
93 120 72
95 123 74
92 119 72
94 122 74
92 119 71
91 118 69
93 121 73
95 122 73
92 119 71
91 118 70
93 120 72
95 123 74
92 120 72
94 122 73
96 123 74
94 121 76
145 162 150
194 205 211
201 211 219
196 206 213
199 209 217
201 210 217
191 202 210
204 214 222
197 207 214
194 204 211
197 208 214
205 215 225
195 206 214
198 208 216
197 208 217
199 210 220
201 210 220
192 203 210
204 214 222
198 208 215
204 213 219
198 208 214
205 215 224
194 204 208
119 141 112
96 123 76
98 123 81
108 133 93
108 131 98
104 129 91
104 129 88
110 133 96
109 132 97
126 146 123
119 140 113
136 153 137
150 166 154
147 164 151
145 160 148
159 173 165
160 175 165
178 190 189
172 185 186
171 184 183
179 191 193
163 178 173
120 141 112
108 132 97
94 120 79
92 119 71
96 123 74
91 117 70
96 123 76
93 120 72
93 120 71
92 119 71
95 123 74
91 117 70
94 122 74
96 123 74
94 121 71
95 122 73
95 122 74
90 117 70
91 117 70
89 115 69
130 150 129
182 195 199
202 211 219
194 204 211
196 206 213
193 204 210
194 205 211
201 212 219
201 211 221
198 209 218
197 207 214
201 211 220
202 212 221
201 211 219
200 210 218
190 201 207
201 210 218
193 205 212
200 211 218
193 204 209
154 169 158
98 124 82
99 124 82
104 129 89
103 127 90
98 125 77
105 129 91
103 127 88
95 121 77
110 133 99
115 138 104
108 131 95
107 130 97
119 140 110
116 138 109
116 137 110
191 202 208
193 204 210
188 200 204
186 197 204
182 193 195
183 195 198
189 200 203
187 198 201
176 189 189
186 197 199
179 192 195
171 184 182
151 166 156
128 148 127
100 125 84
131 150 127
151 166 154
165 179 176
163 177 171
151 167 160
161 175 170
157 172 165
154 170 162
147 164 153
152 167 155
138 156 139
145 161 147
127 146 126
141 159 143
137 154 138
138 157 142
133 152 133
126 144 122
127 147 122
119 139 116
119 139 115
154 169 162
186 197 200
193 204 210
178 190 191
181 194 195
183 195 200
181 192 193
175 188 189
165 179 176
140 158 142
119 140 110
100 125 85
110 133 101
110 133 100
115 138 104
106 130 91
108 132 96
104 128 88
92 119 73
99 124 82
94 120 74
96 121 78
100 125 87
96 121 80
97 123 79
138 157 138
193 202 206
196 207 215
194 205 213
195 205 211
205 214 223
198 207 212
203 213 222
195 206 213
204 214 225
196 207 215
198 209 216
197 208 217
200 210 218
194 205 210
197 207 214
201 211 220
197 207 214
199 210 219
201 211 219
199 210 219
194 205 213
183 194 196
176 189 190
161 176 169
132 151 129
124 143 122
187 198 200
196 207 214
195 205 212
196 206 214
198 208 217
194 204 212
198 209 218
199 209 216
199 209 218
201 212 222
202 212 219
203 212 221
207 216 226
196 207 213
200 211 219
195 206 214
198 208 215
200 210 219
196 207 215
203 213 221
202 212 222
198 208 216
198 208 219
201 211 221
196 206 214
193 203 209
170 183 183
114 135 106
94 121 72
97 124 75
90 118 70
94 122 74
93 120 72
91 118 69
92 119 71
97 123 73
95 122 73
94 121 73
95 121 72
94 121 73
94 122 73
92 119 70
89 116 69
92 119 70
94 122 73
90 117 70
92 120 71
92 119 70
93 120 71
97 124 77
95 121 77
114 137 107
129 148 125
143 159 147
161 176 169
137 156 139
127 147 126
118 140 109
111 134 100
95 122 78
95 123 74
91 118 71
94 122 73
93 120 72
94 121 72
85 112 67
95 122 73
92 119 71
92 119 71
94 121 72
92 118 71
92 120 71
93 120 71
96 124 74
90 117 70
91 117 70
92 119 71
91 118 70
94 122 73
89 116 69
129 148 126
190 201 204
188 199 203
204 214 226
194 204 211
198 209 218
196 206 212
199 208 217
198 209 216
203 212 220
194 205 212
196 207 214
199 209 218
198 209 218
199 210 218
204 213 221
197 208 215
201 212 223
199 209 219
200 210 219
198 209 218
203 213 221
200 210 222
196 206 212
201 210 216
196 208 217
195 205 210
182 194 194
104 128 92
90 117 70
95 122 73
94 122 73
91 117 70
94 121 73
92 119 71
93 120 71
94 121 72
90 117 70
94 121 73
94 121 72
94 121 72
93 120 72
91 118 71
91 118 70
94 121 73
93 120 72
91 118 70
92 119 71
97 124 74
93 120 72
94 121 73
92 119 71
96 124 74
100 124 86
171 183 182
195 205 211
202 211 219
196 207 214
202 212 223
207 216 227
201 210 217
201 211 220
197 208 214
199 210 217
197 208 215
201 211 219
198 208 214
203 214 223
201 210 217
208 217 226
203 213 222
196 207 217
198 208 217
189 200 206
203 212 219
197 208 215
201 210 218
193 203 207
188 200 204
174 188 192
142 160 143
120 142 113
125 145 121
133 152 132
122 141 121
143 160 144
138 155 139
151 167 157
154 169 162
156 171 162
154 170 162
154 169 158
171 183 180
171 184 182
171 185 184
163 178 176
175 188 189
177 191 191
182 193 194
177 190 190
189 201 205
182 194 196
195 205 210
202 212 217
182 194 199
170 184 184
116 139 110
109 132 97
101 126 85
111 132 102
107 131 94
98 125 83
99 124 82
100 124 84
108 132 93
101 127 86
106 131 92
101 126 82
97 123 78
96 121 79
93 119 73
102 127 87
98 123 82
94 119 78
101 126 85
94 120 74
96 122 78
100 126 85
97 123 78
112 136 103
181 193 195
193 204 210
196 207 215
197 207 214
192 203 212
197 208 216
191 202 206
188 200 203
185 196 201
193 203 209
190 202 206
186 197 201
183 195 198
188 199 202
190 202 208
183 194 195
178 190 189
168 182 182
181 194 195
166 180 178
169 182 181
171 186 184
155 169 161
165 179 175
165 178 172
160 174 166
167 181 177
156 172 164
167 181 176
164 178 173
176 189 193
175 189 192
188 199 204
185 197 199
196 206 211
189 201 207
192 203 207
206 215 222
193 204 209
189 200 206
196 207 214
186 198 203
195 207 215
201 211 217
189 200 205
149 165 152
102 126 87
100 125 87
99 124 85
107 129 95
110 134 100
109 132 97
112 134 102
111 132 103
111 133 101
115 137 105
116 138 109
106 130 94
109 132 97
119 140 114
109 132 97
122 143 115
117 139 111
115 136 108
120 141 114
114 136 105
166 180 176
170 183 183
181 192 194
173 187 184
163 178 173
182 193 193
172 186 185
164 177 176
166 179 175
171 184 180
168 182 178
157 172 165
163 178 171
164 178 172
161 176 170
144 161 149
145 162 151
149 166 151
150 166 158
174 188 191
168 182 178
174 187 185
180 192 192
171 185 181
168 182 180
169 182 182
178 191 195
173 186 186
184 196 200
180 192 196
180 193 196
191 202 209
190 202 207
190 202 207
193 204 210
185 197 201
200 209 216
191 203 211
196 206 214
207 218 229
204 214 224
197 208 217
197 208 217
190 202 208
199 209 217
201 212 221
202 211 218
198 209 216
124 144 121
92 119 71
97 124 74
98 124 79
112 136 101
146 163 148
170 184 181
188 201 205
197 207 213
200 211 219
202 212 222
196 206 214
196 207 215
199 209 216
193 204 211
188 200 207
199 210 218
193 203 211
193 204 212
197 206 212
190 201 208
186 198 204
185 197 201
191 202 209
148 164 156
108 132 97
107 132 95
107 131 95
114 135 104
122 144 117
106 129 93
118 139 110
127 148 122
120 141 114
112 135 107
109 131 100
135 155 135
145 160 148
170 182 178
170 185 182
178 190 190
172 185 183
163 177 174
169 182 182
157 172 166
161 175 169
170 183 177
174 186 184
169 183 178
170 183 181
149 167 156
143 161 144
153 168 158
152 168 157
154 169 161
155 169 159
152 168 159
164 178 173
167 181 174
158 172 163
164 179 176
156 171 163
168 181 180
155 170 162
163 178 173
166 180 177
163 177 173
168 181 178
174 186 184
176 189 191
169 182 176
168 182 178
175 187 185
171 185 184
175 189 186
163 177 172
157 173 167
190 201 206
192 203 209
195 206 212
183 196 200
185 197 203
177 189 190
178 190 193
165 180 175
158 173 167
179 192 195
192 203 209
186 197 201
180 192 195
187 198 202
170 184 186
181 194 198
188 199 202
182 193 196
185 198 203
190 202 208
182 194 198
178 191 194
187 199 203
190 201 206
188 199 203
159 173 166
126 145 122
115 139 106
100 125 84
115 138 104
117 138 109
105 128 95
106 130 89
107 130 94
110 133 97
106 130 94
96 121 80
101 126 85
102 126 93
98 122 83
98 124 81
98 122 83
103 127 87
100 125 82
96 120 82
103 128 88
104 129 89
102 126 89
100 125 84
98 124 80
108 131 94
108 132 96
147 163 149
189 200 204
181 193 196
177 190 190
162 177 171
158 173 164
147 164 152
137 155 136
118 140 109
100 125 84
91 118 71
95 121 77
95 121 75
94 121 73
98 124 79
92 117 72
97 124 80
99 123 81
95 121 74
96 122 78
91 117 73
92 119 71
92 119 71
97 124 77
100 126 83
93 120 71
98 123 83
153 167 159
185 197 201
197 208 216
187 199 204
195 206 212
203 213 222
192 203 210
189 200 208
199 210 218
196 207 213
199 209 219
201 211 220
194 205 212
202 212 223
199 210 218
193 204 211
194 204 208
191 202 210
193 203 210
203 212 221
196 207 215
196 207 216
204 214 222
200 210 216
196 208 216
189 200 205
196 207 213
151 166 157
101 126 86
94 120 76
99 125 80
97 124 78
93 120 75
95 122 73
89 116 69
101 127 83
95 122 76
94 119 77
95 122 78
91 118 70
100 126 83
92 119 72
99 124 82
92 119 71
97 123 79
98 124 79
100 125 84
96 121 79
94 119 76
93 119 73
95 121 78
96 123 76
95 122 73
121 143 116
177 189 188
190 200 207
194 206 217
193 204 210
202 212 222
204 214 225
189 200 205
201 212 221
197 207 215
192 203 209
202 213 222
203 213 224
194 204 210
197 208 217
197 207 213
186 198 205
197 207 213
194 205 211
192 203 209
202 213 224
196 206 213
192 202 209
190 202 208
195 205 213
200 211 219
175 187 187
120 141 114
100 125 82
104 129 89
100 125 82
97 124 77
103 128 88
92 118 73
106 131 90
95 120 79
103 127 90
101 126 83
99 123 84
117 139 110
115 136 106
116 138 106
107 130 96
117 139 108
113 135 102
111 133 101
132 151 133
131 151 128
116 137 111
139 155 137
137 154 138
141 158 145
171 184 181
166 180 175
165 179 174
173 186 185
167 180 177
154 170 159
158 173 166
159 174 168
155 170 164
145 161 150
159 174 167
149 165 154
158 173 163
143 161 150
154 169 160
148 164 152
148 165 152
155 169 162
149 165 153
152 168 156
140 157 139
129 149 130
158 174 165
153 168 162
150 166 156
167 182 175
152 168 159
159 174 166
153 169 160
157 172 163
139 157 142
162 175 171
146 162 150
160 174 167
156 170 160
160 174 169
160 175 168
143 161 149
146 162 150
153 169 155
148 164 155
144 162 150
142 159 142
145 161 147
133 152 135
143 161 144
137 155 137
143 161 146
157 172 166
167 181 179
154 169 164
164 178 173
155 170 162
167 181 175
164 178 173
151 167 159
168 181 175
175 188 185
166 179 173
153 169 163
161 176 168
152 168 159
153 169 161
141 157 143
151 166 153
148 164 152
145 162 148
136 154 134
143 161 146
161 176 171
168 181 178
178 190 189
175 188 188
171 183 181
170 183 181
179 191 191
167 181 178
186 198 201
174 186 187
179 191 193
178 191 194
177 189 190
179 191 193
175 188 191
191 202 207
195 205 211
190 201 207
197 208 215
189 200 204
177 189 191
133 152 133
105 129 91
95 121 77
94 120 74
104 128 92
97 123 79
99 124 82
102 128 83
102 126 85
98 123 81
93 119 74
97 124 77
92 118 73
91 118 70
94 121 71
94 121 73
94 122 72
96 123 74
99 125 80
146 162 152
190 201 209
194 206 214
203 213 222
204 213 223
195 205 212
193 204 211
202 212 220
193 205 213
200 210 222
201 210 218
196 206 215
193 203 211
200 211 221
205 215 224
201 211 220
203 213 222
188 200 206
200 210 218
195 206 215
200 210 219
195 206 213
202 212 218
199 209 217
201 210 217
201 211 219
192 204 211
200 210 218
197 208 216
194 204 210
146 161 150
94 120 72
92 119 71
91 117 70
91 118 71
95 123 74
101 125 85
119 141 109
152 167 162
182 193 196
195 205 212
195 205 212
199 209 216
203 213 221
195 206 214
197 207 215
193 205 214
202 212 220
199 209 218
192 204 211
192 203 209
190 201 206
197 208 215
198 208 214
168 182 178
98 124 82
95 122 73
90 117 70
92 119 71
95 123 74
95 122 73
91 118 70
91 117 69
93 120 72
93 120 72
93 119 71
91 118 71
110 133 101
130 150 129
150 166 155
180 192 194
189 200 207
202 212 222
197 208 216
198 209 217
193 204 211
196 206 213
208 217 227
199 209 217
180 192 194
103 127 90
94 120 71
90 117 69
98 125 80
94 121 72
92 120 72
104 129 87
94 120 75
97 123 79
92 119 70
95 122 75
95 121 78
96 123 76
93 121 72
94 121 77
96 123 76
101 126 80
96 122 78
102 128 84
102 128 84
107 131 94
104 129 87
103 127 90
106 130 92
107 131 94
127 147 125
188 199 203
197 207 214
197 207 214
187 198 201
164 178 177
139 157 142
127 147 128
116 138 110
129 147 125
126 146 121
118 139 111
119 141 112
117 137 112
122 143 114
111 132 103
120 141 112
117 138 108
125 146 120
106 129 98
122 142 116
129 149 126
128 147 126
125 145 121
130 149 125
127 148 124
135 153 136
167 181 178
170 183 182
171 184 184
173 186 184
179 192 194
173 187 187
157 172 166
169 182 178
164 179 175
172 184 183
163 177 172
169 182 178
165 179 175
178 191 191
168 181 180
167 181 177
164 178 177
168 182 178
184 196 199
167 181 176
154 168 162
157 172 167
169 182 181
167 181 179
155 171 163
167 180 175
156 171 160
147 163 148
152 168 158
155 171 163
151 167 157
142 160 143
146 162 149
155 171 162
137 155 137
131 149 129
121 142 114
103 128 87
104 128 91
132 152 135
133 152 133
144 162 148
143 160 148
167 180 174
153 170 161
142 159 149
148 163 153
157 171 163
157 172 165
155 171 164
148 164 154
162 177 170
162 176 170
144 160 147
139 158 141
154 169 158
143 160 143
148 164 156
150 166 157
150 166 154
155 171 163
163 178 174
156 171 165
157 172 163
152 167 157
158 172 164
156 171 164
166 180 177
167 181 176
157 172 164
165 179 175
162 176 170
156 171 163
151 167 156
151 166 157
165 179 175
162 176 169
151 166 157
157 172 164
163 178 172
163 178 174
157 172 164
148 163 154
136 155 139
142 160 146
145 163 149
155 171 162
144 161 147
159 174 167
154 168 161
148 165 153
152 168 159
151 166 156
141 158 142
149 167 153
157 171 161
149 165 155
148 164 150
152 168 157
164 177 168
142 159 146
150 166 155
154 168 158
152 167 161
151 166 159
141 159 144
144 159 147
132 151 130
148 165 153
170 184 182
164 178 170
144 161 150
144 161 147
149 166 156
157 172 165
152 167 158
155 171 163
161 176 169
156 171 165
154 169 160
152 169 159
154 171 166
165 179 175
162 176 172
159 174 165
159 174 169
153 168 155
149 165 152
152 168 158
150 166 153
166 180 177
162 176 167
163 178 174
166 180 176
160 175 169
161 175 168
157 173 167
165 180 177
166 180 176
154 169 160
160 175 170
158 173 164
158 173 166
159 173 166
165 178 173
155 171 163
151 166 159
165 179 176
174 187 185
165 179 173
158 173 168
167 181 178
164 178 174
156 171 164
168 181 179
161 175 170
166 180 176
166 180 175
129 148 128
139 157 141
130 149 129
136 154 136
136 154 132
134 153 132
133 153 134
138 155 140
118 139 113
135 154 134
146 160 147
142 160 146
130 150 129
121 142 118
129 149 126
125 145 123
118 139 110
118 140 111
122 143 119
118 139 110
124 145 118
116 137 110
117 137 108
122 142 116
161 175 169
189 200 204
180 192 191
186 197 200
194 203 209
187 198 199
186 198 204
190 201 207
191 203 210
184 195 198
179 191 192
186 197 200
186 198 201
187 198 204
189 202 209
187 198 201
187 200 207
189 201 204
192 203 210
184 196 203
192 204 211
196 205 212
202 212 218
176 188 191
103 127 90
99 125 84
97 123 80
100 126 83
105 130 92
104 129 89
94 120 75
101 127 81
96 123 73
97 123 79
96 123 76
95 121 75
97 123 77
97 124 77
98 124 80
91 117 72
97 123 79
95 122 73
91 118 71
92 119 71
88 114 67
128 148 126
186 198 202
200 210 218
199 209 216
197 208 216
203 213 222
182 195 201
195 206 215
203 213 221
202 212 220
196 206 213
193 205 212
191 202 208
196 206 213
196 207 217
195 206 214
199 209 218
197 206 213
204 214 222
201 212 221
192 202 205
149 165 153
102 129 85
91 117 70
91 117 70
89 116 69
94 121 72
90 117 70
92 119 72
93 120 72
89 115 68
92 118 70
93 120 72
94 121 72
96 123 74
95 122 73
89 115 69
92 119 71
94 121 72
105 129 89
148 165 156
195 206 215
198 209 218
198 208 215
191 202 208
202 212 221
196 206 214
189 200 206
193 203 209
206 217 227
195 205 211
195 205 211
204 214 224
194 205 212
193 203 210
190 202 208
182 195 197
184 197 199
192 203 207
193 203 210
195 205 211
193 203 208
186 197 201
183 196 203
191 203 211
199 209 215
197 208 216
196 206 215
204 214 222
197 207 216
202 211 218
169 182 181
93 120 72
91 118 71
91 118 71
91 118 70
95 123 74
90 117 70
92 119 71
97 124 77
104 128 93
139 157 141
166 180 176
185 196 200
200 211 218
193 204 210
201 211 219
195 206 216
200 211 220
199 209 215
201 212 221
192 203 210
191 202 208
195 206 214
189 200 206
168 182 179
103 129 89
91 117 70
92 118 71
91 118 70
92 119 71
95 123 74
92 120 72
89 116 69
94 122 72
92 119 70
92 119 72
90 117 70
92 119 71
91 118 70
93 118 75
112 136 103
140 157 138
163 177 172
172 186 186
187 197 198
187 199 206
198 209 217
195 205 212
197 208 217
180 192 194
102 125 91
93 120 72
91 118 70
94 122 73
93 120 72
93 120 72
94 121 72
92 119 71
93 121 72
95 123 73
93 120 72
94 121 73
93 120 72
93 120 72
91 118 71
93 120 72
89 116 69
96 123 74
94 122 73
94 121 73
93 120 72
91 117 70
94 121 73
92 118 71
94 121 72
132 151 133
196 206 211
200 210 219
199 210 219
198 209 218
195 206 213
193 204 211
180 192 191
170 183 183
133 151 133
131 151 132
103 128 90
92 119 74
98 124 80
92 118 70
94 121 73
97 124 75
92 119 72
87 114 67
96 123 73
95 122 73
91 118 70
93 119 71
92 119 70
94 121 72
92 119 71
107 129 95
166 179 176
200 210 219
200 209 217
199 209 217
196 205 211
191 203 210
200 209 218
196 207 215
196 205 213
189 200 206
207 216 224
195 205 212
199 210 220
200 211 220
190 202 211
193 204 211
198 208 215
197 207 213
188 201 208
197 207 214
195 206 216
200 210 218
198 208 216
198 210 217
204 214 224
195 206 213
181 193 197
115 138 108
94 120 74
97 124 74
92 119 70
96 122 76
94 121 72
91 118 71
97 124 74
96 122 75
103 129 87
94 121 75
95 121 78
107 130 94
111 134 102
124 144 122
144 160 147
151 167 160
175 187 185
177 190 190
184 196 197
186 198 202
195 206 215
201 211 220
197 207 216
196 207 214
203 212 220
175 189 188
125 146 119
99 124 79
100 125 85
94 119 79
93 119 74
96 121 80
95 122 75
101 126 85
99 124 82
100 125 82
100 126 83
103 128 88
101 126 87
103 128 89
98 123 81
99 124 81
100 125 85
98 124 79
96 122 78
103 128 89
98 124 79
100 126 80
104 128 91
97 122 80
97 123 79
102 127 86
146 163 151
187 198 201
198 208 215
187 199 204
201 211 219
200 210 218
191 202 207
189 200 204
191 202 210
190 201 206
188 199 204
186 199 204
195 205 213
187 198 205
191 204 211
188 199 205
200 210 219
199 210 218
195 206 213
185 197 201
198 208 216
193 204 212
201 212 220
196 208 214
195 206 214
200 209 216
185 196 198
114 135 106
97 123 81
96 123 77
102 128 84
97 124 77
90 116 72
101 125 84
99 124 79
95 122 72
94 121 72
98 123 81
95 122 76
95 120 79
100 125 82
90 115 71
95 121 77
97 124 79
94 120 79
88 114 71
99 125 80
97 123 76
89 116 69
94 120 75
100 125 86
90 117 71
129 148 130
178 191 195
195 206 214
194 205 212
194 205 212
199 208 216
197 207 214
193 204 211
200 210 218
201 211 219
200 211 219
196 207 216
188 200 205
195 206 214
191 202 209
198 208 215
197 208 214
194 205 211
199 209 217
198 208 215
188 199 204
197 207 215
201 211 219
199 210 219
198 208 215
177 190 191
116 139 106
94 121 72
94 121 73
88 115 68
88 114 67
95 122 73
91 118 71
96 123 74
92 119 71
92 119 71
94 121 73
94 121 73
94 121 73
93 120 72
96 124 75
94 121 73
94 122 73
93 120 72
95 123 74
95 122 72
93 121 72
90 117 70
92 119 71
117 139 113
180 192 194
202 213 220
196 206 214
201 211 220
198 208 215
197 207 213
205 215 224
198 208 215
201 211 222
188 201 209
199 210 218
190 202 208
192 203 209
201 212 221
205 214 222
199 208 217
199 209 218
190 201 207
201 212 223
200 211 218
192 202 208
200 211 220
184 195 199
114 136 104
97 123 77
91 118 70
91 118 70
92 119 71
94 121 73
96 123 74
93 121 72
94 122 74
94 121 73
91 118 71
92 119 72
91 118 70
94 121 72
96 123 74
93 120 71
95 123 74
91 117 70
93 120 72
96 123 74
93 121 72
128 147 128
173 186 185
184 195 199
203 213 221
198 209 218
197 207 216
195 206 213
192 204 211
192 202 207
193 204 212
191 202 210
192 202 209
196 206 214
190 202 209
200 210 218
197 208 217
203 213 222
187 198 204
197 208 216
194 205 212
195 206 215
170 184 180
100 126 83
92 119 72
87 113 66
91 118 70
91 117 69
93 120 72
90 116 69
91 119 71
89 116 69
90 117 70
93 120 72
92 119 71
93 120 73
95 122 73
92 119 71
92 119 71
90 118 70
96 122 75
150 165 153
186 199 206
197 207 216
203 213 222
188 200 206
199 209 217
204 213 222
197 207 216
195 206 214
191 201 207
196 206 213
192 203 206
172 186 187
183 195 196
162 176 173
123 142 120
110 132 98
109 131 102
183 194 194
186 197 205
111 134 102
144 161 150
176 189 190
203 213 224
194 205 211
195 205 212
194 205 212
201 211 218
198 208 214
197 207 215
197 208 216
194 204 210
185 197 201
100 125 83
90 116 69
94 121 72
88 115 69
93 119 71
92 119 71
93 120 72
95 122 73
91 118 71
90 117 70
96 122 78
117 137 114
146 162 151
167 181 178
189 200 207
192 202 208
189 200 205
200 210 218
199 208 217
188 200 207
199 210 218
190 201 207
195 206 215
162 176 172
107 131 92
93 121 73
95 123 74
94 121 73
95 123 74
92 119 71
93 120 72
93 120 72
91 118 71
93 120 71
91 118 70
93 121 72
92 119 71
91 118 70
91 118 71
91 117 69
93 119 71
92 118 73
111 133 101
127 147 125
151 167 157
177 190 193
180 194 198
190 200 205
178 191 192
112 135 97
95 122 73
92 118 70
93 120 72
94 120 72
90 117 70
94 120 72
90 117 70
95 122 73
92 119 71
87 114 67
94 121 72
93 119 71
90 117 70
89 115 69
92 119 71
93 120 72
93 121 72
91 118 71
89 116 69
93 120 72
90 117 69
90 117 70
93 120 72
91 118 71
137 154 138
196 207 215
202 211 219
195 207 215
199 210 217
192 203 210
195 206 214
204 214 225
199 210 218
199 210 218
177 189 192
180 193 197
159 173 168
145 161 152
134 153 133
114 137 103
90 117 69
92 118 70
92 119 71
88 115 68
93 121 72
94 121 72
90 117 70
88 114 67
93 120 72
92 119 71
104 129 90
182 195 197
196 207 214
203 213 223
193 204 212
196 207 215
198 208 217
204 214 225
196 207 216
196 206 214
198 208 217
198 208 215
208 218 227
198 208 215
197 207 213
196 206 215
193 203 209
194 205 212
195 206 213
198 209 217
203 213 220
195 205 212
193 204 211
201 211 220
197 207 214
196 206 213
202 213 221
172 186 184
108 130 96
91 118 71
96 123 74
92 118 70
91 118 70
91 118 70
92 119 71
94 121 73
94 121 73
95 123 73
95 122 73
92 120 72
91 118 71
92 118 70
89 115 69
93 119 74
95 122 76
114 137 105
120 140 115
138 156 138
144 162 147
163 178 170
159 174 168
173 186 186
193 203 208
196 206 212
153 170 160
105 130 91
92 118 70
94 121 73
89 115 69
94 121 72
92 119 71
88 115 69
89 115 68
94 121 72
91 118 71
98 125 75
94 121 72
92 119 71
90 117 69
94 121 72
90 117 70
95 122 73
92 119 71
94 121 72
90 117 71
92 119 72
89 116 70
91 117 70
92 119 71
94 122 73
98 123 86
169 183 179
198 209 216
198 207 214
195 206 213
203 214 225
196 207 215
197 208 216
202 211 220
194 204 209
200 211 218
192 204 212
202 212 220
200 210 218
193 205 214
200 210 219
197 208 216
196 206 214
199 209 218
195 206 214
202 212 219
198 207 213
195 206 213
198 209 219
202 213 222
195 206 215
195 205 211
171 184 181
103 128 84
97 125 75
94 121 72
93 120 72
93 121 73
91 117 68
93 120 71
92 119 71
91 118 71
92 118 70
93 119 71
92 119 71
93 120 72
90 116 69
93 119 71
96 124 74
89 115 69
90 117 70
97 124 74
91 118 70
93 121 72
89 116 69
88 115 68
92 118 71
101 125 89
158 173 164
199 211 220
197 207 214
197 207 213
196 207 215
200 209 216
197 208 216
202 211 220
201 211 221
200 211 218
203 213 221
196 207 215
197 208 217
202 212 220
192 204 211
191 203 209
198 208 214
195 206 215
198 207 216
204 213 223
205 215 225
202 212 220
195 205 213
194 205 211
191 202 208
135 152 134
94 121 73
91 118 70
93 120 72
95 122 73
92 119 71
92 119 71
94 121 72
91 118 71
92 119 71
91 118 70
93 120 71
94 122 72
94 122 73
97 124 74
87 113 67
93 120 72
92 119 72
92 118 70
92 119 70
92 119 71
91 118 71
93 120 72
103 127 88
162 177 171
201 211 219
190 201 206
202 211 218
200 210 218
202 212 221
203 213 222
201 211 219
198 208 214
205 216 226
206 215 224
200 210 220
197 207 214
195 205 213
195 206 215
196 207 214
198 208 215
194 205 212
204 215 226
197 207 215
194 204 209
203 213 222
197 208 216
155 170 159
97 123 78
92 118 70
93 120 72
93 120 71
92 119 71
96 123 74
95 123 74
89 116 69
92 120 72
93 121 72
91 117 70
98 125 74
92 119 71
94 121 72
92 119 71
92 119 71
95 122 74
91 119 70
92 119 71
92 119 70
105 129 93
165 178 176
201 211 219
199 209 217
197 208 216
202 212 220
195 206 214
198 208 217
195 206 212
200 209 216
197 207 214
200 210 219
201 211 221
200 210 216
195 205 211
195 206 215
202 212 219
187 199 203
201 210 218
193 203 211
188 200 206
169 182 178
103 127 94
92 118 70
92 119 70
90 117 69
92 119 71
93 120 72
92 120 72
97 125 76
94 121 72
91 117 70
93 120 72
92 119 72
91 118 70
91 117 70
95 123 74
95 122 73
99 127 76
97 123 79
129 148 128
197 207 214
198 209 220
191 203 210
198 209 217
193 204 211
189 200 205
199 210 220
187 198 203
167 181 182
154 170 159
145 162 149
122 142 119
107 130 95
102 128 82
90 117 70
91 118 71
106 129 93
169 182 180
200 211 220
200 210 218
94 121 72
94 122 73
98 122 84
131 151 128
171 184 183
191 201 204
198 209 219
195 207 214
192 202 208
199 209 217
201 211 220
194 206 216
193 203 211
107 131 96
89 116 69
94 122 73
95 122 73
90 118 70
93 120 72
90 117 70
91 119 71
90 117 70
88 115 68
91 118 71
97 124 74
99 126 78
99 125 80
118 139 112
155 169 160
178 190 189
192 203 210
199 210 216
187 199 204
196 206 212
196 206 214
193 205 212
179 192 193
107 131 94
90 117 70
96 123 74
91 118 70
90 116 69
95 122 73
88 114 68
93 121 72
93 120 71
91 118 70
88 115 68
93 121 72
95 123 74
90 117 69
91 118 71
96 123 73
91 118 70
92 118 71
91 118 71
94 121 73
92 119 71
109 133 97
139 156 140
162 178 173
153 168 158
119 140 113
101 126 83
93 120 71
95 123 74
95 123 74
95 122 74
90 118 71
94 121 72
93 120 71
94 120 71
97 124 74
94 121 72
93 120 73
89 116 69
92 118 70
87 114 68
90 117 70
93 119 71
89 117 71
92 119 71
94 121 73
93 120 72
92 119 71
87 113 67
89 116 69
138 157 143
193 203 210
196 207 215
200 211 220
195 206 214
194 205 210
209 218 228
190 201 208
187 198 204
192 204 212
195 205 210
207 216 225
195 206 215
194 205 212
184 196 199
177 190 193
158 173 170
136 154 137
112 134 102
104 126 91
89 115 68
91 118 71
95 122 73
89 116 69
94 121 73
92 118 70
120 141 115
189 201 205
199 210 217
195 205 212
197 207 215
194 204 211
201 210 217
194 205 214
199 209 216
202 213 222
194 205 213
192 203 209
196 206 214
191 203 212
189 200 207
198 208 215
205 215 224
204 213 221
204 214 224
203 213 222
201 212 221
194 205 213
191 202 212
191 201 206
199 209 216
199 209 216
194 205 211
162 176 173
97 123 79
92 119 71
91 118 70
94 121 72
94 121 72
93 120 72
92 119 71
95 122 72
88 114 68
94 121 72
95 122 73
96 123 73
92 119 71
95 123 74
94 122 73
93 120 72
87 113 67
90 117 70
91 117 69
96 124 74
93 121 73
99 124 82
115 137 105
115 137 109
122 141 118
148 164 152
157 173 166
143 160 149
125 144 118
121 141 117
113 134 105
95 120 77
97 124 74
93 120 71
91 118 71
95 123 73
91 118 70
93 120 72
92 119 71
91 117 70
87 113 66
94 121 72
93 120 71
90 116 69
92 118 71
90 117 69
94 121 73
93 120 72
92 119 72
89 116 69
92 119 71
91 118 71
124 145 121
192 202 207
192 205 214
199 210 218
198 208 215
195 206 215
202 212 221
192 205 214
196 207 216
201 211 219
198 208 216
203 213 223
193 203 209
198 209 216
193 203 210
200 210 218
197 208 216
198 208 215
200 210 216
193 204 214
194 205 212
194 205 214
191 202 208
197 207 215
207 217 226
199 209 219
189 201 208
124 146 124
90 117 70
95 122 73
94 121 72
92 118 70
97 124 75
89 115 68
95 122 73
93 120 72
94 121 73
93 120 72
96 124 74
97 125 75
89 115 69
93 121 72
92 119 71
94 121 73
92 119 72
90 117 70
87 113 68
90 118 71
95 122 73
91 117 70
90 117 71
96 122 78
130 148 126
186 198 201
194 204 212
200 211 221
199 208 215
195 206 213
198 208 216
198 209 219
196 207 215
200 210 221
191 203 209
190 201 209
196 206 212
192 203 211
199 210 219
203 213 222
192 202 209
192 203 211
195 206 214
206 216 227
194 205 212
192 203 212
194 204 211
202 212 221
195 206 215
167 181 182
101 127 86
91 119 71
90 117 70
94 121 73
91 118 71
92 119 71
94 121 73
89 116 68
93 120 72
94 120 71
92 119 70
91 118 70
92 119 71
93 120 72
96 123 73
93 121 72
95 123 73
98 125 75
90 116 69
92 119 70
90 117 70
89 116 69
93 120 71
139 157 138
194 204 208
198 209 217
195 206 213
197 207 215
200 210 218
194 205 213
189 200 208
198 208 216
201 210 218
191 202 210
199 210 217
191 203 209
202 212 222
194 204 211
197 208 215
198 208 215
193 204 213
194 206 215
195 206 215
196 207 212
199 209 218
191 202 210
160 175 169
109 132 97
90 117 69
94 121 73
95 123 75
92 119 71
94 121 72
95 123 74
94 121 73
92 119 71
94 121 73
92 119 71
93 121 72
89 116 69
93 120 72
90 117 70
96 123 74
89 115 68
94 122 73
90 116 69
92 119 71
102 126 87
163 177 171
185 196 201
200 210 218
192 203 212
200 210 220
198 208 215
187 198 204
194 206 214
196 207 216
201 211 220
199 209 218
194 205 211
197 207 217
195 205 213
201 211 220
197 208 217
196 206 214
199 209 219
196 207 215
190 201 207
175 188 188
115 138 112
93 120 72
94 122 74
95 122 73
94 122 74
86 111 66
94 121 72
92 120 72
90 118 71
94 121 73
95 123 74
92 119 72
90 116 68
91 117 69
97 125 75
95 123 73
90 116 69
90 118 70
130 151 136
195 207 213
192 203 209
187 199 204
186 197 200
176 189 188
159 173 166
149 165 153
117 137 112
110 134 98
96 122 75
100 127 79
91 117 70
91 118 71
90 117 70
95 122 74
93 120 71
117 139 106
168 182 177
192 202 206
196 207 214
199 210 220
89 116 69
95 122 72
92 119 72
94 121 73
91 118 71
112 135 100
131 150 132
180 192 194
193 203 209
189 200 207
197 208 215
194 204 210
188 200 206
128 147 129
89 115 69
90 117 70
93 120 72
94 121 72
94 121 72
91 118 70
91 117 69
93 121 73
88 115 69
89 116 68
90 118 71
96 123 74
91 118 71
92 119 71
92 119 71
104 127 92
132 151 132
152 168 162
184 196 198
197 207 213
200 210 219
189 200 207
195 205 210
118 139 111
93 120 72
95 122 73
94 121 72
92 119 71
90 116 69
94 121 73
89 116 69
93 120 72
93 121 73
92 118 70
94 121 72
93 120 73
96 123 73
91 118 70
94 121 72
91 118 71
90 117 69
92 118 70
95 122 73
95 122 73
90 117 70
94 121 72
95 121 77
126 146 126
177 189 191
149 165 153
136 155 135
106 131 92
101 126 88
91 117 70
91 117 70
93 120 72
98 125 75
92 119 71
93 120 72
93 120 71
98 126 76
91 118 71
93 120 72
94 121 73
95 122 73
89 116 69
90 117 69
87 113 67
94 121 72
94 121 73
96 124 75
91 118 71
97 123 79
146 162 148
196 206 214
187 198 203
196 207 214
188 199 205
196 206 214
202 212 222
204 214 222
200 210 220
199 209 218
196 207 217
200 211 221
192 203 210
190 201 209
195 205 211
186 198 204
199 210 220
197 208 215
177 189 191
162 177 173
155 170 162
122 142 118
119 141 114
98 123 85
91 117 70
95 121 75
131 150 127
188 199 203
191 202 208
197 206 212
188 200 209
189 201 209
201 211 220
198 208 216
196 206 214
206 215 223
186 197 202
200 211 220
197 208 218
203 214 224
192 203 210
198 209 218
205 215 225
201 211 220
203 213 222
198 209 217
195 207 215
203 212 220
197 208 216
190 200 206
189 200 206
196 208 219
189 201 206
134 151 134
93 119 73
89 115 69
92 119 70
89 115 69
92 119 71
94 122 74
89 115 68
95 123 74
93 120 72
88 115 67
93 120 72
94 121 72
94 121 72
94 122 73
89 115 69
88 115 68
94 121 72
93 120 72
93 120 72
93 120 72
90 117 70
93 121 72
89 116 69
93 120 72
95 122 73
121 143 111
180 191 194
195 205 211
188 200 205
177 189 189
173 186 186
161 175 169
139 156 143
145 161 146
132 151 132
110 132 102
112 136 99
97 122 81
95 122 73
91 117 69
90 117 70
90 117 70
92 119 71
90 116 69
89 116 68
96 123 74
90 117 68
94 122 73
95 122 73
93 120 71
89 115 69
100 125 82
152 168 158
190 201 208
192 203 209
194 205 214
192 202 209
194 205 212
204 214 224
199 210 219
197 208 215
188 198 205
189 200 207
197 208 215
200 210 218
200 210 218
201 211 220
195 205 211
203 212 218
202 212 220
200 210 216
198 210 220
197 207 214
194 204 209
208 217 227
197 207 216
193 204 210
189 200 207
162 176 171
101 126 85
89 115 69
91 117 70
91 119 71
94 121 73
93 120 72
91 118 71
96 123 74
94 121 73
95 123 74
91 117 70
92 119 71
94 122 73
88 115 69
87 114 67
91 117 70
94 121 73
92 118 71
90 117 69
91 118 71
92 120 72
90 117 70
92 118 70
90 117 70
102 126 89
171 184 180
191 202 209
193 204 212
185 197 202
197 208 216
197 208 217
187 199 205
198 208 216
198 209 217
198 208 217
189 200 204
194 205 211
198 208 217
195 206 213
191 202 210
203 212 221
196 207 215
194 206 215
194 205 212
195 206 213
200 209 216
196 207 214
201 211 220
195 206 214
192 204 209
127 147 126
92 118 70
89 116 69
92 119 70
91 119 71
90 117 70
93 119 71
88 114 68
92 119 71
94 121 72
93 120 72
96 124 74
94 121 72
93 121 73
90 117 70
93 120 71
91 118 70
96 124 75
92 119 71
89 116 69
93 120 72
91 118 71
91 118 70
110 133 99
173 185 185
191 202 211
197 208 216
189 201 207
200 211 221
198 208 214
199 209 216
200 210 218
198 208 216
197 207 214
194 205 212
194 204 212
202 212 221
190 201 208
204 213 221
203 213 221
198 208 216
194 205 211
187 199 206
196 208 217
202 212 220
195 205 212
172 185 183
115 136 110
90 118 70
94 121 72
94 121 72
96 123 73
91 117 69
93 121 73
90 117 69
95 123 74
94 122 73
95 122 73
93 121 72
90 116 70
93 120 72
85 111 65
91 118 70
91 118 71
93 120 72
92 119 71
92 119 71
99 125 83
153 168 158
196 207 214
193 204 211
202 211 220
196 206 214
193 204 211
197 208 217
195 207 215
196 206 214
197 207 214
196 207 214
195 206 214
203 212 221
194 205 212
193 204 211
201 212 222
193 205 214
195 206 214
191 202 208
196 207 215
190 201 204
124 145 119
89 116 69
91 118 70
92 119 71
92 118 71
93 120 72
89 116 69
93 121 72
93 120 72
93 120 72
91 118 70
94 121 72
89 116 69
98 125 75
89 116 69
95 123 77
99 124 84
104 127 90
116 138 109
153 168 158
156 171 164
129 147 131
119 140 112
107 131 93
98 125 80
94 121 72
92 118 70
92 119 71
94 122 74
95 122 73
91 118 71
94 121 72
88 114 67
91 118 70
94 121 73
101 125 88
165 179 177
197 208 216
205 215 224
203 213 224
207 217 228
90 116 70
94 121 73
91 117 69
91 117 70
91 118 70
88 115 68
90 117 70
99 123 85
121 142 118
153 168 157
183 195 199
206 215 224
190 202 209
157 171 166
90 117 70
93 120 72
94 121 72
90 117 70
95 122 73
86 113 67
88 115 68
91 118 71
90 117 70
91 118 70
89 115 68
91 117 70
93 120 72
91 117 69
89 115 68
93 120 71
92 119 71
93 120 72
111 134 101
128 147 127
161 175 170
184 196 198
182 194 197
114 138 104
92 119 71
92 119 71
91 118 71
94 120 71
92 119 70
91 118 70
89 116 69
87 114 67
93 120 73
88 114 68
94 121 72
91 118 70
90 117 69
92 119 72
93 120 72
91 118 70
94 120 72
94 121 73
92 118 71
89 116 69
95 123 74
94 121 73
92 119 70
136 154 137
192 204 208
197 208 217
195 206 214
187 199 204
139 155 144
143 161 144
119 139 113
105 130 90
96 123 76
93 120 72
92 119 71
94 122 74
97 124 74
88 115 69
94 121 73
95 122 72
93 120 72
91 118 70
90 117 69
91 118 71
92 120 72
91 118 71
92 119 72
93 120 72
95 120 77
158 173 166
194 205 214
194 205 212
202 212 221
203 213 222
199 209 217
177 189 191
194 206 213
201 211 218
194 204 211
187 199 207
191 203 210
192 204 211
199 210 220
186 198 205
203 213 221
193 204 211
202 212 221
198 209 219
196 207 215
197 207 216
198 208 214
182 194 195
162 176 174
150 166 155
121 140 116
147 163 154
190 201 208
194 205 213
190 200 207
194 206 216
195 206 213
200 211 220
198 208 215
197 207 214
193 203 209
190 201 209
187 198 202
198 208 216
199 210 218
196 206 214
196 207 214
198 208 216
199 209 217
196 207 216
197 207 215
194 205 212
196 207 215
200 209 217
204 213 222
192 203 209
192 202 209
185 196 199
119 140 112
96 123 73
91 117 69
90 116 69
93 120 73
93 120 72
89 116 69
91 118 70
90 116 69
93 120 71
91 118 70
93 120 71
90 117 69
90 117 69
90 116 69
92 119 72
93 120 72
93 120 72
90 117 70
96 123 74
92 119 71
90 117 69
94 121 72
93 119 71
91 118 70
90 117 70
127 146 127
188 199 205
200 211 222
190 202 211
192 202 210
199 210 218
200 210 218
189 200 206
193 204 209
191 202 209
172 186 186
176 189 192
156 171 165
164 178 175
130 149 129
130 148 130
126 145 121
106 130 93
104 127 90
92 119 71
91 117 69
90 116 69
91 117 69
92 120 72
92 119 72
94 121 72
112 135 103
170 184 180
202 212 220
199 209 218
195 206 213
193 205 213
199 209 217
202 212 222
199 210 218
191 202 211
203 212 220
194 204 211
193 203 209
196 206 215
194 205 212
206 216 226
189 201 207
200 211 220
204 214 223
189 201 207
195 206 214
198 209 217
194 205 212
200 210 220
199 209 217
201 211 221
193 204 209
135 154 133
94 121 73
95 122 72
94 121 72
90 117 70
96 122 73
95 122 73
93 121 72
91 117 69
90 117 69
93 120 72
92 119 71
90 117 71
95 122 73
92 119 71
92 119 71
93 120 72
89 116 69
90 118 71
91 118 70
94 122 73
95 122 74
92 119 71
95 122 73
96 123 75
143 160 143
193 204 208
193 204 210
198 209 217
200 210 218
200 210 220
201 211 219
194 205 214
191 203 209
190 201 207
206 216 225
197 207 215
202 211 219
194 206 213
193 203 209
200 211 220
196 206 214
197 208 217
199 208 215
186 198 204
187 199 204
196 207 217
201 211 221
195 206 213
186 198 203
153 168 158
101 124 90
91 118 70
93 120 72
95 122 73
90 116 69
87 114 68
96 123 73
95 122 73
90 117 69
94 121 72
93 120 72
93 120 72
90 117 69
90 117 71
95 123 74
91 118 70
95 122 73
93 121 73
90 117 70
92 119 71
94 121 72
94 122 73
95 121 77
147 163 151
195 206 214
195 205 213
192 203 210
202 212 221
195 206 213
194 204 210
190 202 210
194 205 212
197 207 216
200 210 217
197 207 215
194 205 213
201 210 217
191 202 207
193 203 208
200 209 217
200 209 216
200 210 218
197 208 216
196 206 212
196 207 213
192 203 208
125 145 122
98 125 77
89 115 68
92 119 71
91 118 71
92 119 72
95 122 73
94 121 72
93 120 72
91 118 70
91 117 70
87 113 66
91 118 71
95 122 74
91 118 71
88 115 69
92 120 72
89 115 68
93 121 72
93 120 71
93 119 73
137 155 137
179 191 193
198 208 216
190 202 211
195 205 213
195 205 212
189 201 208
195 206 214
188 199 207
190 202 209
200 209 216
201 211 220
191 202 210
200 210 219
200 210 220
200 211 222
193 204 209
189 200 206
200 210 219
199 209 216
187 199 204
127 147 126
90 117 70
91 119 71
90 116 69
93 120 71
94 122 74
94 122 73
94 122 73
94 121 72
96 123 74
98 123 81
93 119 74
108 130 100
115 137 112
135 154 134
136 154 137
171 185 182
183 194 197
169 183 180
108 131 97
97 122 78
92 119 71
90 117 70
94 121 72
87 114 68
92 119 71
90 117 70
94 121 72
94 122 73
89 116 69
90 117 70
93 120 72
90 117 69
95 122 72
93 120 72
99 123 86
168 182 180
196 207 214
193 204 212
197 208 216
190 201 207
201 211 219
87 113 67
89 116 69
92 119 71
91 117 70
90 117 70
94 121 72
97 124 74
89 116 69
86 112 67
93 120 72
98 121 85
133 152 133
168 181 179
164 178 172
93 121 73
95 122 73
92 119 71
92 119 71
90 117 70
93 121 72
92 119 71
92 119 71
92 119 72
93 121 73
93 119 71
91 117 69
94 122 73
93 120 71
91 118 71
92 119 72
89 115 69
92 119 71
88 115 67
91 118 71
92 118 72
116 137 105
136 155 137
146 164 151
110 133 99
98 124 82
93 120 72
91 119 71
93 120 73
89 116 69
94 121 73
93 120 73
92 119 71
89 116 69
92 119 72
92 119 71
92 118 70
94 121 73
98 125 75
94 121 72
90 117 70
94 121 72
92 119 71
91 118 70
91 118 70
92 118 70
90 117 70
136 154 134
191 201 209
202 212 221
193 205 214
193 204 212
193 205 213
193 204 213
176 188 190
172 185 183
152 168 158
131 149 130
99 122 84
93 120 71
96 123 74
95 122 73
93 120 72
94 122 73
92 119 71
90 117 70
92 119 72
95 122 73
95 122 73
93 119 71
90 117 70
89 116 69
92 119 77
164 179 176
201 211 220
193 205 212
193 203 210
199 210 220
198 209 216
196 207 215
185 196 202
195 206 214
195 205 213
191 203 209
198 209 217
194 205 214
200 210 218
191 202 209
195 206 214
191 201 207
194 205 214
191 203 212
189 199 206
188 199 202
202 211 218
195 206 212
194 205 211
192 203 211
188 199 205
153 168 156
129 148 129
158 173 166
170 183 182
175 187 187
192 203 210
194 205 212
199 209 216
193 204 211
193 203 210
197 207 215
191 202 208
197 208 217
199 210 219
190 202 210
193 204 212
200 211 219
194 205 214
205 215 223
198 208 214
199 209 216
190 201 208
203 213 222
201 210 218
203 213 222
197 208 215
175 187 188
115 137 107
95 123 74
89 115 68
93 120 73
94 121 72
89 115 68
91 118 70
91 118 71
92 119 71
90 117 70
91 117 69
94 121 73
94 121 73
94 121 72
90 117 69
92 119 71
94 121 73
96 124 75
92 119 71
95 122 73
89 115 69
94 121 73
96 123 73
91 118 71
95 122 73
98 123 84
156 172 165
194 204 211
195 207 218
205 214 222
193 203 211
197 208 216
200 210 219
198 209 218
192 203 210
197 208 215
198 209 218
197 207 216
204 213 221
195 206 214
192 203 208
191 202 207
186 198 201
180 192 196
154 169 161
158 173 166
142 158 147
137 156 140
125 146 119
117 139 108
109 132 99
104 129 88
123 144 117
197 208 215
186 198 206
188 200 207
193 205 214
200 209 216
196 207 214
195 205 212
196 207 215
201 211 219
186 197 204
202 212 221
201 210 218
199 208 216
199 209 217
201 211 220
193 203 212
196 207 214
194 205 211
189 201 208
195 206 214
194 205 212
186 197 202
191 202 207
196 206 213
197 207 215
165 179 174
110 132 101
92 119 71
92 119 72
96 123 73
90 117 69
90 116 69
93 120 72
96 123 74
93 121 73
91 118 71
92 119 71
93 120 72
93 120 72
92 118 70
97 123 74
93 120 72
93 120 71
90 117 70
94 121 72
91 118 71
94 122 73
95 122 73
92 120 73
91 118 71
105 128 94
178 189 189
187 198 204
198 208 217
200 210 218
199 210 217
195 206 214
191 202 210
201 211 220
194 206 215
196 207 215
202 212 219
195 206 213
186 197 202
198 208 215
197 207 215
198 208 216
201 212 219
201 211 218
192 204 210
199 210 218
197 207 213
196 206 214
192 203 212
196 207 216
178 190 191
122 143 115
94 121 72
92 119 71
91 118 70
86 112 67
93 120 72
90 116 70
94 121 72
88 115 68
95 123 73
93 121 72
88 114 68
90 117 69
93 120 71
86 112 66
95 122 73
92 118 70
93 121 72
92 119 71
91 118 70
95 122 72
93 120 73
93 120 72
135 155 138
194 204 210
203 214 224
194 205 212
191 203 210
190 201 207
199 209 216
190 201 207
199 209 216
202 211 219
202 212 222
199 210 217
194 206 217
200 210 219
187 199 205
194 203 209
201 211 220
192 203 210
194 204 210
188 200 207
196 206 215
198 208 216
184 195 199
162 177 170
98 124 79
93 119 71
93 120 71
90 117 69
89 115 68
97 124 75
93 120 72
92 118 71
91 117 70
90 117 69
89 115 67
89 116 69
91 118 70
92 120 71
93 120 71
92 119 71
89 115 68
96 123 74
92 120 72
91 118 71
120 141 116
167 179 179
199 208 217
196 207 216
187 200 209
195 206 214
192 203 210
195 206 212
192 202 209
198 209 218
189 201 207
200 211 221
194 205 211
198 208 216
199 209 217
193 202 208
200 210 216
197 207 213
196 207 215
197 209 220
190 201 207
133 151 134
92 119 74
92 119 71
90 116 69
94 121 72
93 119 74
110 133 95
109 133 97
114 134 107
144 162 148
146 162 150
156 170 162
161 175 169
183 194 196
196 207 213
187 199 204
192 202 207
197 208 217
175 188 188
105 127 94
94 122 73
87 114 67
92 119 71
96 123 73
89 116 70
87 113 67
96 124 75
93 119 72
94 121 73
91 118 70
91 117 69
92 119 71
91 118 70
94 121 73
93 120 72
112 134 99
177 190 192
192 204 211
199 209 218
194 205 213
189 200 206
189 201 209
203 213 222
91 119 71
95 122 73
95 122 73
91 118 70
87 114 68
93 119 71
89 116 69
90 117 69
86 112 66
91 118 70
90 117 70
93 119 71
96 122 77
129 149 127
154 170 162
116 138 109
92 119 71
95 123 74
91 117 70
94 121 73
88 115 68
94 121 73
90 117 69
91 118 70
91 117 70
89 116 69
93 120 72
91 118 70
89 116 69
97 124 75
93 120 72
91 118 70
94 122 73
92 119 72
87 113 68
88 115 69
101 125 87
166 180 178
182 194 197
162 176 173
135 153 136
113 135 104
98 124 82
90 117 69
89 115 68
93 119 71
93 120 72
91 117 70
94 121 73
92 119 71
89 115 69
91 118 71
96 123 74
91 118 70
91 118 70
91 117 70
94 121 73
93 120 72
93 120 72
91 117 70
92 118 71
126 145 121
183 195 201
187 198 203
194 205 215
192 204 215
201 211 219
187 199 205
203 213 223
197 207 215
194 205 214
191 202 209
169 182 183
145 161 150
137 155 136
103 127 90
98 124 79
89 115 68
87 113 67
93 120 72
92 119 71
93 120 71
94 121 72
91 118 70
92 119 71
85 111 66
101 127 86
171 185 184
197 207 215
183 195 199
197 208 217
198 209 219
197 207 214
193 205 214
198 209 218
204 213 223
186 198 203
189 200 207
194 205 212
196 206 212
193 204 212
193 204 211
194 205 212
200 210 221
198 209 217
199 209 216
194 205 212
195 207 215
202 212 220
199 210 219
197 208 216
196 206 213
190 202 208
142 158 144
89 116 69
96 122 80
104 128 90
117 138 111
130 149 130
154 170 163
158 172 166
182 195 201
186 198 202
197 208 214
188 199 206
194 204 211
197 208 218
196 206 212
202 212 219
192 202 207
201 211 219
199 209 216
196 207 216
199 209 219
193 204 210
201 210 216
202 212 220
192 203 210
196 206 213
155 170 162
95 120 79
92 119 71
90 117 70
93 120 72
95 122 73
89 115 68
90 117 70
93 120 72
94 120 72
95 122 73
92 120 72
92 119 71
92 118 71
88 115 68
89 115 68
93 120 72
94 122 74
95 122 74
91 118 70
93 120 71
90 116 69
90 117 70
94 121 73
92 119 71
91 118 70
105 128 95
185 197 202
195 206 213
197 207 215
201 211 219
200 210 219
196 207 215
199 209 218
199 209 218
198 208 219
193 205 213
191 202 208
200 210 220
195 206 213
194 204 211
198 208 216
189 199 205
196 207 213
195 206 213
203 212 219
191 202 208
192 203 208
194 206 214
189 200 207
184 195 197
176 191 193
157 172 167
153 168 159
159 173 169
161 176 172
180 192 194
179 192 193
187 199 202
190 201 207
202 213 222
191 202 210
197 208 217
190 201 208
186 197 203
190 201 207
197 208 216
198 208 217
198 208 215
191 202 211
191 201 208
192 202 207
190 201 208
194 205 213
187 199 206
187 198 203
189 200 208
195 206 214
194 205 211
155 170 160
99 125 83
90 117 70
91 119 71
91 117 69
91 118 71
93 120 72
93 120 72
94 121 72
93 120 72
91 118 71
92 119 72
88 114 67
93 119 71
93 120 71
93 120 72
92 119 71
90 117 70
91 118 71
93 120 71
91 118 70
95 122 74
91 119 70
91 118 70
93 120 71
135 154 136
189 200 205
190 202 209
197 208 217
197 208 217
191 202 210
196 206 215
199 210 218
197 207 214
193 203 209
191 202 208
193 204 212
192 202 209
196 205 212
199 209 216
199 209 219
200 210 218
194 205 212
198 208 217
202 212 220
196 207 215
196 206 214
202 213 223
197 208 216
185 197 203
148 163 151
94 120 74
91 118 70
91 118 70
94 122 73
92 120 72
89 116 69
93 120 72
94 121 72
93 120 73
93 121 73
90 117 71
94 121 73
89 115 68
89 115 69
92 119 72
92 118 70
90 117 69
90 117 70
93 120 73
94 121 72
92 118 70
91 118 70
112 134 104
182 195 198
198 208 215
193 204 211
191 202 209
202 211 219
192 203 211
198 209 219
185 196 202
198 208 216
201 211 220
204 214 224
194 205 214
197 208 218
195 206 213
196 207 216
199 209 216
196 208 217
193 204 210
197 209 218
195 206 215
193 204 212
199 210 221
162 176 171
101 126 87
94 122 73
93 120 72
88 115 68
92 118 70
91 118 70
94 121 73
94 122 73
91 118 70
93 120 71
90 117 69
96 124 75
91 118 70
93 120 72
94 121 72
90 116 69
93 120 72
92 120 72
94 122 73
90 117 70
105 130 92
167 181 180
196 206 214
193 204 208
198 209 217
192 204 211
195 205 212
196 207 214
201 210 218
192 203 210
194 205 215
196 208 217
198 210 220
198 208 214
192 203 210
201 211 218
187 198 204
195 206 212
194 205 213
197 208 217
195 205 212
159 174 163
99 123 85
118 138 113
129 147 128
152 168 155
150 166 155
173 186 186
181 194 196
188 200 207
191 201 205
187 198 203
193 205 214
189 200 206
196 207 216
199 209 218
197 207 215
188 200 206
192 203 211
177 190 191
115 136 108
89 116 68
90 117 70
91 118 71
92 118 71
92 119 72
90 117 69
87 113 67
97 124 75
91 118 70
93 119 71
91 118 70
93 119 72
95 123 73
92 120 72
93 120 72
118 140 110
180 192 194
189 200 206
199 209 216
197 207 213
196 207 217
199 209 219
196 207 217
195 206 213
91 118 71
94 122 73
88 114 68
89 115 68
91 118 71
88 115 68
93 120 71
94 120 72
94 121 72
96 123 73
94 121 72
91 118 70
90 117 70
103 127 90
200 210 215
192 203 209
179 190 190
149 166 156
118 139 111
93 119 74
91 118 70
92 119 71
89 115 68
96 122 73
91 118 71
93 119 71
90 117 70
90 117 69
93 120 71
89 115 69
90 116 69
90 117 69
88 115 68
92 120 71
94 121 72
88 114 67
96 123 79
170 183 180
192 203 212
199 210 220
185 197 203
180 192 193
161 175 171
141 158 143
117 137 114
95 121 77
96 123 73
92 119 70
92 120 72
92 119 72
89 115 68
94 121 72
92 119 71
91 117 70
90 117 70
89 116 69
91 117 70
91 117 70
92 119 71
88 115 69
93 120 71
127 147 125
197 207 213
194 204 209
201 211 219
185 197 204
200 210 219
196 207 215
195 206 214
188 199 206
195 206 217
196 207 216
188 200 208
194 204 211
187 198 202
194 205 211
149 165 157
139 157 141
122 143 117
101 126 87
92 119 70
90 117 70
93 119 71
88 116 70
94 121 73
93 120 73
109 133 98
174 186 187
200 210 218
194 205 213
205 215 226
203 213 223
191 203 210
196 207 216
196 208 219
201 211 219
196 206 214
194 206 213
189 200 208
196 207 217
198 209 220
197 209 220
199 209 219
200 210 218
194 205 214
186 197 203
205 215 224
203 213 224
196 207 214
198 209 217
197 208 216
200 210 217
197 207 214
126 147 124
92 119 71
93 120 71
87 113 67
95 122 73
94 121 73
97 124 79
97 123 78
110 134 102
136 155 137
153 169 161
165 179 177
179 191 195
185 197 202
189 200 207
186 198 206
188 200 206
204 214 223
203 212 220
197 207 216
192 202 208
189 200 208
193 204 213
190 201 208
185 197 202
193 204 212
147 164 154
93 120 72
93 120 72
91 118 70
89 116 69
93 120 71
92 119 71
89 116 69
93 120 71
87 113 67
90 118 71
91 118 70
91 117 69
91 118 70
95 122 74
89 115 69
84 110 65
92 119 72
91 118 71
92 118 70
92 120 72
91 118 71
92 118 71
92 118 70
89 116 69
90 117 69
135 154 136
192 202 208
206 216 226
201 211 220
191 202 209
199 208 217
195 206 213
191 202 207
199 209 216
190 202 211
194 204 212
189 201 211
197 207 214
198 208 216
193 204 210
193 203 209
192 204 211
202 211 219
196 206 212
191 202 207
192 204 212
188 200 206
185 197 204
209 218 228
198 208 217
192 202 209
180 192 196
112 133 105
101 126 85
106 130 95
115 137 110
109 131 99
120 140 115
136 154 141
146 163 151
150 166 153
164 178 172
165 179 177
179 192 192
182 194 196
192 203 210
187 198 204
191 203 209
194 205 211
192 203 209
190 201 207
194 206 214
192 203 209
194 204 211
193 204 210
198 208 217
197 207 214
177 190 190
93 117 82
92 119 71
93 120 72
96 124 74
92 119 71
90 117 70
93 120 72
89 116 69
94 121 73
91 117 69
85 112 68
88 114 68
95 122 73
89 116 69
91 118 71
92 119 72
94 121 73
88 114 68
89 116 69
88 115 69
87 113 67
88 115 68
95 121 72
92 119 71
119 141 112
179 192 192
197 207 217
189 199 204
199 209 215
194 205 211
191 202 210
196 207 217
198 208 217
199 209 217
199 208 216
184 195 200
196 207 215
201 211 219
200 209 217
197 208 216
195 206 213
203 214 224
190 202 207
194 204 209
201 212 221
196 207 217
190 202 209
202 213 223
188 200 209
174 187 185
104 129 96
92 119 71
93 120 71
90 117 71
91 118 71
90 118 71
94 122 73
91 118 71
90 117 70
90 116 69
92 119 71
93 120 72
88 115 68
91 119 71
92 119 70
91 118 71
89 116 69
95 121 72
91 118 71
87 114 68
89 115 69
87 113 67
104 128 90
161 174 170
184 196 201
193 205 214
191 202 208
186 197 200
189 200 207
206 216 225
198 209 216
186 198 204
199 210 220
191 202 210
194 205 213
197 207 213
186 199 206
192 203 211
199 210 218
192 202 207
195 206 214
199 210 218
191 201 207
193 204 210
197 208 215
182 194 196
119 140 117
88 114 68
92 119 71
92 118 70
89 116 70
89 116 69
92 119 71
94 121 72
92 119 71
94 121 73
91 118 71
91 117 70
91 118 70
91 118 70
90 117 70
94 121 73
93 119 71
91 118 70
93 120 72
94 121 72
97 122 83
149 164 156
190 201 209
206 215 225
195 206 213
200 210 217
193 204 213
204 213 221
192 203 210
189 200 207
197 208 219
196 206 212
194 204 213
186 198 202
190 201 208
187 199 206
190 201 207
182 194 198
168 181 177
160 175 171
143 159 147
167 179 179
171 184 184
189 199 203
186 198 202
194 204 211
200 210 218
194 204 211
197 208 217
195 207 215
193 205 212
197 207 215
201 211 220
192 203 209
193 204 211
195 205 212
191 202 211
202 212 220
193 203 208
190 200 203
111 133 107
89 115 67
91 118 70
95 123 74
93 120 71
93 120 71
90 117 70
91 117 70
92 119 72
93 120 71
93 120 72
92 120 72
91 118 71
89 116 69
91 117 70
88 114 68
114 135 106
187 199 204
201 211 218
196 207 215
193 204 211
195 205 213
187 199 205
204 213 220
191 202 209
197 207 215
127 146 127
87 113 67
92 118 71
92 119 72
91 118 70
89 116 69
93 120 72
92 119 70
90 117 70
90 118 70
89 116 70
92 119 72
92 120 72
91 118 70
180 192 194
189 200 207
201 210 218
200 210 217
194 205 212
166 180 178
134 152 132
107 131 94
95 121 74
90 117 70
92 119 71
91 118 70
94 121 72
93 119 71
92 118 70
93 119 70
91 118 71
91 118 70
87 113 67
90 117 70
94 122 73
92 119 70
88 115 68
161 175 174
192 203 211
196 206 216
196 207 214
202 211 219
195 205 211
183 195 198
186 198 205
155 170 163
139 156 139
111 133 99
91 118 71
90 116 70
91 117 70
93 120 71
91 118 70
93 120 72
91 118 70
91 118 70
93 120 71
91 117 70
90 117 70
88 115 69
95 123 74
134 152 137
184 195 201
194 205 213
198 208 216
192 204 212
195 205 212
203 213 223
193 203 209
186 197 200
196 207 215
199 209 216
205 215 225
196 206 215
193 203 210
198 209 217
193 204 213
196 207 214
181 194 196
173 187 186
152 167 160
122 142 117
102 127 89
92 119 71
90 117 71
90 116 70
97 123 79
172 185 184
198 208 216
195 205 211
196 207 214
195 206 213
205 214 222
203 213 221
198 209 216
190 201 207
203 212 218
194 205 212
188 199 204
192 204 210
188 200 208
196 207 214
202 212 220
196 207 216
196 207 215
194 205 212
191 201 207
191 203 211
202 213 223
193 205 213
191 202 209
199 208 215
187 199 203
109 132 100
91 119 72
91 118 71
94 121 72
83 109 63
89 116 68
92 120 72
85 112 67
93 120 72
89 115 68
97 123 77
100 125 84
106 128 102
117 137 114
149 165 149
155 169 161
174 187 185
182 195 200
191 202 207
195 207 216
188 200 206
204 214 223
206 216 226
194 204 210
197 208 216
176 188 189
135 154 136
93 120 72
95 123 74
93 120 71
90 117 69
89 116 69
92 118 71
94 121 72
92 119 71
92 119 71
92 119 70
89 116 70
93 120 72
93 119 71
94 121 72
92 119 71
92 119 72
91 118 70
94 121 72
92 119 71
94 121 73
90 117 69
94 122 73
95 122 73
90 117 69
98 123 83
151 166 159
201 211 221
193 205 214
201 210 218
192 203 209
189 201 207
191 203 210
185 197 204
188 199 204
195 207 214
197 207 213
195 206 211
201 211 221
203 213 223
193 204 213
185 197 202
199 209 217
194 205 212
195 206 213
201 210 219
192 203 210
194 205 213
189 201 207
186 196 203
194 204 211
185 197 202
154 171 163
95 122 75
88 114 67
89 116 69
92 119 72
94 121 72
94 121 72
93 121 72
91 118 70
95 121 75
95 120 79
103 127 90
112 133 105
124 144 118
130 150 130
132 150 128
146 162 148
148 164 154
161 176 168
169 181 177
181 193 195
177 190 192
179 192 195
183 195 198
186 198 204
187 198 204
145 161 148
94 120 74
91 118 71
89 116 68
95 122 73
93 119 71
93 120 71
90 117 70
88 115 68
92 119 71
89 115 68
92 119 71
95 122 74
91 118 70
92 119 71
90 117 69
92 119 71
91 118 70
92 119 71
91 118 70
92 119 71
93 120 72
92 119 70
90 117 69
90 116 69
150 166 156
195 206 212
189 200 206
188 200 206
198 209 217
194 205 213
199 210 219
199 209 218
197 207 214
199 208 215
199 210 219
188 199 205
195 207 214
191 202 209
198 209 218
192 204 211
198 208 215
195 206 214
195 206 212
195 206 214
197 208 216
195 205 211
190 201 207
200 211 220
182 195 199
142 158 147
90 117 70
88 115 68
94 121 72
91 117 70
91 117 70
93 120 71
88 115 68
94 121 73
93 120 72
92 119 71
95 122 73
89 116 70
94 121 73
89 116 69
89 115 68
92 119 71
93 121 73
89 116 69
92 119 71
93 120 71
95 122 73
90 116 71
133 152 136
182 194 200
188 200 206
201 212 221
190 201 209
202 211 218
191 202 208
188 199 205
191 202 209
196 207 215
201 211 218
195 206 213
202 212 220
197 207 215
197 207 215
191 203 210
197 207 215
199 210 219
199 209 217
191 202 210
194 206 213
188 199 205
182 193 196
145 163 145
95 122 75
91 117 70
92 120 72
91 118 71
90 117 70
96 124 75
91 118 71
91 118 70
94 121 72
94 121 73
97 124 74
94 121 73
89 116 69
91 116 69
92 119 72
91 118 71
94 122 73
92 119 70
92 119 72
93 121 72
150 166 158
195 206 213
190 201 206
206 215 225
188 200 206
201 211 220
187 199 204
186 198 202
181 193 197
172 184 184
157 172 166
165 179 174
144 160 148
144 162 148
124 144 119
108 130 99
112 135 101
94 119 78
93 119 73
91 118 72
130 148 127
190 201 207
187 199 207
194 205 213
192 203 210
183 195 201
197 206 213
187 199 207
196 206 213
189 200 207
186 197 204
190 201 206
184 197 205
199 209 217
198 209 217
192 204 212
195 205 212
189 200 208
187 198 203
112 135 106
93 120 72
94 121 73
92 118 70
93 120 72
91 118 70
91 118 71
91 118 71
91 118 71
89 116 68
91 119 71
93 120 73
91 118 71
94 121 72
89 115 68
90 117 70
106 128 99
179 190 192
189 200 207
195 206 215
204 215 225
199 209 217
189 201 209
191 203 212
193 203 209
186 197 203
167 181 177
190 203 211
185 198 203
145 161 150
110 131 102
91 117 70
89 116 69
93 119 71
89 116 69
91 117 70
91 118 70
89 116 69
89 116 68
95 122 73
89 115 69
157 171 165
192 204 212
189 200 208
191 202 209
197 207 216
199 210 218
191 202 209
180 192 195
152 169 157
122 142 116
85 111 65
90 117 70
92 119 71
89 116 69
92 118 70
91 118 71
92 119 72
92 119 72
95 122 73
95 123 74
94 122 73
88 115 69
92 119 71
160 176 167
200 210 217
196 206 213
197 207 215
196 207 214
200 210 218
197 208 217
191 202 210
188 200 208
190 201 207
178 190 194
159 174 169
139 156 137
107 129 101
92 118 76
89 115 68
90 117 70
95 122 73
90 117 70
91 117 70
92 119 71
94 121 72
92 118 70
95 123 74
131 150 134
183 194 198
195 206 216
200 210 218
191 201 209
193 204 211
191 202 210
202 213 222
196 206 213
200 210 218
201 211 220
195 206 213
199 210 218
199 210 220
195 206 214
201 211 219
197 207 215
194 205 213
196 206 213
192 203 210
189 201 209
187 198 202
161 175 169
137 155 138
126 146 121
121 142 118
180 192 194
193 204 211
194 204 213
197 207 215
192 203 211
199 209 219
194 205 214
192 204 212
196 206 212
185 197 206
189 200 208
195 207 216
191 202 208
193 204 212
192 203 208
208 217 226
199 209 214
194 205 213
191 202 209
203 213 223
189 200 205
195 206 214
188 199 205
197 208 214
195 206 215
174 186 187
98 123 83
89 116 70
92 120 72
93 120 72
89 116 69
90 117 70
96 123 73
89 115 68
92 119 71
92 118 70
91 118 71
90 116 69
93 121 72
92 119 70
95 122 73
96 120 79
98 123 83
126 146 122
130 149 128
150 166 156
172 185 185
179 191 191
185 197 202
197 208 214
189 200 204
180 192 194
104 128 92
90 117 70
94 121 73
92 119 71
88 115 68
89 116 68
93 120 72
93 121 72
95 122 73
95 122 73
92 118 70
91 118 71
92 119 71
90 117 71
96 123 74
92 118 70
94 121 72
93 120 72
88 115 69
96 123 73
93 120 72
95 122 73
92 119 71
91 118 71
91 118 70
106 130 96
177 190 194
195 206 215
193 204 212
196 207 213
189 200 207
191 203 208
205 214 224
192 203 211
192 204 211
192 204 212
202 212 220
197 207 215
198 209 218
190 201 206
194 204 211
190 201 208
188 199 203
201 211 222
181 193 198
194 205 214
196 207 214
200 211 219
197 207 216
194 205 213
181 192 196
190 201 204
134 154 135
88 115 69
88 115 68
92 119 71
92 118 71
95 122 73
95 122 74
92 118 71
90 117 70
90 117 69
90 117 69
93 120 72
93 120 71
93 120 72
87 113 67
92 119 71
90 117 70
101 126 83
98 123 81
102 127 86
111 133 103
123 144 121
123 143 120
116 137 109
136 154 138
157 173 165
152 168 161
142 159 143
135 153 140
132 152 132
115 137 109
114 135 109
102 125 88
104 126 91
108 130 98
96 122 80
93 120 74
93 120 71
94 120 75
89 116 70
94 121 72
92 118 70
90 117 70
91 118 71
91 118 70
92 119 71
87 113 67
92 119 71
88 115 68
92 119 71
118 139 110
178 191 193
195 206 213
192 203 211
203 214 223
187 198 204
198 207 214
195 206 213
193 205 213
192 204 212
194 205 214
195 206 215
198 208 216
194 204 212
201 211 218
201 211 220
193 203 210
198 208 216
194 204 210
199 210 218
194 206 213
190 202 210
198 209 219
193 204 209
192 203 209
147 162 153
99 124 84
90 117 70
91 117 70
90 117 69
96 123 74
87 113 67
94 121 72
90 117 70
93 120 72
94 121 73
90 116 69
93 120 72
87 114 68
91 118 70
89 115 68
87 114 67
89 116 68
91 119 71
93 121 72
87 113 67
92 119 71
91 118 71
114 134 108
177 189 191
197 207 216
196 207 217
197 207 212
197 207 215
186 198 205
196 205 213
190 201 209
196 206 214
196 207 215
194 205 211
190 202 208
200 211 220
193 203 209
198 208 216
194 204 213
190 201 209
188 200 207
186 198 204
200 210 217
200 211 220
189 200 207
152 168 160
94 120 79
92 119 71
95 122 73
94 121 72
91 117 69
91 117 69
94 121 72
97 125 75
85 111 65
90 117 70
94 122 73
91 118 70
90 116 69
91 118 73
93 120 74
97 123 81
92 119 74
107 129 95
110 132 99
111 134 105
133 151 134
170 183 178
170 183 182
144 161 153
151 167 156
140 158 145
132 150 132
129 148 130
119 138 114
111 133 101
98 123 83
93 120 72
93 120 72
92 120 72
91 118 70
94 122 74
86 113 67
96 124 75
91 118 71
92 118 76
148 165 154
192 203 211
194 206 213
187 198 203
201 211 221
197 207 214
192 203 210
191 202 211
198 208 214
186 197 202
189 201 208
197 207 215
195 206 212
197 207 212
199 209 216
192 203 209
194 204 212
191 202 208
180 192 194
128 148 127
90 117 70
90 117 70
92 118 70
92 119 71
91 118 70
90 118 70
91 117 70
89 116 69
90 117 70
93 120 72
90 117 70
84 109 64
87 113 66
89 116 69
92 119 71
110 133 101
173 187 190
195 206 214
198 209 216
181 193 199
187 199 203
176 188 189
161 175 171
137 155 139
111 132 103
91 116 72
90 117 69
183 195 202
190 201 208
185 197 202
186 197 201
171 185 183
127 146 126
97 122 85
92 119 71
89 115 68
92 119 71
94 121 73
89 116 70
91 119 72
90 117 70
146 163 152
190 202 210
191 202 209
197 208 218
197 207 215
188 199 207
193 204 213
197 208 217
202 212 219
188 200 207
187 198 199
144 162 148
109 133 99
99 124 84
91 118 70
93 120 72
92 119 72
91 118 71
93 121 72
91 118 71
90 117 70
92 119 72
92 119 71
133 152 132
186 197 203
179 191 193
196 207 217
192 203 208
193 204 213
187 199 206
199 209 217
196 208 216
191 202 209
202 213 223
191 202 211
192 203 209
196 207 213
166 180 177
143 161 147
121 142 118
93 119 74
92 119 71
91 118 70
93 121 72
90 117 69
90 116 70
90 117 70
139 157 139
188 200 204
187 198 204
187 198 203
196 206 214
187 199 207
201 210 218
190 201 207
187 198 203
187 197 200
189 199 205
201 212 221
195 205 213
195 205 213
192 204 211
188 199 207
193 203 209
196 206 213
191 203 210
197 208 217
185 198 205
196 206 212
190 201 208
180 191 196
189 202 210
161 176 174
153 167 159
172 185 186
178 191 191
190 201 209
186 197 202
187 199 205
194 205 212
194 204 211
191 203 214
192 202 209
190 202 210
202 212 222
191 202 210
197 208 217
185 196 200
196 207 217
197 207 215
191 201 206
202 212 220
193 203 212
198 210 218
197 208 215
187 199 207
204 214 222
196 207 215
156 171 164
100 126 83
89 116 69
92 119 71
90 117 70
92 119 71
90 117 69
90 117 70
92 118 71
87 114 68
89 116 69
88 115 68
90 117 70
86 112 65
95 122 73
90 118 70
93 120 72
91 118 71
91 118 71
85 111 66
91 117 72
94 120 76
99 124 86
127 147 125
139 157 140
161 175 169
155 171 163
121 142 117
105 129 94
93 117 78
95 122 76
88 115 68
92 119 71
90 117 70
88 115 69
87 113 66
89 116 70
93 120 72
88 114 67
91 118 70
91 118 70
92 120 72
94 121 73
93 120 72
88 114 68
90 116 69
90 117 70
88 114 68
87 113 67
90 117 70
92 118 70
91 118 70
110 132 101
186 198 201
202 212 220
190 200 205
189 200 206
195 205 212
194 206 214
198 208 217
192 203 211
189 200 209
188 199 204
200 209 217
197 208 216
183 195 200
194 205 213
197 207 215
193 205 214
190 201 208
190 201 208
185 197 203
196 206 213
190 202 210
190 202 210
196 206 212
198 209 218
190 201 207
164 179 178
100 124 89
95 122 73
90 117 69
92 118 70
88 115 68
89 115 68
90 117 69
93 120 71
94 121 72
90 117 69
91 117 70
90 117 70
94 121 72
90 116 69
91 117 70
93 120 72
90 117 69
91 117 69
92 119 70
90 117 70
90 117 69
90 116 69
90 117 69
88 114 68
102 127 88
155 170 162
187 199 207
193 204 213
197 208 214
184 195 200
187 199 204
193 204 210
176 188 189
169 182 184
179 191 189
162 176 170
159 174 173
161 175 171
155 170 161
141 158 144
140 157 142
133 151 132
119 139 115
118 138 113
101 124 91
109 133 101
101 125 84
102 125 89
93 118 76
97 122 85
147 163 153
192 202 208
184 196 202
198 208 215
191 202 208
193 203 209
189 200 207
192 202 208
203 213 222
181 194 201
196 206 213
195 206 214
198 208 215
196 206 213
197 206 215
190 201 207
192 202 208
202 211 219
191 202 208
195 207 217
205 215 224
188 201 209
191 203 209
194 205 212
172 185 184
111 133 104
92 119 71
89 116 69
91 118 71
86 112 66
88 115 69
96 123 74
90 117 69
94 121 73
94 121 72
93 120 72
91 118 70
89 115 68
93 120 71
92 118 70
90 117 70
90 117 70
88 114 68
92 119 71
91 118 71
88 115 69
89 116 69
95 120 77
162 176 173
196 207 213
196 207 214
184 195 201
196 207 215
194 206 215
199 209 217
200 211 221
197 208 217
192 203 211
200 210 219
189 200 206
192 203 211
199 210 217
197 208 218
193 204 212
191 202 209
194 206 214
195 206 213
198 208 216
189 201 209
199 209 216
180 192 191
113 135 104
90 116 70
93 119 74
101 126 85
105 129 91
97 121 82
109 132 101
109 132 102
109 131 99
115 136 106
120 141 114
131 150 130
137 155 139
138 156 140
153 169 161
152 168 161
163 177 174
173 186 187
171 185 186
174 186 187
160 175 170
111 134 102
95 121 80
97 124 77
93 118 73
93 120 73
92 118 71
89 116 69
93 121 73
93 120 72
91 118 71
93 121 73
87 114 67
89 116 69
91 117 70
91 118 70
89 115 68
90 117 70
93 119 72
90 117 70
144 162 148
194 206 212
195 205 211
193 204 210
190 200 208
188 199 204
190 201 206
195 206 212
189 200 208
201 210 217
191 203 211
195 205 211
196 206 215
189 200 206
194 205 213
191 202 210
199 209 217
193 204 212
176 188 193
125 145 118
93 120 72
93 120 72
92 119 71
91 118 71
88 114 67
88 115 68
86 112 66
92 119 71
93 120 72
86 113 67
96 123 74
89 115 69
89 116 69
89 116 70
91 118 70
139 157 142
184 196 201
184 196 201
177 190 191
147 163 154
128 147 127
101 125 87
96 122 76
93 120 72
90 117 70
94 121 72
91 118 70
85 111 66
187 199 206
203 214 224
192 203 211
186 196 201
185 197 205
190 202 210
178 191 195
146 162 152
120 140 119
92 119 74
90 116 69
93 119 71
93 120 72
88 115 69
109 131 103
193 205 213
190 201 210
189 202 209
190 201 208
201 211 220
190 200 206
194 204 212
190 202 211
199 210 221
199 209 216
195 206 213
192 203 208
167 180 178
137 154 139
112 134 104
94 120 75
92 118 71
90 116 69
91 117 70
96 124 74
89 116 69
93 120 72
128 146 130
194 205 212
181 193 196
189 201 206
198 209 219
186 197 203
189 201 208
195 206 213
190 201 206
195 206 214
189 200 206
194 205 213
201 211 220
188 200 207
193 203 209
184 197 203
192 203 209
169 184 183
134 152 136
118 139 108
95 121 75
89 116 69
90 116 69
93 120 72
108 130 104
194 205 211
200 210 216
187 199 207
196 206 216
187 199 206
196 206 212
191 202 210
196 207 215
191 201 210
188 200 206
198 209 219
188 201 210
196 208 218
190 200 205
194 204 210
186 198 205
190 201 208
191 202 206
196 208 217
192 205 214
196 206 215
200 209 215
192 204 211
192 203 211
177 189 190
107 131 99
98 123 84
110 132 101
129 148 128
165 179 176
183 195 196
195 206 214
196 207 214
194 204 210
194 204 212
197 207 213
193 205 213
183 195 200
193 204 211
187 199 205
193 204 209
203 212 219
197 207 216
190 202 211
191 202 208
191 201 206
197 208 217
183 195 201
195 206 211
197 208 216
157 172 164
93 120 72
92 119 72
93 120 71
89 115 68
90 117 69
93 119 71
92 119 71
97 123 74
90 116 69
94 122 73
88 114 67
92 119 71
89 115 68
93 120 73
91 118 70
96 123 73
92 119 71
91 118 70
92 119 72
89 116 69
89 116 69
91 118 70
88 114 68
91 118 70
101 126 83
157 171 165
183 195 198
169 183 183
158 173 165
146 162 152
122 143 121
117 139 112
106 130 98
99 123 83
91 118 71
97 125 75
90 116 69
89 116 69
92 120 72
88 115 69
89 116 68
90 117 70
91 117 69
91 118 70
89 116 69
92 118 71
92 119 71
94 122 73
88 115 69
92 119 72
98 123 83
164 180 174
195 206 213
185 197 203
196 207 216
189 200 208
197 207 216
199 209 219
201 211 219
192 203 212
201 211 219
190 202 207
188 199 206
191 202 211
203 213 219
198 208 216
198 209 218
201 211 221
184 195 201
194 205 212
190 200 207
195 205 211
196 207 214
190 200 206
192 203 209
194 205 212
183 194 198
135 153 138
92 118 73
85 111 65
90 117 69
92 119 71
92 119 72
94 121 73
90 117 69
91 118 71
92 119 71
92 119 71
89 115 69
91 119 71
91 117 69
94 121 73
91 117 70
93 120 72
87 113 67
91 118 70
91 118 70
92 119 71
94 121 73
90 117 70
95 122 74
91 117 70
107 129 100
180 191 191
195 206 214
190 200 206
186 199 208
202 211 218
186 197 204
195 205 213
197 207 215
198 209 216
201 212 219
189 201 208
187 198 205
201 211 220
193 204 209
192 203 210
196 206 215
178 190 193
192 203 209
186 197 201
187 198 202
176 189 191
175 188 190
178 191 191
162 176 175
161 175 171
131 150 132
149 164 154
151 167 159
162 177 171
166 181 179
168 182 179
175 188 187
183 196 198
174 187 186
179 190 191
185 196 198
183 194 198
176 188 189
175 188 189
196 206 213
185 196 200
188 200 207
199 209 216
186 197 203
193 204 210
195 205 212
188 200 205
197 208 216
181 193 195
138 155 141
94 122 74
96 123 76
91 116 74
92 120 72
91 118 71
94 120 77
90 118 70
91 118 70
92 119 72
92 120 71
92 119 74
91 118 70
92 119 73
90 117 70
90 117 69
91 118 71
93 120 71
92 118 73
90 117 70
94 120 77
95 121 75
100 124 86
129 148 130
186 197 202
187 198 204
198 208 217
187 198 202
191 203 209
195 206 215
192 202 208
194 204 213
196 207 216
190 201 207
191 202 208
184 194 197
177 189 193
189 200 207
180 194 196
175 187 188
177 190 194
175 188 187
169 183 182
168 180 178
154 169 160
171 184 182
152 167 162
150 166 157
147 163 151
156 171 165
171 184 183
166 180 176
180 193 196
189 201 205
185 197 200
180 193 195
186 198 204
196 207 215
194 204 209
189 200 208
188 200 206
190 202 210
194 206 214
192 203 210
198 208 215
194 205 212
179 191 192
119 140 115
85 112 66
93 120 72
90 117 69
88 114 67
93 119 71
92 119 71
91 118 71
92 120 72
92 118 71
89 115 68
88 114 68
91 118 70
91 119 71
92 119 71
90 117 70
92 119 71
93 120 72
91 117 70
130 149 128
193 204 209
188 199 204
196 207 216
192 202 209
193 203 211
191 202 211
184 196 203
197 208 216
195 205 211
179 192 197
201 210 219
196 206 214
196 206 213
193 205 213
195 206 214
191 203 212
193 204 212
185 197 198
119 141 116
94 121 73
94 121 72
87 113 67
93 120 72
91 118 70
92 120 71
91 118 71
92 119 71
92 119 71
90 117 70
93 120 72
91 118 71
88 115 69
102 127 90
116 138 109
108 131 98
127 147 125
126 146 122
96 121 83
91 118 71
91 118 71
92 119 71
89 116 69
87 114 68
91 118 70
92 119 71
91 118 71
89 116 69
90 116 69
196 207 215
187 198 203
187 198 205
186 198 207
199 209 217
200 210 218
185 196 202
188 199 206
187 199 204
168 181 178
130 148 132
102 124 91
91 118 71
93 120 72
103 127 88
186 198 201
195 205 211
201 212 220
190 202 209
193 204 211
199 209 217
190 201 208
199 209 218
193 204 211
192 203 209
187 198 204
183 196 203
185 196 202
191 202 209
186 197 203
159 174 170
144 160 147
108 131 99
90 116 71
93 121 73
85 112 65
90 117 69
130 149 127
188 200 206
190 200 206
196 207 216
193 204 211
196 206 214
195 206 213
194 205 215
192 203 210
189 201 208
183 195 202
191 203 212
186 197 203
195 205 213
195 207 217
189 201 208
194 204 209
189 200 206
191 202 208
182 195 202
176 188 187
140 157 143
118 139 111
87 113 69
120 140 120
188 199 207
192 203 212
200 210 216
178 191 198
197 207 216
193 204 212
203 213 221
193 203 209
200 210 217
187 199 205
193 203 211
188 199 206
195 205 213
195 206 214
194 204 211
191 203 211
184 196 201
193 204 212
189 200 208
185 197 202
199 209 217
186 197 203
197 208 219
185 197 201
164 178 175
94 120 74
92 119 71
89 114 68
90 117 69
93 119 73
111 132 102
116 137 109
149 165 156
157 172 166
183 195 198
176 189 193
198 207 214
196 207 214
197 208 214
196 207 214
198 208 218
198 209 218
200 210 217
193 205 213
189 201 208
190 201 208
189 201 208
198 208 216
193 204 211
191 203 209
133 152 133
90 117 69
91 118 70
90 117 70
86 113 66
93 120 72
90 117 70
88 114 68
92 119 71
92 118 71
92 119 71
94 121 73
89 116 69
92 119 71
92 119 71
89 115 68
91 117 70
91 118 71
90 117 69
89 115 69
92 120 72
86 112 67
90 117 70
89 115 69
93 120 73
112 135 101
169 183 182
201 210 217
200 211 219
200 210 219
191 202 207
185 196 201
175 188 187
178 191 192
167 181 178
144 162 150
135 153 134
114 136 104
102 125 89
94 121 75
89 116 69
94 121 72
91 118 70
91 118 70
90 117 70
88 115 68
94 122 73
92 119 71
94 121 72
89 116 69
91 118 70
108 130 98
181 193 195
200 209 217
196 207 217
196 206 214
193 203 211
186 198 206
194 205 214
196 207 217
196 207 214
197 208 216
197 207 215
196 206 214
187 199 205
193 204 211
196 207 216
188 199 202
197 208 217
190 202 208
202 212 220
198 208 217
201 211 221
189 201 208
188 199 205
199 209 217
200 211 222
182 193 196
116 137 111
92 119 71
92 119 72
93 120 72
92 119 71
86 112 66
97 124 74
92 119 71
91 117 70
92 119 70
90 116 69
93 121 72
92 118 70
90 117 69
94 121 72
91 118 71
90 117 70
89 116 69
93 121 73
91 118 70
92 119 70
93 120 71
93 120 72
90 117 70
87 112 72
147 163 151
187 199 204
184 196 199
193 204 213
193 204 211
185 197 203
200 210 220
189 200 205
193 203 208
195 205 212
194 205 210
195 206 215
192 203 209
193 204 210
196 207 214
184 196 203
203 212 220
198 209 219
194 205 213
197 207 215
196 206 212
197 207 215
199 210 219
185 197 203
195 206 213
135 154 135
95 121 77
96 122 79
90 117 70
97 122 80
93 119 76
96 121 80
100 127 81
93 119 74
103 127 90
118 140 111
114 134 107
113 135 102
109 132 103
112 135 104
112 133 107
122 142 119
128 147 128
109 133 101
111 133 103
130 150 132
126 147 125
118 138 114
144 160 148
159 173 167
147 163 152
157 172 165
159 173 168
147 163 153
151 167 157
154 169 161
145 161 148
150 165 158
157 172 166
161 175 170
152 167 158
145 161 151
143 160 145
140 158 148
143 159 151
160 175 170
150 167 154
135 151 136
147 162 152
154 169 161
151 166 158
147 162 148
151 166 157
130 148 131
139 155 145
138 156 142
146 161 152
134 151 134
130 149 130
135 153 134
134 152 132
130 149 130
109 131 102
125 145 123
124 145 123
120 141 112
122 143 120
113 135 107
115 136 104
104 127 95
118 139 111
105 129 91
94 120 78
97 122 82
111 132 103
171 184 184
196 207 215
192 202 209
195 207 216
183 195 199
190 202 210
203 212 220
187 198 205
192 202 207
189 201 207
187 199 205
187 198 207
194 205 213
186 197 203
188 200 207
191 202 209
195 205 214
193 204 212
188 199 205
196 207 216
184 196 201
131 150 130
91 118 71
90 117 70
91 117 70
89 116 70
89 116 69
93 120 71
89 116 69
93 120 72
93 120 71
92 119 72
92 119 71
90 118 71
89 115 68
91 118 70
90 117 70
91 118 70
92 119 71
91 119 71
124 144 122
181 193 197
205 214 223
200 211 220
190 202 210
192 204 213
194 206 215
193 204 214
190 201 208
193 204 210
203 213 222
196 207 216
193 204 213
201 211 220
197 208 215
190 200 206
194 205 213
186 198 203
181 193 198
139 156 138
92 119 71
85 111 66
92 119 72
92 119 71
88 114 68
92 119 71
94 122 74
93 121 73
86 112 65
89 115 71
101 125 87
124 144 123
156 172 165
166 180 178
190 201 206
159 173 166
92 117 75
87 114 68
91 118 70
83 109 65
89 116 69
93 120 72
88 114 68
89 115 69
92 118 70
92 118 71
91 117 70
94 120 72
90 117 69
89 115 68
188 199 206
200 209 216
199 209 217
201 210 216
188 199 206
193 205 213
191 202 209
190 201 208
193 204 214
199 209 217
178 190 194
180 192 197
173 186 185
127 146 124
93 118 78
186 197 200
183 195 201
184 196 201
189 201 207
200 211 219
191 202 207
194 205 215
184 196 201
185 196 202
193 203 208
192 203 211
189 199 204
200 210 219
194 205 212
191 202 208
202 211 218
191 202 209
194 205 212
174 188 190
118 137 117
108 132 99
91 118 70
104 127 92
185 197 204
187 198 202
189 202 210
197 207 214
186 197 203
197 207 215
197 208 217
188 199 207
193 204 211
190 202 211
187 199 207
190 201 207
193 204 211
191 203 212
197 207 214
188 199 206
195 205 212
190 202 211
187 200 208
192 203 209
189 200 208
191 202 207
167 181 180
167 181 180
160 174 171
192 203 212
196 206 213
197 209 222
191 203 210
194 204 211
185 197 204
191 203 211
190 201 209
193 205 213
193 203 210
197 207 216
198 208 216
201 211 217
196 207 215
198 208 218
196 207 216
199 209 216
197 208 215
197 207 214
190 201 208
197 208 216
187 198 205
194 205 213
157 172 165
95 120 77
93 120 72
89 115 68
87 114 67
90 116 69
90 118 70
87 114 68
96 123 74
92 118 73
106 130 94
124 143 121
155 171 163
173 186 184
186 198 203
190 201 206
186 197 203
191 202 207
189 201 210
193 204 212
191 201 209
201 211 220
193 204 210
185 197 204
188 200 207
180 193 196
122 143 116
87 113 68
89 115 69
92 119 72
91 118 70
92 119 71
93 121 72
89 116 69
90 117 71
87 113 67
92 119 71
90 116 69
89 116 69
93 120 72
92 119 71
91 118 70
87 113 66
90 116 69
93 120 72
92 119 71
95 123 74
92 119 71
91 118 71
90 116 69
86 113 67
117 138 110
183 195 199
195 205 210
195 206 214
190 200 205
191 202 207
189 201 207
187 198 206
182 192 195
190 202 211
196 207 216
179 191 195
182 193 193
179 191 192
151 166 159
150 166 155
126 146 126
107 129 99
119 141 112
90 115 71
97 124 79
88 115 68
90 117 70
88 114 68
92 120 72
88 114 68
119 140 117
183 194 199
187 199 204
189 201 207
178 190 194
190 201 207
188 200 208
202 212 222
189 201 206
190 201 207
187 199 205
192 203 210
197 207 216
199 209 218
190 201 207
197 208 216
190 201 209
192 203 211
191 202 208
197 207 214
197 207 215
198 208 216
196 207 215
203 213 222
187 199 206
190 201 209
168 181 179
106 130 91
92 119 70
95 122 73
87 113 67
93 120 72
90 117 70
89 115 69
88 114 68
91 118 70
95 122 73
90 116 69
93 120 73
89 116 69
92 119 71
92 119 72
89 115 68
92 119 71
90 118 70
90 117 69
94 121 73
94 121 73
93 120 72
91 117 70
88 114 67
113 136 105
169 183 181
187 199 206
192 204 212
200 211 222
190 201 208
192 202 209
187 199 205
197 208 216
194 204 210
187 199 205
191 204 214
193 204 213
193 204 209
195 205 214
192 203 210
200 210 217
202 213 224
193 205 214
180 193 199
194 205 213
192 203 211
197 208 217
188 199 206
190 202 211
178 191 191
107 129 97
88 115 68
91 118 70
89 115 68
91 117 69
87 114 68
92 119 71
89 115 68
88 115 68
92 119 71
88 115 68
91 117 70
93 120 72
91 117 70
92 119 71
94 121 73
89 116 70
94 121 73
88 115 68
91 117 69
93 120 72
92 119 70
94 121 72
114 135 108
179 191 193
187 199 206
192 203 210
191 202 209
195 204 211
195 205 211
201 212 222
192 202 209
193 203 210
189 200 206
197 208 218
194 205 213
195 206 213
195 206 214
199 209 217
189 201 209
190 201 206
194 205 212
195 206 214
201 211 219
196 207 215
190 202 210
198 209 216
140 158 143
92 119 73
91 118 71
94 121 73
86 112 67
92 119 72
89 116 69
94 121 72
90 116 68
92 119 71
93 121 73
89 116 69
91 118 70
92 119 71
87 113 68
89 116 69
88 115 69
90 117 69
85 112 67
89 116 69
87 113 68
96 123 79
160 175 169
194 206 214
191 203 210
189 200 206
192 202 209
194 205 212
192 203 212
195 206 214
192 203 209
199 209 218
184 196 203
198 209 217
191 202 210
188 200 209
195 205 213
192 203 209
194 205 213
196 207 216
197 207 214
187 198 204
189 200 206
136 153 142
95 121 78
90 116 68
92 119 72
87 113 68
91 117 70
91 118 70
93 120 72
93 120 72
91 118 69
92 119 71
86 112 67
93 120 71
90 116 69
92 119 71
91 118 71
90 117 70
86 113 67
90 117 70
118 139 112
190 200 204
197 207 216
186 197 203
197 208 216
196 207 216
196 207 216
197 207 213
204 215 225
186 198 204
193 204 210
192 203 210
192 203 210
194 205 213
188 200 206
188 199 207
192 203 208
190 201 209
182 194 200
122 142 119
91 118 70
90 117 69
89 117 70
91 118 70
90 116 69
92 118 75
115 137 107
115 136 111
147 163 149
167 180 180
172 185 187
195 206 211
184 197 205
191 203 209
193 204 212
152 167 162
98 124 82
93 119 72
89 116 68
89 116 69
92 119 71
92 118 71
91 117 70
90 117 70
92 119 71
91 118 71
90 116 69
91 117 69
87 113 67
96 121 77
152 168 160
186 197 203
197 208 217
187 199 205
195 206 216
192 204 213
192 203 210
185 197 204
185 196 200
186 197 205
194 205 211
196 207 217
191 202 208
183 194 200
188 198 202
178 190 191
163 176 172
169 181 182
187 199 206
194 206 214
182 194 200
193 205 215
195 205 214
188 199 208
191 202 209
194 204 212
191 202 209
189 200 206
184 195 200
196 207 216
198 210 220
199 208 216
195 206 215
197 208 214
189 199 206
189 200 207
192 203 207
157 171 166
145 162 150
193 204 210
190 201 208
197 207 214
195 205 210
182 194 200
183 195 202
190 201 208
193 203 212
192 203 211
191 202 209
187 198 206
181 193 199
196 206 214
187 199 206
189 200 205
189 201 207
196 207 214
191 203 210
191 202 210
198 209 216
199 209 218
178 189 192
196 206 213
174 187 186
101 127 83
110 133 101
151 166 156
160 175 169
167 181 182
195 205 212
189 199 204
197 207 215
200 210 221
188 199 205
193 204 211
187 199 206
195 206 213
196 208 217
188 198 203
188 200 206
193 204 211
193 204 211
194 205 215
195 205 213
201 211 219
200 211 221
182 193 198
202 212 221
154 170 162
92 120 72
91 117 69
90 116 69
89 115 69
91 118 71
92 119 72
93 120 73
92 119 71
89 115 69
87 114 68
93 120 71
90 117 70
100 125 85
113 134 105
130 148 129
151 168 158
172 185 185
175 188 187
190 202 209
186 197 204
192 202 209
191 202 207
192 203 210
195 206 215
177 190 188
117 139 110
91 118 70
89 116 69
90 116 70
88 115 69
90 117 70
94 121 72
93 120 72
93 119 71
87 113 67
90 118 71
91 118 71
92 119 71
90 117 70
90 116 69
89 116 69
89 116 69
91 118 71
93 120 72
93 120 72
89 117 70
92 119 71
94 121 72
89 116 69
96 123 76
147 163 151
181 193 196
196 207 215
190 202 208
190 202 209
196 207 216
203 213 224
195 206 214
193 204 209
200 210 219
193 203 211
183 195 199
185 196 201
198 208 216
201 211 219
194 205 214
190 202 210
189 201 206
179 192 195
160 175 169
158 173 165
134 151 134
110 133 100
111 133 104
99 124 82
100 126 83
170 182 182
201 211 219
191 202 208
201 211 220
194 206 215
195 206 214
200 209 216
186 198 202
201 211 220
202 212 221
196 207 215
193 205 214
200 211 221
197 207 214
191 202 208
191 202 210
193 204 210
190 202 210
197 208 216
196 207 216
181 194 200
192 203 210
190 202 210
192 203 209
195 205 212
183 194 201
115 137 113
92 119 71
91 118 71
87 114 67
95 123 73
89 116 68
90 117 70
91 117 69
91 117 70
89 116 69
87 114 69
87 113 67
88 115 67
92 119 71
93 121 73
92 118 70
87 114 68
93 121 73
88 114 67
93 121 73
92 119 71
90 116 69
91 118 70
86 113 67
94 120 77
145 162 150
193 204 212
193 204 212
192 202 209
204 214 221
186 197 204
189 200 205
200 210 218
193 205 215
189 200 207
192 203 210
184 194 198
187 199 207
192 204 212
191 202 210
193 204 211
183 195 200
186 197 202
198 210 220
197 207 216
194 205 210
201 211 221
187 199 206
190 202 210
192 202 207
146 163 152
90 117 69
92 119 71
92 119 71
94 121 72
91 117 69
92 119 72
90 118 70
92 119 71
91 118 71
89 116 69
90 117 70
97 125 76
92 119 71
92 120 72
93 121 73
90 117 70
89 116 69
94 121 72
92 118 70
92 119 72
90 117 69
90 116 69
106 129 93
155 169 161
188 199 206
189 201 209
190 202 209
197 207 216
193 204 211
187 199 203
192 203 211
193 204 211
182 194 198
191 201 208
196 207 214
194 205 213
195 206 214
190 201 206
187 198 203
187 199 205
194 205 211
190 201 208
195 206 213
195 206 212
186 199 208
177 189 193
153 169 163
93 118 79
89 116 70
90 116 69
88 115 68
89 116 69
89 116 69
91 117 69
90 117 69
84 111 65
91 118 71
91 118 70
91 117 69
89 116 69
91 117 70
92 119 71
90 117 69
93 120 71
95 123 74
93 120 72
89 115 69
96 121 77
147 163 152
197 208 215
194 204 210
185 197 204
187 198 205
197 208 217
188 200 205
189 200 206
190 202 210
196 206 214
191 202 209
194 205 212
193 204 212
191 202 210
195 206 214
194 205 211
192 202 207
188 199 206
196 206 212
185 197 205
192 202 209
139 157 144
102 126 88
89 116 69
92 118 70
87 113 67
95 122 73
91 117 69
87 114 68
92 119 71
92 119 71
91 118 70
88 115 68
87 113 68
92 119 71
87 113 67
86 113 67
90 116 70
93 120 72
90 117 70
111 133 100
176 188 189
185 196 200
183 194 199
195 206 214
192 203 212
195 205 213
198 208 216
199 208 216
198 208 216
191 203 211
194 205 212
200 211 220
191 202 209
196 207 215
193 203 210
192 203 214
200 210 218
182 194 198
117 138 112
90 116 69
99 124 84
117 138 110
128 148 127
150 165 154
162 177 174
186 197 200
192 202 207
190 201 208
188 200 209
197 207 216
189 200 208
197 207 216
196 206 214
189 200 207
152 168 161
98 122 87
90 117 70
92 118 70
91 118 70
92 119 72
91 118 71
88 115 69
92 119 71
88 115 68
90 117 69
93 120 72
91 118 70
91 118 71
93 118 77
171 184 185
199 210 217
106 128 92
154 169 158
179 192 193
185 197 202
185 197 203
193 205 214
196 206 214
182 194 201
189 200 207
197 207 215
184 195 200
190 201 208
192 202 209
186 197 204
193 204 211
167 181 176
101 125 89
115 135 112
146 162 151
197 208 216
193 203 209
184 195 201
185 198 206
188 199 204
188 199 205
200 211 221
195 207 216
192 204 213
191 202 209
186 197 202
186 198 205
189 199 204
195 205 212
198 208 215
189 200 208
191 202 211
186 198 205
199 209 217
124 143 125
132 152 133
171 183 182
195 205 210
188 200 208
193 204 211
192 203 209
192 203 210
196 206 213
180 192 198
191 202 208
188 199 203
189 201 206
190 201 208
182 195 201
196 206 212
193 205 214
198 209 219
187 199 207
194 205 212
198 207 214
189 200 207
188 200 209
172 185 182
100 126 85
90 117 69
92 118 71
94 121 77
108 131 99
130 148 131
158 173 166
187 198 203
186 198 206
196 207 217
198 209 217
190 202 211
198 208 214
197 207 215
194 205 212
200 211 221
187 198 204
185 195 200
189 201 207
188 199 205
197 207 215
197 207 215
192 203 208
186 197 204
152 167 159
91 118 70
91 117 69
92 119 71
93 120 72
92 118 71
88 115 68
89 116 69
87 113 68
93 119 71
91 118 70
92 118 70
89 116 70
88 115 68
91 117 69
89 115 69
91 117 69
100 124 89
114 136 104
128 149 128
149 166 153
175 189 192
187 199 205
190 202 211
192 203 212
163 178 175
94 121 75
86 113 66
88 114 67
92 119 72
95 122 73
97 124 75
92 118 70
92 119 70
90 117 69
89 116 69
90 117 71
90 116 69
92 118 71
88 114 68
93 121 72
87 113 66
90 117 69
88 114 68
90 116 69
91 119 71
88 114 67
90 117 70
91 118 71
88 115 68
96 123 77
166 180 175
193 203 210
189 200 205
189 200 208
193 204 211
186 197 204
193 203 211
192 203 211
195 206 215
194 204 211
198 208 217
187 197 203
195 206 213
195 206 213
199 209 216
195 206 214
195 205 213
196 207 214
190 202 210
193 205 214
183 194 199
186 197 202
190 200 205
182 193 198
174 186 186
160 175 168
143 159 145
167 180 178
180 192 195
176 188 192
191 202 207
188 199 203
197 208 217
197 208 217
188 199 205
196 207 213
200 210 218
191 202 207
186 197 202
190 201 208
195 206 214
200 210 219
196 207 216
190 202 210
193 203 210
199 210 218
188 198 203
196 207 215
191 202 207
188 200 208
188 200 208
172 185 183
106 130 90
89 115 69
95 122 73
87 114 68
91 118 71
90 116 70
92 119 71
89 116 70
92 119 71
90 117 69
90 116 69
93 121 72
90 117 69
88 115 69
90 116 70
88 115 68
92 119 71
92 118 71
95 122 73
96 124 74
91 118 70
90 117 70
88 114 67
89 115 69
117 138 115
182 194 198
193 204 210
200 210 218
187 198 205
188 199 205
185 197 202
184 196 200
190 202 208
194 205 212
202 213 223
192 203 210
190 201 209
189 202 209
193 205 215
186 198 205
191 202 210
199 209 217
192 204 213
194 205 210
189 200 207
196 207 216
192 203 212
199 211 221
189 200 206
167 180 178
102 124 90
91 119 71
86 113 67
91 118 71
93 120 72
93 120 72
93 120 72
88 114 67
92 119 71
89 115 68
89 115 69
90 118 71
91 118 70
94 121 73
89 116 69
88 115 69
93 120 72
88 115 68
92 119 71
91 119 71
92 119 71
88 114 68
95 121 75
133 151 134
189 200 204
191 202 208
191 203 211
193 205 212
196 206 214
189 200 207
179 192 198
192 203 210
189 199 204
189 199 204
193 204 212
200 211 223
192 203 209
193 204 212
189 200 207
194 205 213
190 201 208
196 206 215
200 210 216
189 200 207
193 204 212
192 203 208
174 186 186
105 129 96
89 116 69
93 120 72
96 123 73
87 114 68
91 118 71
92 119 71
92 119 72
90 117 69
88 115 68
90 116 69
91 117 70
92 119 71
89 115 68
89 115 69
91 118 71
88 114 68
90 117 69
91 118 71
90 118 70
88 115 69
127 146 121
179 191 195
200 210 218
197 208 217
191 202 211
186 198 206
191 203 211
193 204 213
178 190 193
194 204 212
196 207 215
197 208 217
195 206 216
188 199 206
194 205 213
200 210 218
183 194 198
185 198 204
188 200 206
201 211 220
187 198 204
169 183 178
91 116 74
93 121 72
90 117 70
89 116 69
90 117 71
91 118 70
88 115 68
92 119 71
90 117 69
85 111 66
85 111 66
90 117 69
93 120 71
89 116 69
90 117 69
91 117 69
90 117 69
90 116 69
98 123 85
176 188 191
198 208 217
195 206 214
194 204 211
188 199 205
190 202 207
195 206 212
183 195 202
190 201 206
192 202 208
190 200 207
194 205 214
196 207 214
193 204 212
196 206 213
195 206 215
187 198 203
189 201 207
163 177 174
144 160 150
161 175 172
180 191 194
187 198 205
192 203 208
196 207 215
182 195 199
190 202 208
187 198 201
190 201 207
185 196 201
192 202 209
194 205 212
191 202 209
192 203 210
144 160 146
90 116 72
92 119 71
88 114 68
89 115 68
94 120 72
92 119 72
85 112 66
88 114 67
93 120 72
90 118 71
86 112 66
90 117 70
92 119 71
112 133 105
179 192 198
192 202 208
178 190 192
188 199 206
176 188 192
177 190 193
182 194 197
171 183 183
156 170 163
145 161 152
147 162 154
163 176 173
159 175 172
166 180 180
184 197 201
183 195 199
195 205 212
187 198 203
178 190 193
85 110 65
87 113 67
88 114 68
94 119 78
129 148 127
162 177 175
179 192 198
205 215 225
190 202 210
186 197 203
195 206 215
190 200 206
184 196 203
189 200 206
183 196 204
195 206 212
188 200 204
185 197 204
192 203 211
188 198 203
189 200 207
182 194 200
121 140 118
89 115 68
92 118 71
115 137 109
131 150 130
175 187 188
184 195 199
188 199 207
190 201 209
186 197 204
187 198 205
190 201 209
184 196 203
192 203 210
197 207 216
187 199 206
188 200 207
197 208 217
186 197 203
187 199 205
188 200 209
197 207 215
188 200 208
179 192 193
98 123 83
83 109 64
88 115 68
87 113 66
88 114 67
86 111 66
93 120 72
104 128 93
118 139 113
138 154 143
177 189 187
183 194 196
192 203 211
192 203 210
197 207 216
203 212 221
192 203 210
186 198 204
190 201 210
190 201 208
185 198 205
187 198 206
192 203 210
195 206 215
147 163 155
94 121 72
84 110 65
90 116 69
89 116 68
87 114 67
87 113 67
89 116 70
86 113 67
89 115 68
92 119 71
91 119 71
89 116 69
92 119 71
88 115 68
93 119 71
88 114 67
87 113 66
87 113 66
92 119 71
91 118 71
97 122 81
111 132 103
126 146 123
155 170 163
150 167 159
115 136 106
97 121 82
95 121 75
87 114 68
90 117 70
90 117 70
92 119 71
87 113 67
89 116 69
87 114 67
92 119 72
89 115 68
93 120 72
86 112 67
91 118 70
85 111 65
91 118 72
88 115 68
87 113 68
85 110 65
91 117 70
93 120 72
93 120 72
87 114 68
106 129 97
176 188 188
200 209 216
186 197 205
202 213 222
186 197 203
188 198 205
194 205 214
198 207 215
194 205 210
195 206 213
187 198 205
200 210 217
189 201 209
197 208 215
198 207 215
189 200 204
177 189 191
184 196 204
191 201 204
176 189 194
198 208 217
186 198 204
197 208 217
189 201 208
184 197 205
168 182 180
95 120 79
92 118 72
97 122 80
109 131 100
125 145 121
139 158 144
135 152 137
166 180 175
181 193 196
176 189 192
194 206 212
193 204 209
190 201 207
187 198 203
190 202 210
197 208 217
192 203 210
188 200 208
195 207 215
197 208 218
195 206 214
181 193 198
200 210 218
181 193 198
195 205 212
129 148 130
94 121 72
95 123 74
90 116 69
92 119 72
93 120 72
91 118 71
89 116 70
93 119 70
93 120 72
89 115 69
91 117 70
89 116 69
89 116 69
93 120 72
96 122 73
88 115 69
88 115 68
89 116 69
90 117 70
90 117 69
89 115 68
91 117 69
91 117 70
90 115 71
152 167 157
192 203 209
193 205 213
189 200 208
190 201 207
184 197 203
194 205 213
188 199 204
190 202 209
192 203 210
198 209 217
190 201 209
187 198 202
191 203 212
187 198 203
189 200 204
181 194 201
197 208 217
191 202 211
198 208 215
193 204 211
195 206 213
200 210 218
188 200 207
184 195 199
122 141 120
93 119 71
91 118 71
93 120 72
91 117 70
87 114 67
88 114 68
87 113 67
87 113 67
89 116 69
92 118 71
88 115 69
90 117 69
89 115 69
92 119 71
90 117 70
91 117 70
90 116 69
88 115 68
92 118 71
90 117 69
92 119 71
91 118 71
113 134 107
175 187 189
192 203 209
198 209 218
180 193 199
200 211 219
190 201 207
197 208 219
189 199 205
196 206 215
192 203 212
191 202 208
188 200 205
193 204 213
198 209 217
194 204 212
200 210 218
194 205 213
194 205 216
199 210 218
192 204 211
194 204 212
190 202 209
179 192 195
129 147 129
89 116 69
86 113 67
92 119 71
87 113 67
92 119 71
90 117 70
91 118 70
86 113 67
85 111 66
91 118 70
92 119 71
89 115 68
87 113 67
95 123 73
90 116 69
89 115 70
93 120 72
90 117 69
93 120 72
89 116 69
109 131 98
179 191 195
189 201 210
192 202 207
184 195 201
200 210 220
189 200 208
203 213 222
187 199 204
191 202 210
191 202 209
184 195 201
195 205 211
193 204 212
195 205 214
194 205 213
185 196 200
188 199 203
179 191 196
201 211 221
185 197 203
175 188 188
96 120 79
89 116 70
88 115 69
89 117 70
87 113 67
93 120 72
88 115 69
82 109 64
88 114 68
90 117 70
89 116 68
92 119 71
91 118 70
91 118 71
88 115 69
89 115 69
91 118 70
90 117 69
103 127 90
167 181 182
193 203 209
188 200 206
183 195 200
189 200 207
183 195 199
200 211 220
190 201 208
192 204 212
189 200 208
194 204 214
185 197 202
187 197 198
170 182 179
157 172 166
135 154 132
109 133 96
122 142 119
176 188 190
183 195 200
191 202 210
188 198 205
176 189 193
189 201 208
194 205 211
188 199 207
191 202 209
189 200 207
186 197 202
189 201 207
188 200 206
189 200 208
186 198 205
197 208 217
129 149 131
93 119 74
91 118 71
97 122 80
91 117 73
100 123 86
104 127 94
114 134 108
111 132 106
125 144 123
143 161 146
131 150 136
147 162 150
162 176 174
144 160 146
153 167 162
173 185 185
182 194 198
185 197 203
194 204 210
196 206 214
186 197 203
186 197 204
193 204 213
182 195 201
159 173 167
135 153 135
90 116 72
85 110 65
89 116 69
94 120 74
93 119 77
93 119 76
93 118 76
110 133 101
170 182 180
165 178 177
152 167 162
161 176 174
153 167 161
151 168 161
163 178 171
174 186 188
177 190 192
159 173 171
180 193 193
176 189 188
169 182 183
174 187 188
189 202 208
174 188 192
194 205 212
182 194 199
195 206 214
186 197 204
186 198 207
194 204 212
133 151 135
85 111 66
90 117 71
85 111 66
91 118 71
89 115 72
98 123 85
134 151 138
175 188 186
188 199 203
184 196 202
186 198 205
196 206 214
195 206 213
187 198 202
191 203 209
187 198 204
190 201 209
183 195 201
193 204 213
195 206 215
195 205 211
196 207 214
173 186 188
97 123 81
93 119 71
89 116 69
88 115 68
93 120 72
89 115 68
86 112 67
93 120 71
88 114 67
90 117 70
95 121 77
110 132 100
126 144 123
162 176 172
181 193 196
181 193 198
187 199 208
192 203 211
196 207 217
185 197 204
197 208 217
185 198 204
197 208 215
189 200 207
119 139 114
91 117 70
90 117 70
90 116 69
92 119 72
91 117 71
93 120 71
89 117 70
91 119 71
93 119 71
89 116 69
85 111 65
94 121 73
91 118 70
89 115 68
90 116 69
90 117 70
89 116 69
90 117 70
92 118 71
86 113 67
91 118 70
93 120 72
90 117 70
86 113 67
160 175 172
181 194 199
175 187 186
156 170 164
144 160 150
123 144 119
98 122 83
93 119 73
90 117 70
90 117 71
92 119 71
87 114 67
89 116 69
90 116 69
91 118 70
89 115 69
94 121 72
92 120 72
91 118 70
91 118 70
91 118 72
87 114 68
86 112 66
88 114 68
94 121 73
113 134 105
183 194 199
189 200 207
189 201 209
199 209 218
190 200 206
186 198 206
187 199 206
193 204 214
182 193 200
195 206 214
195 205 212
191 201 207
196 207 214
196 207 216
196 206 215
194 204 212
188 200 207
191 203 210
197 207 214
190 201 207
194 205 212
185 196 202
190 201 207
201 212 221
200 210 217
150 166 159
93 120 74
93 119 71
89 115 68
91 118 70
90 117 69
93 120 71
93 119 73
95 121 75
101 126 86
113 133 107
126 145 125
121 142 116
144 161 147
151 166 158
171 184 183
177 188 189
180 192 196
181 193 198
199 209 217
191 203 210
189 199 205
195 205 212
193 205 214
192 202 209
175 186 185
108 131 96
86 113 67
88 115 68
93 120 72
90 117 70
88 114 67
92 119 71
91 118 70
90 117 70
89 115 69
88 113 67
94 121 73
91 118 70
87 114 67
87 114 67
91 118 70
90 117 69
90 117 69
89 116 69
92 118 71
90 117 70
91 118 71
92 118 70
89 115 69
120 141 119
180 192 197
193 204 212
200 210 219
199 210 220
198 209 218
194 206 217
198 209 217
198 208 217
191 201 207
194 205 211
185 197 204
191 201 206
195 204 211
193 204 212
184 195 199
196 206 214
196 206 212
185 196 202
189 200 206
195 205 214
187 198 204
186 197 203
192 203 212
180 193 200
163 178 172
93 119 74
90 116 69
89 115 69
88 114 68
87 114 68
89 116 70
94 122 73
92 119 71
91 118 71
89 115 69
89 116 69
90 116 69
91 117 70
87 114 67
91 118 70
90 117 70
92 119 71
89 115 68
89 117 70
90 117 70
87 114 68
85 111 66
96 120 79
159 173 168
185 197 203
185 197 203
185 199 206
189 201 208
191 202 210
198 208 215
198 208 218
193 203 210
190 201 208
188 200 208
200 210 220
196 206 213
185 196 200
204 214 223
199 209 218
185 197 205
190 202 210
194 204 210
188 200 206
195 206 213
198 208 215
184 197 205
134 153 134
95 121 75
89 115 68
92 119 71
92 118 70
87 113 67
91 118 71
90 116 69
88 115 69
92 119 71
95 122 74
91 118 71
89 116 69
90 117 69
92 119 71
92 119 71
91 117 70
86 112 67
93 120 72
87 113 68
92 119 71
98 122 82
179 191 194
187 198 206
193 204 214
197 208 218
198 208 217
185 196 202
190 202 210
195 206 214
184 195 201
192 203 211
192 203 211
198 208 216
185 197 204
198 208 217
186 198 204
193 204 209
192 204 212
189 201 208
192 203 210
188 199 206
178 190 192
116 137 107
89 116 69
92 119 72
85 111 65
91 118 70
92 119 70
92 119 71
89 115 68
92 118 70
87 114 68
95 123 74
92 120 72
92 119 71
86 113 67
90 117 70
89 116 69
88 114 68
94 121 72
103 127 88
167 181 179
191 202 209
195 205 212
196 208 218
188 199 206
195 206 212
181 194 200
177 189 192
162 175 171
143 160 150
122 142 118
119 140 119
96 122 78
97 122 81
92 118 70
92 119 71
90 116 72
122 142 117
176 189 192
198 208 215
185 197 202
188 200 207
188 198 203
188 200 205
180 192 196
175 187 188
175 188 190
170 184 185
170 184 183
155 171 167
145 161 150
146 162 153
150 165 156
152 167 159
173 186 186
168 182 180
172 185 185
170 183 182
186 198 203
184 195 197
190 201 207
191 202 209
195 206 214
187 198 202
195 206 215
187 198 206
159 174 169
143 160 147
173 186 185
189 200 208
184 196 203
188 199 205
197 208 214
193 203 210
181 194 199
187 198 205
189 201 208
187 199 206
198 208 215
192 202 208
191 202 210
192 203 210
176 188 189
155 170 164
121 141 114
84 110 64
87 113 67
87 114 68
87 114 68
92 118 70
166 180 177
190 201 207
188 199 207
190 201 209
190 202 209
189 200 206
186 198 204
179 191 194
185 196 202
182 194 198
158 172 165
116 137 113
91 117 73
93 119 73
97 122 82
101 125 89
104 127 94
106 128 97
107 130 102
124 142 122
124 143 120
123 143 127
146 162 152
159 174 168
151 167 156
150 165 157
141 157 144
141 157 146
135 152 137
136 155 139
127 145 128
125 145 124
133 151 134
167 180 182
194 205 215
177 190 192
184 197 203
182 194 197
179 192 199
183 195 199
186 198 206
175 188 196
197 208 217
185 197 201
188 199 206
170 182 183
93 118 78
89 115 68
89 116 69
88 115 68
85 111 66
88 115 70
88 114 68
85 111 66
89 116 68
89 115 69
91 119 72
91 118 71
91 117 69
89 116 69
102 125 91
126 145 126
156 172 165
179 191 192
184 196 202
199 209 216
192 203 212
192 203 211
195 206 216
190 200 205
121 141 120
91 117 70
93 120 72
92 119 70
93 121 72
87 113 67
93 120 71
91 117 70
89 116 69
88 114 67
91 118 71
92 119 71
92 119 71
86 112 66
91 118 70
89 115 69
91 118 71
91 117 70
89 116 69
89 116 69
91 118 71
93 120 72
90 117 70
87 113 67
98 122 83
182 194 197
196 207 216
197 208 217
185 197 201
190 202 209
190 202 209
174 187 187
160 175 172
150 166 157
130 149 130
107 130 99
91 117 72
92 119 72
87 113 66
94 120 71
91 118 70
87 114 67
88 114 68
90 116 68
89 115 68
89 115 69
88 114 68
88 114 68
89 116 69
91 118 71
126 144 127
186 197 203
204 214 223
199 210 220
191 203 210
195 206 213
190 201 207
193 204 212
191 202 207
188 200 207
189 200 206
195 206 212
193 203 210
187 197 201
189 201 210
191 202 209
190 201 210
197 208 216
190 201 209
182 193 200
192 203 209
192 203 211
187 198 206
189 200 205
191 203 212
188 200 207
120 140 117
87 113 67
90 117 70
90 117 69
85 112 67
92 119 71
92 119 70
91 118 71
88 114 67
89 116 70
93 120 72
90 117 70
91 118 71
95 122 73
96 122 78
92 117 75
102 126 90
113 135 106
122 142 119
124 144 120
146 162 153
150 164 156
168 180 180
167 181 178
181 193 196
156 170 165
95 121 78
103 129 87
84 110 65
91 118 70
93 119 71
90 117 70
90 117 69
87 114 68
92 118 71
88 114 67
89 115 69
88 115 69
92 119 71
89 115 69
90 116 69
91 118 70
92 119 72
91 118 71
91 117 70
91 118 70
89 116 68
92 119 71
87 114 68
96 122 79
151 166 158
199 210 217
192 202 208
200 210 219
195 206 215
192 203 209
192 203 210
190 201 207
191 201 208
178 191 195
186 197 204
186 197 203
193 204 210
187 198 203
196 207 216
197 208 215
196 206 213
191 203 210
197 207 216
201 211 219
194 206 214
182 192 198
202 212 221
195 206 212
181 193 198
110 131 104
89 116 70
92 120 72
92 119 70
92 119 71
89 116 69
90 116 69
89 115 68
90 117 70
91 118 70
88 115 68
90 117 71
88 114 67
89 115 69
88 114 68
90 117 70
95 122 74
88 114 68
93 120 72
89 116 69
87 113 67
94 121 72
95 123 73
128 146 128
183 194 198
193 204 214
193 205 213
195 206 216
187 199 206
187 199 204
197 207 216
188 200 206
194 204 210
183 195 200
193 204 213
196 206 215
194 205 212
200 210 218
198 210 220
195 205 213
188 200 206
187 200 207
189 200 206
201 211 221
188 199 206
189 201 208
165 180 179
95 121 80
93 120 72
87 114 68
90 117 70
91 118 70
91 118 70
90 117 70
94 121 72
95 123 74
89 116 69
90 116 69
88 115 68
88 115 69
89 116 70
93 120 72
87 113 67
93 120 72
91 118 69
92 119 72
89 115 69
98 123 81
171 185 184
194 206 215
197 206 213
199 210 220
185 196 204
196 207 215
191 202 210
186 197 202
196 207 215
185 197 205
182 195 201
190 202 209
194 204 209
183 195 200
201 210 218
196 207 215
191 202 208
189 200 207
193 204 211
179 192 197
177 190 195
113 135 104
89 116 70
94 121 73
92 119 71
91 118 70
91 118 71
93 120 72
88 115 68
90 117 69
89 116 69
92 118 70
88 114 67
94 119 74
86 112 66
86 112 66
90 116 69
96 122 78
88 114 68
105 129 93
169 180 178
186 198 201
172 184 185
159 174 169
151 167 161
156 171 162
135 152 136
129 147 131
138 155 143
128 148 128
142 159 145
145 162 152
145 161 153
143 160 146
149 165 154
166 179 175
163 177 174
141 158 149
123 143 117
124 144 122
109 130 102
98 121 87
104 127 92
101 125 89
90 116 72
95 122 75
94 120 74
89 116 70
92 119 71
89 116 70
92 120 71
92 119 72
90 116 70
107 130 98
178 190 194
191 202 211
194 204 212
189 201 209
194 205 213
189 200 208
195 205 212
189 200 207
179 191 195
163 176 172
141 157 146
125 145 124
88 114 68
105 129 93
160 174 170
184 196 200
193 204 211
188 199 205
203 213 222
189 200 207
187 199 208
176 188 191
191 202 209
183 195 199
194 204 209
193 204 210
181 193 199
188 199 203
194 205 213
190 201 209
193 203 210
184 195 203
166 179 177
140 157 144
100 124 86
84 110 65
85 112 65
146 161 152
183 195 203
189 200 208
198 208 216
193 204 213
189 200 205
186 197 203
203 213 221
188 198 205
183 196 202
185 196 202
183 195 202
170 184 184
155 169 162
118 140 116
89 115 74
86 113 67
83 109 64
89 115 68
84 111 65
87 113 67
90 116 70
146 162 150
191 202 210
189 200 208
192 204 213
191 203 209
187 199 207
186 197 202
190 201 208
180 193 198
187 198 204
186 198 204
189 200 207
172 183 186
170 182 182
144 160 151
120 140 117
110 133 102
129 148 127
123 143 116
120 140 120
129 147 128
135 154 139
129 147 129
142 159 149
153 169 164
158 173 168
163 177 174
154 169 163
129 148 129
141 157 145
133 151 138
128 145 128
133 151 135
121 141 119
124 144 123
115 137 109
115 136 113
115 136 110
113 135 108
106 128 96
100 124 90
114 135 104
117 137 115
140 157 145
162 177 174
185 197 202
186 198 203
178 191 196
105 126 96
98 123 81
89 116 68
93 120 71
94 121 75
90 116 71
88 114 67
90 116 68
89 116 70
90 117 70
87 114 68
91 118 71
93 120 72
91 117 69
93 120 72
92 119 71
90 118 71
89 115 68
87 113 66
90 117 70
92 119 71
90 117 70
90 116 69
89 115 68
99 124 86
182 195 203
192 203 210
200 211 219
192 204 212
190 201 209
186 196 202
195 206 214
193 204 212
189 201 207
181 193 198
191 202 208
167 179 177
157 173 166
136 154 137
112 133 104
97 122 82
93 118 75
93 121 72
90 117 69
89 114 67
94 121 72
91 117 70
91 118 70
91 118 70
87 114 68
158 173 169
188 199 205
186 199 206
188 200 210
190 201 208
193 204 211
191 201 208
189 201 207
198 208 215
182 193 198
188 200 208
190 201 208
197 208 217
196 207 217
192 203 210
196 207 214
198 209 217
186 198 203
187 198 203
186 198 203
186 198 204
189 200 206
193 205 215
188 199 207
180 191 198
172 185 184
104 130 88
85 111 66
93 120 73
86 112 67
87 114 68
88 115 69
88 115 68
89 116 69
89 116 68
88 114 68
92 119 71
88 115 68
93 121 72
92 118 71
91 118 70
90 116 69
80 105 62
89 116 69
88 115 69
86 113 67
91 117 73
97 123 79
93 118 79
104 128 95
120 140 118
164 178 175
154 169 162
158 172 165
142 159 148
144 161 149
120 139 121
112 134 105
102 126 89
108 132 99
94 119 78
97 123 81
90 118 71
92 119 71
90 117 70
87 113 67
89 116 69
91 118 70
91 118 71
89 115 68
92 118 71
88 115 68
89 115 68
94 121 73
90 117 70
111 134 102
169 183 184
189 200 207
187 197 201
185 197 204
194 204 212
187 199 209
194 204 210
183 195 201
185 197 203
192 203 210
197 208 216
201 212 220
191 201 208
185 197 204
194 204 211
196 207 217
192 203 210
191 202 211
184 195 199
194 204 212
196 206 212
195 207 216
195 207 216
196 206 214
147 163 153
98 124 79
89 116 69
86 112 67
92 119 71
87 113 67
91 118 70
93 120 72
88 114 69
90 117 70
90 116 68
88 114 68
89 116 69
89 116 69
92 119 71
93 119 71
85 111 66
88 115 68
89 116 69
89 115 68
92 119 71
93 120 72
94 121 72
109 132 103
167 181 180
193 203 209
197 208 217
198 207 215
185 196 202
191 202 209
188 199 204
188 199 208
185 196 202
192 202 209
185 197 204
194 205 212
193 204 211
195 206 215
195 205 212
186 198 203
192 203 209
190 201 208
188 199 206
188 200 208
191 201 206
180 193 197
168 181 178
114 134 109
88 114 68
86 112 66
85 111 67
90 116 69
88 114 68
88 114 68
92 119 71
89 116 69
93 120 72
91 118 71
88 115 68
90 117 69
89 116 69
89 116 69
93 120 72
91 118 71
93 119 71
91 118 70
92 119 71
89 115 69
143 159 148
193 203 210
191 203 212
189 200 208
186 198 200
202 211 219
192 203 212
196 207 215
191 203 212
188 199 205
180 192 198
183 196 203
185 197 202
198 208 214
182 194 200
182 194 196
182 194 200
181 193 199
179 191 196
179 192 195
176 189 191
143 159 149
123 143 118
122 140 119
129 148 131
125 145 126
131 150 132
135 154 140
145 161 148
146 161 151
141 159 146
151 165 156
155 169 169
155 169 159
140 157 142
140 157 147
146 161 149
130 147 129
113 133 107
117 138 109
178 191 193
182 195 201
185 197 202
192 203 210
198 208 218
195 205 210
197 208 217
193 203 210
179 192 196
182 194 200
194 205 215
190 201 206
190 201 206
194 205 212
188 199 206
180 191 196
189 200 205
162 176 172
98 123 84
92 119 72
90 117 69
96 123 73
89 115 68
93 120 72
92 119 71
86 112 66
88 115 68
93 120 73
87 114 67
90 116 69
91 117 69
88 114 68
89 116 69
143 161 147
190 201 208
188 200 208
189 201 207
193 203 210
186 198 204
175 189 191
168 181 179
124 143 123
113 135 106
88 113 72
84 109 65
92 120 72
87 113 68
113 134 108
180 194 200
197 207 214
194 205 212
192 203 211
200 211 221
189 201 210
193 204 210
195 205 212
108 129 99
127 146 132
159 172 170
193 203 209
192 203 211
191 202 210
184 196 203
197 208 217
190 201 207
189 199 206
185 197 204
186 198 204
189 200 208
186 197 204
156 170 166
115 136 108
117 138 112
184 194 199
179 192 197
190 200 205
189 200 206
193 204 209
186 198 205
190 201 207
184 195 202
193 204 211
190 201 206
195 206 214
190 201 207
192 202 208
191 202 210
170 183 185
130 147 131
105 126 97
92 118 73
85 111 66
88 115 68
93 121 72
148 164 158
196 206 214
191 201 210
194 205 210
179 191 193
179 191 197
194 204 212
192 203 211
188 199 205
187 198 204
187 199 207
181 193 198
187 197 204
195 206 215
193 204 213
181 192 194
170 183 182
147 162 152
107 128 102
97 122 83
88 115 68
87 114 68
83 109 64
107 130 101
202 212 223
185 198 206
186 198 205
191 202 208
192 204 213
188 200 207
192 203 209
183 195 200
188 199 206
180 192 197
190 200 205
189 200 207
194 205 212
188 199 205
191 202 210
189 201 207
185 196 202
179 192 197
189 201 206
177 190 194
192 202 207
185 197 201
189 200 206
173 186 186
155 171 164
150 166 159
159 173 169
160 175 171
169 182 180
163 176 173
162 175 172
160 174 169
159 174 170
157 171 165
155 169 164
140 157 147
152 166 162
143 160 148
144 162 147
133 151 137
143 160 151
137 154 140
129 148 127
132 151 132
126 145 123
128 147 128
126 146 121
124 144 121
129 148 127
168 181 181
165 178 175
170 183 184
179 191 194
182 194 200
177 188 189
185 197 201
182 195 199
183 194 198
183 194 199
182 194 199
174 186 191
168 181 183
193 203 209
179 191 193
176 188 188
154 169 162
135 153 137
107 128 101
109 132 97
90 116 75
93 119 76
97 122 79
100 124 86
103 126 96
170 183 182
195 206 214
197 207 216
196 206 213
188 199 206
191 201 208
181 194 200
191 202 209
189 200 206
194 205 213
186 197 202
191 202 208
178 190 193
194 205 213
185 196 201
186 197 203
185 196 202
180 193 198
191 201 210
194 206 216
182 194 202
187 200 206
190 202 209
191 201 209
188 199 205
140 156 144
86 113 67
89 116 69
89 116 69
89 116 69
92 119 71
91 118 71
88 115 68
95 122 73
89 116 69
87 113 67
90 116 69
88 114 68
92 119 71
87 113 67
86 112 65
90 117 69
93 120 72
91 118 70
87 113 67
88 115 69
92 119 70
89 115 69
87 114 68
89 115 69
135 152 137
186 198 205
192 203 212
190 201 209
198 209 217
190 201 208
181 192 194
185 197 203
186 197 204
185 196 199
166 179 180
159 172 165
145 161 148
141 157 145
136 153 138
108 131 97
117 138 113
115 136 108
103 126 89
92 118 76
90 117 69
88 114 67
89 116 69
91 117 70
88 114 68
152 166 159
193 205 213
196 208 216
188 199 206
185 196 200
194 206 216
196 207 215
189 200 205
185 196 203
184 196 202
190 202 208
186 198 206
195 205 212
192 202 208
193 205 213
193 205 213
179 191 195
194 205 213
188 200 207
183 195 201
186 197 202
195 205 212
192 203 210
198 209 218
178 190 193
107 130 98
85 111 65
89 115 69
90 118 71
89 115 68
85 111 66
88 115 69
88 115 69
91 117 70
90 117 70
85 111 66
82 108 63
94 121 72
90 116 70
95 121 75
94 121 78
95 122 76
91 117 72
92 119 71
95 120 77
89 116 69
89 115 71
97 123 81
151 167 156
189 201 210
198 209 218
182 194 200
187 198 202
178 191 198
193 205 213
195 206 215
198 208 215
187 198 204
187 198 203
187 198 203
187 199 205
185 196 201
191 202 208
184 196 202
187 199 205
183 196 203
187 197 201
180 192 194
185 197 201
181 194 200
183 195 200
132 151 135
104 127 97
118 138 114
116 136 108
119 139 115
117 137 114
126 146 121
117 137 114
124 145 122
126 145 126
122 142 117
127 146 125
139 157 142
139 156 141
123 142 122
136 153 139
140 156 146
145 161 151
141 158 149
142 158 145
149 164 155
132 151 138
143 159 144
134 152 133
146 162 152
136 154 137
140 156 145
121 141 119
128 147 127
123 143 119
113 134 109
119 139 117
110 131 102
114 134 108
105 126 95
111 133 103
113 135 106
97 121 82
98 121 87
93 119 74
99 123 86
114 135 105
172 185 186
182 194 200
184 197 204
185 196 201
192 202 209
178 191 195
184 196 201
166 180 179
161 175 171
150 166 156
147 163 153
134 152 133
108 130 99
106 129 95
99 123 83
94 119 76
88 114 68
90 117 70
95 120 82
172 186 188
187 199 206
184 197 204
190 201 210
182 195 202
184 195 200
192 203 209
191 202 209
187 198 204
189 200 207
195 205 212
191 202 210
197 207 213
192 203 210
193 204 211
179 191 194
188 199 205
166 180 182
98 123 81
88 115 68
93 119 71
90 117 70
91 117 71
92 119 71
88 114 68
85 112 66
93 120 72
91 118 71
89 115 68
89 116 69
89 116 69
94 121 72
85 111 66
139 158 142
191 201 208
184 195 200
173 187 190
165 178 175
141 157 146
109 131 98
91 117 72
88 115 68
86 112 66
90 116 69
92 119 71
91 117 70
89 114 73
132 151 135
193 204 211
183 195 201
190 201 208
182 194 198
190 202 209
190 200 204
196 207 213
188 199 205
186 197 202
89 116 69
91 118 70
92 117 72
116 137 112
150 165 157
174 186 188
176 189 192
195 207 217
185 197 206
183 194 201
190 201 208
179 191 197
179 192 199
180 192 198
194 204 210
190 200 204
178 190 195
136 154 141
172 185 187
190 202 210
197 208 216
189 200 207
193 205 213
188 200 208
189 200 205
182 194 199
188 198 204
186 199 205
189 201 211
198 209 218
195 206 214
188 199 206
187 198 205
189 201 208
159 172 171
154 169 162
107 129 98
94 120 75
114 134 108
189 200 208
196 206 215
190 201 207
185 196 202
190 201 208
180 192 196
194 204 211
190 202 210
185 196 202
186 197 203
198 209 216
194 205 213
191 202 208
186 198 205
183 195 201
189 201 208
188 201 209
186 197 204
182 194 198
151 166 159
120 140 117
99 125 82
110 132 104
185 196 200
191 202 209
196 207 216
196 207 215
195 205 214
188 200 209
191 202 211
186 198 206
195 206 215
185 199 207
187 198 204
195 205 213
190 201 207
183 195 200
191 202 209
189 200 206
197 207 216
189 201 209
198 209 218
184 195 199
185 197 202
181 193 200
191 203 211
177 188 192
100 125 84
98 122 85
121 140 120
151 166 157
170 183 184
182 194 198
178 190 193
188 199 205
192 203 210
192 202 208
192 204 213
181 193 199
191 201 208
188 199 206
196 207 217
190 201 209
181 193 199
183 195 201
196 206 214
193 204 211
189 202 213
190 201 208
182 194 199
184 196 202
160 174 172
98 123 81
95 119 81
107 130 94
93 118 75
97 121 82
102 125 89
103 126 91
103 127 93
105 129 93
99 123 86
112 134 103
109 132 101
110 132 100
117 139 109
118 138 112
124 144 119
115 137 111
116 136 113
113 133 106
113 134 106
92 117 78
128 148 124
125 145 126
144 160 151
129 148 134
130 147 131
129 147 130
134 152 140
135 153 137
136 154 137
135 153 136
125 145 125
141 158 145
139 156 143
155 170 162
142 159 148
145 163 151
150 166 155
138 155 140
141 157 145
154 168 160
153 169 162
137 154 140
147 162 152
159 173 167
151 166 159
157 171 164
166 180 178
160 174 169
153 169 159
144 161 149
145 161 147
136 154 140
142 160 147
128 145 127
129 147 129
138 155 141
136 154 139
128 146 127
132 150 134
129 148 129
135 153 138
127 145 127
129 148 129
115 135 111
136 154 138
126 145 127
131 149 132
137 155 140
129 147 127
129 147 128
122 143 121
117 137 113
128 146 124
135 153 136
152 167 156
163 177 173
175 187 189
171 185 183
172 184 184
168 181 180
159 174 166
173 185 186
163 177 175
177 190 193
167 181 180
169 182 181
167 180 181
177 190 191
170 184 182
175 188 188
150 166 155
156 171 163
147 163 152
161 175 167
139 156 141
133 151 135
131 149 130
104 127 94
117 137 114
170 183 184
180 192 198
177 189 192
174 186 186
182 194 194
163 176 175
159 173 171
166 179 177
173 186 186
173 186 184
172 185 182
161 175 170
169 183 183
150 165 162
157 170 167
166 179 176
161 174 170
166 179 178
143 159 148
167 180 179
165 178 177
163 177 177
168 182 180
160 173 170
160 175 171
133 152 136
134 153 136
136 153 138
136 154 135
139 155 140
142 157 146
140 157 144
147 163 152
131 150 135
147 163 153
145 161 147
150 166 158
147 163 154
148 164 156
134 151 138
151 167 162
153 169 161
148 164 155
168 180 177
151 166 160
143 159 151
161 175 170
157 172 160
124 144 122
135 153 139
135 153 138
131 149 132
125 144 127
130 148 134
130 148 129
122 142 123
120 140 114
120 139 116
121 142 117
119 139 113
121 141 117
114 134 109
117 138 108
116 138 109
111 133 101
105 128 96
118 138 114
110 130 102
114 135 107
112 134 105
161 175 169
189 200 205
175 187 189
181 193 197
185 197 202
182 194 195
188 200 208
184 195 199
186 198 205
192 203 210
188 199 206
177 190 193
193 204 212
191 200 206
190 200 206
189 200 206
195 205 211
187 199 205
194 204 211
198 209 218
192 202 208
182 194 196
114 134 107
88 114 68
93 120 71
86 112 67
86 113 66
87 113 67
89 115 69
90 117 70
88 115 68
90 117 70
90 117 71
85 111 66
88 114 68
91 117 74
96 121 80
99 124 84
102 125 93
112 134 106
118 138 117
120 139 116
136 154 136
160 174 172
146 162 149
126 145 126
118 138 114
118 139 110
103 127 90
100 125 86
93 119 74
90 116 69
87 113 66
89 116 69
86 113 67
91 118 70
83 109 64
92 119 72
88 115 69
88 114 68
101 125 89
158 172 170
187 199 205
190 201 208
182 193 199
194 205 213
196 206 214
188 198 205
188 199 205
197 208 217
191 202 208
182 193 201
190 201 209
189 201 208
191 202 209
184 196 204
190 202 209
199 210 219
161 174 170
93 119 75
89 116 69
91 117 70
84 110 65
91 119 71
91 117 70
87 114 67
93 120 73
91 117 70
92 119 72
88 114 67
90 116 69
91 117 70
90 115 74
98 124 82
131 148 129
145 160 151
120 140 117
94 120 79
91 119 72
86 112 66
82 108 63
88 114 68
90 118 70
89 115 69
89 116 69
85 112 66
87 114 67
97 122 85
165 179 177
188 200 206
190 201 210
185 197 204
180 192 197
189 200 207
181 193 200
193 204 212
189 200 207
170 183 181
148 163 156
91 118 71
86 112 67
87 113 67
88 114 69
84 110 65
85 109 70
138 154 142
163 178 178
195 205 212
187 199 204
174 186 190
186 197 202
193 203 210
176 189 193
187 197 202
186 197 204
184 196 202
124 142 120
90 117 70
112 132 106
151 167 158
186 196 200
184 195 200
186 197 202
183 196 203
194 204 212
194 205 215
189 200 208
181 193 197
196 206 214
197 208 218
187 199 207
182 194 199
182 194 198
187 198 203
184 195 201
188 199 203
178 190 192
154 169 165
185 198 204
194 204 211
191 201 207
198 208 216
186 197 204
183 194 199
190 202 209
187 198 204
193 203 211
193 205 214
186 197 204
183 194 201
187 199 206
187 199 207
186 197 203
193 203 210
189 200 208
190 202 211
203 214 225
182 195 203
183 193 196
175 187 190
161 175 171
165 178 176
184 196 200
180 191 196
194 204 211
191 202 209
190 201 207
180 193 199
184 196 203
191 201 206
189 199 204
189 201 208
193 204 213
193 203 210
188 199 203
194 205 213
194 204 213
195 206 212
190 202 210
188 200 208
181 193 198
184 196 204
192 202 210
195 205 215
163 176 171
89 115 71
80 106 62
88 115 68
91 118 70
90 116 75
95 119 81
127 144 127
144 160 149
176 189 190
193 204 214
186 198 205
189 201 207
185 196 201
187 198 203
189 200 207
181 192 197
195 206 216
188 200 208
188 200 207
189 200 207
194 205 210
202 211 220
195 207 215
193 203 211
151 166 157
87 113 68
90 117 69
94 121 72
89 115 68
87 114 68
93 120 72
89 115 68
89 116 70
91 118 70
91 117 70
87 113 67
89 115 69
87 114 67
94 122 73
89 115 69
91 118 71
91 118 71
88 115 68
88 115 69
89 116 69
88 115 69
91 118 70
89 116 69
100 124 84
147 164 153
172 185 185
159 173 169
142 156 144
123 143 121
116 136 112
99 123 85
89 116 70
91 118 71
88 114 67
88 115 68
87 113 68
91 118 71
87 113 67
89 115 68
88 114 68
87 114 67
91 118 70
91 118 70
87 113 67
89 116 70
92 119 71
89 115 68
89 116 69
85 112 66
144 161 150
189 200 206
186 198 204
191 202 209
196 207 215
190 200 204
190 202 211
191 202 209
193 203 211
187 199 206
178 190 197
189 200 205
188 199 205
178 190 196
195 207 215
181 193 198
182 194 197
192 203 210
189 199 204
184 196 206
188 199 204
176 189 192
190 201 209
186 198 202
184 196 203
167 180 180
104 126 91
97 123 82
96 122 78
92 119 74
95 121 78
94 119 77
97 122 83
96 122 79
92 119 71
92 117 78
94 119 76
93 117 79
99 124 82
99 124 85
97 122 81
93 119 76
87 112 71
93 120 71
96 120 82
94 120 77
102 126 88
93 119 73
107 131 94
102 126 91
151 167 157
188 199 206
181 193 197
182 194 199
180 192 195
175 186 188
173 185 186
176 188 189
153 169 164
151 167 157
150 164 154
134 151 138
133 151 136
135 153 137
126 144 128
107 129 99
105 128 95
106 129 98
110 134 98
95 120 79
92 116 76
88 115 71
92 118 75
95 121 82
130 148 131
192 202 208
189 200 206
197 208 217
196 207 215
192 202 210
185 196 202
198 209 217
195 206 215
191 202 209
199 210 218
196 206 214
183 194 200
189 201 208
198 208 217
189 201 207
191 202 209
195 206 214
198 208 216
180 191 195
190 202 210
191 201 208
193 204 211
178 190 194
125 144 125
92 119 71
95 123 74
88 115 69
88 115 68
85 111 66
92 120 72
90 117 70
89 116 69
91 117 70
85 111 66
93 120 72
88 115 69
87 114 68
90 117 70
90 116 69
89 115 69
88 114 67
86 112 66
89 116 69
85 111 66
89 115 68
131 150 132
197 207 214
188 198 204
192 203 210
193 204 209
184 195 199
193 204 212
191 201 208
191 202 210
188 198 206
198 208 217
188 199 205
188 200 208
191 203 211
182 194 201
177 190 195
191 202 208
184 196 203
196 207 216
184 196 201
186 198 207
182 195 200
123 141 121
94 119 76
95 120 84
97 121 85
100 125 85
102 126 89
106 127 95
121 142 115
128 146 127
122 142 119
154 168 161
149 165 155
155 169 165
159 173 168
168 182 179
182 193 197
178 190 193
183 195 200
188 199 205
194 204 211
121 140 121
91 118 70
85 112 66
93 120 72
91 117 70
91 118 70
85 112 66
91 119 71
88 115 69
91 118 71
91 118 70
93 120 72
88 114 67
87 112 66
93 120 71
92 119 72
86 113 66
92 119 71
96 120 86
177 189 190
189 200 207
181 192 196
195 206 213
190 201 208
191 203 212
197 207 215
195 205 213
186 198 204
191 203 212
193 205 215
192 203 211
184 196 202
198 209 220
196 205 213
192 203 211
175 187 194
155 170 164
89 115 71
90 117 70
87 114 68
89 115 68
90 116 69
89 116 70
89 115 69
93 119 71
90 117 70
90 117 70
98 122 85
109 131 100
148 163 155
166 179 176
161 176 175
125 144 122
90 117 70
86 113 68
92 119 71
86 112 66
88 114 68
92 120 72
88 115 68
90 116 69
89 116 69
87 114 67
88 115 68
86 112 66
115 137 109
173 187 190
187 198 203
183 194 200
189 200 207
193 204 211
186 199 206
168 181 180
143 159 152
118 139 114
92 117 75
88 115 69
111 132 108
94 119 79
82 108 64
86 113 68
88 115 68
85 111 66
87 114 68
90 116 69
90 117 69
93 118 83
149 165 155
176 189 192
190 201 208
180 192 198
189 202 210
195 206 216
195 205 212
178 190 194
149 166 158
90 116 69
87 113 67
88 114 68
89 115 71
128 146 124
141 156 147
174 186 189
189 200 210
188 199 206
183 195 201
190 200 206
186 197 204
190 201 207
189 200 206
191 202 210
187 198 207
184 196 204
184 195 199
189 202 211
194 204 212
179 192 197
95 121 78
110 131 107
148 164 154
168 182 183
187 199 205
176 189 197
196 207 217
181 192 197
187 198 204
185 197 205
188 200 208
193 204 212
187 198 205
190 201 208
178 189 193
179 191 195
186 196 202
186 198 205
188 198 202
189 200 207
192 203 212
191 202 209
175 188 191
92 118 73
90 115 76
116 137 113
144 160 151
174 186 186
186 197 201
190 202 208
185 198 203
196 207 215
184 195 198
181 194 198
184 196 201
191 202 209
191 203 212
170 183 186
176 188 192
183 195 202
190 201 209
187 199 206
189 200 206
193 204 209
190 201 208
185 197 204
163 177 174
92 118 73
90 118 71
89 116 69
89 115 69
89 116 69
91 118 71
85 111 65
91 117 72
88 114 73
102 124 92
135 152 137
141 158 147
172 185 185
176 188 190
185 196 201
195 205 213
191 203 211
194 205 211
193 203 209
186 198 203
178 191 196
197 207 214
188 200 207
192 202 208
120 140 116
91 117 70
91 117 70
90 117 69
87 113 67
91 118 70
88 114 68
87 113 67
90 117 70
89 116 69
92 118 71
89 115 68
87 113 67
93 119 72
93 120 72
90 117 70
86 113 67
91 118 71
90 117 70
92 119 71
86 112 66
88 115 68
89 115 68
91 118 70
98 123 83
178 190 193
190 202 211
187 198 203
189 200 205
193 203 212
178 190 193
179 192 193
156 172 166
141 158 144
131 150 133
107 130 98
99 125 87
95 122 76
93 119 71
87 114 68
87 114 68
88 114 68
86 113 67
90 116 70
87 113 67
85 111 65
88 114 68
88 115 69
87 114 67
96 122 75
150 165 159
187 198 206
189 200 207
193 204 209
182 195 202
189 200 206
189 200 207
181 193 197
195 207 216
191 203 211
192 202 209
195 205 213
185 197 201
194 205 212
192 203 211
190 202 209
192 203 212
188 200 206
193 204 211
190 202 210
190 201 210
190 201 209
190 201 210
185 197 203
191 202 209
129 148 130
90 117 70
88 115 69
90 117 70
92 120 72
86 113 67
94 121 73
89 116 69
86 112 66
87 113 67
82 107 63
89 116 69
92 119 71
92 118 70
89 116 69
87 114 68
90 116 69
90 116 69
87 113 66
89 116 69
87 114 67
86 112 66
90 117 70
88 114 68
115 136 109
188 200 206
197 208 216
182 193 198
186 198 204
192 203 208
188 198 203
189 200 204
191 202 209
188 199 203
186 198 206
182 193 198
188 199 207
189 200 207
181 193 197
186 198 206
191 202 206
186 197 201
177 190 191
177 190 189
173 186 185
174 188 187
163 178 175
164 178 173
141 157 142
125 143 126
161 175 171
144 160 152
165 180 176
161 175 169
173 186 186
168 182 181
181 193 196
168 182 183
175 187 188
183 197 203
171 184 186
192 203 210
192 202 209
186 197 203
180 192 196
186 198 204
184 196 201
188 200 207
194 204 210
180 192 196
184 196 204
184 196 201
133 151 138
86 113 67
90 117 73
92 118 73
84 110 65
87 113 67
85 111 66
86 113 67
91 118 71
91 118 70
92 119 71
91 118 73
89 115 68
93 120 72
92 118 71
96 123 76
91 118 74
88 115 68
92 118 73
91 118 71
91 117 72
93 120 72
114 134 105
178 191 194
186 197 201
188 199 206
187 198 202
186 198 203
182 194 197
182 194 200
183 196 202
176 189 194
182 194 198
171 184 185
184 195 201
184 196 199
180 193 196
160 175 171
176 189 189
160 174 169
151 167 161
143 159 148
157 172 165
148 164 155
172 186 188
148 163 158
165 179 177
164 176 176
181 193 197
187 198 205
180 193 200
178 189 193
170 184 186
180 192 196
188 200 208
178 189 193
179 191 196
195 205 213
190 202 212
187 198 206
184 195 200
193 204 212
191 201 208
192 204 213
139 157 146
96 123 77
92 119 72
90 117 70
85 112 66
88 114 68
88 115 68
88 114 67
89 116 69
90 116 69
94 121 72
90 116 69
89 115 68
88 115 69
94 121 73
88 114 68
90 117 69
90 117 69
99 124 86
163 177 174
186 197 202
189 201 209
184 195 199
189 200 205
186 198 204
180 193 199
184 196 201
191 202 209
191 202 207
189 201 208
189 200 209
176 188 193
188 200 208
190 201 208
190 201 209
185 196 202
131 150 132
90 116 70
88 114 68
89 115 69
90 117 69
88 114 67
89 116 69
95 120 79
118 137 110
137 155 137
161 176 172
180 192 194
188 199 206
195 206 212
183 195 202
175 188 194
105 128 94
89 115 69
83 109 64
91 118 70
85 110 65
85 111 66
88 114 68
86 111 65
90 116 69
88 115 68
88 115 69
90 117 71
83 109 65
125 143 123
186 197 204
186 197 204
185 198 205
184 196 201
155 170 167
133 150 137
102 125 93
92 119 71
88 114 68
91 118 70
95 118 80
145 161 151
184 196 202
192 203 210
157 172 166
113 133 106
87 114 67
86 111 66
87 114 68
87 114 68
88 114 68
84 110 65
86 111 66
86 112 67
110 129 104
154 169 163
184 196 202
194 205 214
181 194 199
180 191 197
170 182 182
91 118 70
86 113 67
86 112 67
82 107 63
90 116 70
90 117 70
94 119 76
129 148 125
152 167 159
185 197 203
183 195 201
180 190 194
183 195 202
184 196 202
177 188 193
186 198 204
189 200 206
183 195 200
188 199 204
182 193 200
186 197 201
101 124 88
90 117 70
87 112 66
94 119 76
111 133 102
138 154 144
175 187 188
186 197 202
186 199 206
184 194 201
193 204 210
190 202 210
188 198 204
196 206 215
190 201 209
187 198 204
193 205 213
189 200 206
185 197 202
186 198 203
191 203 212
184 196 203
173 185 187
86 113 67
87 114 68
88 114 68
84 110 65
91 116 74
116 138 109
118 138 115
169 182 182
169 183 184
183 195 199
188 200 209
183 195 201
181 192 198
195 206 213
189 200 209
194 205 212
188 198 202
198 208 215
192 202 207
189 200 206
193 204 214
192 203 211
196 207 215
153 168 159
86 112 67
89 116 70
91 117 70
83 109 64
91 118 71
88 115 69
90 117 70
91 118 70
84 111 66
89 116 70
86 112 66
89 116 69
92 117 75
107 128 98
121 140 124
148 163 159
169 181 181
169 183 184
187 198 204
189 200 206
180 192 197
189 199 204
190 201 208
178 189 191
113 134 107
90 116 69
93 119 71
90 116 69
87 114 67
89 116 69
87 114 68
91 118 71
93 120 72
89 115 69
86 113 67
85 112 67
89 116 69
88 115 68
88 115 69
86 113 67
86 113 68
92 119 71
92 119 71
90 117 69
91 118 71
88 115 68
92 119 71
90 116 68
107 130 96
179 192 196
182 194 202
197 208 217
191 202 211
188 200 206
178 190 196
189 200 208
189 200 206
190 201 207
181 192 195
179 190 193
176 188 191
166 180 179
154 168 163
140 157 145
119 139 118
109 131 102
96 120 79
91 116 72
84 110 68
92 119 71
91 118 70
92 119 72
91 118 71
104 127 96
179 191 195
182 194 197
179 192 196
187 199 204
181 192 197
191 202 208
184 197 204
179 192 199
183 195 198
181 193 197
183 194 201
190 201 208
189 200 206
192 203 210
196 207 217
185 196 202
183 195 202
191 202 211
191 202 208
190 202 211
194 205 214
189 200 207
191 202 210
179 191 194
168 181 178
109 131 98
88 114 68
88 114 69
88 115 69
88 114 68
92 119 71
88 115 68
91 118 71
90 118 70
89 116 69
89 116 69
90 117 70
85 111 65
92 119 71
87 114 68
86 112 67
87 113 68
91 118 70
86 112 67
88 115 69
87 113 67
90 117 70
90 117 69
92 118 72
155 170 165
191 202 208
193 204 213
190 201 209
188 199 206
193 203 209
193 204 211
183 195 202
190 200 207
188 199 205
197 208 217
185 196 200
193 204 211
195 206 215
190 200 205
189 201 207
187 198 205
190 201 208
191 203 211
180 192 195
192 204 212
194 205 212
199 209 218
186 199 206
132 149 134
94 120 75
87 113 67
92 118 73
91 118 70
94 120 76
96 120 82
91 117 72
100 124 87
111 133 101
101 123 92
106 130 94
105 128 96
114 135 108
111 133 105
109 131 101
114 135 109
117 138 112
110 132 105
120 142 120
124 143 124
143 160 147
131 149 131
155 169 164
177 189 191
170 183 183
164 178 178
168 181 179
160 175 170
158 172 167
158 173 169
159 173 169
159 175 171
161 176 171
169 182 183
157 172 166
161 175 172
167 181 180
163 178 176
152 168 158
169 183 184
172 185 185
171 184 182
172 185 186
157 172 169
165 179 176
113 134 104
119 140 116
116 136 112
119 139 116
114 134 107
107 129 98
110 134 100
101 125 91
107 130 98
102 125 92
101 125 89
100 125 84
88 114 73
99 123 84
86 112 67
98 123 83
90 116 71
86 112 66
91 118 70
91 118 70
90 117 70
164 178 176
172 185 189
181 192 196
190 201 208
185 197 204
177 189 195
191 201 209
191 203 212
186 198 205
196 206 213
182 195 202
188 200 209
188 200 208
192 203 209
190 201 207
189 199 204
182 195 199
187 198 204
190 201 206
180 192 196
143 161 152
89 115 71
86 113 67
89 115 68
87 114 69
91 117 70
88 114 69
93 120 72
91 118 70
84 110 65
86 112 67
92 118 71
91 118 70
90 116 69
86 112 67
87 113 68
89 116 69
87 114 68
98 123 86
159 173 170
188 200 208
185 196 203
189 200 208
194 205 212
179 191 195
190 201 207
187 199 205
190 200 205
174 187 191
189 201 208
192 203 210
187 197 201
183 195 202
185 197 203
187 199 207
180 191 195
154 169 159
92 118 71
85 111 65
108 131 96
118 138 112
153 169 161
153 167 165
178 189 192
182 194 199
188 200 207
185 197 203
193 204 213
181 192 198
185 197 203
188 199 206
167 180 181
108 132 97
87 113 67
84 109 65
85 110 64
91 118 71
86 112 67
90 116 69
87 114 68
91 117 70
91 119 72
88 114 69
91 118 70
95 119 81
153 168 160
183 195 200
163 176 176
142 157 149
107 129 98
89 115 69
86 113 67
86 112 67
90 116 69
86 112 67
86 113 67
114 134 107
178 191 194
190 201 208
184 196 202
178 189 193
183 193 200
188 199 206
172 185 185
145 160 151
102 126 87
89 116 70
93 121 73
90 116 69
89 115 69
89 116 69
90 117 69
85 111 65
96 120 84
114 134 111
167 181 179
192 204 212
180 192 196
93 117 77
92 118 70
85 112 66
86 113 67
89 115 69
89 115 68
88 114 68
88 114 68
84 110 65
94 119 78
127 145 128
148 163 156
181 193 198
186 198 204
191 201 207
183 195 201
171 184 189
190 201 207
190 201 208
183 196 202
183 194 198
105 129 93
84 111 65
89 116 69
90 117 70
86 112 67
87 114 68
87 112 68
107 131 96
137 155 143
172 186 189
179 191 195
185 197 201
189 200 207
184 195 202
185 196 201
173 186 192
202 213 224
193 203 209
195 205 211
184 196 201
190 201 205
181 192 197
171 183 183
84 110 64
89 115 68
91 118 71
85 111 66
89 116 69
88 114 68
89 115 68
87 113 70
109 132 97
126 144 123
147 162 153
179 191 194
184 196 204
183 195 203
190 201 209
185 197 204
182 194 201
176 189 193
191 201 209
184 195 200
195 206 215
198 208 216
186 198 206
147 163 151
89 116 69
90 117 70
92 119 71
88 115 69
87 113 67
86 112 66
87 113 67
85 111 66
90 116 69
84 111 65
89 116 69
88 115 70
88 115 69
87 114 68
87 112 67
89 115 68
89 115 71
97 120 86
128 147 127
139 155 146
148 164 159
180 191 195
183 195 202
181 193 196
95 121 80
88 114 67
90 117 69
88 114 68
90 117 70
83 109 65
89 116 70
89 116 69
85 111 65
91 118 71
91 117 70
86 112 67
86 112 66
89 115 68
87 114 68
87 113 67
88 114 68
89 116 69
84 111 65
89 116 70
91 119 72
89 116 69
91 118 70
90 117 69
134 152 134
193 204 211
188 200 206
192 204 212
183 195 201
192 203 211
189 200 208
186 197 203
196 206 215
186 198 207
192 202 209
188 199 207
173 185 190
197 208 217
197 207 215
185 196 200
188 199 208
181 194 199
173 186 188
169 181 178
153 167 160
127 146 128
124 143 120
107 129 97
94 120 76
142 158 147
192 202 210
191 202 210
189 199 205
193 205 215
186 197 202
187 199 205
187 200 206
193 203 210
195 207 215
195 206 217
190 200 205
190 201 208
187 198 202
188 199 205
189 200 208
185 197 204
183 195 200
184 196 201
191 201 207
190 202 210
190 202 211
191 201 208
186 198 204
189 200 206
139 155 142
86 112 66
92 118 71
89 116 70
91 119 72
84 111 66
87 114 68
87 114 68
90 116 69
87 113 67
88 114 67
87 113 67
88 114 67
91 118 70
87 113 68
90 117 70
91 118 70
88 114 68
88 114 67
87 114 68
92 119 71
86 112 66
89 115 68
89 116 69
113 133 106
180 193 200
195 207 216
198 209 218
186 198 204
194 204 212
187 198 204
187 198 203
183 195 201
185 197 206
187 200 208
183 195 201
196 206 214
181 194 201
185 197 205
190 200 206
184 195 200
187 198 204
189 200 206
195 206 215
185 197 201
194 204 212
188 199 205
193 204 212
172 185 184
110 132 98
88 114 67
88 114 67
89 115 68
84 110 65
88 115 69
87 113 67
88 114 68
89 116 69
84 110 65
87 113 66
89 116 69
87 113 67
90 116 69
89 115 68
92 119 71
88 114 68
91 118 71
90 116 69
84 110 65
86 112 67
88 114 67
119 140 113
176 188 189
186 198 205
180 191 194
178 191 196
194 205 213
193 204 212
185 197 204
178 191 195
191 202 209
187 198 207
191 202 209
192 202 209
195 206 213
196 206 214
186 197 202
186 197 205
192 203 211
181 192 196
191 202 210
184 195 200
194 205 212
178 190 195
126 145 128
87 113 67
89 116 69
87 113 68
92 118 70
87 113 67
90 117 71
88 115 69
86 113 68
92 118 71
87 113 68
87 114 68
87 114 67
87 113 67
92 119 72
87 113 67
89 115 69
92 119 71
88 114 68
91 118 70
88 114 67
143 159 149
188 199 206
183 195 199
188 198 204
187 198 206
193 204 210
183 196 200
182 193 198
189 200 207
187 199 207
183 196 203
178 189 192
187 199 204
193 204 212
189 201 209
190 202 210
176 190 195
191 201 208
183 194 199
199 209 218
148 165 157
95 121 78
88 114 68
91 118 71
92 118 71
84 110 66
92 119 71
88 115 68
86 112 66
88 114 68
88 115 68
90 116 69
92 119 71
93 120 72
87 114 68
88 114 68
89 116 69
88 114 68
100 126 85
173 186 188
193 204 209
181 193 199
186 198 205
188 199 205
189 201 209
185 197 202
186 196 202
194 205 210
193 204 212
200 210 219
184 195 200
182 194 199
183 195 202
192 203 211
182 193 198
183 195 199
144 160 156
151 166 159
164 178 175
170 183 183
191 203 210
181 194 200
186 197 201
184 195 203
194 205 213
190 201 210
184 196 203
193 204 211
197 208 217
187 199 207
188 199 205
152 168 162
93 118 78
84 110 65
81 107 62
87 112 67
85 111 66
85 111 66
88 114 68
88 114 69
85 111 66
86 112 67
85 112 66
89 113 75
97 122 82
131 149 133
110 132 104
86 113 67
90 117 70
89 115 68
83 109 64
85 111 65
86 113 67
88 115 68
83 109 64
88 114 71
144 160 151
192 202 207
185 196 201
172 186 185
147 163 155
176 188 192
171 184 189
183 195 200
184 196 204
180 192 196
177 190 193
152 166 162
129 148 130
95 119 81
85 111 66
87 113 67
86 112 67
87 114 69
82 108 64
87 114 68
83 109 64
99 123 87
129 147 129
124 142 124
86 112 66
83 109 65
84 110 65
92 118 71
90 117 71
88 115 68
90 116 69
86 113 67
83 108 64
89 116 69
82 108 64
90 115 74
114 135 111
152 167 163
175 188 192
182 193 199
178 190 196
184 197 205
178 191 197
191 202 210
109 131 104
89 116 69
86 112 67
85 112 66
90 117 69
89 116 69
86 113 67
87 113 67
85 111 66
92 119 71
108 129 100
122 140 121
165 178 174
187 199 206
188 199 205
188 199 204
183 194 199
190 201 207
183 195 200
184 196 203
190 202 209
190 201 209
169 182 183
84 110 65
92 119 71
92 119 71
87 114 68
88 114 68
87 114 68
84 109 64
89 116 69
86 112 67
88 114 68
85 111 65
96 121 82
104 127 92
147 164 155
156 171 168
185 197 201
183 195 201
197 207 217
183 195 202
186 197 202
184 195 200
180 193 200
182 193 199
136 153 138
90 117 69
87 113 67
89 116 69
91 118 70
88 115 69
88 114 68
89 116 70
88 113 67
88 114 68
87 113 67
86 112 66
90 116 69
89 115 68
84 110 65
85 111 66
88 114 68
88 115 69
86 113 68
84 110 64
87 115 69
89 116 69
99 123 86
115 135 113
148 163 155
134 153 135
116 136 109
89 115 71
93 118 76
86 113 66
91 118 71
88 114 68
89 116 70
91 118 71
89 116 69
89 116 69
88 115 68
90 117 70
87 114 68
88 115 69
88 115 68
87 114 67
84 110 66
87 114 68
86 112 67
92 118 71
87 114 68
93 120 72
84 111 65
171 184 186
196 207 216
186 197 204
193 204 212
187 198 207
186 197 204
180 191 195
198 208 216
189 200 209
181 193 197
197 207 214
187 198 205
192 203 210
183 195 199
189 201 209
186 196 200
188 201 210
189 199 205
184 196 203
179 191 197
188 199 207
181 193 198
191 202 210
183 195 199
167 180 178
128 146 128
149 164 156
152 165 161
170 183 180
186 198 202
186 198 206
191 203 211
179 191 196
192 203 209
187 198 204
191 202 211
194 206 216
189 200 205
185 195 199
182 194 200
191 203 210
191 202 210
190 202 211
186 198 207
182 193 197
186 198 205
185 196 203
184 196 202
186 197 203
175 188 193
101 124 88
88 114 68
88 115 69
85 111 66
90 117 70
87 113 67
94 120 72
87 114 68
92 118 70
86 112 66
88 114 68
91 118 70
85 111 66
90 117 69
86 111 65
83 110 64
87 114 68
90 117 71
87 112 66
88 114 68
85 112 66
83 109 64
91 118 71
98 122 85
167 182 182
190 201 208
177 190 193
187 200 207
180 192 198
195 205 214
175 188 193
184 196 201
187 198 204
187 198 204
188 199 207
184 195 201
187 198 204
188 199 205
178 190 195
183 195 200
197 208 215
179 192 198
189 201 208
181 193 201
185 195 199
201 212 222
180 193 197
186 197 202
114 134 110
87 113 67
90 116 70
89 116 69
88 115 69
89 115 69
89 115 69
89 115 68
93 120 72
87 113 66
86 112 67
89 116 69
86 112 66
85 111 66
88 114 68
85 111 66
90 117 70
88 115 68
92 119 71
92 119 71
88 115 68
89 115 68
90 116 71
153 168 161
184 196 201
190 201 209
180 191 195
195 205 212
181 193 199
194 204 209
188 199 204
187 199 205
188 198 205
187 197 203
195 205 210
191 202 210
188 199 207
192 203 211
190 201 208
188 199 205
182 194 199
175 188 193
185 196 201
196 207 217
198 209 218
138 155 142
93 118 78
86 113 66
93 120 71
86 112 67
92 118 70
90 116 69
83 109 65
88 115 69
88 114 68
90 117 70
85 111 66
95 123 73
86 112 66
90 117 70
90 116 69
91 118 70
90 117 70
91 118 70
90 117 71
91 118 71
125 143 124
187 199 205
187 199 204
193 205 213
183 194 198
191 201 208
193 204 213
194 204 212
186 197 204
185 197 203
190 201 207
184 196 201
187 198 204
187 198 205
181 192 198
181 193 197
173 186 190
187 198 205
192 201 207
184 196 204
163 177 173
103 128 89
88 114 68
85 111 65
89 116 69
86 112 67
88 115 68
86 112 66
89 116 69
87 113 67
88 114 68
91 117 70
92 119 71
89 115 69
83 108 64
92 119 71
89 116 69
92 120 72
108 130 99
169 180 180
193 204 211
184 195 200
186 198 207
186 197 203
184 196 205
193 204 213
181 193 198
189 200 208
187 198 203
187 199 206
172 185 188
142 158 147
152 167 160
133 152 137
121 142 118
124 143 121
178 189 191
191 202 210
181 192 197
185 196 202
179 191 194
189 201 208
186 198 204
187 198 203
189 200 207
184 195 202
184 197 203
181 192 198
194 204 212
188 199 207
186 197 204
126 145 125
83 109 64
87 113 68
86 112 67
90 117 70
88 114 68
85 112 66
87 113 68
88 114 68
85 110 71
120 140 117
152 167 162
164 178 177
152 166 159
90 115 74
88 115 70
88 115 69
86 112 66
86 112 66
90 117 70
85 111 66
85 111 67
86 112 66
86 113 67
114 135 110
173 186 189
171 185 184
130 148 136
107 128 99
86 112 66
92 119 71
123 141 125
126 144 125
158 172 169
169 183 185
190 201 207
182 193 199
183 195 203
193 204 211
188 198 205
155 170 164
121 139 121
92 117 75
86 113 68
85 111 65
87 113 67
88 114 68
89 116 69
85 112 66
141 158 146
176 189 195
138 155 143
109 130 101
86 112 66
88 115 68
89 114 68
82 107 63
89 115 69
85 111 66
88 115 68
92 119 72
86 113 67
87 113 67
82 108 63
101 125 86
122 141 123
145 162 153
180 191 195
183 195 199
174 186 189
127 145 128
89 115 68
85 111 66
86 113 68
88 114 68
85 111 66
90 117 70
86 112 66
87 113 67
85 111 65
89 115 68
89 115 69
88 114 67
98 120 86
125 144 122
158 171 168
170 183 184
176 189 194
186 197 204
182 194 200
179 191 197
182 194 199
162 176 175
89 116 70
90 116 69
90 116 70
91 118 71
89 115 69
92 119 71
88 114 68
92 119 71
84 110 65
86 112 67
86 113 66
87 113 67
92 118 71
87 113 67
89 116 69
97 122 83
106 129 97
150 165 155
161 174 172
167 182 184
189 200 207
183 194 198
192 203 210
118 139 113
83 109 64
89 116 69
88 114 68
85 111 66
86 112 66
85 111 66
85 111 66
89 115 68
90 117 70
87 114 68
85 112 66
89 116 69
88 114 69
90 116 70
92 119 71
91 118 71
89 116 69
86 113 68
91 118 70
86 112 67
86 112 66
89 115 68
92 119 71
152 167 160
183 195 200
179 192 198
177 190 193
163 177 175
132 149 136
118 139 113
103 125 95
99 124 82
87 113 67
88 115 69
92 119 72
88 114 67
91 117 70
87 113 68
88 114 68
87 113 68
87 113 67
92 120 72
87 113 67
85 111 65
93 120 72
87 113 67
86 113 67
102 126 90
174 186 191
187 199 208
188 198 204
190 202 209
186 197 204
190 202 209
192 203 211
170 183 186
192 203 211
188 198 204
192 203 210
195 205 211
185 197 204
186 197 204
192 203 212
183 195 200
187 200 209
185 196 200
185 196 202
194 204 210
185 197 205
189 200 206
190 200 207
189 201 209
174 187 187
97 123 79
88 114 68
92 118 73
93 118 80
107 128 100
108 131 96
121 140 120
142 159 146
153 169 161
159 173 171
186 197 203
185 197 204
187 198 202
192 203 212
180 192 198
192 202 208
184 197 204
188 200 206
182 194 201
189 200 208
187 198 206
178 190 194
190 201 206
193 204 213
138 154 143
91 116 72
89 115 68
84 110 64
87 113 68
88 114 68
92 119 72
88 115 69
89 116 69
82 108 63
88 114 68
88 115 69
86 112 67
85 111 65
93 120 72
86 112 67
88 114 68
93 120 72
86 112 66
88 115 68
86 112 66
87 113 67
94 121 73
89 115 69
128 146 126
189 200 205
193 203 212
186 197 203
186 199 206
188 199 206
181 192 199
186 198 206
185 197 203
187 199 207
190 201 210
190 201 208
194 203 209
194 205 213
187 198 206
185 196 204
194 205 213
189 201 207
181 193 198
181 192 198
189 200 206
192 203 209
191 202 208
188 199 204
142 158 146
90 115 73
85 112 66
91 118 70
87 113 66
87 113 67
89 116 69
87 114 68
82 108 64
87 113 67
86 113 68
87 113 67
85 111 66
88 115 69
87 113 67
85 111 66
91 118 71
91 119 72
90 116 69
85 111 66
90 116 69
89 115 68
84 109 66
130 147 132
185 196 201
193 205 212
187 199 204
189 200 206
182 194 200
175 188 192
191 203 211
195 206 215
180 193 198
195 206 216
191 203 211
189 200 207
188 200 206
192 203 210
192 203 211
184 196 202
194 204 212
190 201 208
186 197 202
181 193 198
187 199 205
162 176 174
99 124 84
85 111 67
94 121 72
90 116 68
88 115 69
89 115 69
88 115 69
89 115 69
89 115 68
87 113 67
92 120 72
86 112 67
87 113 67
86 112 66
90 116 69
86 113 67
83 110 65
90 117 70
83 109 64
91 118 70
132 149 129
188 199 206
188 199 207
187 197 203
183 195 199
190 202 211
182 194 198
186 197 204
178 191 198
186 198 205
188 199 206
195 206 214
176 188 192
178 191 196
191 203 211
183 194 202
190 201 208
183 193 198
190 202 208
186 198 208
146 160 154
89 114 73
88 114 68
87 113 66
87 113 67
89 116 69
87 113 66
90 116 69
90 117 70
87 114 68
87 113 66
91 117 70
85 112 67
88 115 69
90 117 70
85 111 66
90 116 69
86 112 67
105 126 97
174 187 191
186 198 206
178 191 197
192 202 208
183 195 202
170 183 184
171 184 186
160 174 173
158 173 168
146 162 153
114 134 109
101 125 89
93 119 76
90 117 70
89 116 69
85 111 66
105 127 100
174 186 189
179 191 195
190 202 213
187 199 206
187 199 203
186 197 203
180 192 195
184 196 204
191 201 209
178 191 197
182 194 200
176 188 192
186 198 205
186 197 204
181 193 197
105 127 95
90 117 70
89 115 69
83 109 66
92 119 71
86 112 67
100 124 86
126 145 127
149 164 156
168 182 182
171 184 189
173 186 189
183 196 202
133 149 139
87 113 67
85 111 66
87 114 68
92 119 72
85 111 66
87 114 68
87 113 67
84 111 66
83 109 64
86 112 69
116 137 113
122 141 124
92 118 76
87 113 68
85 111 65
83 109 65
89 115 69
87 114 68
163 175 178
100 124 88
87 113 67
105 128 95
134 149 138
168 182 184
178 191 198
183 194 202
188 200 205
179 191 197
181 192 194
180 192 197
152 166 159
106 127 98
88 114 68
88 114 68
85 111 66
83 108 65
114 135 109
171 184 187
181 192 199
178 190 195
167 180 181
139 155 146
110 132 107
91 118 70
87 114 68
91 118 71
90 116 69
90 116 69
84 110 65
87 114 68
88 114 68
92 118 70
82 108 64
84 109 64
90 116 69
115 135 113
164 178 178
137 154 143
85 111 65
84 110 65
84 111 65
86 112 67
85 112 66
88 115 68
86 112 67
85 112 66
87 113 67
87 114 68
86 112 67
91 118 71
81 106 62
87 113 67
88 115 68
92 117 77
118 139 116
150 165 155
169 182 183
187 198 204
190 202 211
164 177 178
86 112 67
84 110 65
82 108 64
90 116 70
86 113 67
88 115 68
92 118 70
89 116 69
88 114 67
88 114 68
87 113 66
87 113 67
87 113 66
89 116 69
88 115 69
89 116 69
90 116 69
90 116 69
91 117 73
100 124 91
119 138 118
153 169 161
165 179 179
98 122 85
87 114 68
90 116 69
89 116 69
85 111 65
88 114 68
83 110 65
88 114 67
88 114 68
87 114 68
90 117 69
88 115 69
85 110 65
86 112 66
91 117 69
87 114 68
87 113 67
88 114 68
92 118 70
87 113 67
86 113 68
85 111 66
86 112 67
91 116 74
161 175 172
186 197 203
182 194 199
181 193 201
185 198 205
183 195 203
190 201 206
185 196 199
170 184 185
145 161 154
134 152 139
110 132 105
103 127 90
84 111 66
88 114 68
88 115 68
87 113 67
89 116 70
92 119 71
88 114 67
89 116 69
86 112 67
83 108 64
90 116 69
115 136 113
186 198 205
193 204 212
176 189 194
182 193 198
196 206 215
187 199 207
187 198 206
184 196 205
184 196 201
188 200 208
186 197 203
184 195 200
184 196 203
187 199 205
193 204 212
180 191 195
177 189 192
183 196 201
184 195 201
180 192 199
193 204 211
201 211 221
187 198 204
188 199 206
145 162 150
88 115 68
85 111 66
90 116 69
91 118 70
86 112 66
90 117 70
85 111 66
86 112 66
89 115 68
87 113 67
108 131 96
109 130 104
119 138 115
127 146 126
131 149 138
146 162 152
164 177 178
166 181 182
177 189 193
197 207 215
182 194 199
190 201 208
190 201 206
189 201 206
100 123 85
90 117 70
89 115 68
89 116 69
85 112 66
87 113 67
87 114 68
88 115 68
89 116 69
88 114 68
88 114 68
89 116 70
89 116 69
87 113 67
87 114 68
88 115 68
92 119 71
87 113 67
89 115 68
89 115 69
87 114 68
91 117 70
88 114 68
93 119 74
154 169 165
188 199 205
189 200 207
183 195 202
191 202 207
187 198 206
188 199 207
183 195 203
184 196 204
193 204 211
188 199 204
190 201 207
184 197 205
182 193 199
179 191 196
177 189 193
186 197 205
189 200 206
190 201 207
186 196 200
189 200 207
187 199 207
188 199 206
176 189 191
108 130 97
90 117 70
89 115 68
87 113 67
85 111 66
89 115 68
86 112 67
86 112 67
94 122 73
90 117 70
88 115 69
88 114 68
88 114 68
86 112 66
88 115 68
88 114 68
90 117 69
88 114 68
89 115 69
87 113 67
88 114 68
89 115 69
108 132 101
185 197 203
191 202 208
191 202 210
185 196 202
184 195 202
187 199 204
183 194 201
176 188 192
188 199 205
192 204 213
186 198 204
193 202 208
189 200 206
190 201 209
184 196 201
183 196 203
178 190 194
180 193 197
197 208 219
190 201 209
189 200 208
169 183 181
101 123 91
84 110 65
89 115 69
88 114 68
87 113 67
84 110 66
85 111 65
89 116 69
89 115 69
85 111 66
95 123 74
89 116 69
87 113 67
89 116 69
89 115 69
89 116 69
82 108 64
88 115 68
89 116 69
86 113 67
113 133 109
163 178 177
193 204 213
182 194 199
194 206 216
184 196 204
185 197 203
192 203 212
190 201 207
177 190 196
192 203 210
188 199 205
193 204 212
191 202 208
183 195 201
175 188 194
186 197 204
186 198 204
191 202 209
190 200 207
152 166 159
92 116 76
91 118 70
86 113 67
90 116 69
90 117 70
88 115 68
86 113 67
86 112 66
86 112 66
90 116 69
85 112 67
87 113 67
87 114 68
87 114 68
86 112 67
91 117 73
88 115 69
105 128 98
165 178 178
173 186 188
152 166 161
148 163 155
114 134 111
111 133 105
100 123 89
80 106 62
91 118 72
87 114 68
84 110 65
89 115 68
90 116 70
84 111 65
89 116 69
82 108 64
121 140 121
177 188 192
189 200 208
195 206 215
178 191 195
181 193 197
176 188 194
182 194 199
180 192 199
179 191 197
190 201 208
188 198 205
179 191 195
190 201 207
185 197 204
152 168 161
93 117 82
93 120 72
78 103 61
111 131 104
132 150 136
157 172 166
164 177 176
184 195 201
186 198 206
180 192 198
181 194 202
181 193 196
162 175 176
102 126 91
80 106 62
92 119 71
88 115 69
90 116 70
85 112 66
86 113 68
92 118 75
116 135 113
140 155 149
126 145 128
85 111 68
91 117 70
82 108 63
88 114 69
86 111 66
85 111 66
93 115 81
103 124 98
90 113 76
162 176 174
138 154 144
91 116 77
88 113 72
92 118 74
87 113 68
103 123 96
138 154 146
180 192 196
178 190 195
180 193 198
183 194 200
185 196 201
182 194 198
169 182 181
137 153 144
102 125 93
86 112 66
85 111 65
175 188 192
179 192 197
184 197 204
190 201 209
189 200 209
184 195 201
167 180 181
141 157 149
108 130 100
90 116 70
84 110 65
83 110 65
86 112 66
87 113 68
87 114 68
89 116 69
90 117 70
89 115 68
86 112 67
88 114 68
132 149 136
155 169 167
143 159 147
102 125 94
92 118 70
84 110 65
83 109 64
87 114 68
87 113 67
91 118 70
81 107 63
88 115 68
86 113 67
85 112 67
89 115 68
88 114 67
84 109 64
86 112 67
90 117 70
84 110 66
105 128 98
132 150 133
155 170 164
101 124 90
84 110 66
85 112 66
88 115 69
86 112 66
85 111 65
88 114 69
89 116 69
87 113 67
90 117 71
86 113 67
89 116 69
88 115 69
89 116 70
89 115 69
83 109 64
86 113 68
85 111 65
88 115 69
87 114 69
87 113 68
83 109 65
104 126 96
175 187 189
160 175 172
140 158 145
112 134 105
96 120 82
84 109 64
89 115 69
87 114 68
86 112 66
90 116 69
88 115 69
91 118 71
86 112 67
83 110 65
91 118 70
89 115 68
82 108 64
92 118 71
85 112 66
89 115 68
89 116 69
84 109 65
86 113 67
101 125 89
178 190 192
180 192 196
182 194 200
189 201 207
191 203 208
178 191 195
181 193 198
189 202 211
188 199 205
188 198 204
175 188 191
175 188 194
182 194 199
170 183 180
144 160 151
127 145 128
113 135 106
93 118 78
86 112 69
90 116 68
87 114 68
84 111 66
86 111 66
89 116 69
147 161 155
183 195 200
193 204 212
183 195 203
186 198 205
182 193 197
183 194 199
182 193 202
180 191 198
190 200 207
182 194 200
193 203 211
184 196 203
187 199 205
195 206 217
186 197 204
188 199 206
187 198 203
188 200 208
184 196 202
181 194 201
183 195 202
181 194 199
182 194 198
181 192 194
110 131 101
92 119 71
86 112 66
84 110 65
91 118 70
88 115 68
87 113 67
88 114 67
88 115 68
88 115 69
89 116 69
88 115 69
92 119 72
87 113 67
91 118 71
88 114 68
86 112 67
87 112 66
90 114 73
111 133 104
118 138 114
130 147 129
129 147 130
141 158 149
146 162 157
131 148 134
120 138 117
95 118 85
98 123 83
96 121 80
90 116 72
81 107 62
92 118 70
83 109 64
85 111 66
87 113 68
85 111 65
85 110 65
90 117 69
89 116 69
90 116 70
87 113 68
85 112 65
85 111 65
87 113 67
86 112 66
88 115 69
88 114 68
129 148 128
180 192 196
196 207 216
188 199 205
190 201 208
192 202 210
182 195 203
194 204 210
188 199 206
189 200 209
192 202 210
186 198 206
179 191 196
180 191 196
184 195 199
186 197 202
188 199 208
173 186 193
194 205 215
190 201 207
186 198 204
191 203 212
196 206 214
188 199 204
117 137 116
89 115 68
88 114 68
90 116 69
85 110 65
82 108 63
84 110 65
87 113 68
85 112 66
88 115 68
85 111 66
90 117 70
86 112 66
92 119 71
89 116 69
87 114 68
88 115 69
89 115 69
88 115 68
88 115 67
90 117 70
88 114 68
97 120 84
176 189 189
185 197 202
187 198 205
193 203 209
198 208 215
183 195 200
188 199 207
189 200 208
188 200 207
192 203 212
181 194 200
180 192 197
187 198 204
186 198 205
179 192 197
179 191 197
188 200 206
187 198 203
185 197 204
192 203 210
184 195 202
173 186 189
125 145 120
88 115 69
87 113 67
85 111 66
92 119 71
90 116 68
90 117 69
88 114 68
91 117 70
90 118 71
84 110 66
84 111 65
86 112 67
88 115 69
85 110 66
90 116 69
90 116 70
90 118 71
85 112 66
88 114 67
114 137 108
179 191 194
183 195 201
185 196 204
182 194 199
184 196 201
188 199 205
188 199 205
178 191 196
184 195 200
188 199 206
183 194 197
176 189 194
175 188 194
182 194 199
182 194 198
184 195 201
190 202 209
193 203 211
179 190 195
158 171 167
92 118 73
88 114 68
93 120 72
89 116 70
87 113 67
85 112 67
85 111 66
87 113 68
81 106 62
92 118 74
89 114 70
106 129 95
115 136 108
127 146 126
141 156 147
141 158 152
156 171 165
160 173 169
95 120 82
89 114 70
88 114 68
85 111 66
82 107 63
84 110 66
91 118 71
81 107 62
89 116 68
85 111 66
85 112 66
87 113 67
88 114 68
87 113 68
85 111 66
91 118 70
136 153 138
176 188 192
185 196 203
189 201 210
191 202 211
170 181 183
176 188 194
186 198 204
176 188 191
177 190 195
189 201 208
187 198 207
180 192 198
181 194 201
193 203 211
148 164 154
129 148 128
143 159 148
161 175 174
175 187 190
180 192 198
176 188 193
188 199 206
187 199 208
188 199 206
185 198 206
190 201 209
170 182 186
126 144 127
91 118 70
84 110 65
82 107 64
86 113 67
86 112 66
89 114 76
113 134 110
158 171 170
179 191 195
168 180 180
120 140 117
88 114 67
82 108 64
86 112 67
88 115 70
88 113 73
142 159 150
153 167 163
145 159 150
125 143 129
143 158 152
149 165 161
160 174 172
131 149 134
103 127 90
121 139 118
126 144 126
150 165 158
122 141 119
92 116 81
126 145 130
171 183 184
165 179 182
184 195 200
190 201 209
181 193 198
174 186 193
189 200 207
164 178 177
139 155 146
152 166 161
188 199 206
177 189 193
182 194 200
177 189 194
186 198 208
183 194 200
181 193 199
180 191 197
168 181 183
145 159 150
100 123 94
86 112 67
84 110 65
82 108 64
94 121 72
86 112 67
84 110 65
86 112 67
84 109 64
115 135 111
183 195 201
184 195 203
173 185 188
167 181 183
146 161 153
112 134 105
88 114 71
87 113 67
89 116 69
87 114 68
89 115 69
88 114 68
89 115 68
86 112 66
88 114 68
86 112 67
85 111 66
84 111 66
87 113 66
85 110 65
87 113 66
126 146 127
177 190 194
164 177 175
138 155 142
103 124 94
96 119 85
86 111 66
85 111 65
88 115 69
85 111 66
86 113 67
84 109 64
86 112 66
88 114 68
81 106 63
86 112 67
88 114 68
84 109 64
90 117 70
88 115 68
86 113 67
88 115 69
85 111 66
104 125 97
187 198 203
190 201 207
190 201 209
184 195 201
178 189 193
153 168 162
128 147 132
109 130 105
90 115 74
86 112 66
86 113 67
90 116 70
90 116 70
85 111 66
88 114 68
87 113 67
86 112 67
89 115 68
84 110 66
85 112 66
87 114 68
90 117 70
87 113 67
120 140 115
190 201 208
184 196 202
185 197 206
191 203 208
182 194 201
177 189 196
187 199 204
189 199 204
184 195 198
177 189 194
189 200 207
190 201 210
188 199 207
183 194 200
190 201 209
190 201 209
184 196 203
163 177 177
151 166 161
152 167 160
129 148 131
113 133 105
92 118 75
91 118 73
167 179 180
182 194 200
194 205 215
193 204 214
190 201 208
194 205 213
187 199 207
186 197 203
189 199 205
190 200 209
172 184 190
183 195 202
192 203 212
189 201 209
182 194 200
186 197 203
182 194 201
189 199 205
184 196 203
190 201 208
192 203 210
191 203 212
186 197 205
191 202 211
161 175 171
90 117 70
84 110 65
82 108 64
87 114 68
90 116 69
86 112 67
84 109 65
91 118 70
86 113 67
91 118 70
88 114 68
87 114 68
94 122 74
86 113 66
88 114 68
89 115 68
90 117 70
87 114 68
87 114 67
85 111 66
89 116 69
86 112 66
88 114 68
100 123 88
176 188 191
185 196 202
178 191 196
187 198 203
174 187 191
169 182 184
158 172 167
152 167 162
145 161 151
140 157 143
114 135 110
102 126 93
98 121 84
95 120 82
90 115 73
90 115 73
89 116 69
86 112 66
89 116 69
89 116 69
85 111 65
86 112 67
88 114 68
98 122 88
169 183 183
188 199 206
196 207 217
187 198 205
190 202 210
179 192 197
181 192 197
183 195 201
190 200 206
182 194 198
185 197 204
186 197 203
182 194 200
176 187 191
190 200 207
192 204 213
190 200 206
185 195 200
184 196 203
181 193 197
192 201 207
191 203 211
188 199 205
164 178 173
89 114 73
90 117 70
89 115 68
90 117 70
84 111 66
86 113 67
86 112 67
92 119 71
86 113 67
85 112 66
88 114 68
86 112 67
87 114 67
88 115 69
88 116 69
90 117 70
88 114 68
95 122 73
87 113 68
87 113 67
83 108 63
92 116 77
154 168 163
188 199 206
183 195 202
172 184 187
190 202 209
185 197 205
185 196 201
188 200 208
189 200 206
181 193 199
171 184 188
187 198 205
195 206 215
189 200 209
185 197 203
187 199 206
194 204 211
191 202 209
182 194 201
183 196 202
187 199 207
195 205 213
137 154 141
89 116 69
82 107 64
88 114 68
88 115 69
82 107 63
86 113 67
87 113 68
85 112 66
89 115 68
87 114 68
84 110 65
85 111 66
86 112 67
85 111 66
87 113 67
89 116 69
88 114 68
90 117 70
88 115 68
101 123 90
174 187 189
194 206 214
187 199 206
179 191 196
183 196 202
178 190 194
192 202 209
178 190 196
191 202 210
187 199 208
183 194 199
194 205 214
182 194 201
191 203 210
186 198 205
188 199 206
185 196 202
192 204 212
176 188 195
160 174 171
92 117 75
89 116 69
94 121 78
100 123 86
112 133 104
119 138 117
140 157 144
148 164 153
154 169 161
169 183 183
170 184 184
179 191 196
183 193 196
173 186 190
183 195 201
178 190 195
180 192 198
175 188 189
91 115 77
87 114 68
92 118 70
86 112 67
88 114 68
79 104 61
90 117 70
89 116 69
87 113 68
87 113 67
90 117 70
88 115 69
82 108 64
81 106 62
82 107 63
91 115 77
152 168 162
187 198 206
185 196 202
193 204 213
195 205 214
190 201 208
184 195 202
187 199 207
188 199 207
187 197 203
181 192 198
191 202 210
178 190 196
166 180 180
162 176 173
177 190 195
177 190 195
184 196 202
182 194 199
193 204 211
183 195 201
177 190 196
179 192 197
185 197 203
190 202 210
178 190 193
185 196 202
171 183 185
111 132 102
82 107 64
84 110 65
90 114 76
111 132 108
146 160 152
166 179 176
183 196 203
175 187 192
178 190 198
140 156 148
82 108 63
87 113 67
90 116 72
92 118 76
96 120 81
120 140 120
134 151 139
156 171 170
181 193 198
152 168 165
141 157 144
136 153 142
223 236 254
202 215 227
144 160 154
134 153 139
112 131 111
101 124 89
99 120 92
156 170 167
173 185 186
170 183 185
171 184 186
161 175 175
171 183 183
168 181 185
170 183 184
176 188 191
180 192 197
184 196 202
182 195 201
164 177 177
129 146 129
157 172 169
185 196 202
178 189 192
183 194 198
182 194 199
178 190 196
185 197 204
191 201 208
180 193 200
182 194 201
161 175 176
128 147 131
116 135 113
87 113 67
86 112 66
88 114 69
84 110 64
85 111 66
107 129 100
193 204 212
176 188 193
184 195 202
191 202 211
188 199 207
187 199 206
171 184 186
154 169 164
117 136 115
87 113 70
88 115 68
86 113 67
86 112 66
86 112 67
88 114 68
86 112 67
82 108 64
88 114 67
87 113 67
88 115 68
87 113 67
114 135 115
177 189 192
178 190 195
180 192 196
179 191 196
178 190 193
141 156 146
146 163 153
95 119 85
85 112 66
87 112 66
83 110 64
84 111 66
89 116 69
79 105 61
87 113 66
88 114 68
84 110 65
85 111 66
79 105 61
83 109 65
87 113 68
84 111 66
113 134 103
177 190 194
177 191 196
184 194 199
179 191 197
182 194 199
190 203 212
176 188 191
185 197 201
181 192 196
165 178 175
128 148 129
116 136 115
101 124 90
88 114 67
88 115 70
90 116 69
89 115 69
83 108 64
85 110 65
89 115 69
87 113 67
85 111 65
88 114 68
142 158 147
186 197 204
178 191 196
182 194 200
189 200 207
191 201 207
186 198 206
181 193 200
184 196 200
181 193 200
177 189 195
191 202 210
194 205 213
186 197 205
188 199 208
186 197 203
191 202 210
186 198 205
176 188 193
189 201 209
186 198 206
190 201 208
186 198 205
182 194 199
152 167 164
136 153 142
157 171 169
165 179 177
186 198 206
185 196 202
184 196 204
193 204 211
180 192 199
191 202 207
191 202 208
183 195 202
188 199 206
190 201 209
188 198 204
184 196 203
186 197 203
181 194 201
188 199 204
189 200 207
188 200 207
184 195 200
189 201 208
188 200 208
188 198 205
112 133 111
89 116 68
86 112 66
88 115 68
86 113 68
86 112 67
86 112 67
83 110 65
86 113 67
88 114 68
88 114 67
91 117 70
87 113 68
88 114 68
86 113 67
83 108 63
79 105 62
82 108 64
86 112 66
88 114 68
86 112 67
88 114 67
89 115 68
89 115 69
130 149 136
190 201 208
188 200 206
184 196 202
184 195 199
191 202 209
186 197 202
192 203 211
181 193 197
186 198 205
186 199 207
188 199 207
188 199 205
176 189 192
175 188 192
167 180 182
152 166 161
157 171 166
135 151 142
136 153 143
121 141 119
115 135 111
109 130 103
104 127 94
141 158 148
185 197 202
183 195 198
194 205 212
181 192 197
183 195 203
186 198 203
185 196 202
173 185 189
193 205 214
192 202 208
185 197 205
182 194 200
187 198 207
180 192 195
188 199 206
190 202 210
186 198 205
187 199 204
182 193 198
190 201 208
190 202 209
192 203 210
181 192 198
102 125 95
88 114 68
84 110 65
90 116 70
85 111 66
82 108 64
88 114 68
84 110 64
86 112 67
86 112 66
86 111 66
91 117 70
88 114 67
90 117 70
87 114 67
89 116 70
89 116 69
84 110 65
85 111 65
85 111 66
90 117 70
90 117 70
137 153 138
190 202 208
186 197 203
186 198 204
186 197 205
192 202 210
189 200 207
189 200 207
174 187 191
199 209 218
184 196 203
187 198 205
188 201 210
181 193 199
191 202 209
177 189 194
189 199 206
198 209 218
179 190 195
193 205 215
190 202 210
186 197 202
138 155 141
90 117 69
87 113 68
88 114 67
89 116 70
87 113 67
84 109 65
90 117 70
84 110 65
85 112 67
91 118 71
87 114 68
85 112 66
88 115 68
83 109 65
87 113 68
86 112 67
86 112 66
88 114 69
89 115 69
101 126 87
173 186 188
189 201 207
196 206 215
183 194 200
194 205 213
185 197 203
181 192 200
186 197 203
176 188 193
190 200 207
189 201 207
183 195 202
195 206 213
186 198 205
179 192 196
172 186 190
175 187 189
165 179 177
151 166 159
170 184 185
159 173 169
150 165 161
163 176 174
177 189 191
173 186 190
182 194 200
190 203 212
183 195 200
183 196 202
187 199 205
180 192 198
185 196 200
186 197 204
188 200 208
175 188 191
177 190 197
191 202 209
143 158 150
86 112 69
86 112 66
88 115 69
84 110 66
82 107 64
85 111 66
87 114 68
84 110 66
83 109 65
90 117 70
87 113 68
81 106 63
85 111 66
86 112 66
87 113 67
94 117 82
173 186 189
190 201 208
188 200 209
178 191 197
183 194 200
183 195 201
183 194 198
181 193 199
176 188 191
161 175 176
153 167 159
122 140 122
97 122 85
91 118 71
133 152 135
178 190 194
177 189 193
173 185 188
182 193 198
183 195 203
183 194 200
184 195 199
183 195 202
186 198 205
184 196 202
174 187 193
177 189 194
128 146 130
88 113 73
110 130 108
132 149 135
151 166 159
191 203 211
190 201 210
179 192 196
184 196 203
182 194 198
171 184 184
157 171 165
147 164 156
147 163 157
127 146 129
110 132 104
93 118 77
94 119 79
140 157 149
154 169 165
137 152 145
128 146 134
178 193 196
210 223 237
224 237 254
225 238 255
225 238 255
225 238 255
216 229 245
211 223 237
173 187 190
150 165 158
115 135 115
96 118 90
127 144 128
148 163 158
167 179 179
179 192 199
178 191 199
171 184 186
140 156 147
119 138 116
98 120 90
113 133 110
130 147 136
128 146 131
134 150 139
112 132 111
140 156 148
157 172 170
187 198 205
177 190 196
170 184 189
189 201 209
186 197 204
184 196 202
181 193 199
185 197 205
183 194 200
166 178 178
141 157 146
100 121 93
86 112 66
84 110 65
103 126 95
187 199 207
180 192 197
189 200 206
183 195 202
187 199 205
191 202 209
181 193 199
185 196 202
184 194 201
183 194 199
143 158 150
128 145 130
89 112 77
85 111 66
82 108 64
82 108 64
87 113 68
85 112 66
84 110 65
84 109 65
86 113 68
120 139 119
185 196 201
191 202 211
187 198 205
179 191 196
191 201 206
170 184 186
182 194 201
173 186 191
171 185 187
145 162 153
116 136 113
91 114 78
93 121 73
84 110 66
82 107 63
85 111 66
88 115 68
89 115 68
83 109 64
93 121 73
81 107 63
89 115 68
127 144 130
181 192 198
184 195 198
182 194 202
189 201 209
175 188 195
186 197 205
180 192 197
180 192 199
183 195 199
190 201 209
188 199 205
171 184 187
172 185 187
158 172 172
142 159 150
130 148 130
100 124 88
88 113 70
85 112 65
81 107 64
84 111 65
87 113 67
85 112 66
180 192 195
176 188 193
182 195 202
175 188 193
176 188 191
187 198 204
182 194 198
186 197 205
193 204 212
185 197 203
168 181 183
185 196 202
182 194 198
173 185 190
189 200 206
185 197 203
173 185 189
189 200 206
187 198 203
189 201 207
180 192 201
193 204 213
186 198 205
195 205 212
157 171 165
88 114 68
87 113 67
99 122 83
111 132 108
110 132 108
143 159 150
149 165 154
166 179 180
170 182 183
191 202 210
187 199 207
187 198 207
191 202 208
189 200 207
181 193 198
184 196 203
180 192 198
187 198 203
187 199 206
180 193 197
180 192 198
183 194 199
188 199 206
171 184 185
91 115 78
87 114 68
89 115 69
86 113 67
89 115 68
84 110 66
87 113 67
80 106 62
86 112 67
88 114 68
85 111 66
86 112 66
86 112 66
87 113 67
88 115 68
89 116 69
92 119 71
86 112 66
86 112 67
82 108 64
91 118 70
85 111 66
84 110 65
97 120 88
176 189 193
187 198 203
185 197 202
183 195 203
190 202 208
191 202 209
187 199 206
192 203 211
181 193 199
183 194 198
189 200 207
180 193 200
180 192 197
177 190 196
182 193 199
184 196 203
186 197 204
178 189 193
182 195 201
179 191 197
188 199 206
176 188 192
189 200 207
181 193 200
116 135 113
109 130 104
134 152 135
126 145 124
148 163 156
139 156 144
143 159 148
154 168 162
156 170 167
168 181 180
157 171 169
177 190 190
182 194 198
170 183 185
189 200 206
185 197 206
189 201 208
190 200 207
188 199 206
192 203 209
182 194 201
187 197 204
192 203 211
135 153 137
91 118 71
85 111 66
80 105 61
86 112 66
84 110 65
90 116 70
88 115 69
88 114 68
94 120 72
91 118 71
94 121 73
87 113 67
86 112 66
89 116 69
88 114 68
84 110 66
88 115 69
88 115 68
86 113 67
82 107 63
85 111 67
108 130 100
180 193 198
185 197 203
182 194 200
180 192 199
192 202 209
188 199 205
192 202 208
188 198 203
186 199 208
196 206 215
190 201 208
188 199 207
188 199 205
176 187 192
184 195 201
183 195 202
180 192 198
191 202 210
180 192 198
182 193 196
180 192 196
152 167 163
99 124 89
85 112 66
79 105 62
92 119 72
85 111 67
86 111 65
89 115 68
85 111 65
84 110 65
90 116 69
88 115 69
82 108 64
88 114 68
84 110 65
85 111 66
87 113 67
90 117 70
88 114 67
86 112 66
88 113 72
151 165 160
176 189 193
179 190 194
180 193 197
176 188 192
160 174 173
162 175 173
167 180 181
145 160 153
151 165 158
128 145 129
123 141 122
118 138 116
115 136 114
102 125 96
99 121 89
93 117 80
82 107 63
87 113 67
133 150 136
182 193 197
176 188 192
178 190 196
193 203 210
181 193 199
182 193 199
186 198 206
185 196 202
186 199 209
188 199 205
183 194 199
182 193 200
177 190 194
184 196 202
179 191 196
173 186 189
185 197 205
143 159 152
89 115 74
80 105 61
91 119 71
86 112 66
89 116 68
91 118 71
87 114 68
86 112 66
86 112 66
87 113 67
90 117 70
83 109 65
81 107 63
90 116 69
89 115 69
110 131 106
165 178 179
185 196 201
180 192 198
181 193 199
181 193 199
157 172 168
141 157 148
128 146 129
111 133 105
84 110 66
84 110 65
84 110 65
86 112 66
93 117 77
153 168 162
185 196 203
183 196 201
187 198 203
183 195 200
181 193 199
193 204 210
175 187 194
181 194 199
180 192 198
180 192 199
174 186 192
165 178 179
141 157 147
155 170 168
172 185 190
177 190 193
154 169 165
146 161 154
124 143 128
114 134 111
108 129 101
111 131 104
158 173 170
160 174 170
124 142 127
108 127 103
82 108 64
88 114 68
91 115 80
108 129 105
118 137 120
121 138 124
165 180 180
203 217 229
222 235 252
225 238 255
225 238 255
225 238 255
225 238 255
225 238 255
225 238 255
225 238 255
225 238 255
225 238 255
219 232 249
200 213 225
164 178 177
130 147 137
98 121 86
102 125 95
135 152 140
148 163 158
166 181 185
179 190 195
179 191 197
159 173 171
150 165 159
103 124 98
153 167 161
182 195 204
171 184 188
180 191 197
184 196 203
170 183 186
168 182 184
151 165 158
136 153 143
143 159 151
156 171 167
160 173 172
167 180 179
185 196 202
175 188 192
187 199 206
180 192 196
168 181 182
142 158 152
116 135 113
181 193 197
178 190 197
175 187 191
183 194 200
167 180 183
183 195 202
182 195 200
174 186 190
164 177 179
174 186 190
186 197 204
192 202 209
184 196 203
161 176 174
137 153 141
104 127 94
87 113 67
90 117 70
89 116 70
86 113 67
90 117 70
121 140 117
185 196 203
186 198 204
175 186 188
177 188 193
188 199 206
186 197 204
179 191 196
183 195 200
185 196 204
179 192 198
183 194 200
168 180 182
156 170 164
127 144 131
112 133 107
90 116 71
88 114 67
87 113 67
88 114 68
87 113 67
88 114 68
86 113 67
143 159 150
185 196 201
186 197 204
185 197 202
181 192 196
177 189 193
181 193 199
194 206 216
185 197 204
179 191 195
178 191 194
180 192 196
186 197 201
177 190 196
176 189 193
186 197 201
185 196 201
181 192 197
178 190 195
145 161 151
121 140 121
103 126 94
90 116 72
86 112 66
170 183 185
178 190 194
186 197 204
185 196 202
193 204 210
189 200 206
184 194 200
191 201 208
194 204 212
182 194 199
177 190 193
184 195 201
196 207 215
179 191 199
171 184 187
178 190 193
181 192 197
187 199 207
177 189 194
185 197 203
180 192 199
187 197 203
184 195 202
181 192 197
109 131 103
88 114 68
86 113 67
87 113 66
84 110 65
90 117 70
87 113 68
90 116 69
85 111 68
91 115 77
109 129 100
117 135 114
150 165 157
155 169 163
173 186 189
180 192 197
182 194 200
200 211 220
187 198 205
189 200 208
177 189 195
189 200 207
187 199 209
184 196 201
141 157 144
89 115 69
85 110 65
84 110 66
86 113 67
92 118 70
84 110 66
88 115 69
87 114 68
88 114 68
88 115 68
88 115 68
89 116 69
86 112 66
85 111 66
86 113 67
86 112 67
83 109 64
81 107 62
87 114 67
86 112 66
81 107 63
80 106 62
88 114 68
145 161 151
181 193 198
191 201 207
186 197 201
181 193 200
189 201 208
194 204 212
185 197 204
191 202 209
188 199 206
187 199 204
188 198 204
174 186 188
175 187 191
186 198 205
183 194 199
179 191 196
172 184 188
185 196 202
191 202 209
193 204 211
184 195 202
186 198 207
186 198 205
139 156 144
83 110 65
91 118 70
89 116 71
89 115 68
90 117 70
86 113 67
90 116 69
84 111 66
84 110 65
88 113 70
89 114 73
96 121 80
95 118 84
105 127 96
104 127 97
114 135 112
121 140 121
120 139 120
136 153 137
141 157 146
148 163 156
144 160 151
143 159 152
134 150 135
125 144 126
119 139 117
116 134 112
130 149 129
115 135 111
96 119 84
102 125 92
95 119 81
100 122 91
98 122 83
94 118 78
95 119 81
93 117 82
94 120 80
89 114 73
95 119 79
88 113 70
84 110 65
90 116 70
95 122 76
98 121 87
161 174 172
185 196 202
181 193 199
174 186 189
189 200 206
186 199 208
190 200 206
186 198 205
181 194 201
188 199 206
183 195 201
195 205 213
189 200 205
193 204 212
176 189 195
188 199 206
178 189 193
184 194 196
177 190 193
188 199 204
180 191 196
155 170 166
110 131 102
92 117 77
95 120 77
102 124 93
102 126 89
99 122 87
115 137 107
103 124 100
119 139 114
112 131 107
126 144 127
121 141 119
138 155 141
145 160 150
131 147 136
147 163 157
145 160 153
154 170 163
162 176 174
167 180 182
117 137 112
123 143 124
106 129 100
90 114 76
107 130 96
91 115 75
82 108 64
85 110 66
88 115 68
84 110 65
86 112 67
89 116 69
87 114 69
91 118 70
85 111 66
86 112 67
89 116 69
86 112 66
89 115 69
131 147 138
181 193 197
177 188 193
190 201 208
183 195 204
186 197 203
186 197 204
196 207 215
183 195 202
185 196 204
181 193 198
187 199 206
176 188 194
176 188 193
183 194 199
171 183 187
179 191 196
167 181 183
136 154 141
85 110 67
83 109 65
85 111 66
88 115 69
87 114 68
90 116 69
81 108 64
85 111 65
84 110 65
85 111 65
86 112 66
89 116 70
89 116 69
82 108 63
85 111 66
134 150 139
170 182 183
160 174 171
133 151 137
127 145 128
107 129 101
87 112 69
84 110 65
81 107 63
87 113 67
85 111 66
83 109 64
83 109 64
81 106 63
108 129 103
174 186 188
172 185 190
188 199 207
182 194 201
176 189 193
184 196 203
177 190 196
181 193 197
164 178 176
172 184 185
175 187 190
172 185 186
113 134 109
123 141 126
93 117 80
84 110 69
85 111 66
86 112 66
80 105 61
85 112 66
88 115 69
96 120 84
122 141 125
126 143 126
90 113 75
86 113 68
81 106 62
90 115 74
96 119 85
91 113 82
111 132 108
141 159 149
182 196 202
215 227 243
224 237 254
225 238 255
225 238 255
225 238 255
225 238 255
225 238 255
225 238 255
225 238 255
225 238 255
225 238 255
225 238 255
225 238 255
225 238 255
225 238 255
221 233 250
210 223 238
193 206 216
159 173 172
132 147 139
92 115 81
91 115 81
149 163 156
168 181 183
187 198 205
186 197 206
188 200 208
162 175 174
133 149 139
152 166 164
179 191 197
171 184 185
180 191 196
181 193 199
176 188 192
178 190 195
148 163 157
123 141 122
90 114 75
81 107 63
85 111 65
98 122 88
118 138 115
121 139 119
124 143 126
143 158 149
148 163 156
152 166 160
160 173 169
177 188 194
175 187 189
172 184 185
176 188 192
182 194 201
187 197 204
182 195 202
185 196 205
184 195 200
177 190 196
182 194 201
179 192 197
183 195 201
179 192 197
166 179 179
141 157 146
118 136 114
93 118 79
82 107 63
129 146 130
181 193 198
187 198 206
182 194 199
183 195 201
173 185 188
188 199 206
181 194 200
182 194 201
177 189 194
186 197 204
185 197 202
179 190 195
183 195 201
186 197 203
186 198 207
168 182 184
169 182 183
120 140 118
112 134 106
89 115 71
86 113 68
87 114 67
161 175 170
189 200 207
188 198 204
179 191 195
177 188 190
188 199 207
178 191 198
186 197 204
189 200 208
184 196 203
186 197 204
187 197 202
185 197 202
178 190 194
186 197 203
181 193 198
188 201 208
183 194 199
190 201 209
179 192 198
181 194 197
184 195 200
157 171 172
163 176 173
168 182 182
169 183 183
179 191 194
177 189 192
180 192 197
193 204 213
174 186 187
188 200 206
177 190 197
183 194 198
178 190 195
184 196 204
185 197 204
176 189 196
179 191 197
190 202 207
191 203 213
178 192 196
182 194 200
179 191 199
184 196 201
170 182 184
181 193 199
177 189 194
94 119 77
87 114 69
85 111 66
87 113 67
84 109 65
88 114 68
86 112 67
90 116 69
83 109 64
85 112 65
89 116 69
89 115 68
85 110 64
87 113 67
88 113 72
97 120 86
117 137 113
126 144 126
143 160 151
163 177 175
175 188 190
174 187 190
175 187 191
180 191 195
97 119 87
85 110 65
83 109 64
84 110 65
86 113 67
87 114 68
88 114 68
87 113 67
84 110 64
86 112 66
85 111 66
85 110 65
85 111 66
87 113 67
89 115 68
90 116 70
89 115 68
86 112 66
86 112 66
89 115 68
83 110 65
84 110 65
84 110 65
97 121 82
176 189 194
189 200 206
180 191 196
176 188 193
192 203 211
184 196 202
184 196 203
187 199 205
181 193 199
182 194 200
192 204 212
179 190 195
185 197 202
175 187 191
191 203 209
190 200 207
186 198 204
174 187 190
180 191 197
189 201 207
187 198 205
180 192 197
189 200 205
148 162 157
101 124 88
88 114 67
85 111 65
88 114 68
83 109 64
87 113 68
90 117 69
86 112 67
84 110 65
87 113 68
89 115 69
88 114 68
88 115 69
85 111 66
85 111 65
84 110 65
81 107 63
89 116 69
85 112 66
86 112 67
90 116 70
89 115 68
102 126 93
176 188 191
180 192 198
178 191 195
176 188 192
180 191 197
172 185 189
178 190 196
177 189 193
176 190 195
175 187 191
170 183 186
181 192 196
164 177 178
167 181 180
176 188 193
165 179 176
177 190 195
163 177 176
165 178 177
164 178 177
147 163 157
161 175 172
133 151 141
130 148 133
114 134 110
120 139 121
135 151 138
124 143 124
124 142 125
131 149 133
124 143 121
132 151 135
128 146 128
117 136 115
118 137 117
117 136 115
115 134 112
124 142 124
115 136 112
114 134 109
108 130 103
102 123 96
115 136 110
134 152 137
170 184 186
174 187 192
170 184 185
176 188 191
186 197 201
182 193 197
172 185 187
179 191 195
185 197 204
186 197 203
186 197 204
175 187 192
179 191 196
183 195 203
175 187 192
188 200 208
191 201 210
186 198 206
184 196 203
181 193 202
125 143 127
88 115 68
86 112 66
87 113 67
83 109 64
89 115 68
86 112 66
90 118 70
87 113 67
84 110 64
85 111 66
84 109 65
84 111 67
86 112 66
85 111 65
89 115 68
84 110 64
85 111 67
82 108 64
136 153 142
169 183 186
191 202 208
176 188 191
176 189 195
183 195 199
173 186 189
183 194 201
178 190 195
182 194 199
185 196 202
184 196 203
180 192 197
177 191 195
180 192 197
182 194 200
189 201 209
182 194 201
117 136 118
86 112 67
84 109 64
85 111 65
84 110 65
86 112 67
83 109 64
85 111 66
86 113 67
88 114 68
83 110 65
90 116 72
97 120 89
125 143 125
138 155 144
141 157 149
111 132 107
92 118 76
85 111 66
85 110 66
88 114 68
87 114 68
86 112 67
83 109 65
83 108 64
84 110 65
82 107 63
89 114 73
92 114 82
107 127 100
107 128 101
156 170 167
141 157 148
133 150 138
112 132 111
115 135 113
100 122 92
124 144 123
130 148 133
147 162 155
172 184 189
185 197 203
159 171 166
96 120 86
84 110 65
83 109 65
84 110 65
81 107 63
83 109 65
90 115 71
123 142 120
142 158 147
107 128 104
92 117 78
83 108 63
86 113 67
78 104 61
107 128 102
125 142 127
112 133 110
128 146 134
161 176 178
213 226 240
221 234 251
225 238 255
225 238 255
225 238 255
225 238 255
225 238 255
225 238 255
225 238 255
225 238 255
225 238 255
225 238 255
225 238 255
225 238 255
225 238 255
225 238 255
225 238 255
225 238 255
225 238 255
225 238 255
225 238 255
222 235 253
208 220 233
193 206 215
158 174 171
110 129 108
93 117 82
99 122 91
133 149 138
157 170 169
179 191 198
114 134 111
87 113 70
119 136 119
136 153 144
162 176 177
182 193 197
172 185 188
181 192 199
175 188 193
175 187 191
169 181 184
147 162 158
128 145 133
89 114 71
87 114 68
85 111 67
87 113 67
84 110 66
81 106 62
152 166 159
170 183 185
182 195 205
169 181 183
151 165 159
129 147 130
104 124 99
112 132 111
123 140 122
121 138 122
122 141 122
141 156 150
143 159 150
152 167 162
166 179 179
163 177 180
176 188 191
182 194 199
172 185 189
178 189 192
153 168 163
145 161 150
164 177 176
193 204 214
187 199 207
174 187 189
179 190 195
175 187 192
185 197 205
193 203 211
191 202 209
179 191 194
171 184 185
172 184 185
175 188 194
191 201 206
182 194 200
174 185 190
180 192 197
181 192 197
184 196 204
162 175 175
148 163 156
143 158 150
163 176 175
186 198 204
180 192 197
186 197 203
189 201 209
182 194 200
189 200 209
186 199 206
179 191 197
184 195 200
183 195 203
173 185 189
184 196 203
183 195 200
170 183 184
188 198 204
177 189 194
171 183 185
182 194 200
181 193 198
177 188 194
177 188 193
192 202 209
163 177 174
86 112 66
91 116 72
100 123 87
127 145 126
133 148 136
160 175 171
164 177 176
184 196 203
174 186 190
189 200 207
190 201 207
167 180 179
179 191 196
182 194 198
178 191 200
178 190 195
190 201 209
177 189 196
193 203 211
177 188 192
182 195 201
180 192 197
179 190 194
141 158 147
89 115 68
86 112 66
83 108 64
87 113 67
85 110 65
86 112 67
85 111 66
83 109 65
83 110 65
90 117 71
85 111 65
83 109 64
87 113 67
85 111 66
84 110 65
89 115 68
81 107 63
88 114 68
84 111 65
87 113 67
93 118 74
92 116 77
101 124 91
143 158 151
148 164 159
130 148 134
125 144 123
105 127 98
100 125 87
84 110 65
87 113 68
86 112 66
86 112 65
87 113 67
82 107 63
86 112 67
82 108 64
85 111 65
84 110 65
84 111 66
85 111 65
86 112 67
87 114 67
87 114 68
83 109 65
86 111 66
88 115 69
147 163 153
187 199 207
184 196 203
185 197 204
182 194 199
185 197 204
184 196 204
184 195 202
182 194 199
194 205 214
190 201 209
184 195 201
182 193 199
186 198 206
182 194 200
181 192 196
174 186 191
189 201 210
174 187 191
188 200 207
184 195 200
188 200 210
186 197 204
183 193 197
115 134 111
87 114 68
87 113 68
86 112 67
81 106 63
89 115 69
86 112 66
87 113 68
86 112 66
86 112 66
87 113 67
87 114 69
86 112 67
86 112 66
86 112 67
87 113 68
88 114 68
88 114 67
84 110 65
85 111 66
81 106 62
87 115 69
96 120 82
164 177 176
179 191 196
189 200 208
189 200 208
185 197 203
177 189 194
178 190 194
188 200 208
183 195 201
176 189 195
175 187 192
188 199 205
189 200 208
190 200 206
187 198 204
177 190 196
179 192 198
191 202 210
182 193 196
186 197 204
183 195 202
181 192 199
147 161 156
90 115 74
86 112 66
88 114 68
87 114 68
85 111 66
85 111 66
88 115 69
81 107 63
83 110 65
86 112 67
85 111 67
90 117 70
87 113 68
85 112 67
86 112 67
83 109 64
85 110 65
85 111 66
88 114 68
85 111 66
95 118 82
161 175 174
185 196 203
180 192 199
187 198 206
182 194 198
178 191 200
187 198 205
185 196 202
187 198 204
188 198 204
187 198 208
177 190 195
185 196 202
176 189 192
189 200 206
187 198 204
194 205 213
184 196 203
181 193 197
183 195 200
137 153 142
82 108 63
84 110 65
86 113 67
86 112 66
87 114 69
85 112 67
87 113 68
84 110 65
87 113 66
86 112 67
85 111 66
87 113 67
88 114 68
82 107 63
83 109 65
85 111 65
84 111 66
91 117 70
138 156 145
182 194 200
183 194 200
183 195 202
171 186 192
182 194 201
186 197 201
187 198 205
185 196 203
191 202 210
181 194 200
180 192 199
186 198 204
175 187 194
180 192 197
178 190 194
190 201 208
184 196 204
117 135 116
83 109 64
85 111 66
88 115 69
85 112 66
85 111 66
93 118 78
106 128 97
134 151 138
133 150 139
149 164 159
167 181 181
183 194 199
184 195 203
179 190 195
173 186 191
119 138 119
100 123 88
111 133 101
127 145 128
138 155 142
137 153 144
146 162 154
154 167 163
160 173 171
153 167 165
169 182 185
175 188 192
175 188 193
181 193 196
123 142 125
85 111 66
85 110 65
95 118 83
130 147 131
137 152 143
157 171 169
176 189 194
181 192 198
177 189 197
182 194 201
170 183 185
109 129 104
85 111 66
82 107 63
82 107 63
83 108 64
104 125 99
130 148 135
151 166 164
166 179 180
143 158 151
90 114 78
80 106 63
94 119 81
134 151 137
144 160 153
142 158 153
141 156 150
172 186 188
200 213 224
220 233 249
225 238 255
225 238 255
225 238 255
225 238 255
225 238 255
225 238 255
225 238 255
225 238 255
225 238 255
225 238 255
225 238 255
225 238 255
225 238 255
225 238 255
225 238 255
225 238 255
225 238 255
225 238 255
225 238 255
225 238 255
225 238 255
225 238 255
225 238 255
225 238 255
225 238 255
219 232 248
205 217 229
182 195 200
141 158 147
105 126 100
82 107 66
104 126 99
125 142 127
101 123 92
88 112 72
81 106 62
88 114 70
111 130 105
135 151 139
170 183 185
175 187 192
173 186 190
180 192 197
183 195 199
168 182 183
171 183 185
156 170 166
135 151 142
95 117 88
86 112 67
81 107 63
139 155 146
186 197 204
178 189 193
172 184 189
178 191 196
174 187 191
186 199 207
152 166 162
131 149 135
90 113 79
87 114 68
82 107 63
81 106 63
81 106 62
87 114 67
81 107 63
84 110 65
94 120 76
91 115 79
101 123 93
109 129 106
124 142 126
153 167 162
169 182 183
173 184 186
165 179 178
166 180 178
150 165 158
152 166 162
159 173 172
170 183 183
171 184 188
182 193 197
183 195 201
180 192 198
183 194 201
177 189 195
180 193 201
178 190 194
175 187 193
194 205 215
178 191 195
189 201 210
185 195 200
97 119 87
109 128 102
134 150 138
156 170 166
165 178 179
178 190 195
186 197 206
175 187 191
189 201 208
176 188 192
169 182 185
177 189 193
175 187 191
187 198 204
176 188 192
179 190 198
183 195 202
172 184 189
169 182 186
176 187 191
194 204 211
187 198 204
185 197 204
136 152 139
87 113 68
84 110 65
85 111 66
90 116 69
85 111 66
84 110 65
90 115 74
105 126 97
124 143 124
144 160 152
160 174 172
173 187 190
172 184 191
173 185 190
184 195 202
185 196 203
178 191 198
179 191 198
183 194 199
179 191 195
188 199 206
193 204 212
179 190 193
110 131 106
82 108 64
86 112 67
86 113 67
90 116 69
88 114 69
90 117 69
82 108 64
87 114 68
84 110 65
89 116 69
88 114 68
86 111 66
88 114 68
80 105 62
88 114 68
89 116 69
87 113 68
90 116 70
85 111 65
90 117 70
84 110 65
91 118 71
91 117 72
166 179 180
180 192 199
177 190 195
190 201 209
173 185 186
163 176 178
169 181 183
153 169 163
144 161 153
149 164 155
115 135 111
110 131 110
94 119 78
90 116 69
90 116 69
86 112 67
89 116 69
85 112 66
88 114 68
86 112 66
84 109 65
88 114 68
87 113 68
101 124 91
175 188 194
182 194 201
180 192 197
190 201 208
182 193 199
186 197 202
189 200 210
191 201 210
176 189 191
182 194 199
186 197 204
184 195 201
183 196 203
184 195 201
183 195 201
182 195 199
183 195 202
185 196 204
179 192 198
188 199 209
183 194 199
182 193 198
188 199 207
145 161 155
84 110 65
85 111 66
87 113 68
85 111 66
85 111 66
85 111 65
88 114 68
84 110 66
91 118 70
88 114 68
87 114 68
86 111 66
84 110 65
84 111 65
84 109 65
86 113 67
88 115 68
84 110 65
85 111 66
84 110 65
89 116 69
86 112 66
141 158 145
182 195 202
182 194 201
178 189 194
184 195 201
178 191 195
186 198 207
192 202 211
178 190 193
177 189 193
186 198 205
174 187 189
186 198 206
188 199 206
183 195 201
175 189 193
181 194 199
170 183 185
181 193 199
194 205 213
185 197 204
168 181 181
166 179 177
94 118 82
83 110 65
86 112 66
92 119 71
89 115 69
89 115 68
84 110 66
87 113 68
92 119 71
84 110 65
85 111 66
86 112 66
87 113 67
89 115 69
85 110 65
86 111 66
88 114 68
86 113 66
89 116 69
85 111 66
89 114 73
161 175 173
185 195 201
196 206 212
190 201 207
188 199 207
174 187 191
186 197 204
175 188 192
175 187 190
187 198 204
176 189 194
180 193 200
181 192 197
188 199 206
183 194 199
180 192 197
177 190 196
185 195 201
184 196 203
182 193 200
134 151 139
91 117 73
86 112 67
84 110 65
88 115 69
80 105 61
87 113 68
84 110 65
87 114 68
85 111 65
84 110 64
84 110 65
86 113 67
84 110 65
85 111 66
82 108 64
88 114 68
88 115 68
81 104 67
151 166 158
186 197 204
182 194 200
179 191 197
175 187 191
182 194 200
180 191 197
185 197 204
175 187 193
181 192 199
190 201 208
178 189 192
188 198 204
179 192 198
182 194 200
183 194 199
176 189 197
151 166 167
104 125 97
97 122 82
101 123 96
112 132 108
125 142 127
129 146 132
145 161 150
150 164 160
154 169 165
137 154 143
147 161 154
124 142 127
117 137 116
119 137 118
111 131 107
133 149 136
178 190 194
182 195 202
179 190 197
184 196 202
184 196 202
187 197 204
183 195 201
177 190 195
172 184 188
188 199 206
182 194 202
180 193 200
179 191 197
145 161 155
100 122 91
127 144 128
147 162 154
164 177 178
175 188 193
184 194 199
175 189 194
171 185 190
184 195 201
173 186 190
166 178 181
136 152 141
90 115 74
83 109 64
94 116 82
117 137 116
140 155 145
172 184 188
169 181 184
180 191 196
136 152 147
92 115 78
103 124 96
119 137 121
154 167 167
171 183 186
177 191 195
178 191 196
212 225 240
220 232 249
224 236 254
225 238 255
225 238 255
225 238 255
225 238 255
225 238 255
225 238 255
225 238 255
225 238 255
225 238 255
225 238 255
225 238 255
225 238 255
225 238 255
225 238 255
225 238 255
225 238 255
225 238 255
225 238 255
225 238 255
225 238 255
225 238 255
225 238 255
225 238 255
225 238 255
225 238 255
225 238 255
225 238 255
225 238 255
225 238 255
225 238 255
220 233 250
206 219 233
172 186 190
157 171 171
116 135 114
144 158 156
146 159 157
137 153 146
90 114 76
80 105 61
81 108 64
86 113 68
109 130 105
144 160 149
165 179 181
169 181 185
173 186 190
183 195 202
174 187 192
173 186 191
168 181 182
157 171 172
128 145 132
137 153 146
184 195 202
175 187 192
177 189 195
184 197 205
186 198 206
173 185 190
177 190 197
174 186 191
179 192 198
156 170 171
141 156 146
120 138 120
85 110 65
88 114 67
83 109 64
81 107 64
81 107 63
85 111 65
87 113 67
80 107 63
132 149 137
174 186 192
174 187 194
185 197 204
178 190 196
165 177 179
155 168 165
135 150 140
107 126 103
77 102 59
87 113 67
84 109 70
94 119 79
106 128 96
98 120 88
101 122 97
118 135 117
127 146 130
131 147 135
138 155 147
145 160 154
153 169 165
146 160 157
129 146 131
111 131 108
112 133 108
114 133 110
101 122 95
117 136 113
133 149 136
155 169 168
170 183 188
196 206 215
179 191 198
177 189 195
174 185 191
180 192 197
179 191 198
187 198 202
179 191 197
187 198 208
192 203 211
178 190 194
188 199 206
179 192 198
176 188 194
108 130 99
80 106 62
84 110 66
86 113 67
84 109 65
84 110 65
86 112 67
89 115 69
86 112 67
86 112 66
80 106 62
85 112 67
90 115 72
111 132 108
121 138 120
137 154 143
159 172 170
175 187 189
176 189 194
186 198 206
176 188 194
184 196 202
174 186 191
161 175 174
93 119 78
88 115 68
91 117 70
86 113 67
88 115 68
87 113 68
88 115 69
82 108 64
89 115 68
83 110 65
88 114 67
87 113 68
88 114 68
87 113 67
82 108 63
87 113 68
80 106 63
86 112 66
85 111 66
86 112 67
78 103 61
91 117 70
87 114 68
129 147 128
192 204 215
185 196 203
182 193 198
177 189 195
172 184 187
183 195 203
170 182 187
177 190 194
181 193 199
178 190 196
174 186 192
175 188 193
185 195 199
164 178 178
172 184 184
151 166 161
135 152 140
126 145 128
113 134 111
98 125 85
91 116 74
84 110 65
85 111 66
143 158 147
187 199 207
190 202 211
184 195 202
178 190 195
177 190 194
183 195 202
184 196 203
186 198 203
176 189 194
181 192 198
175 186 190
175 188 195
182 192 198
180 192 197
186 197 203
173 185 188
186 198 205
188 199 205
188 199 206
188 200 206
181 193 198
183 195 204
167 181 182
101 124 90
89 115 69
83 109 64
85 111 66
89 116 70
83 109 64
85 111 66
83 108 63
87 113 66
87 113 68
87 113 67
83 109 65
83 108 64
81 107 63
84 110 65
82 108 64
87 113 67
84 110 65
90 117 70
85 110 65
81 106 63
88 115 69
116 137 114
175 187 189
179 192 200
181 193 198
187 198 206
189 200 207
176 189 193
181 192 199
171 183 185
177 189 193
168 180 183
194 205 213
187 198 205
185 197 205
179 192 200
178 189 193
188 199 206
183 195 200
189 200 206
185 196 202
182 194 200
192 202 211
176 189 193
115 135 111
84 110 66
85 111 66
89 115 70
88 114 68
83 108 64
86 113 67
84 110 65
84 109 64
87 114 68
85 111 66
84 110 65
81 106 62
89 116 70
88 114 68
85 112 67
86 113 67
85 110 65
81 108 63
84 110 66
86 111 68
169 182 182
178 190 197
183 194 199
174 186 190
179 191 196
189 200 209
179 190 194
183 195 203
186 198 203
178 190 195
183 194 201
167 180 185
185 197 202
177 189 193
186 197 204
179 190 196
173 186 191
181 193 200
178 191 196
182 194 202
142 157 147
88 115 69
83 109 65
80 106 62
84 110 65
83 109 64
81 107 63
85 112 67
83 109 64
91 117 70
83 108 64
84 110 65
89 116 69
85 111 66
85 111 66
85 111 65
82 107 64
81 106 63
90 115 77
159 173 169
171 184 189
177 189 197
177 189 193
174 187 193
165 178 179
161 176 177
157 171 172
153 168 165
149 164 156
147 162 157
154 168 166
143 158 149
137 155 146
150 165 160
147 162 157
164 178 177
140 157 146
100 123 88
90 115 74
83 108 67
86 110 70
83 109 65
83 108 64
84 110 66
88 115 69
87 113 68
83 109 64
83 109 64
83 109 64
86 113 67
86 113 68
86 111 71
135 152 145
189 200 207
181 193 198
185 197 205
183 196 204
183 194 202
183 196 205
167 180 183
182 194 203
186 197 203
184 195 202
179 191 196
155 169 165
158 172 171
165 178 178
171 184 188
181 192 199
185 196 203
182 193 199
175 188 195
174 187 192
170 183 187
173 185 191
179 191 197
172 184 190
133 150 139
95 119 87
113 132 111
133 149 137
161 175 174
168 180 183
182 195 203
172 183 188
175 187 192
139 155 148
113 132 111
133 151 138
151 165 164
164 176 181
181 194 201
181 194 198
202 214 226
218 231 248
225 238 255
225 238 255
225 238 255
225 238 255
225 238 255
225 238 255
225 238 255
225 238 255
225 238 255
225 238 255
225 238 255
225 238 255
225 238 255
225 238 255
225 238 255
225 238 255
225 238 255
225 238 255
225 238 255
225 238 255
225 238 255
225 238 255
225 238 255
225 238 255
225 238 255
225 238 255
225 238 255
225 238 255
225 238 255
225 238 255
225 238 255
225 238 255
225 238 255
225 238 255
225 238 255
225 238 255
224 237 254
220 232 249
206 219 232
185 197 203
151 165 162
152 166 163
168 181 186
161 173 175
141 157 147
97 119 86
81 106 63
89 116 70
84 109 64
98 120 89
121 138 123
159 173 174
179 190 195
186 197 203
174 186 191
160 173 174
178 191 198
164 177 178
100 122 93
130 148 137
154 168 167
180 191 197
178 189 193
169 181 186
169 183 186
167 180 184
178 190 196
179 191 197
184 195 200
172 185 191
172 185 188
150 164 160
136 152 141
89 115 71
84 110 65
82 108 63
84 110 66
83 109 64
126 144 131
183 194 199
180 191 196
180 193 198
169 181 186
174 187 193
173 185 187
177 190 196
186 197 206
163 176 177
151 164 160
127 145 130
93 117 79
89 115 69
87 113 67
84 110 66
86 112 67
86 113 67
84 110 66
85 110 65
83 109 63
88 114 67
114 134 112
186 197 204
174 186 190
180 192 199
181 193 200
190 201 208
177 188 192
178 191 197
169 183 188
173 185 189
170 181 185
157 171 171
153 167 161
138 154 143
111 132 108
130 147 134
134 150 138
128 145 129
131 148 133
128 146 135
148 162 154
141 157 147
152 167 164
161 174 173
115 135 112
121 139 119
113 133 108
115 135 112
100 123 92
102 123 93
92 115 79
85 110 69
96 120 81
93 117 78
90 117 70
88 114 71
86 112 66
87 113 70
81 107 63
84 110 66
84 110 65
89 113 75
107 128 100
124 141 126
133 149 136
144 160 154
174 186 191
135 151 141
85 111 66
81 107 64
85 111 65
86 111 67
87 113 67
83 109 65
86 112 66
82 108 64
80 106 62
84 109 64
83 108 64
85 111 66
84 111 65
80 106 62
86 112 66
84 110 65
83 108 63
84 109 65
84 110 66
85 112 66
89 116 69
87 114 69
91 117 73
154 168 166
186 198 205
178 190 194
183 195 202
177 189 192
180 191 196
174 186 191
183 195 201
176 188 193
169 182 184
184 196 202
171 184 188
177 189 194
181 193 199
186 198 206
183 194 198
183 194 199
178 190 196
176 188 193
182 194 199
166 179 183
178 190 195
159 173 170
155 170 165
119 138 120
141 157 149
149 164 158
163 177 175
165 178 182
184 195 201
183 195 201
181 192 198
177 189 194
192 203 211
183 195 202
169 181 182
179 192 198
181 193 198
177 188 193
176 188 193
175 187 191
187 199 205
175 187 193
186 197 203
182 194 199
179 191 195
173 184 187
126 143 130
88 115 68
85 111 66
86 112 67
87 114 68
86 112 67
87 113 67
86 112 66
86 112 66
89 115 68
86 112 66
87 113 67
86 112 67
87 114 68
85 111 65
83 109 65
84 111 66
85 111 66
88 115 69
88 115 69
86 112 67
85 111 65
91 116 75
166 178 180
177 189 193
179 190 195
184 196 203
174 186 192
184 196 202
185 196 203
181 193 200
183 194 201
184 195 200
170 183 186
180 192 200
184 194 200
184 195 201
192 203 212
175 188 192
189 200 208
180 193 198
181 192 195
179 191 197
180 193 200
186 198 205
123 141 122
85 111 66
86 111 65
84 109 64
89 115 69
83 110 64
85 111 66
88 115 68
85 111 66
89 115 69
85 111 66
85 112 66
89 116 69
84 110 65
82 108 65
83 108 64
89 116 69
86 112 67
89 116 69
85 112 67
84 110 64
143 159 152
179 191 197
183 195 202
183 195 201
183 194 200
174 186 191
182 193 202
183 196 203
182 194 200
189 200 207
181 193 199
169 181 183
189 200 207
187 199 207
181 192 199
175 188 193
173 186 190
167 180 183
183 194 197
170 183 187
142 158 150
102 124 94
115 135 109
122 141 122
108 128 103
125 143 125
119 139 122
128 147 132
135 151 137
140 155 146
135 151 140
157 171 169
140 157 149
151 166 161
152 167 164
149 163 158
177 190 191
165 178 178
165 179 180
116 134 117
96 118 87
98 122 87
95 121 78
87 113 67
90 115 79
103 125 93
126 145 126
129 147 130
143 159 150
145 161 154
159 173 171
171 184 186
172 184 190
181 193 198
176 190 196
180 192 201
128 145 133
89 115 69
84 110 64
85 112 66
86 112 67
84 110 66
82 108 64
82 107 64
79 104 61
82 108 63
86 111 66
85 110 65
78 103 60
83 109 64
87 114 68
110 130 109
160 173 174
182 194 198
187 199 208
179 192 199
179 192 197
168 181 183
177 188 192
172 184 187
165 179 181
148 162 155
120 138 119
101 123 94
80 106 62
115 134 119
176 188 195
172 185 189
176 189 194
181 193 197
166 179 182
181 193 199
183 195 202
163 176 177
169 182 187
174 187 193
168 180 184
141 157 152
141 157 151
179 191 196
183 195 203
161 175 177
179 191 198
175 187 192
177 189 197
160 174 175
158 173 170
165 178 182
177 189 196
177 190 195
165 179 183
208 220 233
221 233 249
225 238 255
225 238 255
225 238 255
225 238 255
225 238 255
225 238 255
225 238 255
225 238 255
225 238 255
225 238 255
225 238 255
225 238 255
225 238 255
225 238 255
225 238 255
225 238 255
225 238 255
225 238 255
225 238 255
225 238 255
225 238 255
225 238 255
225 238 255
225 238 255
225 238 255
225 238 255
225 238 255
225 238 255
225 238 255
225 238 255
225 238 255
225 238 255
225 238 255
225 238 255
225 238 255
225 238 255
225 238 255
225 238 255
225 238 255
225 238 255
225 238 255
225 238 255
222 235 252
213 226 240
186 200 208
160 176 176
138 154 147
162 176 177
166 178 183
157 171 169
130 147 136
103 126 97
80 105 65
83 110 64
79 104 61
106 127 102
130 147 135
163 174 173
178 191 199
171 184 188
169 181 183
83 110 65
83 109 65
85 111 66
106 128 99
125 143 129
156 169 165
170 183 184
183 195 203
177 189 194
171 183 186
171 185 189
171 183 188
177 188 194
176 188 194
178 189 195
171 184 187
160 173 173
145 161 153
116 135 113
80 105 65
127 144 127
177 190 195
174 186 190
169 182 186
180 191 196
171 183 187
175 187 193
175 186 188
172 185 189
171 184 189
179 191 195
181 192 198
182 193 200
168 181 182
158 173 170
119 139 119
97 119 87
80 106 62
83 109 64
86 112 66
85 112 67
83 109 64
124 142 125
177 190 195
177 190 195
184 195 200
184 196 204
184 195 200
180 192 194
178 189 192
177 189 194
183 195 204
185 196 201
177 189 194
183 194 199
183 195 201
163 176 180
155 170 167
143 160 147
115 136 113
89 113 77
83 109 64
83 110 64
89 116 69
81 107 63
127 145 128
187 200 210
169 182 186
180 191 197
178 189 193
186 197 202
171 185 191
168 180 181
181 193 199
176 188 193
184 196 203
173 186 190
173 185 187
172 185 187
160 174 176
160 173 172
162 176 176
163 176 178
162 177 175
146 161 155
145 160 154
141 157 151
140 156 148
146 161 153
120 138 122
114 133 115
92 116 79
95 119 85
106 129 99
126 144 125
122 140 124
116 135 114
126 143 126
124 144 124
109 129 106
122 141 122
113 134 108
117 137 115
109 131 103
112 133 109
96 120 84
108 129 102
106 126 100
101 124 88
99 123 88
96 118 85
105 129 93
99 121 93
171 183 186
174 187 189
180 193 199
175 188 193
176 188 194
176 188 193
181 192 198
195 205 215
178 191 197
174 186 191
170 183 188
181 192 198
174 185 188
174 186 191
172 183 186
176 189 194
183 194 202
193 203 210
189 201 209
182 195 201
180 192 197
185 197 203
179 192 198
139 155 144
81 106 63
84 110 65
87 113 68
89 115 69
85 110 69
92 116 79
91 114 81
118 137 113
120 139 120
142 158 148
144 159 152
152 166 159
151 164 162
166 178 181
172 184 188
183 195 200
190 201 210
189 201 209
177 189 192
171 184 191
190 200 208
178 189 193
160 173 169
90 114 76
86 112 66
83 108 64
85 112 67
85 111 66
84 109 64
84 109 65
87 113 67
82 108 65
83 109 64
81 106 62
84 109 64
90 117 70
86 112 66
84 109 65
85 110 65
83 109 64
82 107 63
90 117 70
85 111 67
84 110 66
87 112 70
156 170 167
187 198 204
185 197 204
185 197 206
190 202 211
180 191 199
186 198 207
182 194 201
172 184 188
180 192 196
172 184 188
178 190 196
181 193 199
188 200 207
182 194 201
180 192 198
189 200 208
174 187 191
176 188 191
165 179 183
182 195 200
182 194 199
153 167 160
94 117 82
97 120 86
95 118 85
93 116 79
103 126 96
101 123 92
110 131 102
107 129 99
111 133 105
106 128 101
106 128 101
111 131 108
105 127 100
106 127 103
116 134 115
124 141 125
134 153 139
127 143 130
134 151 141
126 143 127
112 132 111
137 154 145
152 168 161
136 152 142
132 149 137
130 147 136
135 150 139
125 144 125
121 140 123
120 139 121
132 148 135
99 121 92
112 132 107
104 125 99
114 134 109
95 119 80
90 114 81
97 120 84
100 125 84
88 114 71
139 156 146
177 189 193
179 191 197
179 192 199
183 195 200
183 195 201
185 196 202
179 191 196
179 191 197
181 194 199
184 195 201
171 184 186
173 185 188
175 187 192
177 189 195
173 185 190
186 197 204
163 176 178
167 180 182
145 161 153
144 158 150
147 163 156
145 161 157
172 184 186
177 189 194
172 185 189
176 187 190
168 180 183
181 193 201
181 193 200
172 184 188
174 187 192
183 195 202
180 191 195
175 186 190
171 183 184
121 140 123
84 109 65
83 109 65
82 108 64
86 112 67
79 104 61
88 115 68
83 109 64
87 113 67
82 107 63
83 109 64
84 109 65
83 109 65
86 112 67
83 108 64
146 162 154
171 184 187
181 193 198
182 194 200
168 181 184
160 173 175
138 155 145
124 140 127
111 131 105
86 110 68
85 111 66
79 104 61
87 114 68
113 133 113
143 158 154
185 196 203
169 183 188
179 191 197
176 187 191
162 176 178
184 196 200
184 196 205
167 180 185
135 152 144
127 143 130
167 181 182
179 191 198
164 177 182
186 197 204
171 183 189
169 180 183
162 176 177
158 171 170
169 182 185
168 181 184
172 184 189
166 181 183
165 181 181
199 212 223
212 225 239
225 237 255
225 238 255
225 238 255
225 238 255
225 238 255
225 238 255
225 238 255
225 238 255
225 238 255
225 238 255
225 238 255
225 238 255
225 238 255
225 238 255
225 238 255
225 238 255
225 238 255
225 238 255
225 238 255
225 238 255
225 238 255
225 238 255
225 238 255
225 238 255
225 238 255
225 238 255
225 238 255
225 238 255
225 238 255
225 238 255
225 238 255
225 238 255
225 238 255
225 238 255
225 238 255
225 238 255
225 238 255
225 238 255
225 238 255
225 238 255
225 238 255
225 238 255
225 238 255
225 238 255
225 238 255
225 238 255
225 238 255
225 238 255
225 238 255
209 222 235
183 197 204
147 162 158
134 150 144
154 167 167
170 183 187
161 175 179
139 154 146
107 127 100
82 108 67
79 105 61
81 106 63
96 119 86
133 149 138
148 163 157
95 119 83
81 106 62
84 109 65
85 111 66
81 106 63
85 111 67
92 113 82
116 134 119
144 158 151
167 181 182
183 195 201
171 183 188
161 175 177
180 192 198
164 176 179
183 195 205
171 183 189
165 177 178
181 193 200
183 195 202
139 156 148
138 154 144
177 189 192
179 191 196
181 193 199
194 205 213
165 178 180
172 184 187
174 186 189
181 193 201
177 188 193
170 183 188
168 180 184
174 187 192
183 194 201
174 185 190
173 184 188
159 172 172
142 158 150
112 131 111
85 108 75
84 110 65
133 150 137
161 175 175
171 184 188
181 192 198
172 184 191
178 191 198
185 196 202
181 193 197
175 187 191
188 199 204
183 194 198
170 182 186
177 189 194
170 182 185
175 187 191
181 193 201
173 186 192
178 191 196
164 177 177
163 177 178
145 160 155
124 141 128
101 123 94
145 161 158
176 188 192
187 198 205
182 194 199
185 196 205
185 198 206
172 184 190
188 199 207
174 186 189
174 187 192
176 188 192
181 193 199
176 188 195
174 187 191
181 194 201
184 197 203
180 192 200
176 188 193
171 183 186
184 196 203
174 186 190
179 190 194
173 186 192
167 180 179
92 117 75
85 111 66
78 102 59
85 111 65
87 113 67
91 116 74
118 137 115
115 135 116
138 154 142
155 169 167
178 189 194
187 198 205
175 188 195
177 189 192
172 185 189
178 190 193
189 199 206
174 187 191
179 191 195
185 196 202
166 180 182
179 191 195
170 182 183
114 134 110
101 124 90
93 117 79
100 122 89
94 117 82
103 125 93
107 128 102
108 129 98
102 124 95
116 135 114
107 128 101
119 139 118
109 129 104
103 125 99
113 134 106
110 130 110
115 134 114
113 133 111
115 135 115
122 141 123
110 130 105
118 138 115
127 145 127
146 160 153
160 173 172
151 165 159
162 176 175
143 158 150
150 166 158
139 154 146
161 175 172
149 164 161
153 167 163
160 173 172
143 159 151
140 156 147
153 167 163
146 162 155
146 160 154
144 160 151
160 173 169
162 176 173
159 173 171
168 181 183
172 184 186
173 186 189
166 179 181
121 140 120
113 133 108
133 149 137
133 149 138
130 147 137
146 161 155
144 158 151
157 171 165
149 164 157
149 164 159
139 155 147
143 159 153
146 161 156
141 157 147
148 163 158
153 167 165
141 157 151
156 170 169
145 160 154
157 171 167
148 165 162
153 168 164
120 138 120
114 134 113
127 144 129
118 136 116
129 148 129
115 135 111
116 135 113
109 130 102
121 140 120
125 143 126
106 127 98
112 133 109
109 128 106
97 119 90
117 136 111
100 123 95
102 124 93
100 123 92
102 125 93
95 119 84
97 121 84
99 120 92
136 153 139
177 189 193
185 196 203
171 184 187
177 189 193
181 193 199
172 185 188
181 193 199
181 193 200
173 186 189
182 194 201
171 184 185
189 200 208
188 199 206
179 191 198
184 195 200
178 190 196
180 192 197
180 193 202
182 194 199
187 198 207
143 158 151
86 112 69
82 108 63
86 112 66
87 113 68
86 112 67
85 111 66
83 109 64
86 112 67
85 111 66
86 112 67
82 108 63
88 114 68
76 100 57
85 111 66
81 107 64
87 113 67
84 110 65
82 107 64
89 114 72
133 150 138
178 190 197
185 197 204
185 196 202
186 196 203
169 182 186
164 176 177
162 176 176
163 177 178
154 168 168
146 161 153
131 148 136
125 142 129
117 137 115
113 132 111
97 120 88
96 120 82
90 116 72
114 135 111
156 170 168
175 187 194
186 198 206
182 195 203
182 193 197
175 187 188
175 187 191
179 191 195
187 199 207
182 194 202
176 189 196
170 183 187
176 188 193
176 188 193
183 194 201
176 188 192
162 175 178
94 117 84
85 112 66
85 112 67
80 106 61
82 107 63
83 108 64
83 109 65
84 110 65
84 110 64
83 109 64
87 113 68
82 108 64
81 107 64
84 110 66
96 119 84
152 166 161
156 169 167
140 155 148
123 140 127
106 128 100
84 110 65
83 109 65
82 109 64
79 104 62
85 111 66
86 112 67
86 113 68
87 112 74
141 156 149
174 186 189
175 187 191
185 196 203
172 184 190
175 188 192
159 173 174
145 159 153
107 126 106
86 109 73
101 122 96
133 150 140
159 173 175
173 185 191
167 179 183
157 171 175
162 176 178
129 145 136
131 147 137
140 156 147
167 180 182
155 169 167
161 176 176
191 205 214
212 225 240
225 238 255
225 238 255
225 238 255
225 238 255
225 238 255
225 238 255
225 238 255
225 238 255
225 238 255
225 238 255
225 238 255
225 238 255
225 238 255
225 238 255
225 238 255
225 238 255
225 238 255
225 238 255
225 238 255
225 238 255
225 238 255
225 238 255
225 238 255
225 238 255
225 238 255
225 238 255
225 238 255
225 238 255
225 238 255
225 238 255
225 238 255
225 238 255
225 238 255
225 238 255
225 238 255
225 238 255
225 238 255
225 238 255
225 238 255
225 238 255
225 238 255
225 238 255
225 238 255
225 238 255
225 238 255
225 238 255
225 238 255
225 238 255
225 238 255
225 238 255
225 238 255
225 238 255
225 238 255
225 238 255
225 238 255
215 228 243
188 202 209
158 174 171
145 159 154
135 151 142
169 182 186
161 172 174
134 150 141
113 132 111
81 104 67
81 105 65
77 102 60
141 157 151
156 169 168
122 139 127
93 114 84
78 103 60
78 103 60
76 101 59
85 112 66
84 110 65
86 111 69
99 119 94
139 154 145
160 173 172
160 175 174
171 183 188
171 184 188
175 186 192
166 180 180
175 188 193
170 182 185
136 152 141
79 105 62
85 112 67
93 115 84
129 146 135
158 173 171
179 190 196
173 186 191
175 186 193
186 197 204
176 188 193
170 183 186
177 188 195
188 200 211
183 193 198
180 192 196
170 183 189
185 197 202
181 193 200
166 179 181
168 182 186
154 168 166
128 145 133
160 174 174
174 186 190
178 190 192
170 183 185
175 187 191
173 185 190
180 191 196
179 192 197
185 197 202
172 183 186
177 188 192
175 188 193
168 179 180
172 185 187
163 177 180
182 194 200
181 193 198
179 192 198
182 193 199
171 184 188
177 189 192
171 184 190
103 125 97
119 139 119
142 158 148
160 173 171
167 181 181
184 195 202
176 187 193
166 178 179
170 183 184
184 195 200
179 191 198
166 179 183
181 193 199
185 197 204
192 204 214
181 193 198
178 190 197
177 190 195
165 178 182
180 192 199
174 187 191
174 185 192
188 200 207
139 155 145
82 108 63
85 111 66
83 109 64
82 108 64
81 106 62
84 110 66
84 109 65
84 110 65
83 109 64
82 108 63
87 111 72
95 117 82
99 121 91
135 151 141
153 168 163
149 165 159
173 186 188
173 185 187
177 189 193
176 188 192
173 187 189
182 194 200
166 180 180
83 110 65
86 112 67
84 110 66
87 113 67
83 109 64
82 107 63
85 111 66
81 107 63
83 109 64
80 104 61
85 110 66
87 113 67
81 107 63
86 113 68
81 107 64
84 109 64
83 109 65
81 107 63
89 116 69
90 117 70
85 112 66
82 109 64
84 110 65
157 171 167
186 198 205
169 182 184
177 190 195
177 189 196
166 179 181
180 192 196
181 192 198
185 196 203
191 201 207
183 195 202
175 187 192
182 194 201
188 199 205
178 190 194
170 183 187
186 197 203
183 196 202
174 186 190
178 190 196
183 195 200
175 188 195
181 192 196
121 140 124
80 105 62
85 111 66
84 110 65
85 111 66
87 112 73
89 110 77
94 117 84
105 125 99
116 135 111
113 133 113
133 149 137
131 148 132
134 149 140
143 158 150
143 159 150
157 171 168
155 170 170
154 167 166
170 182 185
170 182 186
176 188 190
166 180 184
102 124 93
86 112 69
91 116 77
85 109 68
81 107 63
85 111 65
86 112 67
81 107 63
78 102 61
79 104 61
83 109 65
83 109 64
83 109 65
83 109 64
81 107 63
85 111 66
86 112 66
84 110 64
78 103 60
83 109 64
85 111 66
123 141 122
175 187 193
181 193 199
178 189 195
186 198 207
175 187 193
181 192 198
176 188 195
180 191 197
180 192 200
176 188 192
182 194 202
174 187 190
187 197 202
185 196 203
183 195 202
177 190 196
186 197 204
178 189 194
167 179 181
177 189 193
149 165 157
88 111 76
85 111 66
82 109 64
84 109 65
83 109 65
83 109 65
91 116 74
95 117 84
95 119 84
91 113 78
92 113 82
101 123 92
99 121 90
116 135 113
132 150 135
135 153 139
137 154 142
136 152 141
152 167 160
105 126 98
119 139 120
111 132 105
94 116 86
99 122 89
85 110 69
88 112 74
86 113 68
86 112 66
85 111 66
84 110 66
84 110 65
79 104 61
81 107 63
84 111 66
83 109 65
82 109 65
82 108 63
115 134 112
168 181 183
175 188 191
177 189 195
183 195 202
175 186 191
173 186 190
180 191 196
176 189 194
180 193 200
181 192 196
182 194 200
182 194 201
173 185 190
179 191 197
178 190 196
179 190 194
150 164 160
91 117 75
84 110 66
86 113 68
87 114 68
83 109 64
84 110 65
78 102 60
85 112 67
85 110 66
81 106 63
97 119 88
110 130 107
118 138 119
147 162 155
127 144 130
89 114 77
86 112 66
82 108 64
81 106 63
88 115 69
79 104 61
85 110 65
84 110 65
79 104 61
82 108 63
79 105 62
86 112 69
118 137 119
172 185 189
179 192 196
171 184 186
146 161 155
134 151 143
115 134 114
90 114 76
81 107 63
83 108 64
81 106 70
138 153 149
170 183 184
168 180 185
163 175 179
124 141 126
106 127 104
91 114 78
117 137 116
151 166 163
155 169 170
173 187 191
185 199 207
217 230 245
223 236 253
225 238 255
225 238 255
225 238 255
225 238 255
225 238 255
225 238 255
225 238 255
225 238 255
225 238 255
225 238 255
225 238 255
225 238 255
225 238 255
225 238 255
225 238 255
225 238 255
225 238 255
225 238 255
225 238 255
225 238 255
225 238 255
225 238 255
225 238 255
225 238 255
225 238 255
225 238 255
225 238 255
225 238 255
225 238 255
225 238 255
225 238 255
225 238 255
225 238 255
225 238 255
225 238 255
225 238 255
225 238 255
225 238 255
225 238 255
225 238 255
225 238 255
225 238 255
225 238 255
225 238 255
225 238 255
225 238 255
225 238 255
225 238 255
225 238 255
225 238 255
225 238 255
225 238 255
225 238 255
225 238 255
225 238 255
225 238 255
225 238 255
225 238 255
225 238 255
224 236 254
218 231 246
185 199 205
156 171 170
143 159 149
145 160 156
164 175 180
157 171 170
141 156 149
120 138 122
140 157 151
174 186 192
174 186 191
165 178 181
150 164 162
140 155 146
109 130 106
81 106 63
80 106 63
83 109 64
78 103 60
80 105 62
77 102 60
90 112 82
119 135 123
146 161 156
161 174 175
177 189 195
186 197 204
172 184 187
119 137 122
83 110 65
82 108 64
82 107 63
79 103 60
83 109 64
86 111 69
102 122 97
125 143 132
168 180 182
172 185 191
156 171 171
178 189 194
176 188 192
174 186 192
171 185 190
173 186 190
169 183 188
177 189 193
171 183 188
168 182 185
182 194 202
113 133 108
84 110 65
82 106 64
108 129 103
118 137 120
162 175 175
170 182 184
165 177 180
171 184 188
161 174 175
171 184 189
179 189 195
175 187 191
173 185 189
176 188 192
175 186 193
183 195 201
177 190 196
180 191 197
183 194 199
175 187 194
181 192 198
167 180 182
84 110 65
84 109 64
85 111 65
80 106 63
87 113 70
99 121 91
125 144 124
146 162 155
153 169 168
166 179 178
171 184 191
173 185 189
178 191 197
178 190 195
171 183 187
169 181 185
187 199 206
177 188 195
173 185 191
181 193 197
170 183 185
179 191 198
183 194 199
91 115 76
87 114 68
86 112 66
86 111 66
79 104 62
81 107 62
86 112 67
82 108 63
87 113 67
83 108 64
87 114 68
82 107 63
84 111 66
89 116 69
80 105 62
84 109 64
83 108 64
93 118 78
93 117 81
98 121 88
126 144 130
143 159 154
149 164 157
145 159 152
102 124 96
86 111 72
84 109 65
86 112 66
84 110 65
82 107 64
80 105 62
82 107 63
83 109 65
85 111 66
83 109 65
81 107 62
88 115 68
83 108 63
87 114 68
84 110 65
82 108 64
85 112 66
79 105 62
87 113 68
83 109 64
84 110 66
128 146 131
165 178 181
179 192 200
181 193 199
187 199 207
175 187 191
171 183 185
185 196 202
176 189 196
176 188 193
171 184 187
185 196 203
180 192 196
179 191 195
187 199 207
186 198 204
179 192 198
181 193 199
187 199 206
182 194 199
172 185 191
182 195 201
178 190 195
155 169 169
82 107 63
81 106 62
85 111 66
88 114 68
85 111 66
78 104 60
86 112 67
82 108 64
82 108 64
87 113 67
83 109 64
87 113 67
85 112 67
81 107 62
84 110 65
83 109 64
84 110 65
83 109 64
85 111 66
85 111 65
89 115 71
98 122 85
163 176 179
178 189 193
173 185 189
166 179 181
167 178 178
162 175 177
175 187 190
158 172 172
167 180 180
156 170 170
147 163 160
149 165 161
153 167 165
142 157 148
147 163 154
144 159 151
152 167 160
157 170 167
144 160 152
140 156 149
132 149 135
120 138 119
140 156 144
132 148 137
143 158 151
149 163 160
153 167 163
143 159 153
143 159 150
133 150 141
138 153 143
153 168 161
153 167 160
144 160 151
136 153 140
140 156 143
147 161 155
136 153 146
127 144 130
131 148 132
120 138 122
129 148 129
148 163 158
154 169 166
164 177 178
167 180 181
165 178 177
175 187 191
168 180 182
172 185 189
167 179 179
179 192 199
170 183 186
174 186 191
187 198 204
180 192 200
172 185 189
178 191 199
179 191 197
182 194 201
170 183 188
168 181 183
115 136 115
82 107 63
77 102 59
84 111 66
83 108 64
87 114 68
82 108 63
87 114 68
85 111 66
82 108 65
90 117 70
86 111 67
84 110 65
87 113 66
88 115 69
84 110 66
75 100 58
82 107 63
136 151 141
175 187 192
172 184 188
173 186 190
183 195 201
172 185 189
183 194 199
163 175 178
187 198 204
177 189 196
175 187 193
168 181 187
180 192 197
174 187 191
175 187 191
172 184 188
175 186 189
107 128 102
81 106 62
77 102 60
84 110 65
81 106 62
85 111 67
103 124 94
125 142 127
130 147 136
153 167 166
155 168 167
160 173 174
181 193 201
163 177 182
163 177 178
127 143 130
81 106 62
79 104 62
86 111 66
84 110 66
85 111 66
80 105 62
82 108 64
81 107 64
83 109 64
81 107 63
76 101 59
98 120 88
122 140 121
146 162 157
125 144 128
89 112 81
87 112 72
83 109 65
79 105 62
75 100 58
76 101 59
85 107 74
135 152 139
157 170 170
135 151 144
116 135 116
89 112 80
80 106 62
85 108 70
102 123 98
131 148 136
169 183 186
192 206 215
213 226 240
225 238 255
225 238 255
225 238 255
225 238 255
225 238 255
225 238 255
225 238 255
225 238 255
225 238 255
225 238 255
225 238 255
225 238 255
225 238 255
225 238 255
225 238 255
225 238 255
225 238 255
225 238 255
225 238 255
225 238 255
225 238 255
225 238 255
225 238 255
225 238 255
225 238 255
225 238 255
225 238 255
225 238 255
225 238 255
225 238 255
225 238 255
225 238 255
225 238 255
225 238 255
225 238 255
225 238 255
225 238 255
225 238 255
225 238 255
225 238 255
225 238 255
225 238 255
225 238 255
225 238 255
225 238 255
225 238 255
225 238 255
225 238 255
225 238 255
225 238 255
225 238 255
225 238 255
225 238 255
225 238 255
225 238 255
225 238 255
225 238 255
225 238 255
225 238 255
225 238 255
225 238 255
225 238 255
225 238 255
225 238 255
225 238 255
225 238 255
225 238 255
219 231 247
202 215 227
165 179 181
133 151 141
146 161 156
160 174 177
156 169 169
95 116 92
133 148 139
169 181 182
160 173 174
169 181 185
155 169 169
163 177 178
135 151 144
114 131 114
85 109 72
77 102 60
79 104 61
81 106 62
80 106 62
84 110 65
83 109 67
99 119 92
123 141 123
144 158 154
126 143 128
80 105 62
88 114 67
85 111 65
70 95 54
82 107 64
76 101 60
78 103 60
80 106 62
81 107 63
87 111 74
127 143 129
137 153 143
162 175 178
168 182 186
173 185 191
183 195 202
179 190 195
175 187 193
185 196 203
177 189 196
174 187 192
86 111 69
81 107 63
82 107 64
83 109 64
80 106 62
82 108 64
84 109 65
103 122 98
129 146 133
154 169 159
164 177 178
163 176 179
180 192 198
179 191 199
172 185 191
179 192 200
171 184 185
178 189 195
168 181 184
169 182 187
172 184 189
178 191 197
131 147 137
82 107 64
79 105 61
81 106 63
78 104 61
80 105 62
83 109 65
89 115 69
82 107 63
83 109 64
85 110 68
108 129 101
124 142 128
140 156 148
153 167 166
175 187 191
167 181 182
179 191 198
172 184 189
168 182 185
175 188 195
179 191 196
180 192 197
151 166 162
83 109 65
84 110 65
87 113 68
87 114 68
82 108 63
79 104 60
80 106 62
82 108 63
85 111 66
81 106 62
85 111 66
85 111 66
83 108 64
85 111 65
84 110 65
83 108 64
83 109 66
87 113 67
86 112 67
83 109 64
80 105 61
88 115 68
94 117 82
168 181 182
174 185 190
162 175 176
169 181 182
151 167 162
139 156 147
115 133 114
118 136 115
103 125 94
86 110 73
84 109 67
84 110 65
83 109 64
87 113 66
80 106 62
83 108 63
88 114 68
82 108 65
84 109 64
84 110 65
82 108 64
89 115 69
90 114 78
164 176 178
177 190 198
180 191 198
179 192 199
173 186 190
165 179 182
187 198 205
189 200 208
176 188 192
181 192 197
180 192 197
169 181 186
166 178 181
180 192 197
178 190 197
174 186 190
177 188 195
175 188 194
174 186 192
173 186 189
183 195 200
177 189 194
167 181 186
96 119 86
81 107 63
84 110 64
84 110 66
82 108 65
82 108 63
82 107 63
85 111 67
77 102 59
84 109 65
80 106 62
85 112 66
81 106 63
83 110 65
79 105 61
79 104 61
86 112 67
83 110 66
79 105 61
84 111 66
86 112 66
88 114 68
149 163 155
176 188 193
158 172 171
178 190 196
188 199 208
181 193 199
177 190 196
170 184 187
174 187 193
184 196 201
186 197 203
177 189 191
180 191 197
174 186 192
180 193 201
182 194 202
183 195 201
171 183 189
179 190 197
182 194 202
187 197 204
166 178 179
104 126 99
82 107 63
82 107 63
82 107 63
88 115 68
86 111 66
88 114 68
84 110 65
85 112 67
86 112 67
84 110 65
85 111 66
83 109 65
84 110 65
83 109 64
80 106 62
84 110 66
86 112 67
82 107 63
78 103 60
119 138 119
170 182 186
180 192 199
179 191 199
183 195 202
172 185 191
180 191 198
175 187 191
187 198 206
174 187 191
173 185 190
178 189 193
183 195 200
172 185 190
180 191 196
173 186 192
175 187 191
175 188 194
182 194 200
174 188 194
114 133 108
85 111 66
81 107 63
83 109 64
86 112 66
83 109 65
85 111 66
82 108 64
83 109 65
81 106 62
85 111 66
79 104 61
76 100 59
81 107 64
82 107 64
80 105 63
83 109 64
83 108 67
148 162 156
169 182 185
171 184 191
170 182 187
177 189 195
174 187 193
169 182 186
170 183 188
162 176 178
175 188 194
178 190 196
175 188 194
176 188 196
177 189 195
170 182 185
165 178 180
156 170 168
105 126 99
110 129 106
125 142 129
131 148 134
155 170 166
151 165 160
166 179 179
175 187 192
167 179 183
176 188 197
167 179 182
177 190 197
184 195 202
163 176 176
141 155 150
100 122 92
82 108 64
85 111 67
82 109 65
83 108 64
83 108 64
77 102 59
81 107 63
80 106 63
88 111 79
124 140 127
128 144 132
99 121 91
88 113 72
81 106 63
77 101 59
84 109 64
80 105 61
83 108 65
80 106 62
84 110 68
92 116 79
90 112 80
120 136 120
101 123 95
82 106 68
75 98 60
95 114 88
122 140 125
120 138 123
159 174 173
203 217 229
217 230 245
224 237 254
225 238 255
225 238 255
225 238 255
225 238 255
225 238 255
225 238 255
225 238 255
225 238 255
225 238 255
225 238 255
225 238 255
225 238 255
225 238 255
225 238 255
225 238 255
225 238 255
225 238 255
225 238 255
225 238 255
225 238 255
225 238 255
225 238 255
225 238 255
225 238 255
225 238 255
225 238 255
225 238 255
225 238 255
225 238 255
225 238 255
225 238 255
225 238 255
225 238 255
225 238 255
225 238 255
225 238 255
225 238 255
225 238 255
225 238 255
225 238 255
225 238 255
225 238 255
225 238 255
225 238 255
225 238 255
225 238 255
225 238 255
225 238 255
225 238 255
225 238 255
225 238 255
225 238 255
225 238 255
225 238 255
225 238 255
225 238 255
225 238 255
225 238 255
225 238 255
225 238 255
225 238 255
225 238 255
225 238 255
225 238 255
225 238 255
225 238 255
225 238 255
225 238 255
225 238 255
225 238 255
225 238 255
225 238 255
223 236 253
205 218 231
180 193 201
164 177 180
122 139 126
100 121 96
86 109 73
99 119 94
134 149 143
146 160 156
159 173 176
178 191 199
168 181 186
171 184 191
155 169 166
135 150 142
94 117 86
76 101 59
78 103 60
80 105 62
81 106 63
74 98 57
77 103 61
143 159 152
143 156 153
132 149 138
84 108 72
84 110 65
73 98 57
80 105 63
81 107 63
80 105 63
79 104 61
74 99 59
77 103 60
81 107 62
81 106 62
84 107 72
109 129 102
134 150 143
147 161 160
174 186 190
179 191 196
170 183 186
156 168 168
84 109 65
84 110 66
78 102 60
79 105 61
81 107 64
83 109 65
84 110 65
78 103 61
82 108 65
85 111 66
78 103 60
88 112 75
111 131 109
129 146 134
155 169 169
173 184 188
178 191 198
177 190 196
175 186 189
168 181 183
184 196 204
176 187 193
116 135 116
84 109 64
79 104 61
80 105 63
82 108 64
82 108 64
83 109 65
84 110 65
80 105 61
81 107 63
81 107 63
86 111 66
83 109 65
82 108 64
78 103 60
86 111 71
106 127 98
115 135 116
138 154 147
138 153 145
165 178 180
186 197 204
183 195 202
115 134 115
76 101 59
83 108 65
86 112 66
80 106 62
83 109 65
83 109 65
84 110 64
85 112 67
83 109 65
82 108 63
77 102 59
83 109 64
83 109 64
83 109 65
83 109 65
85 111 66
83 109 65
77 102 60
79 104 62
83 109 64
76 101 59
81 107 63
148 163 157
183 194 199
184 196 203
172 184 189
177 188 194
183 195 203
181 191 193
181 193 200
165 179 181
175 188 193
179 190 194
165 178 180
156 171 167
138 155 147
134 151 141
116 135 112
107 128 103
95 118 83
83 108 69
82 107 63
81 106 63
84 110 66
85 111 66
136 152 140
178 190 197
181 192 197
173 187 193
177 189 193
188 200 208
184 195 200
177 189 194
168 181 182
173 186 192
178 190 197
188 200 208
181 192 198
173 185 189
188 199 206
180 192 199
165 178 181
189 201 210
175 187 193
175 189 195
180 191 197
187 198 206
174 186 190
125 142 127
85 112 66
84 110 65
82 107 63
83 109 65
85 110 65
82 108 64
89 116 69
85 111 66
85 111 66
80 106 63
88 114 67
81 106 62
81 105 62
85 111 66
80 106 63
83 109 65
78 103 61
87 113 67
78 103 60
82 108 64
83 109 65
130 147 133
179 191 196
176 187 193
180 192 199
175 187 192
179 191 198
177 189 194
165 177 181
174 187 194
171 183 188
171 184 187
164 177 181
175 188 194
173 186 191
190 202 212
172 184 188
176 188 194
176 189 194
173 186 191
180 193 198
178 189 196
166 179 181
107 128 103
84 111 66
82 108 64
83 108 64
85 110 66
83 109 65
82 108 64
79 105 61
77 102 60
85 111 66
84 109 64
85 111 66
81 107 63
81 106 63
79 104 62
76 102 59
84 109 65
83 108 64
83 109 64
84 110 66
121 140 121
170 183 187
180 192 199
175 188 195
180 191 194
179 191 198
168 180 181
160 174 178
177 190 197
179 191 198
167 180 183
166 179 182
165 178 181
172 186 189
170 183 188
158 172 173
173 186 191
167 179 181
185 197 203
174 186 191
129 146 132
81 106 63
86 113 67
83 109 65
78 103 61
82 108 64
86 113 67
83 108 63
81 107 64
82 108 65
81 106 62
84 110 65
83 108 65
81 106 63
83 109 65
85 110 65
83 109 65
93 116 84
157 170 168
181 193 199
184 195 201
173 185 190
184 196 203
184 195 200
182 194 202
179 191 197
171 184 189
179 191 198
171 183 186
153 166 164
147 162 159
158 171 169
130 146 133
120 137 121
148 162 158
178 190 196
174 186 190
181 193 200
164 177 180
182 194 202
166 179 183
173 185 191
178 190 196
173 185 189
168 181 185
180 192 198
173 185 190
173 185 193
162 176 177
112 131 112
80 106 62
83 109 65
83 109 64
79 104 61
77 103 60
93 116 79
126 143 130
137 155 145
148 162 159
162 176 180
169 181 186
137 153 145
92 115 79
77 102 60
78 104 61
79 105 62
77 101 60
84 108 70
102 123 97
119 138 120
137 152 144
114 131 115
78 103 60
78 103 64
93 116 81
111 129 112
140 156 151
177 190 195
189 202 211
212 225 239
221 234 251
225 238 255
225 238 255
225 238 255
225 238 255
225 238 255
225 238 255
225 238 255
225 238 255
225 238 255
225 238 255
225 238 255
225 238 255
225 238 255
225 238 255
225 238 255
225 238 255
225 238 255
225 238 255
225 238 255
225 238 255
225 238 255
225 238 255
225 238 255
225 238 255
225 238 255
225 238 255
225 238 255
225 238 255
225 238 255
225 238 255
225 238 255
225 238 255
225 238 255
225 238 255
225 238 255
225 238 255
225 238 255
225 238 255
225 238 255
225 238 255
225 238 255
225 238 255
225 238 255
225 238 255
225 238 255
225 238 255
225 238 255
225 238 255
225 238 255
225 238 255
225 238 255
225 238 255
225 238 255
225 238 255
225 238 255
225 238 255
225 238 255
225 238 255
225 238 255
225 238 255
225 238 255
225 238 255
226 238 255
226 238 255
226 238 255
226 238 255
226 238 255
226 238 255
225 238 255
226 238 255
226 238 255
226 238 255
226 238 255
226 238 255
226 238 255
226 238 255
226 238 255
226 238 255
226 238 255
225 237 255
210 222 236
189 202 210
152 167 165
95 118 84
89 111 80
94 116 83
95 116 92
118 134 119
142 156 150
149 164 165
165 178 183
175 188 193
184 196 204
157 170 171
136 152 144
126 142 127
93 114 83
76 101 60
79 103 61
162 177 179
156 169 171
166 179 184
168 180 183
155 168 171
141 157 151
129 144 132
91 113 80
83 107 66
81 107 64
83 109 64
75 100 58
81 107 63
83 108 64
80 105 62
82 108 63
82 108 63
84 110 66
83 105 71
114 131 115
148 164 157
135 150 144
78 103 60
81 107 64
75 99 57
77 102 60
81 107 64
80 105 62
81 106 62
79 104 61
82 108 64
84 110 65
81 106 62
81 107 64
78 103 60
82 108 64
80 105 61
84 111 67
103 123 99
132 149 137
151 165 160
164 176 180
177 190 197
161 175 177
89 114 72
75 100 58
90 116 69
81 105 61
83 109 64
80 105 62
81 107 63
77 101 59
83 109 65
80 106 63
83 108 64
83 109 64
85 111 66
78 103 60
77 102 59
80 106 62
85 111 66
80 106 63
77 102 59
78 104 61
82 108 64
92 115 81
135 151 141
156 169 166
130 147 135
109 128 108
93 119 81
78 103 61
82 107 63
83 110 65
85 111 66
84 109 64
81 106 62
80 106 62
86 112 67
78 103 61
88 114 69
84 110 65
86 112 66
86 112 67
85 111 66
81 107 63
85 111 66
80 105 62
82 107 63
99 119 89
172 184 190
182 193 198
173 185 189
174 186 191
168 182 188
182 193 199
178 189 195
173 185 187
170 183 187
179 190 196
178 191 197
176 189 194
177 188 194
171 183 185
174 186 190
164 178 181
180 192 197
180 192 197
163 175 177
169 182 183
158 173 170
149 165 162
130 147 133
136 153 144
147 161 157
159 173 175
167 179 181
175 187 190
177 189 194
173 186 190
178 189 195
169 182 185
178 190 196
170 183 187
169 183 186
172 184 188
178 191 199
167 181 183
171 183 187
181 192 201
180 192 197
178 190 198
175 187 191
176 189 194
176 189 193
146 160 158
81 106 62
76 101 59
87 113 68
80 106 62
81 106 63
86 112 67
86 111 66
88 114 68
85 111 67
83 109 65
78 103 61
81 106 63
82 108 64
84 109 65
84 110 65
85 111 66
82 107 64
78 102 59
84 110 66
83 109 65
89 115 69
108 128 101
170 183 190
176 189 196
178 190 195
183 195 201
181 193 200
175 188 194
184 196 202
178 189 195
169 182 187
174 186 191
170 181 184
179 191 196
166 179 183
182 193 198
175 187 194
185 197 204
176 188 193
170 183 184
167 181 186
183 194 199
173 186 192
115 133 116
82 107 64
86 112 67
83 109 65
76 100 58
83 109 64
84 110 65
84 110 65
84 109 66
81 106 62
85 111 66
82 108 64
83 109 66
85 110 65
85 111 66
77 102 59
83 108 64
85 110 66
86 112 66
80 105 63
136 152 142
174 187 192
171 184 187
176 189 196
181 193 200
179 190 196
177 189 193
177 189 195
177 190 198
178 190 196
178 190 194
175 187 192
183 194 199
179 190 195
173 185 189
177 189 197
178 191 197
163 176 180
172 185 190
164 176 179
97 119 90
84 109 65
83 109 65
82 108 64
77 102 60
82 108 64
79 104 62
86 112 67
86 113 67
86 113 67
80 105 62
80 106 63
76 101 59
86 111 66
81 106 63
83 109 64
77 102 60
113 133 111
171 184 184
163 175 179
173 186 190
176 187 191
170 182 184
161 174 173
138 154 143
127 146 136
123 140 128
102 122 96
97 120 88
81 107 63
82 107 63
78 104 61
82 107 64
93 117 85
149 164 160
168 179 184
179 190 195
170 182 185
169 182 185
178 190 197
174 187 191
161 175 176
174 186 191
172 184 188
178 190 196
174 186 191
178 190 197
175 188 195
142 157 151
85 108 72
79 104 61
98 121 91
117 135 117
134 150 141
154 168 169
177 189 197
165 178 181
169 181 188
164 178 182
171 183 188
138 154 147
98 119 92
79 105 62
75 100 59
88 111 76
108 128 107
140 155 149
154 167 167
166 178 182
156 170 171
123 139 128
80 102 68
92 115 81
105 123 104
140 155 150
159 174 174
198 211 222
210 223 238
223 236 253
226 238 255
226 238 255
226 238 255
226 238 255
226 238 255
226 238 255
226 238 255
226 238 255
226 238 255
226 238 255
226 238 255
226 238 255
226 238 255
225 238 255
226 238 255
226 238 255
225 238 255
226 238 255
225 238 255
226 238 255
225 238 255
225 238 255
225 238 255
225 238 255
225 238 255
225 238 255
225 238 255
225 238 255
225 238 255
225 238 255
225 238 255
225 238 255
225 238 255
225 238 255
225 238 255
225 238 255
225 238 255
225 238 255
225 238 255
225 238 255
225 238 255
226 238 255
226 238 255
226 238 255
226 238 255
226 238 255
226 238 255
226 238 255
226 238 255
226 238 255
226 238 255
226 238 255
226 238 255
226 238 255
226 238 255
226 238 255
226 238 255
226 238 255
226 238 255
226 238 255
226 238 255
226 238 255
226 238 255
226 238 255
226 238 255
226 238 255
226 238 255
226 238 255
226 238 255
226 238 255
226 238 255
226 238 255
226 238 255
226 238 255
226 238 255
226 238 255
226 238 255
226 238 255
226 238 255
226 238 255
226 238 255
226 238 255
226 238 255
226 238 255
226 238 255
224 237 254
218 230 246
196 210 219
178 192 197
136 153 143
122 139 126
120 139 124
113 132 117
128 144 134
138 152 148
161 173 173
171 183 187
163 176 180
155 168 171
174 186 192
149 164 164
131 146 139
150 164 159
160 172 174
176 187 193
174 185 191
164 177 178
176 187 191
179 190 196
174 187 192
153 166 170
142 155 148
118 136 118
91 113 83
81 107 63
80 105 61
83 108 64
78 102 61
80 105 62
81 107 63
82 108 64
81 106 62
81 107 63
150 164 163
166 180 182
150 163 163
131 147 136
119 138 118
83 108 67
82 108 63
78 103 60
81 107 63
77 102 59
86 112 66
78 103 60
78 103 61
80 105 62
81 106 63
82 108 64
77 102 59
80 105 62
83 109 65
83 109 64
83 108 64
94 116 83
135 151 142
142 157 152
111 130 107
103 123 100
84 110 64
82 107 63
82 108 64
83 110 66
80 105 63
86 113 67
80 105 62
81 107 63
84 109 64
83 109 64
81 107 63
82 107 63
80 105 62
79 104 62
82 107 63
79 105 61
77 103 61
85 110 65
83 109 64
162 175 175
177 189 194
176 188 193
169 182 185
163 178 179
174 186 191
155 171 166
146 162 157
118 136 117
113 134 105
94 116 84
84 110 65
78 104 61
88 114 68
83 109 64
88 114 68
82 108 64
83 108 64
75 99 58
85 111 66
87 113 68
86 112 66
81 106 62
157 170 170
175 187 191
165 178 180
173 186 190
179 191 196
181 193 200
179 191 197
173 185 190
177 189 195
176 188 192
175 187 194
169 181 185
171 183 189
167 180 184
178 189 196
175 187 194
170 183 186
178 190 194
169 182 187
173 185 190
189 201 209
173 185 190
170 184 188
98 119 93
83 109 65
85 111 66
80 105 61
77 102 63
96 117 88
105 125 102
117 136 115
130 147 135
131 149 137
147 162 154
141 155 149
160 174 170
156 170 170
169 183 187
174 186 189
177 188 192
182 193 199
172 185 189
181 193 200
173 186 189
176 188 197
170 182 186
94 115 84
82 107 63
82 107 63
79 104 61
81 106 61
80 106 63
84 110 66
76 101 58
86 112 67
84 109 65
82 108 65
82 107 62
85 111 65
81 106 63
82 107 63
81 107 63
85 111 67
87 113 67
83 109 64
82 107 64
81 106 63
98 121 91
171 184 189
176 188 193
167 180 182
182 194 200
164 176 178
176 189 195
174 185 189
175 187 192
172 184 187
171 184 189
177 189 193
175 187 193
181 194 202
167 179 184
174 186 192
183 195 201
179 191 198
179 189 194
176 188 194
172 185 190
177 189 197
117 136 117
84 110 65
81 106 62
80 105 63
83 108 64
85 111 66
85 111 66
82 107 63
81 106 62
79 105 62
80 105 62
81 107 63
82 108 64
85 111 65
80 105 63
82 108 64
85 112 67
76 101 59
79 105 62
86 113 68
117 136 115
172 184 189
176 188 195
176 187 194
164 176 180
168 180 184
168 181 182
170 184 188
182 192 198
180 192 201
182 193 199
169 182 187
174 187 191
179 191 195
165 178 182
177 190 196
165 178 181
171 184 191
176 188 193
160 173 170
104 124 99
82 108 64
82 108 64
86 112 67
80 105 62
77 102 61
84 110 65
81 107 64
81 106 62
86 112 67
87 113 67
77 101 59
89 113 77
95 117 86
118 137 117
115 132 116
117 136 116
97 119 88
115 133 114
113 132 107
112 131 107
96 120 86
81 106 63
82 108 63
81 107 64
81 106 62
83 108 64
80 106 62
81 106 62
85 111 66
78 103 61
81 106 63
79 104 61
117 135 116
164 177 179
177 188 195
166 179 183
164 178 181
173 186 194
159 173 174
172 184 187
170 182 185
169 181 185
166 179 183
167 180 182
166 179 182
162 175 176
172 185 189
149 163 161
132 147 136
156 170 167
168 180 183
177 189 192
173 185 188
159 171 173
168 181 186
171 182 186
168 180 185
167 180 184
145 160 157
101 122 95
91 113 80
110 130 112
129 146 134
149 163 162
155 168 170
173 186 190
154 167 168
162 174 174
133 149 140
104 125 99
103 124 97
127 143 135
176 190 196
200 212 224
219 231 247
225 238 255
226 238 255
226 238 255
226 238 255
226 238 255
226 238 255
226 238 255
226 238 255
226 238 255
226 238 255
226 238 255
226 238 255
226 238 255
226 238 255
226 238 255
226 238 255
226 238 255
226 238 255
226 238 255
226 238 255
226 238 255
226 238 255
226 238 255
226 238 255
226 238 255
226 238 255
226 238 255
226 238 255
226 238 255
226 238 255
226 238 255
226 238 255
226 238 255
226 238 255
226 238 255
226 238 255
226 238 255
226 238 255
226 238 255
226 238 255
226 238 255
226 238 255
226 238 255
226 238 255
226 238 255
226 238 255
226 238 255
226 238 255
226 238 255
226 238 255
226 238 255
226 238 255
226 238 255
226 238 255
226 238 255
226 238 255
226 238 255
226 238 255
226 238 255
226 238 255
226 238 255
226 238 255
226 238 255
226 238 255
226 238 255
226 238 255
226 238 255
226 238 255
226 238 255
226 238 255
226 238 255
226 238 255
226 238 255
226 238 255
226 238 255
226 238 255
226 238 255
226 238 255
226 238 255
226 238 255
226 238 255
226 238 255
226 238 255
226 238 255
226 238 255
226 238 255
226 238 255
226 238 255
226 238 255
226 238 255
226 238 255
226 238 255
226 238 255
222 235 252
214 227 242
182 196 203
171 185 189
133 148 144
136 151 145
137 153 151
153 166 168
155 167 170
157 170 173
157 170 171
161 174 178
152 166 167
95 115 88
79 103 66
113 130 113
142 158 152
157 170 170
157 171 171
165 178 183
166 179 185
162 176 181
175 188 194
173 185 190
161 174 174
141 156 148
136 152 145
112 132 113
89 111 77
76 100 59
76 100 58
74 98 57
80 105 62
82 107 63
143 158 156
163 176 180
172 185 191
172 184 189
167 180 182
161 175 177
159 172 170
137 153 146
108 125 108
89 112 77
79 104 62
86 112 67
79 103 61
75 99 58
77 101 59
81 106 63
78 102 59
78 103 61
80 105 61
77 102 60
79 105 62
76 101 60
148 164 158
173 184 190
178 190 195
172 184 188
168 180 183
154 168 166
128 146 132
116 135 116
93 117 82
83 110 66
76 102 59
83 108 64
83 108 64
81 107 62
81 106 63
82 108 64
84 109 65
82 107 63
86 112 67
81 106 62
82 107 64
85 112 66
91 116 74
176 188 195
164 176 178
165 179 183
176 188 195
179 191 198
171 183 185
170 183 190
176 188 193
173 185 189
173 186 190
164 177 180
167 181 185
146 161 157
144 159 156
126 144 132
110 130 106
91 114 76
84 109 68
84 110 65
85 111 66
81 107 64
78 102 60
117 136 117
159 172 173
169 181 186
174 187 194
171 185 189
176 187 192
182 193 200
163 176 178
172 185 190
156 168 171
178 190 197
169 181 184
173 184 189
178 190 194
175 185 189
171 184 191
176 188 193
171 184 189
168 180 183
173 186 192
177 188 194
166 179 181
179 191 197
152 166 161
85 110 65
80 105 62
84 110 65
77 102 60
85 111 67
84 109 65
83 108 65
86 112 67
81 106 62
82 108 64
82 108 64
80 105 62
80 105 62
86 112 67
82 108 64
89 113 75
102 122 97
104 125 101
119 138 119
128 145 132
133 149 139
144 159 156
139 156 147
129 146 130
102 123 96
99 120 90
92 117 81
94 116 84
88 113 70
79 103 61
81 107 64
80 106 62
81 106 62
84 110 66
84 109 65
85 111 66
84 110 65
78 103 60
84 109 65
75 100 58
82 106 63
86 112 67
83 108 64
81 105 65
166 180 181
175 187 192
164 177 182
173 185 187
167 180 183
167 180 184
174 187 191
178 189 194
171 184 187
178 189 194
163 175 178
187 199 206
184 195 200
175 187 193
173 185 189
164 177 181
178 191 201
171 184 188
173 186 191
165 179 182
173 186 191
124 142 129
77 103 60
80 106 63
82 107 64
83 109 65
80 106 62
76 101 59
77 102 60
83 109 64
85 111 66
84 110 66
80 105 62
78 103 60
80 105 63
86 113 67
82 108 64
83 109 64
80 106 63
82 107 63
82 108 64
136 152 141
165 177 182
177 189 195
179 191 198
170 182 187
166 178 178
184 195 201
160 174 175
193 204 213
169 182 184
169 181 186
175 187 194
170 181 185
174 187 192
168 181 182
176 187 191
169 181 183
177 189 196
171 183 187
148 162 158
86 110 74
87 113 71
92 115 83
100 122 90
117 134 117
128 143 133
127 142 130
145 160 154
149 164 158
154 168 167
145 161 158
164 178 180
174 186 192
171 183 187
173 185 191
171 183 187
161 175 177
131 148 134
82 107 63
78 102 60
80 105 62
83 109 65
81 107 63
84 110 65
88 115 68
79 104 62
77 102 60
82 108 65
77 103 60
70 94 53
81 107 63
75 99 58
75 100 59
148 163 157
171 184 191
174 187 195
159 172 176
168 182 186
174 186 191
154 167 166
169 182 185
161 175 177
157 169 168
135 150 145
128 145 134
103 122 103
104 123 98
149 163 161
170 182 186
172 184 190
169 181 185
156 169 170
167 180 185
180 191 195
167 179 182
159 172 175
166 179 184
171 183 187
148 163 163
156 169 169
145 160 155
145 159 155
144 157 156
146 160 158
119 136 123
137 152 144
114 133 114
92 114 83
109 128 109
125 141 132
146 162 157
195 208 218
213 226 240
225 237 254
226 238 255
226 238 255
226 238 255
226 238 255
226 238 255
226 238 255
226 238 255
226 238 255
226 238 255
226 238 255
226 238 255
226 238 255
226 238 255
226 238 255
226 238 255
226 238 255
226 238 255
226 238 255
226 238 255
226 238 255
226 238 255
226 238 255
226 238 255
226 238 255
226 238 255
226 238 255
226 238 255
226 238 255
226 238 255
226 238 255
226 238 255
226 238 255
226 238 255
226 238 255
226 238 255
226 238 255
226 238 255
226 238 255
226 238 255
226 238 255
226 238 255
226 238 255
226 238 255
226 238 255
226 238 255
226 238 255
226 238 255
226 238 255
226 238 255
226 238 255
226 238 255
226 238 255
226 238 255
226 238 255
226 238 255
226 238 255
226 238 255
226 238 255
226 238 255
226 238 255
226 238 255
226 238 255
226 238 255
226 238 255
226 238 255
226 238 255
226 238 255
226 238 255
226 238 255
226 238 255
226 238 255
226 238 255
226 238 255
226 238 255
226 238 255
226 238 255
226 238 255
226 238 255
226 238 255
226 238 255
226 238 255
226 238 255
226 238 255
226 238 255
226 238 255
226 238 255
226 238 255
226 238 255
226 238 255
226 238 255
226 238 255
226 238 255
226 238 255
226 238 255
226 238 255
226 238 255
226 238 255
226 238 255
226 238 255
224 236 253
218 230 246
205 217 230
183 195 204
154 168 166
142 157 154
152 166 166
160 175 177
152 166 167
128 143 135
140 156 150
144 158 157
142 158 152
122 139 127
111 130 113
107 126 104
123 139 128
143 159 155
154 167 166
163 175 179
162 174 175
168 181 184
171 184 189
171 184 191
161 174 176
169 182 185
148 161 159
132 148 142
113 131 114
89 111 76
85 109 71
173 185 188
177 188 195
164 176 180
169 182 185
172 185 189
177 190 198
161 174 177
170 183 186
178 190 196
174 187 192
159 172 171
149 165 161
124 140 128
103 124 97
82 106 65
82 108 64
79 104 61
80 106 63
79 104 60
77 102 59
82 107 63
97 118 92
163 176 179
177 189 197
164 177 179
176 188 195
169 182 188
179 191 198
161 175 176
165 178 181
171 184 187
153 167 167
161 174 174
139 154 144
112 130 110
93 116 84
79 104 61
79 104 60
81 106 63
83 109 65
82 107 64
73 97 56
76 101 58
82 107 64
137 152 147
183 194 204
174 186 191
171 183 187
187 198 206
167 179 184
169 181 184
169 182 187
161 174 175
176 188 194
174 187 194
175 187 191
177 189 194
175 186 193
173 185 189
175 187 192
175 186 193
175 186 190
163 177 178
147 161 156
139 156 147
134 150 142
127 144 128
156 170 166
163 176 178
182 194 199
182 194 198
179 190 198
175 187 193
175 187 190
188 201 210
175 187 193
185 197 204
169 181 184
179 191 196
181 193 198
167 180 183
158 172 175
175 187 190
171 184 189
180 192 198
177 189 195
169 182 185
182 193 199
163 176 180
167 180 182
98 120 87
81 106 62
83 110 65
77 102 59
74 99 58
77 102 60
84 110 66
78 103 61
79 105 62
84 111 66
83 109 64
80 105 62
80 105 62
82 107 63
81 107 63
73 97 56
89 116 69
78 103 59
78 104 61
80 105 62
82 107 63
83 108 64
129 146 136
171 184 189
172 185 190
181 192 196
177 189 193
172 183 188
178 190 194
157 171 172
168 181 183
162 175 178
159 172 174
148 163 159
147 163 157
131 148 136
131 148 136
130 146 135
130 147 133
120 137 122
115 133 114
116 135 113
105 126 103
109 127 108
135 152 139
175 187 191
170 182 184
173 186 190
167 181 184
178 190 196
177 189 193
181 193 201
179 190 196
167 179 182
176 188 194
177 189 194
171 183 187
171 183 188
173 184 189
177 189 195
179 191 198
170 183 187
172 184 189
181 193 201
176 188 192
134 151 140
83 108 63
84 109 64
83 108 64
80 105 62
82 107 63
81 106 63
81 106 62
78 102 59
78 103 60
77 101 59
81 107 63
86 112 67
81 106 62
83 109 65
82 108 64
83 109 65
84 110 65
77 102 60
85 112 67
122 138 125
166 179 185
168 181 185
169 182 186
169 181 185
163 175 177
168 182 186
160 174 173
150 164 162
164 178 177
149 163 160
146 161 157
138 153 146
144 159 152
125 141 129
134 150 142
109 129 107
113 133 112
106 127 98
142 156 151
156 171 173
166 178 179
168 181 186
166 179 184
173 185 190
169 181 184
167 180 181
175 187 193
172 184 189
178 190 197
177 189 193
162 175 179
165 177 180
175 187 194
171 184 189
174 187 194
159 173 173
92 112 86
82 108 64
77 102 60
80 104 61
82 108 64
78 102 60
81 107 64
79 105 62
80 105 61
78 102 60
77 101 60
80 105 62
76 101 58
78 102 59
80 106 62
121 138 123
170 182 184
157 171 172
175 187 192
159 172 172
158 172 169
136 153 147
129 145 136
107 127 104
101 121 95
79 104 61
77 102 60
79 104 62
79 104 62
139 154 147
150 164 165
180 191 198
165 177 181
170 183 187
170 182 186
167 180 185
158 171 175
159 172 173
132 148 140
130 146 137
109 129 110
114 130 120
114 133 117
98 118 96
106 126 100
90 110 84
106 126 102
130 147 135
127 142 134
127 143 134
142 158 151
184 197 204
198 212 222
215 228 243
225 237 254
226 238 255
226 238 255
226 238 255
226 238 255
226 238 255
226 238 255
226 238 255
226 238 255
226 238 255
226 238 255
226 238 255
226 238 255
226 238 255
226 238 255
226 238 255
226 238 255
226 238 255
226 238 255
226 238 255
226 238 255
226 238 255
226 238 255
226 238 255
226 238 255
226 238 255
226 238 255
226 238 255
226 238 255
226 238 255
226 238 255
226 238 255
226 238 255
226 238 255
226 238 255
226 238 255
226 238 255
226 238 255
226 238 255
226 238 255
226 238 255
226 238 255
226 238 255
226 238 255
226 238 255
226 238 255
226 238 255
226 238 255
226 238 255
226 238 255
226 238 255
226 238 255
226 238 255
226 238 255
226 238 255
226 238 255
226 238 255
226 238 255
226 238 255
226 238 255
226 238 255
226 238 255
226 238 255
226 238 255
226 238 255
226 238 255
226 238 255
226 238 255
226 238 255
226 238 255
226 238 255
226 238 255
226 238 255
226 238 255
226 238 255
226 238 255
226 238 255
226 238 255
226 238 255
226 238 255
226 238 255
226 238 255
226 238 255
226 238 255
226 238 255
226 238 255
226 238 255
226 238 255
226 238 255
226 238 255
226 238 255
226 238 255
226 238 255
226 238 255
226 238 255
226 238 255
226 238 255
226 238 255
226 238 255
226 238 255
226 238 255
226 238 255
226 238 255
226 238 255
226 238 255
226 238 255
226 238 255
224 237 254
203 215 228
187 201 209
172 186 189
151 165 166
146 161 159
95 114 93
80 103 67
98 119 92
123 139 128
148 163 161
157 169 171
152 165 166
160 174 177
156 170 171
152 166 167
154 168 170
160 173 175
140 154 148
143 156 153
165 178 181
147 160 160
159 172 174
165 179 184
175 186 192
170 182 187
145 159 154
116 134 115
140 156 149
157 171 171
163 176 180
160 174 175
161 174 177
177 189 195
170 182 187
177 189 196
148 161 161
165 178 182
173 185 192
166 178 181
172 185 188
166 178 181
148 162 159
140 157 152
109 126 111
92 112 87
80 104 61
80 105 62
123 141 126
167 180 184
167 179 186
173 183 187
180 192 196
164 176 179
165 178 183
166 179 184
181 194 201
162 175 178
171 183 188
168 180 185
174 187 192
178 189 193
161 175 178
167 181 186
157 170 171
141 156 154
122 142 123
100 121 93
92 113 84
81 106 62
95 118 83
171 183 187
172 184 186
175 186 193
167 179 183
172 185 190
179 191 197
168 180 184
166 179 184
158 171 171
165 179 180
168 181 183
164 177 179
174 186 191
165 177 182
171 183 188
167 180 186
169 181 185
157 170 171
171 183 185
170 182 188
164 177 180
165 179 185
146 161 158
84 109 65
81 105 64
98 121 89
107 126 105
118 137 120
143 160 154
144 160 156
152 166 166
163 177 179
176 187 193
161 173 176
175 188 194
183 194 200
169 182 188
170 182 188
170 182 188
167 178 182
174 187 192
167 180 182
177 189 195
167 180 184
173 185 190
125 144 131
87 114 68
81 107 63
82 108 64
76 100 59
78 102 61
84 110 65
82 108 65
82 108 64
80 106 63
79 104 62
76 101 59
83 108 64
81 105 62
86 112 66
80 106 62
82 108 64
81 105 62
81 106 64
74 99 57
87 115 69
77 102 60
115 134 113
184 196 203
165 177 181
175 188 194
168 180 183
165 178 181
166 178 180
167 179 183
164 177 180
172 184 190
175 188 192
172 184 190
181 193 198
171 184 190
166 178 179
168 182 187
173 185 191
169 182 186
167 180 185
173 187 191
167 180 183
168 181 186
135 151 143
79 103 61
82 106 65
87 112 73
83 107 66
88 112 74
85 110 71
83 106 73
101 123 96
91 115 78
93 117 83
114 135 111
107 129 100
100 121 97
96 118 87
117 134 116
107 126 105
99 120 93
101 122 93
111 128 111
101 121 97
159 172 170
154 168 164
148 163 157
151 165 161
142 157 150
138 154 148
152 167 163
144 158 155
144 158 153
153 166 164
148 163 158
147 161 159
150 165 160
169 182 184
157 171 171
161 174 174
172 185 187
148 162 159
166 180 184
148 163 161
133 149 136
90 114 77
96 120 84
81 107 63
85 110 68
80 106 62
77 102 60
85 111 66
79 105 61
77 103 60
80 105 61
80 106 62
80 105 62
77 102 60
78 104 61
82 108 64
81 106 62
79 104 62
82 104 69
140 156 150
155 169 169
159 173 175
165 178 182
182 194 200
169 181 184
177 189 196
170 182 187
175 187 195
171 183 186
171 184 190
178 190 194
165 177 179
172 185 190
176 189 197
177 188 193
173 186 190
146 160 155
85 108 72
83 110 66
82 108 64
82 107 63
80 105 62
81 107 63
77 102 60
77 102 60
81 106 62
80 105 62
82 108 64
78 102 61
83 107 66
97 118 89
92 112 84
111 130 113
128 145 135
110 128 110
97 116 92
89 112 77
82 107 63
81 106 63
77 102 60
78 102 60
76 101 59
83 108 64
83 109 66
83 107 69
112 132 114
160 174 174
170 183 189
150 163 164
146 159 159
150 164 164
147 161 160
161 174 179
166 179 183
146 160 158
163 177 181
125 141 131
97 119 92
92 114 85
100 121 93
108 126 110
130 145 138
142 155 154
150 165 167
152 165 165
173 186 191
200 213 224
214 226 241
223 235 252
226 238 255
226 238 255
226 238 255
226 238 255
226 238 255
226 238 255
226 238 255
226 238 255
226 238 255
226 238 255
226 238 255
226 238 255
226 238 255
226 238 255
226 238 255
226 238 255
226 238 255
226 238 255
226 238 255
226 238 255
226 238 255
226 238 255
226 238 255
226 238 255
226 238 255
226 238 255
226 238 255
226 238 255
226 238 255
226 238 255
226 238 255
226 238 255
226 238 255
226 238 255
226 238 255
226 238 255
226 238 255
226 238 255
226 238 255
226 238 255
226 238 255
226 238 255
226 238 255
226 238 255
226 238 255
226 238 255
226 238 255
226 238 255
226 238 255
226 238 255
226 238 255
226 238 255
226 238 255
226 238 255
226 238 255
226 238 255
226 238 255
226 238 255
226 238 255
226 238 255
226 238 255
226 238 255
226 238 255
226 238 255
226 238 255
226 238 255
226 238 255
226 238 255
226 238 255
226 238 255
226 238 255
226 238 255
226 238 255
226 238 255
226 238 255
226 238 255
226 238 255
226 238 255
226 238 255
226 238 255
226 238 255
226 238 255
226 238 255
226 238 255
226 238 255
226 238 255
226 238 255
226 238 255
226 238 255
226 238 255
226 238 255
226 238 255
226 238 255
226 238 255
226 238 255
226 238 255
226 238 255
226 238 255
226 238 255
226 238 255
226 238 255
226 238 255
226 238 255
226 238 255
226 238 255
226 238 255
226 238 255
226 238 255
226 238 255
226 238 255
226 238 255
226 238 255
226 238 255
226 238 255
222 234 251
211 223 238
194 207 216
185 198 205
134 150 143
119 136 124
95 114 91
83 104 72
97 115 94
134 149 140
152 165 165
150 163 164
161 175 177
163 177 178
164 177 181
147 161 160
128 143 135
118 137 120
99 119 96
87 110 77
100 120 100
131 146 137
137 152 146
125 140 131
110 128 109
118 134 120
103 123 100
110 127 110
129 144 137
142 158 152
149 163 163
166 178 180
167 180 184
160 173 174
167 180 183
169 182 185
159 172 174
172 184 188
171 184 190
164 177 181
171 183 189
163 177 179
167 180 182
132 147 138
127 144 129
137 152 145
162 175 177
173 186 190
171 184 188
166 179 182
173 185 192
162 175 177
174 186 189
174 185 191
164 176 179
170 183 187
163 177 182
171 183 186
168 179 184
162 174 176
162 175 176
167 180 183
158 171 173
171 182 187
176 188 195
160 173 174
133 149 139
126 143 133
148 162 161
156 168 168
165 177 178
178 190 196
164 177 183
165 178 182
172 184 190
166 178 181
172 184 188
169 181 186
167 179 185
165 178 182
171 184 188
167 180 184
175 187 191
173 185 188
168 180 184
170 182 187
175 187 195
178 190 195
180 191 197
105 127 100
77 102 60
81 106 62
79 104 61
74 99 58
81 106 63
76 101 59
81 107 64
82 107 63
86 111 67
88 114 73
105 125 100
117 135 116
135 150 142
153 167 165
136 152 145
146 160 159
160 174 175
169 182 184
171 184 190
174 187 193
152 166 167
146 160 156
80 105 62
79 105 61
82 107 64
82 108 65
79 104 61
78 102 60
84 109 66
76 101 60
79 104 61
84 110 66
80 105 62
82 107 64
82 107 63
75 99 58
75 99 57
82 107 64
79 104 62
82 108 64
83 108 64
78 102 59
78 104 61
107 126 105
166 179 182
167 180 183
161 174 178
169 182 185
174 186 191
163 175 177
179 191 200
183 194 200
176 188 194
167 178 179
172 184 189
162 175 179
167 181 187
173 185 194
178 189 194
162 176 178
169 183 186
168 179 184
178 190 195
170 183 186
177 190 197
143 159 151
81 107 63
78 103 60
78 103 60
82 107 64
79 104 61
81 106 62
84 109 65
75 101 59
83 109 64
80 105 62
85 110 65
83 109 64
78 103 60
79 104 61
81 106 62
78 104 61
76 101 60
82 108 64
83 108 64
83 108 64
130 147 135
170 182 185
165 178 184
169 183 188
174 187 190
161 172 173
166 178 180
174 185 192
159 172 176
171 183 187
169 181 185
184 196 206
163 176 180
175 188 192
171 183 187
170 182 188
168 180 184
166 179 183
173 186 192
165 179 181
115 134 116
82 108 64
80 106 63
78 104 61
79 104 62
77 102 60
77 103 60
80 105 63
78 104 61
76 101 59
81 106 62
78 102 60
77 102 60
79 104 61
80 106 62
76 101 58
78 103 60
79 105 61
99 122 90
158 170 173
167 180 183
174 186 191
164 175 178
178 189 195
169 181 187
166 178 184
162 176 178
179 191 197
165 178 180
166 179 181
174 186 193
181 193 199
172 183 188
165 177 180
165 179 184
166 180 184
109 127 111
76 101 59
78 103 60
79 104 61
81 107 63
79 104 61
85 110 68
88 110 76
108 127 105
111 131 112
144 159 153
147 161 157
142 156 151
156 169 169
157 169 173
133 147 141
83 107 69
79 105 62
74 98 58
81 106 63
80 103 64
75 99 58
86 111 71
91 113 83
98 117 93
123 139 126
123 139 128
132 148 139
131 147 137
100 120 94
108 126 110
118 134 124
140 155 149
151 165 165
158 171 174
146 160 160
161 175 178
158 172 175
161 174 177
116 133 120
111 129 111
113 132 115
136 149 146
148 162 163
162 176 179
161 174 179
190 202 213
199 211 223
219 231 247
222 235 251
226 238 255
226 238 255
226 238 255
226 238 255
226 238 255
226 238 255
226 238 255
226 238 255
226 238 255
226 238 255
226 238 255
226 238 255
226 238 255
226 238 255
226 238 255
226 238 255
226 238 255
226 238 255
226 238 255
226 238 255
226 238 255
226 238 255
226 238 255
226 238 255
226 238 255
226 238 255
226 238 255
226 238 255
226 238 255
226 238 255
226 238 255
226 238 255
226 238 255
226 238 255
226 238 255
226 238 255
226 238 255
226 238 255
226 238 255
226 238 255
226 238 255
226 238 255
226 238 255
226 238 255
226 238 255
226 238 255
226 238 255
226 238 255
226 238 255
226 238 255
226 238 255
226 238 255
226 238 255
226 238 255
226 238 255
226 238 255
226 238 255
226 238 255
226 238 255
226 238 255
226 238 255
226 238 255
226 238 255
226 238 255
226 238 255
226 238 255
226 238 255
226 238 255
226 238 255
226 238 255
226 238 255
226 238 255
226 238 255
226 238 255
226 238 255
226 238 255
226 238 255
226 238 255
226 238 255
226 238 255
226 238 255
226 238 255
226 238 255
226 238 255
226 238 255
226 238 255
226 238 255
226 238 255
226 238 255
226 238 255
226 238 255
226 238 255
226 238 255
226 238 255
226 238 255
226 238 255
226 238 255
226 238 255
226 238 255
226 238 255
226 238 255
226 238 255
226 238 255
226 238 255
226 238 255
226 238 255
226 238 255
226 238 255
226 238 255
226 238 255
226 238 255
226 238 255
226 238 255
226 238 255
226 238 255
226 238 255
226 238 255
226 238 255
226 238 255
226 238 255
226 238 255
226 238 255
223 235 252
213 225 240
196 209 220
174 187 193
151 165 162
107 125 106
95 115 88
93 113 85
97 117 95
136 151 145
145 158 156
144 159 160
147 160 163
156 169 172
159 173 175
164 176 181
123 139 130
107 124 111
140 154 152
150 163 164
150 163 164
159 172 176
155 168 171
160 173 176
153 167 167
166 180 185
154 167 168
165 178 181
158 172 174
147 161 156
136 151 146
140 155 148
142 156 151
138 153 147
140 155 152
163 175 177
157 169 171
168 180 184
159 172 174
148 162 159
75 100 59
80 105 62
83 108 64
97 121 85
125 142 130
119 137 123
132 148 142
166 178 181
168 180 186
153 165 166
167 179 182
165 178 181
166 178 182
176 188 194
150 163 165
162 175 177
163 175 179
175 187 194
169 182 187
173 186 191
171 183 187
169 182 186
95 118 87
79 105 62
77 101 59
81 107 63
85 109 70
105 124 102
124 141 128
115 133 116
139 155 148
145 160 156
175 186 191
168 179 183
179 191 197
168 180 184
167 179 181
161 174 176
160 173 175
161 174 179
162 175 180
174 185 191
171 183 187
169 182 188
132 148 140
84 110 66
82 107 64
79 105 62
84 109 65
78 104 62
82 108 64
75 100 59
74 99 57
79 105 62
75 101 59
82 108 64
79 104 61
76 101 58
77 102 60
82 108 64
78 103 60
83 109 64
81 106 62
75 99 56
93 115 84
104 125 102
118 136 120
141 156 152
125 142 129
113 133 116
101 123 98
92 113 85
83 107 66
80 105 62
85 111 67
76 101 59
84 110 66
80 105 62
84 110 66
83 108 65
82 107 64
81 107 62
83 108 64
77 101 59
82 107 64
74 98 57
81 107 63
77 102 60
94 118 81
160 173 173
174 187 194
166 178 183
150 163 164
158 170 171
176 189 193
163 177 179
174 187 193
165 177 180
179 191 196
178 189 196
178 190 197
165 177 180
164 177 179
163 175 176
174 185 190
158 171 174
171 183 187
182 194 199
169 182 186
169 182 186
136 150 148
82 106 66
78 104 61
84 109 65
76 101 60
79 104 62
73 97 57
79 104 61
82 108 64
78 103 60
79 104 61
78 103 60
84 110 66
79 104 62
76 100 58
76 101 58
80 105 62
78 103 60
77 100 59
81 107 63
85 111 69
143 157 153
172 184 190
167 179 181
170 182 188
167 180 183
165 178 181
163 176 179
160 173 178
169 181 186
177 189 195
164 177 179
178 190 198
174 186 192
171 184 190
155 169 171
164 177 181
166 180 187
157 172 172
173 186 192
171 183 187
113 132 114
83 109 66
79 104 61
80 105 62
85 110 66
78 103 60
86 112 66
81 106 63
78 102 60
75 99 58
83 109 65
78 103 61
79 104 62
81 107 63
79 105 62
83 108 64
82 107 63
82 107 63
120 137 124
161 174 176
172 185 190
164 178 180
167 181 186
172 185 192
168 181 186
170 182 186
176 189 196
160 172 175
163 176 180
158 170 174
171 184 188
165 179 181
169 181 186
163 176 179
162 174 176
137 153 145
108 128 106
112 131 113
114 132 114
143 158 155
138 152 149
142 156 155
160 174 176
148 161 160
168 179 184
157 170 171
153 165 165
142 157 155
146 161 159
159 173 173
160 171 175
133 149 142
124 139 131
142 157 154
145 160 155
139 154 150
153 166 166
154 167 168
152 166 168
162 175 179
163 176 179
143 158 155
136 150 144
140 154 147
158 170 173
157 169 174
162 173 175
159 172 176
166 178 182
155 167 169
151 165 166
155 167 169
152 165 167
150 164 165
155 169 171
151 164 166
160 173 176
149 162 164
154 166 167
166 180 184
183 197 205
210 222 237
222 234 250
225 237 254
226 238 255
226 238 255
226 238 255
226 238 255
226 238 255
226 238 255
226 238 255
226 238 255
226 238 255
226 238 255
226 238 255
226 238 255
226 238 255
226 238 255
226 238 255
226 238 255
226 238 255
226 238 255
226 238 255
226 238 255
226 238 255
226 238 255
226 238 255
226 238 255
226 238 255
226 238 255
226 238 255
226 238 255
226 238 255
226 238 255
226 238 255
226 238 255
226 238 255
226 238 255
226 238 255
226 238 255
226 238 255
226 238 255
226 238 255
226 238 255
226 238 255
226 238 255
226 238 255
226 238 255
226 238 255
226 238 255
226 238 255
226 238 255
226 238 255
226 238 255
226 238 255
226 238 255
226 238 255
226 238 255
226 238 255
226 238 255
226 238 255
226 238 255
226 238 255
226 238 255
226 238 255
226 238 255
226 238 255
226 238 255
226 238 255
226 238 255
226 238 255
226 238 255
226 238 255
226 238 255
226 238 255
226 238 255
226 238 255
226 238 255
226 238 255
226 238 255
226 238 255
226 238 255
226 238 255
226 238 255
226 238 255
226 238 255
226 238 255
226 238 255
226 238 255
226 238 255
226 238 255
226 238 255
226 238 255
226 238 255
226 238 255
226 238 255
226 238 255
226 238 255
226 238 255
226 238 255
226 238 255
226 238 255
226 238 255
226 238 255
226 238 255
226 238 255
226 238 255
226 238 255
226 238 255
226 238 255
226 238 255
226 238 255
226 238 255
226 238 255
226 238 255
226 238 255
226 238 255
226 238 255
226 238 255
226 238 255
226 238 255
226 238 255
226 238 255
226 238 255
226 238 255
226 238 255
226 238 255
226 238 255
226 238 255
226 238 255
226 238 255
226 238 255
225 237 254
221 233 249
204 217 231
190 203 214
182 195 204
144 158 158
103 121 102
84 106 74
82 104 75
95 117 87
117 135 119
136 151 147
150 164 164
150 164 165
139 153 149
73 97 56
88 109 78
115 132 115
141 155 152
147 160 158
156 169 171
155 168 172
171 183 189
157 170 172
156 170 171
171 183 189
158 171 175
158 171 175
135 150 146
130 146 137
115 132 118
95 116 88
84 106 73
76 100 62
84 107 71
92 113 84
147 160 159
127 141 131
130 146 137
126 143 132
130 145 137
116 133 118
117 133 122
117 135 121
109 128 108
109 128 109
116 133 119
130 145 137
146 162 159
143 157 155
161 174 178
164 176 179
167 178 181
162 174 179
170 181 187
169 181 189
161 174 178
167 180 185
134 150 141
79 104 62
82 108 64
77 102 61
73 96 56
75 99 58
85 111 66
80 105 62
75 99 58
80 104 62
77 102 59
76 100 59
94 114 87
107 125 106
127 143 132
132 148 140
156 169 170
174 187 192
169 182 187
170 182 187
164 177 180
172 184 191
148 162 162
90 112 76
82 108 65
77 103 60
77 102 60
78 103 60
81 106 63
81 106 62
78 103 61
79 104 62
77 101 60
77 102 60
81 106 63
77 102 60
79 104 62
79 104 62
77 102 60
80 105 61
76 100 59
76 102 59
83 109 66
86 112 67
83 107 69
155 168 167
166 178 181
161 174 177
171 184 189
173 186 191
168 181 187
165 178 182
160 174 179
150 164 163
145 158 156
141 156 150
130 147 135
130 147 135
131 149 136
103 123 100
97 116 92
80 104 67
82 105 68
76 100 58
81 106 63
78 103 60
77 102 63
144 159 154
167 178 183
166 179 183
173 185 191
163 175 180
172 184 190
164 176 178
162 176 179
173 185 191
165 178 182
158 171 172
171 183 190
168 182 188
173 186 192
152 166 168
162 176 179
167 180 181
160 173 177
160 173 175
165 177 179
172 184 188
156 169 168
81 106 65
75 99 58
74 99 57
80 105 62
75 100 58
82 107 63
82 107 64
81 107 63
86 112 67
74 98 57
80 105 63
80 106 63
76 100 58
78 103 61
79 103 60
75 99 58
76 100 58
78 103 60
81 106 63
79 104 61
143 158 152
172 185 190
153 166 165
166 179 184
162 175 178
166 178 182
168 181 186
164 176 181
170 183 189
174 187 191
158 170 170
167 181 188
169 180 184
171 184 189
164 177 179
159 172 174
167 180 183
169 181 186
178 189 197
165 179 181
103 123 98
77 101 60
79 104 61
76 101 60
79 104 61
71 95 54
79 103 61
74 98 57
80 105 62
76 101 59
80 105 62
74 98 58
77 102 60
75 100 58
78 103 60
77 102 61
85 111 66
82 107 71
134 150 139
160 172 172
168 181 185
164 177 181
165 178 181
159 172 175
166 180 184
170 182 186
166 178 181
146 160 158
144 158 156
125 141 133
128 144 135
118 134 123
133 149 141
122 139 126
100 119 96
141 156 151
144 158 155
150 163 162
145 161 155
127 142 132
123 139 128
136 151 143
124 141 128
119 136 121
92 112 86
87 108 79
84 107 74
78 103 61
78 103 61
89 111 82
137 152 146
174 187 193
150 163 160
165 178 181
157 169 173
157 170 171
125 142 135
142 156 152
137 151 146
104 123 101
90 109 83
74 97 60
109 128 113
147 162 159
141 154 152
147 161 161
153 166 169
144 157 157
144 158 157
124 140 133
129 144 138
116 133 123
126 142 134
143 157 153
158 171 171
158 172 171
170 184 188
186 200 208
211 223 237
217 229 244
225 237 254
226 238 255
226 238 255
226 238 255
226 238 255
226 238 255
226 238 255
226 238 255
226 238 255
226 238 255
226 238 255
226 238 255
226 238 255
226 238 255
226 238 255
226 238 255
226 238 255
226 238 255
226 238 255
226 238 255
226 238 255
226 238 255
226 238 255
226 238 255
226 238 255
226 238 255
226 238 255
226 238 255
226 238 255
226 238 255
226 238 255
226 238 255
226 238 255
226 238 255
226 238 255
226 238 255
226 238 255
226 238 255
226 238 255
226 238 255
226 238 255
226 238 255
226 238 255
226 238 255
226 238 255
226 238 255
226 238 255
226 238 255
226 238 255
226 238 255
226 238 255
226 238 255
226 238 255
226 238 255
226 238 255
226 238 255
226 238 255
226 238 255
226 238 255
226 238 255
226 238 255
226 238 255
226 238 255
226 238 255
226 238 255
226 238 255
226 238 255
226 238 255
226 238 255
226 238 255
226 238 255
226 238 255
226 238 255
226 238 255
226 238 255
226 238 255
226 238 255
226 238 255
226 238 255
226 238 255
226 238 255
226 238 255
226 238 255
226 238 255
226 238 255
226 238 255
226 238 255
226 238 255
226 238 255
226 238 255
226 238 255
226 238 255
226 238 255
226 238 255
226 238 255
226 238 255
226 238 255
226 238 255
226 238 255
226 238 255
226 238 255
226 238 255
226 238 255
226 238 255
226 238 255
226 238 255
226 238 255
226 238 255
226 238 255
226 238 255
226 238 255
226 238 255
226 238 255
226 238 255
226 238 255
226 238 255
226 238 255
226 238 255
226 238 255
226 238 255
226 238 255
226 238 255
226 238 255
226 238 255
226 238 255
226 238 255
226 238 255
226 238 255
226 238 255
226 238 255
226 238 255
226 238 255
226 238 255
226 238 255
226 238 255
226 238 255
226 238 255
226 238 255
222 234 250
218 230 246
198 210 222
169 182 188
133 148 143
118 135 123
93 112 91
73 96 59
102 118 101
124 139 131
99 118 100
88 109 79
74 98 57
76 101 59
73 97 57
76 99 64
90 112 84
110 129 113
129 145 136
137 149 148
154 165 169
163 176 180
153 167 168
168 180 186
150 163 162
155 169 171
160 173 175
153 167 170
143 158 154
128 142 136
118 137 120
139 154 148
160 173 176
165 177 183
166 178 180
162 174 176
159 173 177
160 173 176
154 168 169
166 179 185
161 173 177
165 177 180
157 171 173
168 180 186
157 169 171
165 177 182
150 164 166
149 162 162
138 156 149
132 147 141
124 141 132
116 135 120
141 156 151
123 140 127
119 136 125
108 126 110
114 132 116
100 120 97
115 132 117
102 122 97
88 110 80
88 111 77
89 111 79
79 104 61
77 101 59
76 102 59
78 103 61
80 106 62
79 104 62
81 106 63
76 100 58
83 106 68
97 115 91
108 124 110
130 146 136
132 148 139
89 112 81
89 111 83
83 109 65
77 101 59
72 96 55
79 103 61
75 100 59
76 100 59
78 102 60
81 107 63
79 104 62
77 102 60
78 103 60
80 105 62
79 104 61
76 101 59
76 101 58
75 100 58
77 102 60
80 105 62
74 97 57
141 156 150
162 175 179
171 183 187
169 182 187
174 187 194
166 179 184
174 186 192
170 182 185
156 170 171
162 175 178
164 176 181
163 176 178
167 179 185
168 181 187
163 176 178
169 181 186
167 180 184
160 173 176
166 180 185
162 176 179
160 174 173
167 180 185
114 133 113
119 137 123
125 140 130
134 150 139
127 145 132
125 142 128
144 159 157
158 171 173
155 169 168
155 168 168
166 178 181
168 181 184
162 174 176
162 175 180
170 182 186
161 174 176
172 183 187
180 192 201
169 182 188
179 191 198
167 180 185
148 163 163
82 106 65
80 105 62
78 103 60
76 101 59
74 98 57
79 104 62
84 110 66
77 102 59
81 106 63
78 103 60
75 100 58
76 100 58
80 105 63
76 101 59
78 102 61
81 107 64
78 104 61
80 105 62
81 106 63
81 106 65
154 167 164
174 186 192
172 185 189
155 168 172
169 181 183
160 173 175
163 175 180
168 181 185
167 180 183
168 180 182
153 165 168
168 180 183
161 174 177
160 172 177
168 181 185
167 179 183
168 180 187
166 178 182
167 180 185
134 147 143
94 115 83
80 105 63
73 98 57
79 104 62
74 98 58
78 104 61
81 107 63
73 98 57
74 97 57
77 102 60
74 98 57
83 107 67
91 114 81
89 110 82
101 122 96
90 111 81
90 112 83
100 120 98
148 163 162
144 160 158
149 162 161
145 159 159
141 155 151
136 153 148
136 151 146
151 165 161
133 149 141
140 155 152
134 150 143
142 156 152
158 171 173
150 163 162
162 176 179
161 174 177
137 151 146
82 104 70
74 98 58
71 95 55
77 103 61
74 99 58
75 99 59
78 103 60
76 100 59
79 105 62
75 100 58
80 105 61
80 105 62
79 105 63
79 104 68
129 145 135
140 156 153
135 149 143
129 145 134
117 134 119
95 116 93
84 105 73
76 99 61
69 93 55
75 99 58
76 101 60
77 101 65
120 137 124
137 152 148
159 172 175
145 159 156
125 142 134
119 134 124
90 112 87
99 121 94
80 103 67
100 119 100
119 135 126
151 164 165
162 176 179
199 212 223
201 214 225
216 228 243
224 236 253
226 238 255
226 238 255
226 238 255
226 238 255
226 238 255
226 238 255
226 238 255
226 238 255
226 238 255
226 238 255
226 238 255
226 238 255
226 238 255
226 238 255
226 238 255
226 238 255
226 238 255
226 238 255
226 238 255
226 238 255
226 238 255
226 238 255
226 238 255
226 238 255
226 238 255
226 238 255
226 238 255
226 238 255
226 238 255
226 238 255
226 238 255
226 238 255
226 238 255
226 238 255
226 238 255
226 238 255
226 238 255
226 238 255
226 238 255
226 238 255
226 238 255
226 238 255
226 238 255
226 238 255
226 238 255
226 238 255
226 238 255
226 238 255
226 238 255
226 238 255
226 238 255
226 238 255
226 238 255
226 238 255
226 238 255
226 238 255
226 238 255
226 238 255
226 238 255
226 238 255
226 238 255
226 238 255
226 238 255
226 238 255
226 238 255
226 238 255
226 238 255
226 238 255
226 238 255
226 238 255
226 238 255
226 238 255
226 238 255
226 238 255
226 238 255
226 238 255
226 238 255
226 238 255
226 238 255
226 238 255
226 238 255
226 238 255
226 238 255
226 238 255
226 238 255
226 238 255
226 238 255
226 238 255
226 238 255
226 238 255
226 238 255
226 238 255
226 238 255
226 238 255
226 238 255
226 238 255
226 238 255
226 238 255
226 238 255
226 238 255
226 238 255
226 238 255
226 238 255
226 238 255
226 238 255
226 238 255
226 238 255
226 238 255
226 238 255
226 238 255
226 238 255
226 238 255
226 238 255
226 238 255
226 238 255
226 238 255
226 238 255
226 238 255
226 238 255
226 238 255
226 238 255
226 238 255
226 238 255
226 238 255
226 238 255
226 238 255
226 238 255
226 238 255
226 238 255
226 238 255
226 238 255
226 238 255
226 238 255
226 238 255
226 238 255
226 238 255
226 238 255
226 238 255
226 238 255
226 238 255
226 238 255
226 238 255
226 238 255
226 238 255
226 238 255
224 236 253
218 230 245
192 204 215
192 205 215
132 147 141
148 161 158
120 136 129
130 145 140
142 156 152
132 145 142
117 133 121
99 118 97
88 110 79
73 97 57
69 93 53
71 96 55
83 104 74
104 122 104
117 134 120
131 146 142
159 170 173
139 154 150
159 172 177
152 167 170
166 178 183
163 174 179
109 127 110
72 96 55
80 105 62
92 113 84
117 134 121
133 149 139
143 157 157
146 160 160
155 168 168
157 171 172
150 162 164
163 175 179
160 172 171
165 179 182
146 161 159
160 173 174
155 169 172
160 173 177
157 170 172
156 169 172
161 173 176
153 168 168
110 130 111
130 146 138
135 151 142
155 167 170
155 168 169
162 175 180
167 180 183
159 172 175
165 178 181
167 180 186
166 178 182
163 176 180
147 160 161
157 170 173
154 168 169
151 165 164
148 161 160
152 165 166
128 145 135
129 145 134
136 153 148
137 153 145
110 128 108
122 138 125
132 148 138
146 160 156
121 136 126
118 135 119
124 142 127
104 122 101
91 112 86
82 106 65
94 115 85
94 115 91
101 120 98
103 124 96
96 118 91
90 115 79
99 119 95
96 117 87
95 118 87
79 105 62
74 98 57
79 105 62
110 129 112
155 168 170
175 188 195
164 177 181
170 184 191
163 176 177
174 186 193
166 178 182
166 178 181
163 175 177
165 176 181
168 181 186
153 166 168
168 181 186
164 177 181
153 167 169
164 176 183
174 186 192
175 188 196
166 179 183
169 181 184
160 172 177
140 155 149
76 101 59
80 106 63
70 95 55
86 112 67
79 104 61
76 100 58
75 99 57
76 100 58
78 103 61
80 105 62
75 99 58
82 108 64
88 111 76
96 118 88
94 116 86
105 125 100
104 123 99
105 125 99
109 127 109
125 143 130
139 153 149
146 161 155
136 152 144
138 152 144
118 136 120
115 131 118
120 137 125
115 132 116
119 136 120
114 132 120
108 126 107
116 133 119
110 129 110
96 118 90
113 131 114
87 109 80
104 123 103
92 112 85
98 119 93
97 118 94
98 120 90
138 152 148
163 177 180
149 163 163
172 184 190
154 167 169
153 167 169
147 161 162
161 173 176
164 178 184
160 173 177
167 179 183
156 169 171
161 174 178
162 175 178
168 180 186
163 176 181
149 164 164
161 174 175
167 181 186
138 153 147
80 104 65
76 101 60
77 102 61
74 99 58
77 101 62
81 104 70
85 110 69
86 109 73
82 107 67
86 108 75
90 113 77
86 107 79
92 115 82
92 116 82
75 99 58
74 98 58
74 99 57
117 136 121
163 176 179
153 167 170
165 179 184
173 185 191
167 180 186
163 176 179
156 169 171
170 182 187
169 182 187
171 184 191
166 178 183
153 165 165
162 174 175
163 176 180
161 174 179
140 155 152
89 108 84
78 103 61
74 99 58
74 98 57
73 98 57
71 95 55
77 102 60
73 97 57
75 100 59
91 113 83
81 103 72
115 132 114
120 136 125
116 133 119
108 126 109
78 101 65
78 102 65
77 102 60
77 102 60
71 94 55
68 92 53
71 95 55
77 102 60
79 105 62
73 97 56
80 103 66
89 108 84
112 129 113
117 135 118
100 119 100
86 108 77
83 105 73
81 103 70
89 108 86
112 130 113
112 129 116
168 181 184
188 201 210
213 226 240
219 231 248
226 238 255
226 238 255
226 238 255
226 238 255
226 238 255
226 238 255
226 238 255
226 238 255
226 238 255
226 238 255
226 238 255
226 238 255
226 238 255
226 238 255
226 238 255
226 238 255
226 238 255
226 238 255
226 238 255
226 238 255
226 238 255
226 238 255
226 238 255
226 238 255
226 238 255
226 238 255
226 238 255
226 238 255
226 238 255
226 238 255
226 238 255
226 238 255
226 238 255
226 238 255
226 238 255
226 238 255
226 238 255
226 238 255
226 238 255
226 238 255
226 238 255
226 238 255
226 238 255
226 238 255
226 238 255
226 238 255
226 238 255
226 238 255
226 238 255
226 238 255
226 238 255
226 238 255
226 238 255
226 238 255
226 238 255
226 238 255
226 238 255
226 238 255
226 238 255
226 238 255
226 238 255
226 238 255
226 238 255
226 238 255
226 238 255
226 238 255
226 238 255
226 238 255
226 238 255
226 238 255
226 238 255
226 238 255
226 238 255
226 238 255
226 238 255
226 238 255
226 238 255
226 238 255
226 238 255
226 238 255
226 238 255
226 238 255
226 238 255
226 238 255
226 238 255
226 238 255
226 238 255
226 238 255
226 238 255
226 238 255
226 238 255
226 238 255
226 238 255
226 238 255
226 238 255
226 238 255
226 238 255
226 238 255
226 238 255
226 238 255
226 238 255
226 238 255
226 238 255
226 238 255
226 238 255
226 238 255
226 238 255
226 238 255
226 238 255
226 238 255
226 238 255
226 238 255
226 238 255
226 238 255
226 238 255
226 238 255
226 238 255
226 238 255
226 238 255
226 238 255
226 238 255
226 238 255
226 238 255
226 238 255
226 238 255
226 238 255
226 238 255
226 238 255
226 238 255
226 238 255
226 238 255
226 238 255
226 238 255
226 238 255
226 238 255
226 238 255
226 238 255
226 238 255
226 238 255
226 238 255
226 238 255
226 238 255
226 238 255
226 238 255
226 238 255
226 238 255
226 238 255
226 238 255
226 238 255
226 238 255
226 238 255
226 238 255
226 238 255
226 238 255
221 233 249
207 220 233
197 209 220
189 202 211
173 187 193
150 163 163
130 145 141
148 161 162
142 156 156
135 149 146
137 151 146
102 121 101
101 120 99
75 100 59
75 97 60
74 98 57
73 97 59
97 116 95
100 119 101
116 132 121
126 142 135
134 148 143
73 98 57
73 96 56
73 98 57
77 101 59
72 96 56
72 96 55
72 95 55
75 99 58
94 115 90
118 135 123
123 140 128
130 145 140
151 165 164
172 184 190
152 165 167
164 177 180
159 172 173
165 178 181
169 181 185
170 182 188
159 172 176
128 142 139
71 95 55
74 99 58
73 97 56
75 100 58
78 101 66
86 108 76
105 123 105
104 123 105
129 145 138
146 159 158
156 170 173
158 171 174
158 170 173
155 167 169
149 162 164
167 181 187
167 180 182
158 171 173
171 182 188
145 159 157
162 175 179
153 167 164
80 104 65
78 102 60
77 101 60
77 102 60
80 105 62
79 104 62
71 96 55
86 111 67
73 97 56
80 105 62
74 98 57
73 96 55
82 105 71
94 115 90
123 140 126
126 144 129
137 154 147
140 155 151
146 160 158
152 165 167
150 163 164
154 168 169
84 106 73
75 100 58
85 109 73
89 110 80
86 109 75
91 114 83
111 129 108
88 110 78
94 115 89
88 109 82
90 112 84
93 114 85
118 136 119
94 114 89
104 122 101
102 119 100
108 127 105
136 151 142
102 120 100
115 134 116
115 132 112
141 156 151
138 152 148
141 155 152
134 150 141
136 150 143
139 154 151
138 154 146
132 148 139
141 155 152
133 149 142
134 149 137
140 155 149
138 153 151
137 153 144
127 143 135
140 155 149
152 165 163
131 147 140
135 150 141
133 148 144
139 153 150
119 137 123
106 125 105
107 126 106
111 131 111
104 124 100
114 133 113
103 122 105
106 125 105
108 127 107
103 123 100
102 121 103
99 118 95
98 118 93
100 119 97
100 121 93
103 123 96
101 121 95
97 118 91
82 104 73
90 112 82
89 109 84
155 168 170
169 182 187
163 175 175
159 172 173
168 181 185
170 182 188
170 183 186
154 167 169
159 171 173
166 178 183
166 179 186
159 172 173
158 171 174
165 177 180
161 174 176
169 182 186
156 169 169
160 172 174
161 175 177
118 137 119
78 103 61
75 99 58
79 104 61
74 98 57
74 98 57
79 104 61
75 99 59
75 99 58
76 101 59
75 100 58
77 102 60
74 99 57
75 100 58
79 104 61
73 97 56
71 95 55
90 111 82
147 161 159
176 188 193
164 176 178
162 174 179
156 168 170
165 177 183
167 179 184
154 168 171
154 168 169
166 179 183
161 174 178
163 175 180
171 183 190
158 171 173
156 171 174
152 164 165
119 135 122
76 100 62
86 109 73
96 115 92
109 125 109
120 136 123
114 131 117
140 154 151
135 150 144
144 158 160
149 162 162
148 162 161
152 166 167
156 169 169
125 142 132
87 108 82
70 93 54
71 95 55
77 102 60
73 96 60
73 97 57
85 105 78
110 128 111
115 133 119
124 140 129
114 131 119
94 112 94
75 98 61
72 94 59
86 106 79
102 119 101
122 137 127
134 148 146
165 178 183
192 204 215
200 213 224
215 227 243
226 238 255
226 238 255
226 238 255
226 238 255
226 238 255
226 238 255
226 238 255
226 238 255
226 238 255
226 238 255
226 238 255
226 238 255
226 238 255
226 238 255
226 238 255
226 238 255
226 238 255
226 238 255
226 238 255
226 238 255
226 238 255
226 238 255
226 238 255
226 238 255
226 238 255
226 238 255
226 238 255
226 238 255
226 238 255
226 238 255
226 238 255
226 238 255
226 238 255
226 238 255
226 238 255
226 238 255
226 238 255
226 238 255
226 238 255
226 238 255
226 238 255
226 238 255
226 238 255
226 238 255
226 238 255
226 238 255
226 238 255
226 238 255
226 238 255
226 238 255
226 238 255
226 238 255
226 238 255
226 238 255
226 238 255
226 238 255
226 238 255
226 238 255
226 238 255
226 238 255
226 238 255
226 238 255
226 238 255
226 238 255
226 238 255
226 238 255
226 238 255
226 238 255
226 238 255
226 238 255
226 238 255
226 238 255
226 238 255
226 238 255
226 238 255
226 238 255
226 238 255
226 238 255
226 238 255
226 238 255
226 238 255
226 238 255
226 238 255
226 238 255
226 238 255
226 238 255
226 238 255
226 238 255
226 238 255
226 238 255
226 238 255
226 238 255
226 238 255
226 238 255
226 238 255
226 238 255
226 238 255
226 238 255
226 238 255
226 238 255
226 238 255
226 238 255
226 238 255
226 238 255
226 238 255
226 238 255
226 238 255
226 238 255
226 238 255
226 238 255
226 238 255
226 238 255
226 238 255
226 238 255
226 238 255
226 238 255
226 238 255
226 238 255
226 238 255
226 238 255
226 238 255
226 238 255
226 238 255
226 238 255
226 238 255
226 238 255
226 238 255
226 238 255
226 238 255
226 238 255
226 238 255
226 238 255
226 238 255
226 238 255
226 238 255
226 238 255
226 238 255
226 238 255
226 238 255
226 238 255
226 238 255
226 238 255
226 238 255
226 238 255
226 238 255
226 238 255
226 238 255
226 238 255
226 238 255
226 238 255
226 238 255
226 238 255
226 238 255
226 238 255
226 238 255
226 238 255
226 238 255
226 238 255
226 238 255
226 238 255
226 238 255
226 238 255
226 238 255
226 238 255
221 234 250
201 214 226
189 202 211
173 186 192
153 167 167
129 142 138
141 155 156
140 154 150
137 150 148
131 145 143
124 139 130
106 124 106
78 99 69
67 88 54
69 92 52
89 109 82
138 151 150
143 157 155
130 145 140
107 124 110
94 113 91
83 105 75
70 95 55
73 97 55
70 94 54
70 94 55
70 93 54
73 97 55
70 94 54
75 99 59
78 100 65
99 117 97
124 140 129
136 151 148
146 159 157
155 168 172
150 163 164
154 167 167
94 116 84
74 99 59
77 102 59
66 89 51
65 88 50
72 96 56
73 97 57
74 98 58
77 102 61
72 97 56
77 102 60
75 99 58
79 101 69
101 120 98
111 129 110
140 155 153
145 159 158
137 152 147
161 174 176
166 178 184
165 177 183
162 175 176
94 114 87
73 98 57
81 106 63
78 102 60
70 93 54
76 101 59
83 109 65
77 102 59
72 96 55
74 98 57
79 104 61
74 99 58
76 101 60
76 100 58
79 104 62
77 102 59
80 105 62
78 103 60
79 103 62
77 102 61
74 99 58
81 105 67
148 162 159
142 157 153
136 151 146
139 152 147
118 135 123
122 140 122
106 124 105
98 119 92
92 116 82
77 102 60
79 104 61
80 105 62
80 105 62
73 98 57
77 101 60
73 97 56
77 102 60
75 100 58
74 99 57
80 105 63
84 110 66
111 130 108
159 172 173
150 164 163
178 190 198
169 181 187
171 183 185
158 172 175
157 171 172
155 169 172
164 177 180
158 172 176
167 179 181
169 181 184
172 184 192
165 177 181
157 170 173
164 176 182
166 179 184
160 173 176
163 176 181
177 189 194
144 158 155
79 105 65
74 99 58
77 102 59
82 108 64
77 103 60
77 102 59
75 99 57
71 95 56
78 103 60
75 100 58
77 102 60
82 107 64
71 95 55
81 106 64
77 102 60
79 103 61
75 100 58
74 99 58
74 98 57
112 130 115
152 166 167
170 181 186
157 172 176
163 175 178
165 179 183
164 177 180
160 173 176
147 161 160
169 182 188
164 176 180
150 163 162
161 172 174
162 175 177
162 175 179
170 181 185
165 177 181
174 185 191
159 171 176
151 165 162
87 111 74
77 102 60
84 110 65
72 97 56
72 95 55
75 99 58
73 97 58
74 98 57
71 95 54
74 98 58
76 100 59
77 102 59
72 96 55
79 104 62
73 97 57
78 103 61
74 98 57
124 142 130
160 172 175
163 175 179
161 174 179
163 175 178
161 174 177
150 163 165
165 178 181
155 168 170
148 162 165
169 181 185
141 156 154
157 169 172
141 155 154
131 146 140
129 144 139
141 154 151
146 158 158
128 143 136
148 162 161
151 165 166
145 158 160
153 166 167
161 174 177
158 170 173
161 173 174
147 161 160
149 162 164
159 172 174
155 168 169
122 137 126
83 102 74
74 97 62
98 116 95
114 132 114
118 135 119
117 132 123
143 156 156
138 153 152
159 173 176
141 155 151
122 137 130
117 133 122
101 119 103
124 140 131
136 151 145
171 184 190
182 195 204
207 219 233
214 227 241
222 235 251
224 236 253
226 238 255
226 238 255
226 238 255
226 238 255
226 238 255
226 238 255
226 238 255
226 238 255
226 238 255
226 238 255
226 238 255
226 238 255
226 238 255
226 238 255
226 238 255
226 238 255
226 238 255
226 238 255
226 238 255
226 238 255
226 238 255
226 238 255
226 238 255
226 238 255
226 238 255
226 238 255
226 238 255
226 238 255
226 238 255
226 238 255
226 238 255
226 238 255
226 238 255
226 238 255
226 238 255
226 238 255
226 238 255
226 238 255
226 238 255
226 238 255
226 238 255
226 238 255
226 238 255
226 238 255
226 238 255
226 238 255
226 238 255
226 238 255
226 238 255
226 238 255
226 238 255
226 238 255
226 238 255
226 238 255
226 238 255
226 238 255
226 238 255
226 238 255
226 238 255
226 238 255
226 238 255
226 238 255
226 238 255
226 238 255
226 238 255
226 238 255
226 238 255
226 238 255
226 238 255
226 238 255
226 238 255
226 238 255
226 238 255
226 238 255
226 238 255
226 238 255
226 238 255
226 238 255
226 238 255
226 238 255
226 238 255
226 238 255
226 238 255
226 238 255
226 238 255
226 238 255
226 238 255
226 238 255
226 238 255
226 238 255
226 238 255
226 238 255
226 238 255
226 238 255
226 238 255
226 238 255
226 238 255
226 238 255
226 238 255
226 238 255
226 238 255
226 238 255
226 238 255
226 238 255
226 238 255
226 238 255
226 238 255
226 238 255
226 238 255
226 238 255
226 238 255
226 238 255
226 238 255
226 238 255
226 238 255
226 238 255
226 238 255
226 238 255
226 238 255
226 238 255
226 238 255
226 238 255
226 238 255
226 238 255
226 238 255
226 238 255
226 238 255
226 238 255
226 238 255
226 238 255
226 238 255
226 238 255
226 238 255
226 238 255
226 238 255
226 238 255
226 238 255
226 238 255
226 238 255
226 238 255
226 238 255
226 238 255
226 238 255
226 238 255
226 238 255
226 238 255
226 238 255
226 238 255
226 238 255
226 238 255
226 238 255
226 238 255
226 238 255
226 238 255
226 238 255
226 238 255
226 238 255
226 238 255
226 238 255
226 238 255
226 238 255
226 238 255
226 238 255
226 238 255
226 238 255
226 238 255
226 238 255
226 238 255
226 238 255
226 238 255
226 238 255
223 235 252
220 232 248
203 216 228
184 197 206
168 181 185
155 169 173
159 171 173
154 167 170
143 156 155
138 152 150
123 138 131
110 128 114
114 129 119
145 159 157
145 160 160
151 163 165
161 174 179
147 161 161
142 156 156
121 136 127
115 131 121
98 116 97
93 112 88
73 95 62
74 98 57
66 89 51
70 93 54
60 81 45
69 93 54
70 94 53
77 102 61
75 98 61
87 108 79
140 153 150
114 132 121
112 127 116
106 126 108
76 99 64
71 95 55
74 99 57
75 99 58
75 100 59
73 97 57
72 96 57
78 103 61
74 98 58
67 91 53
76 100 59
76 100 58
81 107 64
74 98 57
75 99 58
71 95 55
84 107 71
102 121 101
128 143 135
129 146 134
108 126 109
97 116 98
87 109 78
81 106 63
73 97 57
75 100 58
75 99 58
79 104 62
78 103 60
74 98 58
70 95 54
74 98 57
72 96 56
73 97 56
75 100 59
70 94 55
79 104 62
76 101 59
78 103 61
81 104 69
142 157 154
163 176 179
159 172 174
158 171 175
176 188 196
145 159 158
171 183 188
167 179 185
165 178 181
170 182 188
160 172 174
149 161 164
146 159 155
155 168 170
136 151 146
143 158 154
137 153 149
125 139 127
113 132 112
115 133 120
100 121 97
105 124 104
141 156 157
149 163 163
163 175 180
173 184 189
164 176 178
162 175 180
157 170 172
160 172 175
166 179 181
155 167 169
156 170 171
153 165 166
155 167 171
175 186 192
170 183 190
160 174 178
171 184 191
165 178 181
150 164 162
158 170 173
131 147 142
77 102 60
72 96 56
75 99 58
77 102 60
76 100 58
72 97 56
74 98 57
75 99 58
77 101 59
73 98 57
81 106 63
73 97 57
78 103 61
79 104 61
74 98 57
73 97 57
78 103 61
76 100 58
80 105 63
115 133 118
153 166 166
158 171 173
148 161 161
165 178 184
159 171 174
161 174 174
162 173 178
154 168 171
157 170 174
172 184 191
163 176 178
174 187 192
156 169 171
160 174 180
161 174 177
157 170 172
149 163 163
159 172 176
115 131 117
76 101 59
80 105 62
65 88 49
71 96 56
75 100 59
75 100 59
76 101 60
78 103 61
80 105 63
75 100 58
77 103 61
73 97 57
73 97 57
73 97 57
69 93 53
77 102 60
89 110 83
132 147 141
143 155 155
150 163 163
139 154 151
122 138 128
123 138 129
113 129 116
114 132 118
101 119 98
93 113 85
81 103 69
76 99 64
77 101 60
76 101 59
67 91 52
109 128 109
143 156 156
154 167 168
164 177 186
149 161 163
145 159 158
143 158 158
166 178 183
155 169 171
153 166 167
153 166 170
145 158 160
140 154 151
149 162 164
133 148 146
127 143 136
122 137 129
147 160 159
145 159 158
157 168 173
149 162 162
149 162 163
148 160 162
154 167 170
142 156 157
134 148 146
150 164 166
149 162 161
175 188 195
195 207 219
211 223 237
222 234 251
225 237 254
226 238 255
226 238 255
226 238 255
226 238 255
226 238 255
226 238 255
226 238 255
226 238 255
226 238 255
226 238 255
226 238 255
226 238 255
226 238 255
226 238 255
226 238 255
226 238 255
226 238 255
226 238 255
226 238 255
226 238 255
226 238 255
226 238 255
226 238 255
226 238 255
226 238 255
226 238 255
226 238 255
226 238 255
226 238 255
226 238 255
226 238 255
226 238 255
226 238 255
226 238 255
226 238 255
226 238 255
226 238 255
226 238 255
226 238 255
226 238 255
226 238 255
226 238 255
226 238 255
226 238 255
226 238 255
226 238 255
226 238 255
226 238 255
226 238 255
226 238 255
226 238 255
226 238 255
226 238 255
226 238 255
226 238 255
226 238 255
226 238 255
226 238 255
226 238 255
226 238 255
226 238 255
226 238 255
226 238 255
226 238 255
226 238 255
226 238 255
226 238 255
226 238 255
226 238 255
226 238 255
226 238 255
226 238 255
226 238 255
226 238 255
226 238 255
226 238 255
226 238 255
226 238 255
226 238 255
226 238 255
226 238 255
226 238 255
226 238 255
226 238 255
226 238 255
226 238 255
226 238 255
226 238 255
226 238 255
226 238 255
226 238 255
226 238 255
226 238 255
226 238 255
226 238 255
226 238 255
226 238 255
226 238 255
226 238 255
226 238 255
226 238 255
226 238 255
226 238 255
226 238 255
226 238 255
226 238 255
226 238 255
226 238 255
226 238 255
226 238 255
226 238 255
226 238 255
226 238 255
226 238 255
226 238 255
226 238 255
226 238 255
226 238 255
226 238 255
226 238 255
226 238 255
226 238 255
226 238 255
226 238 255
226 238 255
226 238 255
226 238 255
226 238 255
226 238 255
226 238 255
226 238 255
226 238 255
226 238 255
226 238 255
226 238 255
226 238 255
226 238 255
226 238 255
226 238 255
226 238 255
226 238 255
226 238 255
226 238 255
226 238 255
226 238 255
226 238 255
226 238 255
226 238 255
226 238 255
226 238 255
226 238 255
226 238 255
226 238 255
226 238 255
226 238 255
226 238 255
226 238 255
226 238 255
226 238 255
226 238 255
226 238 255
226 238 255
226 238 255
226 238 255
226 238 255
226 238 255
226 238 255
226 238 255
226 238 255
226 238 255
226 238 255
226 238 255
226 238 255
226 238 255
226 238 255
226 238 255
226 238 255
226 238 255
226 238 255
226 238 255
226 238 255
224 236 252
214 226 240
207 220 232
196 209 220
172 184 191
155 169 172
117 132 122
102 120 105
79 98 73
81 103 72
99 117 97
112 127 119
115 130 120
130 143 139
147 160 160
149 160 164
142 156 156
136 149 149
153 165 166
139 153 149
131 146 139
110 126 113
95 114 95
75 96 67
75 98 61
66 89 51
68 91 53
122 138 128
156 170 174
157 169 173
148 161 163
151 164 163
141 154 154
144 157 157
132 147 141
118 134 122
115 131 118
105 123 106
83 103 75
80 103 67
74 99 58
71 95 55
78 103 60
75 100 58
71 95 55
71 94 55
73 97 56
70 94 55
73 97 56
125 140 132
146 160 161
148 162 165
155 168 170
150 163 164
152 165 164
152 165 166
142 156 156
145 159 157
128 143 134
118 133 124
114 133 118
102 120 100
99 119 92
77 99 64
75 99 58
79 105 62
77 101 60
66 89 50
69 93 54
73 98 58
79 102 65
145 158 156
164 176 182
153 167 171
168 182 187
158 171 172
149 162 162
155 169 175
159 173 176
161 174 179
155 168 170
147 162 165
153 166 165
165 177 184
163 176 180
150 163 162
161 174 179
149 164 164
151 164 166
149 163 163
161 174 179
160 173 177
141 156 154
76 101 60
76 101 59
69 93 54
81 105 65
93 115 83
95 116 88
101 120 101
108 127 107
104 124 100
109 126 110
107 125 108
132 148 141
124 141 128
129 145 137
153 167 166
134 148 144
134 148 144
133 147 144
127 143 136
156 171 172
135 149 144
87 110 76
80 103 69
76 101 60
77 101 60
78 102 60
78 102 60
80 105 62
73 97 57
73 96 56
74 99 58
74 98 58
67 91 52
72 96 56
72 96 56
71 95 55
75 99 58
74 99 58
74 97 57
76 100 61
148 162 161
153 166 169
145 157 157
158 170 172
157 170 174
143 156 157
164 176 182
145 158 157
158 171 174
158 171 175
162 175 176
157 170 172
161 174 179
162 174 177
168 180 184
160 172 177
149 163 163
145 158 157
151 164 165
96 115 94
91 113 81
99 119 96
97 116 92
90 111 83
108 125 110
118 134 123
114 131 117
117 133 122
126 142 133
137 152 149
140 154 148
132 146 140
135 149 147
141 156 153
139 153 152
145 159 159
109 126 109
72 95 58
70 93 53
68 91 52
71 96 56
71 95 55
72 95 56
71 94 55
72 96 56
77 102 61
72 96 56
69 93 54
71 94 55
70 93 54
75 99 59
102 120 104
140 154 152
155 167 171
137 152 151
160 173 176
148 161 164
138 152 150
137 152 149
139 152 151
120 136 134
107 122 111
102 119 103
92 111 88
110 128 111
121 137 130
152 163 166
152 165 169
148 161 162
133 146 143
126 140 136
115 130 123
135 149 146
106 123 107
153 167 167
169 181 186
174 186 194
186 199 207
214 226 241
220 232 248
221 233 249
226 238 255
226 238 255
226 238 255
226 238 255
226 238 255
226 238 255
226 238 255
226 238 255
226 238 255
226 238 255
226 238 255
226 238 255
226 238 255
226 238 255
226 238 255
226 238 255
226 238 255
226 238 255
226 238 255
226 238 255
226 238 255
226 238 255
226 238 255
226 238 255
226 238 255
226 238 255
226 238 255
226 238 255
226 238 255
226 238 255
226 238 255
226 238 255
226 238 255
226 238 255
226 238 255
226 238 255
226 238 255
226 238 255
226 238 255
226 238 255
226 238 255
226 238 255
226 238 255
226 238 255
226 238 255
226 238 255
226 238 255
226 238 255
226 238 255
226 238 255
226 238 255
226 238 255
226 238 255
226 238 255
226 238 255
226 238 255
226 238 255
226 238 255
226 238 255
226 238 255
226 238 255
226 238 255
226 238 255
226 238 255
226 238 255
226 238 255
226 238 255
226 238 255
226 238 255
226 238 255
226 238 255
226 238 255
226 238 255
226 238 255
226 238 255
226 238 255
226 238 255
226 238 255
226 238 255
226 238 255
226 238 255
226 238 255
226 238 255
226 238 255
226 238 255
226 238 255
226 238 255
226 238 255
226 238 255
226 238 255
226 238 255
226 238 255
226 238 255
226 238 255
226 238 255
226 238 255
226 238 255
226 238 255
226 238 255
226 238 255
226 238 255
226 238 255
226 238 255
226 238 255
226 238 255
226 238 255
226 238 255
226 238 255
226 238 255
226 238 255
226 238 255
226 238 255
226 238 255
226 238 255
226 238 255
226 238 255
226 238 255
226 238 255
226 238 255
226 238 255
226 238 255
226 238 255
226 238 255
226 238 255
226 238 255
226 238 255
226 238 255
226 238 255
226 238 255
226 238 255
226 238 255
226 238 255
226 238 255
226 238 255
226 238 255
226 238 255
226 238 255
226 238 255
226 238 255
226 238 255
226 238 255
226 238 255
226 238 255
226 238 255
226 238 255
226 238 255
226 238 255
226 238 255
226 238 255
226 238 255
226 238 255
226 238 255
226 238 255
226 238 255
226 238 255
226 238 255
226 238 255
226 238 255
226 238 255
226 238 255
226 238 255
226 238 255
226 238 255
226 238 255
226 238 255
226 238 255
226 238 255
226 238 255
226 238 255
226 238 255
226 238 255
226 238 255
226 238 255
226 238 255
226 238 255
226 238 255
226 238 255
226 238 255
226 238 255
226 238 255
226 238 255
226 238 255
226 238 255
226 238 255
226 238 255
226 238 255
226 238 255
226 238 255
226 238 255
226 238 255
226 238 255
225 237 254
219 231 247
218 230 246
197 210 222
184 196 204
167 179 185
129 144 140
105 123 109
80 99 73
80 99 73
82 101 80
97 115 98
116 130 125
131 143 142
142 155 155
139 152 152
146 159 162
139 152 152
139 153 152
148 162 164
128 144 138
101 119 100
109 127 115
136 150 147
150 163 166
138 152 150
141 155 157
155 168 171
150 162 164
146 159 161
159 172 176
148 161 162
145 158 159
164 176 179
136 150 148
144 158 157
139 152 150
110 127 112
110 126 114
103 122 102
79 100 67
76 100 62
76 101 60
127 143 133
154 166 169
148 162 163
158 170 174
145 159 158
144 158 158
161 173 176
148 161 162
155 168 171
151 166 171
163 174 180
154 168 171
153 165 168
159 171 173
141 155 157
153 167 169
158 170 175
134 149 143
140 155 152
119 136 125
126 143 133
111 129 112
130 145 135
166 178 181
148 162 161
161 174 176
144 157 157
166 179 183
163 176 181
148 161 161
159 171 177
154 166 167
150 163 165
155 169 171
157 170 174
150 164 167
155 168 170
150 164 163
158 172 174
155 169 171
146 158 159
157 169 173
161 173 179
138 153 149
73 97 57
71 95 55
74 98 57
66 88 51
78 103 61
73 98 56
80 106 63
75 99 58
78 103 61
77 102 59
73 97 56
76 101 59
70 94 54
73 97 57
70 94 54
74 98 57
73 97 56
77 102 60
70 94 55
80 104 67
129 143 138
162 175 179
167 180 188
156 169 171
157 169 172
147 160 163
153 166 169
158 170 172
156 169 168
147 161 163
134 148 145
149 162 161
142 155 152
146 160 160
143 157 153
150 163 162
154 168 168
137 151 147
139 153 153
128 143 134
101 121 95
92 113 89
97 116 91
105 123 105
95 114 92
104 123 105
108 125 108
91 113 82
94 114 89
97 114 97
92 112 86
92 110 87
95 114 90
89 111 79
77 101 63
82 105 68
84 105 73
71 93 60
124 139 131
160 173 175
144 158 161
153 166 171
157 169 172
162 175 178
157 169 172
160 173 178
165 178 183
152 164 168
137 152 149
150 163 164
138 151 150
150 162 163
154 166 170
147 161 162
139 151 153
119 134 124
74 96 63
72 96 56
70 94 54
72 96 55
70 93 54
73 97 56
70 94 54
69 93 54
73 97 57
74 97 57
70 93 55
74 98 58
71 91 62
69 92 53
93 112 87
121 137 128
122 138 130
108 126 110
109 127 115
104 121 106
81 101 74
78 98 70
74 97 62
68 91 53
71 94 55
68 91 53
88 108 80
105 123 107
121 135 131
120 135 130
121 135 132
103 119 106
94 112 94
106 122 111
117 132 124
145 160 157
167 181 183
191 203 214
209 222 236
221 233 249
226 238 255
226 238 255
226 238 255
226 238 255
226 238 255
226 238 255
226 238 255
226 238 255
226 238 255
226 238 255
226 238 255
226 238 255
226 238 255
226 238 255
226 238 255
226 238 255
226 238 255
226 238 255
226 238 255
226 238 255
226 238 255
226 238 255
226 238 255
226 238 255
226 238 255
226 238 255
226 238 255
226 238 255
226 238 255
226 238 255
226 238 255
226 238 255
226 238 255
226 238 255
226 238 255
226 238 255
226 238 255
226 238 255
226 238 255
226 238 255
226 238 255
226 238 255
226 238 255
226 238 255
226 238 255
226 238 255
226 238 255
226 238 255
226 238 255
226 238 255
226 238 255
226 238 255
226 238 255
226 238 255
226 238 255
226 238 255
226 238 255
226 238 255
226 238 255
226 238 255
226 238 255
226 238 255
226 238 255
226 238 255
226 238 255
226 238 255
226 238 255
226 238 255
226 238 255
226 238 255
226 238 255
226 238 255
226 238 255
226 238 255
226 238 255
226 238 255
226 238 255
226 238 255
226 238 255
226 238 255
226 238 255
226 238 255
226 238 255
226 238 255
226 238 255
226 238 255
226 238 255
226 238 255
226 238 255
226 238 255
226 238 255
226 238 255
226 238 255
226 238 255
226 238 255
226 238 255
226 238 255
226 238 255
226 238 255
226 238 255
226 238 255
226 238 255
226 238 255
226 238 255
226 238 255
226 238 255
226 238 255
226 238 255
226 238 255
226 238 255
226 238 255
226 238 255
226 238 255
226 238 255
226 238 255
226 238 255
226 238 255
226 238 255
226 238 255
226 238 255
226 238 255
226 238 255
226 238 255
226 238 255
226 238 255
226 238 255
226 238 255
226 238 255
226 238 255
226 238 255
226 238 255
226 238 255
226 238 255
226 238 255
226 238 255
226 238 255
226 238 255
226 238 255
226 238 255
226 238 255
226 238 255
226 238 255
226 238 255
226 238 255
226 238 255
226 238 255
226 238 255
226 238 255
226 238 255
226 238 255
226 238 255
226 238 255
226 238 255
226 238 255
226 238 255
226 238 255
226 238 255
226 238 255
226 238 255
226 238 255
226 238 255
226 238 255
226 238 255
226 238 255
226 238 255
226 238 255
226 238 255
226 238 255
226 238 255
226 238 255
226 238 255
226 238 255
226 238 255
226 238 255
226 238 255
226 238 255
226 238 255
226 238 255
226 238 255
226 238 255
226 238 255
226 238 255
226 238 255
226 238 255
226 238 255
226 238 255
226 238 255
226 238 255
226 238 255
226 238 255
226 238 255
226 238 255
226 238 255
226 238 255
226 238 255
226 238 255
226 238 255
226 238 255
226 238 255
226 238 255
226 238 255
226 238 255
225 237 254
222 234 250
219 231 247
205 216 230
189 201 212
182 195 202
155 168 171
115 131 119
99 115 101
88 108 85
81 101 74
89 108 85
84 101 83
114 130 119
133 146 144
106 122 109
73 95 62
66 89 51
68 91 53
73 97 57
77 97 69
91 111 89
109 127 110
113 128 115
123 137 133
140 153 151
151 164 166
152 166 170
154 167 170
159 171 176
156 169 173
153 165 168
152 166 171
137 149 148
147 162 161
141 154 155
142 156 156
102 120 105
85 106 78
105 122 109
120 136 125
129 143 139
140 153 154
136 149 146
156 169 173
145 158 157
140 153 153
155 168 169
151 165 167
159 172 176
143 157 157
156 168 170
149 162 163
155 167 169
152 165 166
156 169 171
154 167 168
149 162 166
156 169 172
95 115 92
74 98 58
68 91 53
71 94 55
83 104 75
91 110 87
93 110 95
92 110 89
110 127 116
132 148 141
119 136 123
126 141 133
137 151 146
150 163 163
125 140 137
145 158 158
149 162 163
158 170 173
156 169 172
160 172 176
166 179 183
117 135 123
73 98 58
74 98 58
65 88 51
73 96 56
63 85 49
74 98 58
65 87 49
77 101 60
73 97 57
75 99 58
71 95 55
68 92 53
77 101 60
74 98 57
73 97 57
65 88 51
71 94 55
69 93 54
73 98 57
99 119 96
132 146 143
155 167 170
171 184 191
167 179 184
148 162 162
164 177 180
158 169 173
160 171 174
153 166 167
165 178 183
142 156 157
158 170 174
166 179 183
148 160 162
148 161 162
163 174 178
147 160 161
151 165 169
156 168 173
128 142 135
74 97 59
77 102 60
69 92 53
70 94 54
74 98 58
70 94 55
78 102 61
76 100 59
74 98 57
68 92 53
67 90 51
69 92 54
75 99 59
68 90 52
68 90 52
72 95 55
70 93 54
90 109 87
132 146 138
156 169 171
144 158 155
146 160 160
148 161 165
150 162 166
149 162 163
148 162 162
148 161 163
147 159 160
162 175 180
162 175 179
145 159 159
145 158 159
147 160 162
142 156 155
126 142 134
83 103 77
73 95 59
74 96 59
74 97 60
89 108 84
82 103 77
101 118 102
113 130 115
116 132 122
112 129 116
115 130 119
128 144 137
120 136 125
125 139 136
118 132 127
85 107 74
73 96 56
68 92 54
71 94 55
68 91 53
71 93 58
73 96 59
82 103 72
92 110 91
91 109 89
108 127 109
66 88 54
69 91 57
83 101 81
94 112 94
110 125 114
136 150 146
170 183 189
176 188 196
201 213 225
209 221 235
221 233 249
225 237 254
226 238 255
226 238 255
226 238 255
226 238 255
226 238 255
226 238 255
226 238 255
226 238 255
226 238 255
226 238 255
226 238 255
226 238 255
226 238 255
226 238 255
226 238 255
226 238 255
226 238 255
226 238 255
226 238 255
226 238 255
226 238 255
226 238 255
226 238 255
226 238 255
226 238 255
226 238 255
226 238 255
226 238 255
226 238 255
226 238 255
226 238 255
226 238 255
226 238 255
226 238 255
226 238 255
226 238 255
226 238 255
226 238 255
226 238 255
226 238 255
226 238 255
226 238 255
226 238 255
226 238 255
226 238 255
226 238 255
226 238 255
226 238 255
226 238 255
226 238 255
226 238 255
226 238 255
226 238 255
226 238 255
226 238 255
226 238 255
226 238 255
226 238 255
226 238 255
226 238 255
226 238 255
226 238 255
226 238 255
226 238 255
226 238 255
226 238 255
226 238 255
226 238 255
226 238 255
226 238 255
226 238 255
226 238 255
226 238 255
226 238 255
226 238 255
226 238 255
226 238 255
226 238 255
226 238 255
226 238 255
226 238 255
226 238 255
226 238 255
226 238 255
226 238 255
226 238 255
226 238 255
226 238 255
226 238 255
226 238 255
226 238 255
226 238 255
226 238 255
226 238 255
226 238 255
226 238 255
226 238 255
226 238 255
226 238 255
226 238 255
226 238 255
226 238 255
226 238 255
226 238 255
226 238 255
226 238 255
226 238 255
226 238 255
226 238 255
226 238 255
226 238 255
226 238 255
226 238 255
226 238 255
226 238 255
226 238 255
226 238 255
226 238 255
226 238 255
226 238 255
226 238 255
226 238 255
226 238 255
226 238 255
226 238 255
226 238 255
226 238 255
226 238 255
226 238 255
226 238 255
226 238 255
226 238 255
226 238 255
226 238 255
226 238 255
226 238 255
226 238 255
226 238 255
226 238 255
226 238 255
226 238 255
226 238 255
226 238 255
226 238 255
226 238 255
226 238 255
226 238 255
226 238 255
226 238 255
226 238 255
226 238 255
226 238 255
226 238 255
226 238 255
226 238 255
226 238 255
226 238 255
226 238 255
226 238 255
226 238 255
226 238 255
226 238 255
226 238 255
226 238 255
226 238 255
226 238 255
226 238 255
226 238 255
226 238 255
226 238 255
226 238 255
226 239 255
226 238 255
226 238 255
226 239 255
226 239 255
226 239 255
226 238 255
226 238 255
226 238 255
226 238 255
226 239 255
226 239 255
226 238 255
226 239 255
226 239 255
226 239 255
226 239 255
226 239 255
226 239 255
226 239 255
226 239 255
226 239 255
226 239 255
226 239 255
226 239 255
226 239 255
226 239 255
226 239 255
227 239 255
226 239 255
226 239 255
227 239 255
226 239 255
226 239 255
226 239 255
226 239 255
227 239 255
227 239 255
227 239 255
227 239 255
227 239 255
226 238 255
226 238 255
217 229 244
201 213 225
175 188 194
167 180 184
139 152 152
127 140 136
151 164 168
141 154 155
122 136 131
121 136 132
116 131 120
112 128 114
85 104 83
80 101 70
78 99 68
77 100 66
64 86 49
70 93 54
72 92 63
82 100 79
96 114 97
100 117 104
113 130 118
127 141 139
136 148 147
146 158 158
140 153 151
138 152 152
94 111 92
63 86 50
71 95 56
69 92 53
73 97 56
71 94 55
75 99 58
76 97 65
73 95 62
86 105 87
103 120 104
104 120 106
118 134 125
121 136 129
142 156 153
154 167 169
145 158 157
156 169 172
156 169 173
151 164 165
149 163 163
143 157 157
90 111 83
71 94 56
74 98 57
73 97 56
69 92 53
68 92 53
72 96 56
77 101 60
75 100 58
68 91 52
66 89 51
70 93 55
66 89 51
69 92 53
76 100 59
69 92 53
74 97 60
76 101 63
84 105 76
96 115 94
106 123 106
139 155 150
125 141 133
116 132 121
112 128 114
117 134 122
110 127 111
112 129 115
95 113 93
78 100 68
82 102 75
80 103 67
63 85 48
70 93 58
73 96 57
70 94 55
66 89 51
71 94 55
71 94 54
71 94 55
74 97 60
98 117 98
152 165 169
148 160 161
146 159 161
153 165 168
163 176 179
150 163 167
141 155 156
150 164 166
143 157 156
153 166 168
156 169 172
154 168 168
145 159 159
151 163 165
134 148 146
138 152 150
149 163 164
149 162 163
140 154 152
90 110 83
67 90 52
73 97 56
71 94 55
74 98 58
70 93 54
68 92 53
68 90 52
67 91 52
71 96 55
70 94 55
68 91 53
71 95 55
67 90 52
66 89 51
70 94 55
74 99 58
70 93 58
120 136 126
163 175 180
165 176 184
144 157 161
148 161 163
152 164 168
145 158 161
148 162 164
134 149 146
136 149 148
141 155 155
123 137 131
128 142 137
116 132 123
126 141 136
119 134 125
135 149 147
129 143 142
133 148 141
114 130 119
137 151 147
147 159 159
145 159 160
153 167 169
149 162 162
139 152 153
139 152 152
136 149 147
143 156 155
143 157 159
123 136 132
123 136 131
90 109 85
88 107 85
88 107 85
112 128 118
89 106 92
117 132 127
132 145 143
113 128 120
133 146 146
127 141 138
141 153 154
129 143 138
136 150 149
161 174 179
190 203 212
200 212 224
216 228 243
221 233 249
226 238 254
226 239 255
226 239 255
227 239 255
227 239 255
226 239 255
226 239 255
227 239 255
227 239 255
226 239 255
227 239 255
227 239 255
226 239 255
226 239 255
226 239 255
226 239 255
226 239 255
226 239 255
226 239 255
226 239 255
226 239 255
226 239 255
226 238 255
226 239 255
226 239 255
226 239 255
226 239 255
226 238 255
226 239 255
226 238 255
226 238 255
226 239 255
226 239 255
226 238 255
226 239 255
226 238 255
226 239 255
226 238 255
226 239 255
226 239 255
226 238 255
226 238 255
226 239 255
226 238 255
226 238 255
226 238 255
226 238 255
226 238 255
226 238 255
226 238 255
226 238 255
226 238 255
226 238 255
226 238 255
226 238 255
226 238 255
226 238 255
226 238 255
226 238 255
226 238 255
226 238 255
226 238 255
226 238 255
226 238 255
226 238 255
226 238 255
226 238 255
226 238 255
226 238 255
226 238 255
226 238 255
226 238 255
226 238 255
226 238 255
226 238 255
226 238 255
226 238 255
226 238 255
226 238 255
226 238 255
226 238 255
226 238 255
226 238 255
226 238 255
226 238 255
226 238 255
226 238 255
226 238 255
226 238 255
226 238 255
226 238 255
226 238 255
226 238 255
226 238 255
226 238 255
226 238 255
226 238 255
226 238 255
226 238 255
226 238 255
226 238 255
226 238 255
226 238 255
226 238 255
226 238 255
226 238 255
226 238 255
226 238 255
226 238 255
226 238 255
226 238 255
226 238 255
226 238 255
226 238 255
226 238 255
226 238 255
226 238 255
226 238 255
226 238 255
226 238 255
226 238 255
226 238 255
226 238 255
226 238 255
226 238 255
226 238 255
226 238 255
226 238 255
226 238 255
226 238 255
226 238 255
226 238 255
226 238 255
226 238 255
226 238 255
226 238 255
226 238 255
226 238 255
226 238 255
226 238 255
226 238 255
226 238 255
226 238 255
226 238 255
226 238 255
226 238 255
226 238 255
226 238 255
226 238 255
226 238 255
226 238 255
226 238 255
226 239 255
226 238 255
226 239 255
226 239 255
226 239 255
226 239 255
226 239 255
226 239 255
226 239 255
226 239 255
226 238 255
226 239 255
226 239 255
226 239 255
226 239 255
226 239 255
226 239 255
226 239 255
226 239 255
226 239 255
226 239 255
227 239 255
227 239 255
227 239 255
227 239 255
227 239 255
227 239 255
227 239 255
227 239 255
227 239 255
227 239 255
227 239 255
227 239 255
226 239 255
227 239 255
227 239 255
227 239 255
227 239 255
227 239 255
227 239 255
227 239 255
227 239 255
227 239 255
227 239 255
227 239 255
227 239 255
227 239 255
227 239 255
227 239 255
227 239 255
227 239 255
227 239 255
227 239 255
227 239 255
227 239 255
227 239 255
227 239 255
227 239 255
227 239 255
227 239 255
227 239 255
227 239 255
227 239 255
227 239 255
227 239 255
227 239 255
227 239 255
227 239 255
227 239 255
227 239 255
227 239 255
227 239 255
227 239 255
227 239 255
222 234 250
223 235 251
213 225 240
199 211 224
179 191 200
170 182 189
150 163 166
137 150 149
138 152 150
108 123 113
108 125 112
91 107 96
100 116 102
90 110 87
79 98 75
70 92 57
68 89 57
67 88 54
60 81 46
67 89 51
76 98 66
104 121 106
130 144 139
121 135 130
97 113 100
102 118 106
106 123 110
83 104 75
75 94 67
58 79 44
73 96 60
67 90 52
70 94 54
66 88 51
73 96 57
64 87 50
67 90 52
68 91 53
64 86 49
71 95 56
81 102 72
85 104 83
108 124 109
125 141 137
127 142 135
104 123 109
85 103 80
73 93 67
78 99 69
67 90 52
67 89 51
72 95 55
70 95 55
65 87 49
70 92 54
70 93 54
73 97 58
67 90 51
71 94 55
69 93 53
69 92 54
70 94 54
66 88 51
70 93 54
97 115 96
141 155 154
152 164 168
150 162 164
144 157 159
140 154 153
151 162 164
146 158 160
144 158 158
142 155 154
165 178 183
145 159 158
144 157 159
148 162 163
146 159 160
136 150 149
134 148 147
121 136 130
131 147 142
143 157 155
116 133 121
84 105 73
96 113 96
109 126 114
110 128 114
117 134 121
114 130 121
110 127 113
121 137 129
110 126 114
113 128 119
113 128 118
123 139 133
123 138 133
131 147 142
133 147 147
123 139 129
127 141 136
132 146 144
123 138 131
132 145 142
95 113 94
108 125 111
100 117 100
99 118 98
108 126 109
97 116 95
109 125 112
100 117 101
103 121 104
116 132 121
111 128 117
116 135 122
118 135 123
110 127 115
120 134 131
120 136 127
122 136 129
88 107 84
99 117 99
107 125 108
98 117 98
99 117 99
85 105 76
67 88 54
64 84 54
80 101 71
77 101 62
69 92 57
66 88 51
58 79 44
68 91 53
71 94 55
76 96 71
107 123 112
127 140 140
153 164 167
146 158 159
144 156 158
139 152 153
143 156 158
145 160 161
150 162 166
150 163 167
123 136 132
127 142 136
111 126 119
106 123 110
132 146 146
118 133 126
117 132 125
123 136 132
117 132 124
118 135 127
122 135 132
142 153 155
133 146 144
140 154 153
160 173 178
166 179 183
192 204 215
206 218 231
212 224 238
216 228 243
225 237 254
227 239 255
227 239 255
227 239 255
227 239 255
227 239 255
227 239 255
227 239 255
227 239 255
227 239 255
227 239 255
227 239 255
227 239 255
227 239 255
227 239 255
227 239 255
227 239 255
227 239 255
227 239 255
227 239 255
227 239 255
227 239 255
227 239 255
227 239 255
227 239 255
227 239 255
227 239 255
227 239 255
227 239 255
227 239 255
227 239 255
227 239 255
227 239 255
227 239 255
227 239 255
227 239 255
227 239 255
227 239 255
227 239 255
227 239 255
227 239 255
227 239 255
227 239 255
227 239 255
227 239 255
227 239 255
227 239 255
226 239 255
226 239 255
226 239 255
226 239 255
226 239 255
226 239 255
226 239 255
226 239 255
227 239 255
226 239 255
226 239 255
226 239 255
226 239 255
226 239 255
226 239 255
226 239 255
226 239 255
227 239 255
226 239 255
226 238 255
226 239 255
226 239 255
226 239 255
226 238 255
226 238 255
226 238 255
226 239 255
226 238 255
226 238 255
226 239 255
226 239 255
226 238 255
226 238 255
226 238 255
226 238 255
226 238 255
226 238 255
226 238 255
226 238 255
226 238 255
226 238 255
226 238 255
226 238 255
226 238 255
226 238 255
226 238 255
226 238 255
226 238 255
226 238 255
226 238 255
226 238 255
226 238 255
226 238 255
226 238 255
226 238 255
226 238 255
226 238 255
226 238 255
226 238 255
226 238 255
226 238 255
226 238 255
226 238 255
226 238 255
226 238 255
226 238 255
226 238 255
226 238 255
226 238 255
226 238 255
226 238 255
226 238 255
226 238 255
226 238 255
226 238 255
226 238 255
226 238 255
226 238 255
226 238 255
226 238 255
226 238 255
226 238 255
226 238 255
226 238 255
226 238 255
226 238 255
226 239 255
226 238 255
226 238 255
226 239 255
226 239 255
226 239 255
226 239 255
226 239 255
226 239 255
226 239 255
226 239 255
226 239 255
226 239 255
226 239 255
226 239 255
226 239 255
227 239 255
226 239 255
227 239 255
226 239 255
226 239 255
226 239 255
227 239 255
227 239 255
227 239 255
227 239 255
227 239 255
227 239 255
227 239 255
227 239 255
227 239 255
227 239 255
227 239 255
227 239 255
227 239 255
227 239 255
227 239 255
227 239 255
227 239 255
227 239 255
227 239 255
227 239 255
227 239 255
227 239 255
227 239 255
227 239 255
227 239 255
227 239 255
227 239 255
227 239 255
227 239 255
227 239 255
227 239 255
227 239 255
227 239 255
227 239 255
227 239 255
227 239 255
227 239 255
227 239 255
227 239 255
227 239 255
227 239 255
227 239 255
227 239 255
227 239 255
227 239 255
227 239 255
227 239 255
227 239 255
227 239 255
227 239 255
227 239 255
227 239 255
227 239 255
227 239 255
227 239 255
227 239 255
227 239 255
227 239 255
227 239 255
227 239 255
227 239 255
227 239 255
227 239 255
227 239 255
227 239 255
227 239 255
227 239 255
227 239 255
227 239 255
227 239 255
227 239 255
227 239 255
227 239 255
227 239 255
227 239 255
227 239 255
227 239 255
227 239 255
227 239 255
227 239 255
227 239 255
227 239 255
227 239 255
223 235 251
214 226 241
212 224 238
196 208 219
175 187 196
137 151 149
117 131 127
90 104 94
99 115 102
90 105 91
68 88 61
70 89 61
79 97 74
84 104 81
118 133 126
125 139 135
134 149 147
121 136 132
126 140 136
132 145 144
137 150 149
145 159 158
128 140 139
130 143 140
126 141 137
116 131 122
113 129 120
97 114 102
93 110 92
93 111 90
69 89 58
70 91 62
74 95 62
70 93 55
63 85 49
82 101 76
109 126 116
139 152 152
136 149 149
136 149 146
134 148 145
142 156 156
145 159 161
142 155 156
139 152 151
120 134 132
136 149 147
114 129 124
122 138 132
113 128 115
110 127 116
93 110 91
96 114 94
85 105 81
85 105 79
85 104 81
74 95 65
107 123 109
154 167 171
154 165 169
146 159 161
144 157 157
137 150 150
145 159 161
139 153 151
155 168 172
145 158 157
142 155 156
149 162 162
144 157 158
140 153 154
153 166 170
143 155 159
145 158 158
150 163 168
142 155 157
150 162 166
114 131 122
74 95 65
68 90 54
70 94 54
69 92 54
70 94 55
69 92 53
63 86 49
71 94 54
61 83 47
63 85 49
69 93 54
73 96 57
67 90 53
67 90 52
63 85 48
68 91 53
70 94 55
70 94 54
99 115 102
126 140 136
147 161 161
146 159 161
156 169 172
139 153 153
142 155 157
133 146 144
137 151 149
147 159 162
133 147 146
143 156 156
127 141 138
149 163 165
141 153 153
132 145 145
145 158 160
126 139 138
118 134 124
89 108 85
68 90 52
68 90 52
70 92 54
75 99 59
70 94 56
65 87 50
67 90 52
65 87 50
63 86 49
69 92 54
65 86 50
62 83 51
77 96 71
80 100 76
90 108 88
127 142 137
127 141 135
122 136 130
104 119 110
107 122 112
116 131 124
104 118 111
102 118 107
103 119 105
103 119 106
101 117 105
110 126 116
91 109 90
73 91 71
73 91 69
99 113 102
91 107 98
107 121 116
124 135 133
150 162 166
165 177 183
201 213 226
210 222 237
216 228 243
221 233 249
225 237 253
227 239 255
227 239 255
227 239 255
227 239 255
227 239 255
227 239 255
227 239 255
227 239 255
227 239 255
227 239 255
227 239 255
227 239 255
227 239 255
227 239 255
227 239 255
227 239 255
227 239 255
227 239 255
227 239 255
227 239 255
227 239 255
227 239 255
227 239 255
227 239 255
227 239 255
227 239 255
227 239 255
227 239 255
227 239 255
227 239 255
227 239 255
227 239 255
227 239 255
227 239 255
227 239 255
227 239 255
227 239 255
227 239 255
227 239 255
227 239 255
227 239 255
227 239 255
227 239 255
227 239 255
227 239 255
227 239 255
227 239 255
227 239 255
227 239 255
227 239 255
227 239 255
227 239 255
227 239 255
227 239 255
227 239 255
227 239 255
227 239 255
227 239 255
227 239 255
227 239 255
227 239 255
227 239 255
227 239 255
227 239 255
227 239 255
227 239 255
227 239 255
227 239 255
227 239 255
227 239 255
227 239 255
227 239 255
227 239 255
227 239 255
227 239 255
227 239 255
227 239 255
227 239 255
227 239 255
227 239 255
227 239 255
227 239 255
227 239 255
227 239 255
227 239 255
227 239 255
227 239 255
227 239 255
226 239 255
226 239 255
226 239 255
227 239 255
226 239 255
227 239 255
226 239 255
226 239 255
226 239 255
226 239 255
226 239 255
226 239 255
226 239 255
226 239 255
226 238 255
226 239 255
226 239 255
226 238 255
226 238 255
226 239 255
226 239 255
226 238 255
226 238 255
226 238 255
226 238 255
226 238 255
226 238 255
226 238 255
226 238 255
226 238 255
226 238 255
226 238 255
226 238 255
226 239 255
226 239 255
226 239 255
226 239 255
226 239 255
226 239 255
227 239 255
226 239 255
226 239 255
226 239 255
227 239 255
227 239 255
226 239 255
226 239 255
227 239 255
227 239 255
227 239 255
227 239 255
227 239 255
227 239 255
227 239 255
227 239 255
227 239 255
227 239 255
227 239 255
227 239 255
227 239 255
227 239 255
227 239 255
227 239 255
227 239 255
227 239 255
227 239 255
227 239 255
227 239 255
227 239 255
227 239 255
227 239 255
227 239 255
227 239 255
227 239 255
227 239 255
227 239 255
227 239 255
227 239 255
227 239 255
227 239 255
227 239 255
227 239 255
227 239 255
227 239 255
227 239 255
227 239 255
227 239 255
227 239 255
227 239 255
227 239 255
227 239 255
227 239 255
227 239 255
227 239 255
227 239 255
227 239 255
227 239 255
227 239 255
227 239 255
227 239 255
227 239 255
227 239 255
227 239 255
227 239 255
227 239 255
227 239 255
227 239 255
227 239 255
227 239 255
227 239 255
227 239 255
227 239 255
227 239 255
227 239 255
227 239 255
227 239 255
227 239 255
227 239 255
227 239 255
227 239 255
227 239 255
227 239 255
227 239 255
227 239 255
227 239 255
227 239 255
227 239 255
227 239 255
227 239 255
227 239 255
227 239 255
227 239 255
227 239 255
227 239 255
227 239 255
227 239 255
227 239 255
227 239 255
227 239 255
227 239 255
227 239 255
227 239 255
227 239 255
227 239 255
227 239 255
227 239 255
227 239 255
227 239 255
227 239 255
226 238 254
223 235 252
222 234 251
218 231 246
210 222 236
194 207 218
197 209 221
176 187 196
166 177 185
154 166 171
137 149 152
134 146 148
113 126 126
84 97 89
82 97 86
78 90 83
57 74 51
61 76 59
61 78 55
76 91 78
97 110 102
96 108 102
95 109 104
115 128 123
106 120 112
120 133 130
110 124 119
99 114 104
100 115 106
113 125 120
91 106 90
86 104 84
98 114 104
100 117 100
94 109 96
93 109 95
93 109 96
106 124 111
96 112 98
109 125 114
113 129 118
110 125 116
116 131 123
108 122 116
129 143 140
125 139 134
135 147 147
135 148 147
132 144 144
132 145 148
141 155 153
141 156 154
133 146 146
145 157 161
163 175 179
136 149 150
140 153 152
142 155 157
134 147 147
137 151 149
153 166 168
110 124 115
75 96 66
80 100 71
77 99 66
86 105 83
80 101 73
85 103 79
100 117 102
103 120 104
110 126 113
117 131 124
118 133 124
120 134 130
122 136 130
118 133 124
126 141 137
132 145 143
131 145 146
130 144 143
142 154 155
132 145 142
89 108 88
71 91 62
69 91 57
79 99 70
69 91 56
72 93 61
69 90 56
69 91 56
69 92 53
70 94 55
63 85 47
65 88 51
67 89 51
69 92 54
69 91 54
69 91 54
67 89 52
70 92 60
88 105 90
147 161 162
136 149 149
144 157 156
144 157 158
133 146 145
146 159 159
140 152 152
123 136 131
125 139 136
151 163 166
134 148 146
140 153 151
115 130 125
147 159 164
140 152 151
143 156 158
122 135 136
106 122 112
94 111 91
82 101 78
88 104 88
87 104 89
92 110 89
96 113 96
90 105 91
94 112 94
92 108 93
101 117 104
84 102 82
83 99 82
89 105 88
109 126 115
120 136 130
129 142 140
121 136 131
122 135 130
108 124 119
128 142 139
119 133 127
122 136 132
110 124 118
105 118 113
112 125 120
114 126 121
98 111 107
88 102 93
111 124 117
96 107 104
91 103 100
94 106 100
92 104 99
88 99 97
86 99 92
97 112 104
108 120 118
118 130 129
144 156 161
165 177 185
167 178 186
184 197 207
195 207 220
204 215 230
212 224 239
215 227 243
223 235 252
226 237 254
226 237 254
227 239 255
227 239 255
227 239 255
227 239 255
227 239 255
227 239 255
227 239 255
227 239 255
227 239 255
227 239 255
227 239 255
227 239 255
227 239 255
227 239 255
227 239 255
227 239 255
227 239 255
227 239 255
227 239 255
227 239 255
227 239 255
227 239 255
227 239 255
227 239 255
227 239 255
227 239 255
227 239 255
227 239 255
227 239 255
227 239 255
227 239 255
227 239 255
227 239 255
227 239 255
227 239 255
227 239 255
227 239 255
227 239 255
227 239 255
227 239 255
227 239 255
227 239 255
227 239 255
227 239 255
227 239 255
227 239 255
227 239 255
227 239 255
227 239 255
227 239 255
227 239 255
227 239 255
227 239 255
227 239 255
227 239 255
227 239 255
227 239 255
227 239 255
227 239 255
227 239 255
227 239 255
227 239 255
227 239 255
227 239 255
227 239 255
227 239 255
227 239 255
227 239 255
227 239 255
227 239 255
227 239 255
227 239 255
227 239 255
227 239 255
227 239 255
227 239 255
227 239 255
227 239 255
227 239 255
227 239 255
227 239 255
227 239 255
227 239 255
227 239 255
227 239 255
227 239 255
227 239 255
227 239 255
227 239 255
227 239 255
227 239 255
227 239 255
227 239 255
227 239 255
227 239 255
227 239 255
227 239 255
227 239 255
227 239 255
227 239 255
226 239 255
227 239 255
227 239 255
226 239 255
227 239 255
227 239 255
226 239 255
227 239 255
226 239 255
226 239 255
226 239 255
226 239 255
226 239 255
226 239 255
226 239 255
226 239 255
227 239 255
227 239 255
227 239 255
227 239 255
227 239 255
227 239 255
227 239 255
227 239 255
227 239 255
227 239 255
227 239 255
227 239 255
227 239 255
227 239 255
227 239 255
227 239 255
227 239 255
227 239 255
227 239 255
227 239 255
227 239 255
227 239 255
227 239 255
227 239 255
227 239 255
227 239 255
227 239 255
227 239 255
227 239 255
227 239 255
227 239 255
227 239 255
227 239 255
227 239 255
227 239 255
227 239 255
227 239 255
227 239 255
227 239 255
227 239 255
227 239 255
227 239 255
227 239 255
227 239 255
227 239 255
227 239 255
227 239 255
227 239 255
227 239 255
227 239 255
227 239 255
227 239 255
227 239 255
227 239 255
227 239 255
227 239 255
227 239 255
227 239 255
227 239 255
227 239 255
227 239 255
227 239 255
227 239 255
227 239 255
227 239 255
227 239 255
227 239 255
227 239 255
227 239 255
227 239 255
227 239 255
227 239 255
227 239 255
227 239 255
227 239 255
227 239 255
227 239 255
227 239 255
227 239 255
227 239 255
227 239 255
227 239 255
227 239 255
227 239 255
227 239 255
227 239 255
227 239 255
227 239 255
227 239 255
227 239 255
227 239 255
227 239 255
227 239 255
227 239 255
227 239 255
227 239 255
227 239 255
227 239 255
227 239 255
227 239 255
227 239 255
227 239 255
227 239 255
227 239 255
227 239 255
227 239 255
227 239 255
227 239 255
227 239 255
227 239 255
227 239 255
227 239 255
224 235 252
223 235 252
209 221 236
216 228 242
205 217 230
183 195 205
173 185 194
165 178 185
155 168 173
128 141 141
116 130 127
111 124 123
97 110 107
89 102 96
73 88 76
56 73 53
61 76 62
69 83 71
53 68 50
58 72 57
75 88 80
84 96 90
77 88 83
84 96 93
70 81 76
43 56 37
45 58 44
47 62 40
45 58 43
50 62 52
77 89 81
75 88 78
101 113 108
83 97 86
97 108 107
95 108 103
110 121 119
106 118 117
108 122 115
113 126 121
95 110 99
82 101 81
79 95 79
106 120 114
105 118 113
138 151 152
120 133 132
127 140 137
130 145 143
129 143 143
121 134 133
132 145 144
130 142 142
129 142 140
125 138 138
135 148 148
128 141 139
115 130 122
117 131 127
123 137 134
115 129 121
115 130 122
113 128 121
102 117 109
131 145 142
102 117 106
110 124 118
107 123 112
98 114 98
107 121 115
96 112 101
108 123 111
104 118 109
100 116 104
75 93 70
94 111 94
102 119 104
93 110 92
89 107 86
86 104 85
86 104 81
94 111 97
93 110 93
71 92 60
96 114 98
118 131 126
124 139 135
113 127 120
121 135 131
110 125 116
117 131 127
121 136 129
116 130 126
115 130 119
113 128 119
114 128 124
103 119 108
109 122 115
97 112 101
110 126 117
104 121 110
110 125 117
114 128 122
107 121 114
107 121 112
117 133 127
104 121 110
107 121 113
109 126 115
121 135 131
119 134 126
110 126 116
116 129 125
118 132 127
111 125 119
122 134 133
131 144 143
115 129 125
102 117 106
94 110 97
70 90 62
74 92 70
73 91 68
71 91 62
78 98 71
72 94 62
66 86 57
69 87 63
67 86 56
63 82 53
80 96 79
76 95 72
70 89 64
65 86 53
80 98 77
77 92 74
72 88 70
88 103 91
91 105 93
83 97 86
87 100 89
71 84 74
79 92 79
86 100 91
58 70 59
58 72 57
61 75 61
57 69 60
60 73 60
49 62 45
47 64 37
36 51 28
36 52 28
44 59 38
61 74 62
62 75 65
53 67 51
64 77 65
66 80 67
63 79 61
59 75 58
71 85 72
63 80 60
78 92 83
110 122 121
110 123 120
122 136 133
140 152 154
140 152 154
178 190 198
182 195 203
196 208 220
217 229 244
217 229 244
225 237 253
227 239 255
227 239 255
227 239 255
227 239 255
227 239 255
227 239 255
227 239 255
227 239 255
227 239 255
227 239 255
227 239 255
227 239 255
227 239 255
227 239 255
227 239 255
227 239 255
227 239 255
227 239 255
227 239 255
227 239 255
227 239 255
227 239 255
227 239 255
227 239 255
227 239 255
227 239 255
227 239 255
227 239 255
227 239 255
227 239 255
227 239 255
227 239 255
227 239 255
227 239 255
227 239 255
227 239 255
227 239 255
227 239 255
227 239 255
227 239 255
227 239 255
227 239 255
227 239 255
227 239 255
227 239 255
227 239 255
227 239 255
227 239 255
227 239 255
227 239 255
227 239 255
227 239 255
227 239 255
227 239 255
227 239 255
227 239 255
227 239 255
227 239 255
227 239 255
227 239 255
227 239 255
227 239 255
227 239 255
227 239 255
227 239 255
227 239 255
227 239 255
227 239 255
227 239 255
227 239 255
227 239 255
227 239 255
227 239 255
227 239 255
227 239 255
227 239 255
227 239 255
227 239 255
227 239 255
227 239 255
227 239 255
227 239 255
227 239 255
227 239 255
227 239 255
227 239 255
227 239 255
227 239 255
227 239 255
227 239 255
227 239 255
227 239 255
227 239 255
227 239 255
227 239 255
227 239 255
227 239 255
227 239 255
227 239 255
227 239 255
227 239 255
227 239 255
227 239 255
227 239 255
227 239 255
227 239 255
227 239 255
227 239 255
227 239 255
227 239 255
227 239 255
227 239 255
227 239 255
227 239 255
227 239 255
227 239 255
227 239 255
227 239 255
227 239 255
227 239 255
227 239 255
227 239 255
227 239 255
227 239 255
227 239 255
227 239 255
227 239 255
227 239 255
227 239 255
227 239 255
227 239 255
227 239 255
227 239 255
227 239 255
227 239 255
227 239 255
227 239 255
227 239 255
227 239 255
227 239 255
227 239 255
227 239 255
227 239 255
227 239 255
227 239 255
227 239 255
227 239 255
227 239 255
227 239 255
227 239 255
227 239 255
227 239 255
227 239 255
227 239 255
227 239 255
227 239 255
227 239 255
227 239 255
227 239 255
227 239 255
227 239 255
227 239 255
227 239 255
227 239 255
227 239 255
227 239 255
227 239 255
227 239 255
227 239 255
227 239 255
227 239 255
227 239 255
227 239 255
227 239 255
227 239 255
227 239 255
227 239 255
227 239 255
227 239 255
227 239 255
227 239 255
227 239 255
227 239 255
227 239 255
227 239 255
227 239 255
227 239 255
227 239 255
227 239 255
227 239 255
227 239 255
227 239 255
227 239 255
227 239 255
227 239 255
227 239 255
227 239 255
227 239 255
227 239 255
227 239 255
227 239 255
227 239 255
227 239 255
227 239 255
227 239 255
227 239 255
227 239 255
227 239 255
227 239 255
227 239 255
227 239 255
227 239 255
227 239 255
227 239 255
227 239 255
227 239 255
227 239 255
227 239 255
227 239 255
227 239 255
225 237 253
222 234 250
219 231 246
216 228 244
199 210 224
195 207 218
176 189 197
147 159 163
142 154 157
131 143 143
110 125 116
103 117 113
113 126 128
92 106 102
67 81 67
54 70 51
70 84 71
61 75 61
72 86 75
75 90 77
71 85 74
90 102 99
91 102 102
90 100 101
84 96 94
86 97 95
72 84 77
69 82 71
60 70 64
67 79 71
57 67 60
62 75 65
79 89 88
68 77 74
70 81 75
62 73 67
67 75 73
68 78 74
57 67 59
76 87 85
68 80 72
52 62 54
60 71 65
69 79 74
68 78 71
70 81 74
61 72 61
75 86 79
62 74 61
64 77 63
61 76 59
70 86 69
73 88 75
78 92 82
79 95 81
92 106 95
88 104 89
91 105 93
85 100 88
111 124 121
100 115 104
108 121 113
126 139 136
111 124 121
119 131 130
101 117 108
107 121 114
67 85 59
53 72 41
71 91 63
60 80 49
73 90 70
75 93 70
65 83 60
79 95 80
88 102 90
88 106 88
92 107 94
104 119 110
105 120 111
108 122 117
88 105 91
85 101 89
112 127 123
104 118 109
124 138 136
122 135 134
94 108 99
109 123 115
83 102 81
67 86 57
69 87 64
84 102 82
79 97 75
80 99 75
70 88 66
69 87 64
58 78 48
68 87 60
63 82 55
71 89 68
69 86 63
70 91 57
65 87 51
71 91 63
85 102 85
131 144 144
135 148 149
128 141 139
126 140 136
122 136 133
108 121 117
116 129 128
138 152 155
109 123 117
112 124 118
99 113 105
118 129 126
109 123 112
119 132 127
106 122 113
123 136 134
104 120 110
101 115 108
105 120 110
101 115 106
103 117 108
107 120 114
92 106 97
94 108 99
103 116 110
107 119 115
101 113 109
99 112 107
98 110 105
87 100 94
80 91 88
77 90 83
70 83 73
56 70 53
63 73 65
68 79 72
49 58 52
60 72 61
48 57 51
34 44 31
42 57 32
53 68 48
45 58 43
63 74 68
68 80 72
54 64 56
47 56 51
59 71 62
46 60 45
33 47 24
36 51 27
55 67 55
49 65 43
53 67 51
47 62 41
47 65 37
45 61 40
55 71 49
41 55 36
53 68 51
69 82 71
86 100 94
79 93 85
75 92 76
69 84 70
76 91 76
75 90 77
70 86 71
90 104 95
93 106 99
138 150 153
153 165 172
164 176 184
174 186 195
188 199 211
193 205 216
209 221 234
217 229 245
223 235 252
227 239 255
227 239 255
227 239 255
227 239 255
227 239 255
227 239 255
227 239 255
227 239 255
227 239 255
227 239 255
227 239 255
227 239 255
227 239 255
227 239 255
227 239 255
227 239 255
227 239 255
227 239 255
227 239 255
227 239 255
227 239 255
227 239 255
227 239 255
227 239 255
227 239 255
227 239 255
227 239 255
227 239 255
227 239 255
227 239 255
227 239 255
227 239 255
227 239 255
227 239 255
227 239 255
227 239 255
227 239 255
227 239 255
227 239 255
227 239 255
227 239 255
227 239 255
227 239 255
227 239 255
227 239 255
227 239 255
227 239 255
227 239 255
227 239 255
227 239 255
227 239 255
227 239 255
227 239 255
227 239 255
227 239 255
227 239 255
227 239 255
227 239 255
227 239 255
227 239 255
227 239 255
227 239 255
227 239 255
227 239 255
227 239 255
227 239 255
227 239 255
227 239 255
227 239 255
227 239 255
227 239 255
227 239 255
227 239 255
227 239 255
227 239 255
227 239 255
227 239 255
227 239 255
227 239 255
227 239 255
227 239 255
227 239 255
227 239 255
227 239 255
227 239 255
227 239 255
227 239 255
227 239 255
227 239 255
227 239 255
227 239 255
227 239 255
227 239 255
227 239 255
227 239 255
227 239 255
227 239 255
227 239 255
227 239 255
227 239 255
227 239 255
227 239 255
227 239 255
227 239 255
227 239 255
227 239 255
227 239 255
227 239 255
227 239 255
227 239 255
227 239 255
227 239 255
227 239 255
227 239 255
227 239 255
227 239 255
227 239 255
227 239 255
227 239 255
227 239 255
227 239 255
227 239 255
227 239 255
227 239 255
227 239 255
227 239 255
227 239 255
227 239 255
227 239 255
227 239 255
227 239 255
227 239 255
227 239 255
227 239 255
227 239 255
227 239 255
227 239 255
227 239 255
227 239 255
227 239 255
227 239 255
227 239 255
227 239 255
227 239 255
227 239 255
227 239 255
227 239 255
227 239 255
227 239 255
227 239 255
227 239 255
227 239 255
227 239 255
227 239 255
227 239 255
227 239 255
227 239 255
227 239 255
227 239 255
227 239 255
227 239 255
227 239 255
227 239 255
227 239 255
227 239 255
227 239 255
227 239 255
227 239 255
227 239 255
227 239 255
227 239 255
227 239 255
227 239 255
227 239 255
227 239 255
227 239 255
227 239 255
227 239 255
227 239 255
227 239 255
227 239 255
227 239 255
227 239 255
227 239 255
227 239 255
227 239 255
227 239 255
227 239 255
227 239 255
227 239 255
227 239 255
227 239 255
227 239 255
227 239 255
227 239 255
227 239 255
227 239 255
227 239 255
227 239 255
227 239 255
227 239 255
227 239 255
227 239 255
227 239 255
227 239 255
227 239 255
227 239 255
227 239 255
227 239 255
227 239 255
227 239 255
226 237 254
223 235 251
218 230 246
209 220 234
204 217 229
178 191 199
172 185 191
153 166 171
141 154 157
106 121 112
119 133 132
95 110 101
111 124 125
80 94 86
92 108 100
92 106 100
80 94 84
85 100 90
73 88 75
93 107 100
106 118 116
92 105 102
93 107 102
93 106 99
97 110 110
77 91 80
77 88 85
65 79 67
70 84 71
77 89 83
35 47 31
52 63 53
57 70 59
35 48 27
29 40 22
40 55 32
84 93 95
63 73 69
70 81 75
72 82 78
68 78 74
66 77 71
46 59 43
39 51 34
50 59 52
39 48 40
37 49 34
36 46 31
52 63 53
32 45 25
29 40 22
34 46 27
36 45 37
59 68 64
58 65 64
59 67 64
36 44 37
52 60 57
64 72 69
45 55 48
58 68 60
61 72 64
54 66 52
53 63 53
56 69 55
55 68 52
49 62 44
56 69 55
89 100 95
90 101 98
88 100 94
91 102 99
111 123 122
96 108 104
86 99 91
88 101 93
97 111 102
81 96 83
86 99 91
81 98 82
78 94 75
82 96 83
79 94 78
81 97 81
74 89 71
60 77 52
63 82 55
76 94 73
99 114 105
109 122 121
118 132 130
110 123 121
122 135 134
102 116 106
120 133 131
114 127 125
107 120 116
120 134 130
118 131 128
113 127 121
117 129 129
122 135 131
120 133 131
111 125 120
111 123 122
106 118 115
89 103 90
63 79 57
65 83 57
70 87 64
59 77 52
57 75 47
66 86 58
77 94 75
65 82 60
72 87 71
70 85 70
80 95 80
66 83 62
58 73 51
58 74 52
67 85 60
65 80 62
78 90 82
90 101 99
86 98 90
63 73 65
79 90 86
64 75 64
76 87 82
64 74 67
53 64 54
42 52 43
70 79 77
62 71 67
44 53 46
42 51 43
64 73 70
49 56 52
58 67 63
44 53 46
52 60 56
51 61 53
51 61 54
69 77 76
55 65 60
54 65 57
72 80 80
48 60 45
36 48 33
29 41 22
36 50 28
31 43 25
43 59 34
36 50 29
32 45 24
37 51 33
36 50 29
45 62 36
42 56 37
46 59 44
84 94 93
59 72 60
68 77 75
76 88 82
78 92 84
77 90 84
57 73 54
77 91 82
62 75 65
55 70 53
66 81 67
98 111 110
85 97 93
81 93 87
106 120 117
88 102 93
95 107 105
97 110 107
77 92 83
101 114 114
117 131 131
122 135 136
100 113 108
120 134 133
144 158 161
168 181 188
179 192 202
186 199 210
202 214 228
216 228 243
211 223 237
221 233 249
227 239 255
227 239 255
227 239 255
227 239 255
227 239 255
227 239 255
227 239 255
227 239 255
227 239 255
227 239 255
227 239 255
227 239 255
227 239 255
227 239 255
227 239 255
227 239 255
227 239 255
227 239 255
227 239 255
227 239 255
227 239 255
227 239 255
227 239 255
227 239 255
227 239 255
227 239 255
227 239 255
227 239 255
227 239 255
227 239 255
227 239 255
227 239 255
227 239 255
227 239 255
227 239 255
227 239 255
227 239 255
227 239 255
227 239 255
227 239 255
227 239 255
227 239 255
227 239 255
227 239 255
227 239 255
227 239 255
227 239 255
227 239 255
227 239 255
227 239 255
227 239 255
227 239 255
227 239 255
227 239 255
227 239 255
227 239 255
227 239 255
227 239 255
227 239 255
227 239 255
227 239 255
227 239 255
227 239 255
227 239 255
227 239 255
227 239 255
227 239 255
227 239 255
227 239 255
227 239 255
227 239 255
227 239 255
227 239 255
227 239 255
227 239 255
227 239 255
227 239 255
227 239 255
227 239 255
227 239 255
227 239 255
227 239 255
227 239 255
227 239 255
227 239 255
227 239 255
227 239 255
227 239 255
227 239 255
227 239 255
227 239 255
227 239 255
227 239 255
227 239 255
227 239 255
227 239 255
227 239 255
227 239 255
227 239 255
227 239 255
227 239 255
227 239 255
227 239 255
227 239 255
227 239 255
227 239 255
227 239 255
227 239 255
227 239 255
227 239 255
227 239 255
227 239 255
227 239 255
227 239 255
227 239 255
227 239 255
227 239 255
227 239 255
227 239 255
227 239 255
227 239 255
227 239 255
227 239 255
227 239 255
227 239 255
227 239 255
227 239 255
227 239 255
227 239 255
227 239 255
227 239 255
227 239 255
227 239 255
227 239 255
227 239 255
227 239 255
227 239 255
227 239 255
227 239 255
227 239 255
227 239 255
227 239 255
227 239 255
227 239 255
227 239 255
227 239 255
227 239 255
227 239 255
227 239 255
227 239 255
227 239 255
227 239 255
227 239 255
227 239 255
227 239 255
227 239 255
227 239 255
227 239 255
227 239 255
227 239 255
227 239 255
227 239 255
227 239 255
227 239 255
227 239 255
227 239 255
227 239 255
227 239 255
227 239 255
227 239 255
227 239 255
227 239 255
227 239 255
227 239 255
227 239 255
227 239 255
227 239 255
227 239 255
227 239 255
227 239 255
227 239 255
227 239 255
227 239 255
227 239 255
227 239 255
227 239 255
227 239 255
227 239 255
227 239 255
227 239 255
227 239 255
227 239 255
227 239 255
227 239 255
227 239 255
227 239 255
227 239 255
227 239 255
227 239 255
227 239 255
227 239 255
227 239 255
227 239 255
224 236 252
221 233 249
211 223 237
199 211 223
190 202 214
180 192 202
157 170 175
129 143 141
123 137 134
92 106 100
105 121 114
88 102 92
91 105 99
98 113 107
98 113 108
97 110 107
101 115 109
69 83 74
72 87 75
49 65 46
56 74 51
45 62 35
64 80 63
91 103 101
83 96 88
84 97 92
92 104 104
52 67 50
53 66 52
53 67 50
68 83 67
39 54 29
49 63 44
42 58 32
38 52 30
40 55 32
48 63 40
55 70 54
56 71 54
56 68 58
60 71 62
74 85 83
53 65 54
43 55 42
55 69 52
39 49 39
32 45 24
40 55 31
45 60 40
32 45 25
32 45 24
35 48 27
35 49 28
38 52 30
27 39 21
23 34 18
39 53 31
22 33 14
50 59 53
48 57 52
41 51 41
45 53 49
48 59 48
25 35 19
35 46 33
33 42 29
26 37 20
28 38 22
29 42 22
25 35 18
26 36 20
26 36 20
22 32 16
25 35 20
24 34 18
40 48 39
47 54 51
52 59 57
56 64 61
43 48 48
30 39 29
53 62 56
61 68 66
82 92 92
60 68 65
57 66 61
59 69 63
60 69 63
58 66 64
64 74 69
38 47 37
34 45 31
32 42 31
47 57 48
54 65 55
51 61 50
40 49 39
52 64 50
58 70 57
51 64 50
51 59 55
53 65 53
47 59 45
57 68 57
60 71 63
57 66 61
68 77 75
83 92 91
50 58 51
47 56 49
44 55 42
45 55 48
53 62 54
70 79 76
56 66 59
47 55 49
63 71 67
54 62 57
39 47 38
37 44 37
47 56 46
31 39 28
25 32 24
32 42 28
41 50 39
50 57 55
48 56 51
35 42 37
44 53 46
53 61 57
47 55 50
46 54 50
45 53 46
57 66 62
44 52 47
51 60 56
45 54 46
65 72 74
60 68 65
31 40 30
29 39 23
38 50 35
24 36 17
36 48 32
35 48 28
46 58 45
34 45 31
48 58 52
41 52 39
48 59 48
49 60 50
56 66 61
43 52 41
44 56 43
51 62 52
57 68 59
50 60 52
41 55 35
48 59 48
57 69 59
50 62 49
48 63 41
45 58 39
50 65 45
42 55 37
44 58 38
71 85 75
72 82 79
74 84 84
89 100 96
92 103 102
84 97 93
91 103 99
75 86 83
83 95 91
87 100 94
79 90 86
85 98 94
78 92 83
78 91 85
87 101 95
90 104 99
104 117 117
106 119 117
90 104 99
102 115 115
114 126 127
102 117 114
87 103 92
82 97 87
111 126 123
109 123 118
119 132 131
142 156 157
143 155 159
159 170 179
180 193 203
176 189 197
206 219 232
214 226 241
222 234 250
226 238 254
227 239 255
227 239 255
227 239 255
227 239 255
227 239 255
227 239 255
227 239 255
227 239 255
227 239 255
227 239 255
227 239 255
227 239 255
227 239 255
227 239 255
227 239 255
227 239 255
227 239 255
227 239 255
227 239 255
227 239 255
227 239 255
227 239 255
227 239 255
227 239 255
227 239 255
227 239 255
227 239 255
227 239 255
227 239 255
227 239 255
227 239 255
227 239 255
227 239 255
227 239 255
227 239 255
227 239 255
227 239 255
227 239 255
227 239 255
227 239 255
227 239 255
227 239 255
227 239 255
227 239 255
227 239 255
227 239 255
227 239 255
227 239 255
227 239 255
227 239 255
227 239 255
227 239 255
227 239 255
227 239 255
227 239 255
227 239 255
227 239 255
227 239 255
227 239 255
227 239 255
227 239 255
227 239 255
227 239 255
227 239 255
227 239 255
227 239 255
227 239 255
227 239 255
227 239 255
227 239 255
227 239 255
227 239 255
227 239 255
227 239 255
227 239 255
227 239 255
227 239 255
227 239 255
227 239 255
227 239 255
227 239 255
227 239 255
227 239 255
227 239 255
227 239 255
227 239 255
227 239 255
227 239 255
227 239 255
227 239 255
227 239 255
227 239 255
227 239 255
227 239 255
227 239 255
227 239 255
227 239 255
227 239 255
227 239 255
227 239 255
227 239 255
227 239 255
227 239 255
227 239 255
227 239 255
227 239 255
227 239 255
227 239 255
227 239 255
227 239 255
227 239 255
227 239 255
227 239 255
227 239 255
227 239 255
227 239 255
227 239 255
227 239 255
227 239 255
227 239 255
227 239 255
227 239 255
227 239 255
227 239 255
227 239 255
227 239 255
227 239 255
227 239 255
227 239 255
227 239 255
227 239 255
227 239 255
227 239 255
227 239 255
227 239 255
227 239 255
227 239 255
227 239 255
227 239 255
227 239 255
227 239 255
227 239 255
227 239 255
227 239 255
227 239 255
227 239 255
227 239 255
227 239 255
227 239 255
227 239 255
227 239 255
227 239 255
227 239 255
227 239 255
227 239 255
227 239 255
227 239 255
227 239 255
227 239 255
227 239 255
227 239 255
227 239 255
227 239 255
227 239 255
227 239 255
227 239 255
227 239 255
227 239 255
227 239 255
227 239 255
227 239 255
227 239 255
227 239 255
227 239 255
227 239 255
227 239 255
227 239 255
227 239 255
227 239 255
227 239 255
227 239 255
227 239 255
227 239 255
227 239 255
227 239 255
227 239 255
227 239 255
227 239 255
227 239 255
227 239 255
227 239 255
227 239 255
227 239 255
224 236 252
225 236 253
216 228 243
220 232 248
201 213 226
193 206 217
173 185 194
159 171 177
132 145 147
121 135 132
92 109 96
93 110 96
107 123 117
108 122 120
102 116 113
95 110 103
98 112 110
77 92 79
87 101 91
66 83 59
58 74 54
60 78 54
65 83 62
74 90 74
61 78 58
63 78 65
72 88 73
71 85 74
77 90 81
62 75 66
52 67 50
48 66 40
45 60 39
37 52 28
45 62 35
40 56 31
54 68 51
58 71 56
55 67 58
65 76 69
68 80 72
67 77 72
82 93 92
66 74 72
68 78 72
82 94 91
65 77 69
44 58 39
43 59 33
41 56 32
41 57 33
35 49 27
36 50 28
36 50 27
42 53 40
36 50 28
50 63 50
39 51 35
41 52 40
52 61 55
48 58 48
63 72 70
45 55 45
48 57 51
46 58 45
33 43 29
31 44 23
19 28 14
33 46 26
28 38 22
37 50 29
30 43 23
23 33 17
28 39 21
24 34 18
28 38 22
25 35 20
33 45 27
26 36 21
21 30 16
22 33 16
47 55 51
57 66 62
57 64 64
32 41 31
33 39 35
38 43 42
50 59 53
45 53 48
43 51 46
37 47 34
26 36 21
28 35 28
15 22 11
15 22 12
18 26 14
21 30 16
24 34 19
34 39 36
39 44 43
49 54 55
36 44 38
37 41 42
44 50 50
37 44 38
57 65 62
30 37 29
50 58 53
34 39 36
44 52 46
48 55 51
41 48 45
47 54 51
48 56 52
38 47 39
25 31 24
20 28 16
17 23 13
15 22 11
22 31 17
27 37 21
27 37 21
23 33 17
31 42 25
21 29 16
14 21 9
28 39 22
25 35 19
20 29 16
24 33 18
34 44 31
51 58 56
32 40 29
53 60 59
53 62 56
34 41 37
60 70 64
61 69 67
43 52 45
57 64 63
45 53 45
51 59 55
60 69 65
50 59 52
57 65 61
51 61 54
39 51 35
28 40 21
32 44 25
38 53 30
36 50 28
28 41 21
29 42 22
26 38 19
33 47 25
37 51 28
31 44 23
33 46 25
21 33 14
41 52 40
66 77 72
78 88 88
63 74 68
74 83 83
50 59 51
67 77 73
61 73 64
64 76 69
56 67 58
61 73 62
56 68 57
55 66 59
74 85 81
78 89 87
80 93 85
76 85 82
78 88 86
89 102 98
83 95 89
105 117 118
93 105 103
89 100 99
113 125 129
98 111 109
88 101 96
58 71 59
62 80 58
53 69 48
79 93 83
69 83 71
85 99 91
95 109 105
96 109 105
95 109 107
84 97 91
73 88 75
74 90 76
79 96 79
78 92 82
79 96 82
97 114 101
126 140 140
114 129 124
120 135 130
151 165 168
168 182 186
186 198 207
192 204 215
212 224 238
223 235 250
223 235 251
227 239 255
227 239 255
227 239 255
227 239 255
227 239 255
227 239 255
227 239 255
227 239 255
227 239 255
227 239 255
227 239 255
227 239 255
227 239 255
227 239 255
227 239 255
227 239 255
227 239 255
227 239 255
227 239 255
227 239 255
227 239 255
227 239 255
227 239 255
227 239 255
227 239 255
227 239 255
227 239 255
227 239 255
227 239 255
227 239 255
227 239 255
227 239 255
227 239 255
227 239 255
227 239 255
227 239 255
227 239 255
227 239 255
227 239 255
227 239 255
227 239 255
227 239 255
227 239 255
227 239 255
227 239 255
227 239 255
227 239 255
227 239 255
227 239 255
227 239 255
227 239 255
227 239 255
227 239 255
227 239 255
227 239 255
227 239 255
227 239 255
227 239 255
227 239 255
227 239 255
227 239 255
227 239 255
227 239 255
227 239 255
227 239 255
227 239 255
227 239 255
227 239 255
227 239 255
227 239 255
227 239 255
227 239 255
227 239 255
227 239 255
227 239 255
227 239 255
227 239 255
227 239 255
227 239 255
227 239 255
227 239 255
227 239 255
227 239 255
227 239 255
227 239 255
227 239 255
227 239 255
227 239 255
227 239 255
227 239 255
227 239 255
227 239 255
227 239 255
227 239 255
227 239 255
227 239 255
227 239 255
227 239 255
227 239 255
227 239 255
227 239 255
227 239 255
227 239 255
227 239 255
227 239 255
227 239 255
227 239 255
227 239 255
227 239 255
227 239 255
227 239 255
227 239 255
227 239 255
227 239 255
227 239 255
227 239 255
227 239 255
227 239 255
227 239 255
227 239 255
227 239 255
227 239 255
227 239 255
227 239 255
227 239 255
227 239 255
227 239 255
227 239 255
227 239 255
227 239 255
227 239 255
227 239 255
227 239 255
227 239 255
227 239 255
227 239 255
227 239 255
227 239 255
227 239 255
227 239 255
227 239 255
227 239 255
227 239 255
227 239 255
227 239 255
227 239 255
227 239 255
227 239 255
227 239 255
227 239 255
227 239 255
227 239 255
227 239 255
227 239 255
227 239 255
227 239 255
227 239 255
227 239 255
227 239 255
227 239 255
227 239 255
227 239 255
227 239 255
227 239 255
227 239 255
227 239 255
227 239 255
227 239 255
227 239 255
227 239 255
227 239 255
227 239 255
227 239 255
227 239 255
227 239 255
227 239 255
227 239 255
227 239 255
227 239 255
227 239 255
227 239 255
227 239 255
227 239 255
227 239 255
227 239 255
227 239 255
226 238 254
221 232 249
213 225 239
202 215 228
179 191 201
177 189 198
159 171 178
140 153 156
110 126 122
92 108 98
80 99 83
88 104 93
71 89 68
80 97 81
95 111 101
87 102 93
89 102 98
69 85 69
71 86 73
55 73 46
60 78 52
64 80 60
49 65 41
75 89 76
74 88 77
88 102 95
77 91 81
97 111 105
90 103 98
82 96 91
102 115 115
90 102 100
92 104 101
52 68 47
55 72 49
65 79 66
73 88 73
83 96 89
61 75 62
70 81 75
68 79 75
92 103 104
87 100 97
81 94 86
68 78 73
85 96 95
77 88 83
67 77 75
77 89 83
73 84 79
53 64 54
52 64 53
43 58 36
61 73 64
60 74 60
54 66 55
53 65 54
39 50 38
69 79 75
77 87 86
54 65 53
64 73 71
70 79 77
70 80 77
68 78 72
57 65 63
70 80 77
53 64 54
41 54 37
32 44 25
37 51 29
26 37 20
35 48 28
27 38 21
29 42 22
34 45 31
35 43 35
38 50 33
31 40 29
41 52 40
37 48 35
56 64 61
55 63 60
39 48 39
52 61 55
49 59 51
38 47 38
27 34 26
48 59 48
33 45 26
20 29 14
19 28 14
31 43 24
35 48 28
27 37 21
25 34 19
20 30 15
22 31 16
28 40 22
21 30 15
25 35 19
36 48 33
31 39 30
46 53 50
40 50 40
44 52 46
54 63 58
61 69 67
47 55 51
54 62 58
47 54 51
35 45 33
54 63 57
41 48 45
54 60 60
34 41 35
34 41 35
51 56 57
43 49 48
25 35 18
25 35 19
32 44 26
25 35 20
25 34 19
23 33 18
28 38 21
31 44 24
21 30 16
22 32 16
30 42 24
24 34 18
30 41 24
25 35 19
31 42 24
42 51 44
61 68 69
58 67 64
43 56 39
59 67 66
54 64 58
68 77 75
60 67 68
37 45 38
50 58 54
60 68 66
58 65 64
46 55 47
48 57 52
45 54 47
63 74 67
45 56 47
31 43 24
28 39 21
35 49 27
34 48 26
37 50 29
36 51 27
30 43 22
39 53 30
34 47 26
28 41 21
34 48 27
36 50 28
57 67 61
55 65 58
67 75 74
102 113 114
80 91 89
77 88 84
70 82 75
71 81 78
81 92 90
101 112 115
79 91 88
82 94 88
84 93 95
91 101 101
71 84 73
50 64 45
60 73 62
48 60 48
67 80 71
71 82 76
75 86 80
69 82 75
83 96 88
96 108 107
92 104 97
79 93 85
70 85 72
57 74 51
42 59 32
54 74 43
54 73 43
53 71 44
68 86 67
57 74 53
73 89 74
74 93 73
66 81 64
68 85 65
78 92 79
74 93 70
63 81 59
77 95 76
70 86 69
64 84 57
73 90 73
94 110 98
100 117 106
133 146 146
131 145 144
157 169 174
192 205 215
197 209 220
215 227 242
222 234 251
225 237 253
227 239 255
227 239 255
227 239 255
227 239 255
227 239 255
227 239 255
227 239 255
227 239 255
227 239 255
227 239 255
227 239 255
227 239 255
227 239 255
227 239 255
227 239 255
227 239 255
227 239 255
227 239 255
227 239 255
227 239 255
227 239 255
227 239 255
227 239 255
227 239 255
227 239 255
227 239 255
227 239 255
227 239 255
227 239 255
227 239 255
227 239 255
227 239 255
227 239 255
227 239 255
227 239 255
227 239 255
227 239 255
227 239 255
227 239 255
227 239 255
227 239 255
227 239 255
227 239 255
227 239 255
227 239 255
227 239 255
227 239 255
227 239 255
227 239 255
227 239 255
227 239 255
227 239 255
227 239 255
227 239 255
227 239 255
227 239 255
227 239 255
227 239 255
227 239 255
227 239 255
227 239 255
227 239 255
227 239 255
227 239 255
227 239 255
227 239 255
227 239 255
227 239 255
227 239 255
227 239 255
227 239 255
227 239 255
227 239 255
227 239 255
227 239 255
227 239 255
227 239 255
227 239 255
227 239 255
227 239 255
227 239 255
227 239 255
227 239 255
227 239 255
227 239 255
227 239 255
227 239 255
227 239 255
227 239 255
227 239 255
227 239 255
227 239 255
227 239 255
227 239 255
227 239 255
227 239 255
227 239 255
227 239 255
227 239 255
227 239 255
227 239 255
227 239 255
227 239 255
227 239 255
227 239 255
227 239 255
227 239 255
227 239 255
227 239 255
227 239 255
227 239 255
227 239 255
227 239 255
227 239 255
227 239 255
227 239 255
227 239 255
227 239 255
227 239 255
227 239 255
227 239 255
227 239 255
227 239 255
227 239 255
227 239 255
227 239 255
227 239 255
227 239 255
227 239 255
227 239 255
227 239 255
227 239 255
227 239 255
227 239 255
227 239 255
227 239 255
227 239 255
227 239 255
227 239 255
227 239 255
227 239 255
227 239 255
227 239 255
227 239 255
227 239 255
227 239 255
227 239 255
227 239 255
227 239 255
227 239 255
227 239 255
227 239 255
227 239 255
227 239 255
227 239 255
227 239 255
227 239 255
227 239 255
227 239 255
227 239 255
227 239 255
227 239 255
227 239 255
227 239 255
227 239 255
227 239 255
227 239 255
227 239 255
227 239 255
227 239 255
227 239 255
227 239 255
227 239 255
227 239 255
227 239 255
227 239 255
227 239 255
227 239 255
224 236 252
218 230 245
212 224 238
207 219 232
195 207 219
175 187 198
166 180 188
147 159 163
125 140 137
115 130 127
93 111 102
80 96 86
87 105 88
71 90 69
78 93 83
84 100 89
87 103 92
90 106 97
116 129 131
100 114 108
69 86 68
54 71 48
68 83 70
74 87 76
95 109 101
93 107 104
102 114 112
88 101 96
100 113 111
107 119 120
108 121 120
103 116 114
91 103 98
102 114 113
73 86 78
69 82 72
74 87 77
75 89 79
88 101 98
96 108 108
101 114 114
96 108 109
87 99 96
95 107 106
84 96 90
93 104 101
83 95 91
75 85 82
77 89 83
87 100 95
81 92 86
68 80 74
71 84 72
41 52 40
55 66 57
47 60 44
83 92 92
87 98 97
75 86 80
74 84 80
78 89 88
75 86 80
83 94 92
74 86 79
51 61 54
75 87 82
56 67 58
75 84 85
52 61 55
81 92 88
76 86 83
67 77 75
45 57 42
34 44 31
44 55 41
49 62 49
46 56 47
48 59 48
65 74 73
55 65 59
53 61 58
41 48 45
56 64 62
67 76 75
46 56 48
53 62 57
65 74 70
67 75 74
66 76 71
31 43 24
36 47 33
30 43 24
26 36 20
25 36 19
31 44 24
36 49 28
29 41 22
30 42 22
36 49 28
33 44 26
27 37 21
24 35 19
28 40 21
24 35 19
24 33 18
30 41 24
27 38 20
53 61 58
55 64 58
63 70 70
34 43 32
53 61 56
52 59 57
59 67 65
30 38 29
52 59 57
39 47 38
52 60 55
52 58 59
53 60 59
35 45 32
53 60 59
51 59 56
35 46 32
26 37 20
48 55 50
46 57 44
40 47 42
23 33 16
46 56 47
25 35 19
37 46 38
37 47 34
39 49 39
45 54 46
49 57 55
40 50 40
56 65 59
45 54 47
63 73 66
38 49 34
46 55 47
48 59 48
60 70 64
60 69 66
53 61 57
49 60 48
53 64 55
40 52 36
56 66 59
56 66 58
60 71 64
57 68 59
51 61 52
49 58 50
39 51 36
43 54 42
55 64 60
36 43 34
55 66 55
47 59 49
47 60 43
30 42 23
41 55 36
31 45 24
37 49 34
37 52 29
44 58 39
52 64 50
66 76 71
74 84 81
78 89 85
79 89 86
77 87 86
83 96 91
79 91 85
75 86 83
75 88 82
55 68 56
81 92 90
81 92 90
79 90 88
76 90 79
65 80 64
49 67 38
45 62 35
50 66 42
42 58 33
52 67 47
49 64 46
63 79 58
61 75 61
66 81 64
56 69 55
64 81 62
55 73 49
71 84 77
71 84 76
70 87 67
56 74 52
46 63 39
45 61 38
51 70 40
49 69 39
59 77 52
60 77 56
88 102 95
100 114 111
95 111 104
101 115 111
84 99 88
81 97 84
76 93 77
71 90 68
85 102 88
91 110 93
123 137 138
109 124 118
123 138 137
161 174 181
165 179 186
198 210 222
201 212 225
213 225 240
222 234 250
227 238 255
227 239 255
227 239 255
227 239 255
227 239 255
227 239 255
227 239 255
227 239 255
227 239 255
227 239 255
227 239 255
227 239 255
227 239 255
227 239 255
227 239 255
227 239 255
227 239 255
227 239 255
227 239 255
227 239 255
227 239 255
227 239 255
227 239 255
227 239 255
227 239 255
227 239 255
227 239 255
227 239 255
227 239 255
227 239 255
227 239 255
227 239 255
227 239 255
227 239 255
227 239 255
227 239 255
227 239 255
227 239 255
227 239 255
227 239 255
227 239 255
227 239 255
227 239 255
227 239 255
227 239 255
227 239 255
227 239 255
227 239 255
227 239 255
227 239 255
227 239 255
227 239 255
227 239 255
227 239 255
227 239 255
227 239 255
227 239 255
227 239 255
227 239 255
227 239 255
227 239 255
227 239 255
227 239 255
227 239 255
227 239 255
227 239 255
227 239 255
227 239 255
227 239 255
227 239 255
227 239 255
227 239 255
227 239 255
227 239 255
227 239 255
227 239 255
227 239 255
227 239 255
227 239 255
227 239 255
227 239 255
227 239 255
227 239 255
227 239 255
227 239 255
227 239 255
227 239 255
227 239 255
227 239 255
227 239 255
227 239 255
227 239 255
227 239 255
227 239 255
227 239 255
227 239 255
227 239 255
227 239 255
227 239 255
227 239 255
227 239 255
227 239 255
227 239 255
227 239 255
227 239 255
227 239 255
227 239 255
227 239 255
227 239 255
227 239 255
227 239 255
227 239 255
227 239 255
227 239 255
227 239 255
227 239 255
227 239 255
227 239 255
227 239 255
227 239 255
227 239 255
227 239 255
227 239 255
227 239 255
227 239 255
227 239 255
227 239 255
227 239 255
227 239 255
227 239 255
227 239 255
227 239 255
227 239 255
227 239 255
227 239 255
227 239 255
227 239 255
227 239 255
227 239 255
227 239 255
227 239 255
227 239 255
227 239 255
227 239 255
227 239 255
227 239 255
227 239 255
227 239 255
227 239 255
227 239 255
227 239 255
227 239 255
227 239 255
227 239 255
227 239 255
227 239 255
227 239 255
227 239 255
227 239 255
227 239 255
227 239 255
227 239 255
227 239 255
227 239 255
227 239 255
227 239 255
227 239 255
227 239 255
227 239 255
227 239 255
227 239 255
224 235 252
222 234 249
208 220 234
196 208 220
193 206 216
164 177 183
152 166 169
139 153 153
123 137 137
115 132 127
97 112 105
87 105 91
88 107 94
73 90 74
84 100 86
71 89 68
94 108 102
98 113 107
111 126 121
110 125 124
121 136 136
106 117 116
105 118 117
101 114 112
74 90 75
98 112 108
92 107 100
96 109 105
97 109 109
102 116 113
91 104 99
98 111 108
107 121 118
91 104 98
85 100 89
82 95 88
62 76 62
58 74 52
56 73 50
47 65 41
42 58 32
47 62 39
73 86 75
102 115 112
102 113 114
91 103 101
89 101 96
87 97 96
92 104 101
80 92 84
80 91 87
64 78 65
61 74 62
55 69 53
48 63 45
37 52 29
36 50 28
40 56 30
40 55 31
68 80 72
70 80 76
82 93 91
77 89 84
64 77 66
84 94 94
87 97 98
87 96 97
70 80 78
68 79 75
64 75 70
53 64 56
58 70 62
65 76 70
61 72 65
51 61 53
61 72 63
57 69 56
56 67 58
57 67 61
58 69 61
70 80 77
54 63 57
64 73 71
56 65 60
53 62 56
54 64 58
52 65 51
66 76 73
59 69 62
54 63 57
63 71 70
46 56 47
71 82 77
60 69 65
61 69 68
42 54 40
30 42 23
29 41 22
41 55 32
28 40 21
31 44 24
34 46 26
25 36 19
30 40 24
32 44 26
31 43 24
24 34 17
26 36 19
33 44 30
47 57 47
47 57 46
42 53 41
49 58 52
37 45 38
49 60 51
45 55 46
30 42 23
30 39 29
49 58 52
47 56 50
51 60 53
30 39 28
33 43 31
51 60 53
36 47 33
28 39 22
34 44 32
31 40 29
42 52 40
62 71 68
60 69 65
70 80 78
51 59 56
56 64 61
39 49 40
52 61 53
55 64 60
48 57 50
52 62 55
70 80 75
60 69 65
65 75 70
71 80 79
63 72 71
56 64 61
38 49 34
38 52 30
31 43 25
38 52 30
38 52 30
40 54 32
30 43 23
29 41 21
35 48 28
32 45 23
31 45 23
29 42 21
34 47 27
35 49 27
41 53 41
62 73 65
58 69 63
65 77 68
73 85 79
59 70 63
64 74 69
63 73 66
70 82 74
76 85 84
67 78 72
67 78 73
71 83 77
65 77 69
80 91 86
75 85 82
80 90 88
62 76 63
70 82 75
71 84 76
79 90 86
69 81 74
86 98 93
84 95 94
76 88 82
77 87 85
100 111 113
90 102 101
85 97 96
68 82 67
46 63 36
43 60 33
49 67 40
47 64 37
38 54 30
50 69 39
48 66 38
49 68 39
52 71 42
42 60 32
59 76 55
80 94 84
101 114 114
94 107 102
89 102 97
80 93 85
86 98 95
74 90 76
68 83 70
69 85 70
58 74 54
75 92 77
93 110 98
117 131 133
118 132 135
109 122 121
121 135 134
112 128 125
119 135 133
93 108 102
104 120 115
114 130 128
82 98 87
112 127 124
116 131 129
126 142 140
137 152 156
150 163 168
151 166 171
153 166 169
179 191 199
203 216 228
213 225 240
220 232 247
227 239 255
227 239 255
227 239 255
227 239 255
227 239 255
227 239 255
227 239 255
227 239 255
227 239 255
227 239 255
227 239 255
227 239 255
227 239 255
227 239 255
227 239 255
227 239 255
227 239 255
227 239 255
227 239 255
227 239 255
227 239 255
227 239 255
227 239 255
227 239 255
227 239 255
227 239 255
227 239 255
227 239 255
227 239 255
227 239 255
227 239 255
227 239 255
227 239 255
227 239 255
227 239 255
227 239 255
227 239 255
227 239 255
227 239 255
227 239 255
227 239 255
227 239 255
227 239 255
227 239 255
227 239 255
227 239 255
227 239 255
227 239 255
227 239 255
227 239 255
227 239 255
227 239 255
227 239 255
227 239 255
227 239 255
227 239 255
227 239 255
227 239 255
227 239 255
227 239 255
227 239 255
227 239 255
227 239 255
227 239 255
227 239 255
227 239 255
227 239 255
227 239 255
227 239 255
227 239 255
227 239 255
227 239 255
227 239 255
227 239 255
227 239 255
227 239 255
227 239 255
227 239 255
227 239 255
227 239 255
227 239 255
227 239 255
227 239 255
227 239 255
227 239 255
227 239 255
227 239 255
227 239 255
227 239 255
227 239 255
227 239 255
227 239 255
227 239 255
227 239 255
227 239 255
227 239 255
227 239 255
227 239 255
227 239 255
227 239 255
227 239 255
227 239 255
227 239 255
227 239 255
227 239 255
227 239 255
227 239 255
227 239 255
227 239 255
227 239 255
227 239 255
227 239 255
227 239 255
227 239 255
227 239 255
227 239 255
227 239 255
227 239 255
227 239 255
227 239 255
227 239 255
227 239 255
227 239 255
227 239 255
227 239 255
227 239 255
227 239 255
227 239 255
227 239 255
227 239 255
227 239 255
227 239 255
227 239 255
227 239 255
227 239 255
227 239 255
227 239 255
227 239 255
227 239 255
227 239 255
227 239 255
227 239 255
227 239 255
227 239 255
227 239 255
227 239 255
227 239 255
227 239 255
227 239 255
227 239 255
227 239 255
227 239 255
227 239 255
227 239 255
227 239 255
227 239 255
227 239 255
227 239 255
227 239 255
227 239 255
227 239 255
227 239 255
227 239 255
225 236 253
223 235 251
216 228 243
215 227 241
194 206 217
187 200 210
163 176 183
139 154 157
130 145 145
121 136 132
104 119 113
105 120 116
78 95 82
76 94 77
87 105 89
92 107 95
103 118 113
97 113 105
119 133 133
115 129 129
122 136 137
123 136 139
94 107 101
97 113 103
86 103 91
69 86 66
60 79 55
52 70 44
59 77 52
99 114 109
116 129 131
94 108 103
86 99 94
108 121 122
88 100 95
83 97 87
74 91 73
52 70 41
55 73 47
47 64 36
47 66 37
46 64 35
48 66 37
44 61 34
46 64 37
54 70 52
71 85 74
100 113 109
74 87 78
70 84 74
81 95 83
51 66 46
55 71 49
47 61 43
50 66 43
42 59 33
45 62 35
36 50 28
42 59 33
46 62 36
42 57 33
37 52 29
43 59 33
41 56 32
86 99 93
84 93 94
78 90 86
70 78 80
75 86 82
71 83 76
81 93 89
56 70 55
44 56 42
44 57 40
52 66 51
37 52 29
43 58 34
36 51 28
36 51 28
40 55 31
35 49 28
49 62 46
59 70 61
60 71 63
59 69 64
63 74 69
66 77 72
63 73 69
60 71 63
61 73 66
77 87 87
58 68 62
67 77 72
57 68 59
55 64 59
51 61 56
72 81 80
63 73 69
67 77 74
60 72 63
35 49 28
42 49 43
49 59 51
58 67 62
59 70 63
50 62 51
54 63 58
58 69 61
54 65 54
58 68 63
73 81 82
50 61 50
49 58 51
57 66 62
72 81 78
48 57 50
49 58 50
39 51 34
30 41 24
30 41 23
36 50 29
29 42 22
35 47 27
27 39 21
36 49 28
27 38 20
30 43 23
31 44 23
36 50 28
29 41 23
34 46 27
26 37 19
29 42 22
46 55 49
71 81 77
61 72 63
52 60 56
61 69 66
55 65 57
79 90 88
58 66 63
72 82 80
79 88 89
51 62 53
65 75 70
74 83 82
64 75 68
65 74 71
66 75 73
59 68 64
36 48 33
34 48 26
37 51 29
30 42 22
34 47 27
31 44 23
30 42 23
34 48 26
35 49 27
37 51 29
39 54 31
36 50 28
42 57 33
31 44 24
52 63 53
68 79 74
78 89 86
69 81 73
87 99 97
67 76 75
77 87 85
57 70 56
80 91 87
78 89 84
82 94 91
70 83 74
77 88 85
78 89 85
75 88 81
65 77 70
63 76 63
48 61 44
49 64 45
42 56 36
47 62 41
57 72 56
63 79 61
55 70 51
57 71 55
60 73 61
70 84 72
58 71 58
53 66 53
64 79 63
56 71 53
70 83 73
68 85 68
56 73 50
58 75 52
56 73 50
57 74 51
47 62 40
50 69 39
53 70 46
45 63 35
68 82 70
93 107 102
93 107 100
101 114 113
112 126 126
100 114 112
97 113 107
117 130 133
106 120 119
104 119 116
106 121 116
110 125 124
119 132 133
101 115 110
119 133 133
110 125 122
116 131 128
129 143 146
114 129 128
118 131 131
104 119 116
115 129 128
107 121 117
109 125 118
102 117 112
121 136 135
115 132 126
119 135 130
118 134 128
130 144 142
150 163 168
178 192 198
196 208 220
207 219 232
218 230 245
224 235 252
226 238 254
227 239 255
227 239 255
227 239 255
227 239 255
227 239 255
227 239 255
227 239 255
227 239 255
227 239 255
227 239 255
227 239 255
227 239 255
227 239 255
227 239 255
227 239 255
227 239 255
227 239 255
227 239 255
227 239 255
227 239 255
227 239 255
227 239 255
227 239 255
227 239 255
227 239 255
227 239 255
227 239 255
227 239 255
227 239 255
227 239 255
227 239 255
227 239 255
227 239 255
227 239 255
227 239 255
227 239 255
227 239 255
227 239 255
227 239 255
227 239 255
227 239 255
227 239 255
227 239 255
227 239 255
227 239 255
227 239 255
227 239 255
227 239 255
227 239 255
227 239 255
227 239 255
227 239 255
227 239 255
227 239 255
227 239 255
227 239 255
227 239 255
227 239 255
227 239 255
227 239 255
227 239 255
227 239 255
227 239 255
227 239 255
227 239 255
227 239 255
227 239 255
227 239 255
227 239 255
227 239 255
227 239 255
227 239 255
227 239 255
227 239 255
227 239 255
227 239 255
227 239 255
227 239 255
227 239 255
227 239 255
227 239 255
227 239 255
227 239 255
227 239 255
227 239 255
227 239 255
227 239 255
227 239 255
227 239 255
227 239 255
227 239 255
227 239 255
227 239 255
227 239 255
227 239 255
227 239 255
227 239 255
227 239 255
227 239 255
227 239 255
227 239 255
227 239 255
227 239 255
227 239 255
227 239 255
227 239 255
227 239 255
227 239 255
227 239 255
227 239 255
227 239 255
227 239 255
227 239 255
227 239 255
227 239 255
227 239 255
227 239 255
227 239 255
227 239 255
227 239 255
227 239 255
227 239 255
227 239 255
227 239 255
227 239 255
227 239 255
227 239 255
227 239 255
227 239 255
227 239 255
227 239 255
227 239 255
227 239 255
227 239 255
227 239 255
227 239 255
227 239 255
227 239 255
227 239 255
227 239 255
227 239 255
227 239 255
227 239 255
227 239 255
227 239 255
227 239 255
227 239 255
227 239 255
227 239 255
227 239 255
227 239 255
227 239 255
227 239 255
227 239 255
227 239 255
227 239 255
218 230 245
208 220 232
198 210 221
178 191 197
173 186 194
151 165 169
138 154 153
122 137 136
116 132 131
115 130 128
110 126 122
112 128 124
105 120 113
97 113 107
95 113 102
112 127 121
124 138 141
108 122 121
126 140 142
120 133 135
108 124 118
105 120 116
90 106 98
72 89 74
58 78 50
58 76 52
58 77 51
53 73 41
55 74 46
64 83 60
82 96 89
92 106 99
80 94 84
70 84 71
68 86 64
50 66 45
54 74 42
53 73 43
48 67 38
46 63 35
52 71 41
46 64 36
47 66 37
49 67 42
58 73 56
76 92 78
78 91 83
77 90 79
94 106 103
79 91 85
47 63 40
40 56 31
43 59 33
40 56 31
45 62 34
45 61 35
49 67 38
36 51 28
41 57 32
42 59 33
44 61 34
40 56 31
41 57 31
46 63 36
44 59 39
60 73 63
80 91 87
72 84 77
64 79 66
51 63 52
39 52 33
44 59 39
39 52 34
39 54 30
43 59 34
38 53 30
37 52 29
39 56 30
34 49 26
45 61 36
42 58 33
38 51 29
31 45 23
41 57 31
52 64 52
82 93 91
82 92 92
65 75 70
85 96 93
75 86 83
69 81 74
54 65 57
69 79 74
70 80 78
67 78 73
59 69 62
71 83 78
74 85 82
62 73 65
37 49 32
47 60 44
52 63 54
46 58 43
55 65 58
65 74 72
76 86 85
51 62 53
53 61 59
57 66 62
67 77 74
50 61 52
59 71 63
60 69 66
57 70 54
60 69 64
70 78 78
50 61 53
62 71 68
54 65 57
47 56 49
29 40 21
26 37 19
27 39 20
33 46 26
35 49 27
35 48 27
29 41 22
32 45 25
39 54 30
36 49 27
33 47 25
31 44 24
36 49 29
30 41 23
40 54 31
35 49 27
56 66 61
54 64 58
69 81 73
67 76 75
55 66 59
58 68 62
69 80 75
50 59 53
68 78 75
69 77 77
55 65 57
80 90 88
57 66 61
67 77 72
65 76 71
83 94 91
70 81 78
41 55 36
37 51 30
31 44 24
41 57 33
32 45 25
32 44 25
42 58 32
33 46 25
41 57 31
42 58 33
34 48 25
27 40 20
40 55 32
36 51 28
44 56 41
70 80 78
69 81 71
84 94 91
85 96 94
80 93 87
79 90 87
71 83 76
82 93 89
78 91 84
77 89 85
96 109 105
82 94 91
79 91 87
86 97 96
67 81 70
37 52 29
33 46 25
45 61 35
42 59 32
43 60 34
42 58 33
42 58 33
39 54 30
50 68 40
52 71 42
45 61 36
40 57 30
49 64 42
65 78 65
89 101 96
91 104 102
95 106 104
107 120 119
87 102 92
85 98 91
82 97 88
87 102 95
75 92 76
73 89 74
62 80 60
65 81 65
91 105 98
96 109 105
103 116 115
100 114 109
110 124 123
107 121 121
116 129 130
115 128 130
115 128 127
114 128 127
109 124 120
107 121 120
91 107 95
73 90 73
83 99 88
87 104 92
101 114 113
108 122 118
105 121 116
116 130 131
108 123 122
117 132 130
84 102 84
88 104 91
98 114 104
89 106 93
104 121 110
110 128 119
110 128 119
114 130 125
120 134 133
150 163 166
161 174 179
193 206 217
197 210 221
212 224 237
225 236 253
226 237 254
227 239 255
227 239 255
227 239 255
227 239 255
227 239 255
227 239 255
227 239 255
227 239 255
227 239 255
227 239 255
227 239 255
227 239 255
227 239 255
227 239 255
227 239 255
227 239 255
227 239 255
227 239 255
227 239 255
227 239 255
227 239 255
227 239 255
227 239 255
227 239 255
227 239 255
227 239 255
227 239 255
227 239 255
227 239 255
227 239 255
227 239 255
227 239 255
227 239 255
227 239 255
227 239 255
227 239 255
227 239 255
227 239 255
227 239 255
227 239 255
227 239 255
227 239 255
227 239 255
227 239 255
227 239 255
227 239 255
227 239 255
227 239 255
227 239 255
227 239 255
227 239 255
227 239 255
227 239 255
227 239 255
227 239 255
227 239 255
227 239 255
227 239 255
227 239 255
227 239 255
227 239 255
227 239 255
227 239 255
227 239 255
227 239 255
227 239 255
227 239 255
227 239 255
227 239 255
227 239 255
227 239 255
227 239 255
227 239 255
227 239 255
227 239 255
227 239 255
227 239 255
227 239 255
227 239 255
227 239 255
227 239 255
227 239 255
227 239 255
227 239 255
227 239 255
227 239 255
227 239 255
227 239 255
227 239 255
227 239 255
227 239 255
227 239 255
227 239 255
227 239 255
227 239 255
227 239 255
227 239 255
227 239 255
227 239 255
227 239 255
227 239 255
227 239 255
227 239 255
227 239 255
227 239 255
227 239 255
227 239 255
227 239 255
227 239 255
227 239 255
227 239 255
227 239 255
227 239 255
227 239 255
227 239 255
227 239 255
227 239 255
227 239 255
227 239 255
227 239 255
227 239 255
227 239 255
227 239 255
227 239 255
227 239 255
227 239 255
227 239 255
227 239 255
227 239 255
227 239 255
227 239 255
227 239 255
227 239 255
227 239 255
227 239 255
227 239 255
227 239 255
227 239 255
227 239 255
227 239 255
227 239 255
227 239 255
227 239 255
227 239 255
227 239 255
227 239 255
227 239 255
227 239 255
227 239 255
227 239 255
222 234 249
210 222 236
203 215 227
173 186 194
163 177 184
150 165 167
133 148 147
105 122 115
105 123 113
87 105 90
113 128 124
114 129 127
108 124 118
96 111 102
88 105 92
74 92 71
75 92 75
89 104 97
109 124 121
100 115 110
82 97 84
79 96 80
71 88 68
70 89 65
57 77 48
57 77 45
54 72 46
66 85 60
60 77 56
73 92 71
87 102 93
92 106 97
100 113 111
106 119 120
91 105 98
89 104 95
50 68 39
47 65 36
57 77 46
47 66 37
50 69 39
62 81 56
70 84 73
60 77 57
78 91 82
86 99 90
92 105 101
90 103 96
84 97 89
91 105 99
105 117 117
99 111 111
98 110 110
54 71 45
48 65 38
50 69 41
48 66 38
46 64 36
45 63 36
43 59 38
51 64 49
63 80 58
58 73 56
81 94 88
62 75 64
91 104 102
91 105 99
77 90 83
78 89 85
76 89 84
76 88 81
43 60 33
39 55 31
38 54 29
40 56 31
41 57 31
41 57 33
39 55 30
45 62 35
43 58 34
42 58 33
38 53 30
37 53 29
43 58 35
45 61 36
35 49 27
42 55 36
42 58 33
66 79 68
81 93 91
84 94 92
65 75 71
69 80 72
61 71 65
53 65 52
54 67 54
41 54 36
35 50 27
48 61 46
36 50 28
38 52 30
44 60 34
34 46 26
37 51 29
41 56 32
54 66 54
93 103 104
82 92 91
89 99 99
64 74 69
61 70 66
82 93 91
62 71 68
64 74 70
61 71 66
83 94 90
60 69 64
78 89 86
70 80 78
83 92 93
82 93 91
68 79 72
67 77 73
56 66 59
39 54 30
33 46 25
35 48 28
33 45 26
30 43 23
42 57 33
33 45 25
30 43 22
35 48 27
36 50 28
25 37 19
37 52 29
38 53 30
34 47 26
38 52 29
38 51 35
54 65 56
68 77 74
72 83 78
83 95 90
70 78 79
66 75 71
82 93 90
64 74 70
50 60 51
81 92 88
90 101 102
72 82 79
62 71 68
76 86 85
63 75 67
74 84 81
62 72 65
41 55 35
45 58 43
56 68 56
42 57 38
41 55 36
40 53 35
38 50 34
43 58 37
42 56 37
45 60 39
60 73 60
47 61 45
52 65 50
47 62 42
51 64 49
86 96 95
91 103 101
91 101 102
83 94 94
77 89 84
96 108 107
74 87 79
80 91 88
77 90 80
83 93 92
91 102 102
77 89 83
90 102 99
91 104 101
77 88 85
53 68 52
34 49 26
48 66 38
48 67 38
35 49 27
46 64 36
48 67 38
40 57 31
48 66 38
50 68 39
40 56 31
43 61 33
44 61 38
64 77 65
87 101 94
118 130 133
101 114 114
97 111 105
115 127 131
101 113 111
104 116 119
93 105 101
103 116 115
98 111 109
106 120 118
102 116 114
100 113 111
89 103 96
88 102 97
93 107 100
97 111 106
100 114 111
101 115 113
113 127 127
110 123 124
114 128 128
106 119 120
100 115 112
93 108 101
63 81 60
55 73 46
56 76 48
67 86 63
80 98 80
79 98 77
88 105 92
91 108 94
99 115 108
90 107 97
65 87 54
54 75 41
74 94 71
75 94 72
80 99 78
77 98 75
104 121 109
122 138 136
136 152 153
117 134 128
130 144 140
174 188 196
181 193 202
194 206 217
203 215 227
218 230 245
226 238 254
227 239 255
227 239 255
227 239 255
227 239 255
227 239 255
227 239 255
227 239 255
227 239 255
227 239 255
227 239 255
227 239 255
227 239 255
227 239 255
227 239 255
227 239 255
227 239 255
227 239 255
227 239 255
227 239 255
227 239 255
227 239 255
227 239 255
227 239 255
227 239 255
227 239 255
227 239 255
227 239 255
227 239 255
227 239 255
227 239 255
227 239 255
227 239 255
227 239 255
227 239 255
227 239 255
227 239 255
227 239 255
227 239 255
227 239 255
227 239 255
227 239 255
227 239 255
227 239 255
227 239 255
227 239 255
227 239 255
227 239 255
227 239 255
227 239 255
227 239 255
227 239 255
227 239 255
227 239 255
227 239 255
227 239 255
227 239 255
227 239 255
227 239 255
227 239 255
227 239 255
227 239 255
227 239 255
227 239 255
227 239 255
227 239 255
227 239 255
227 239 255
227 239 255
227 239 255
227 239 255
227 239 255
227 239 255
227 239 255
227 239 255
227 239 255
227 239 255
227 239 255
227 239 255
227 239 255
227 239 255
227 239 255
227 239 255
227 239 255
227 239 255
227 239 255
227 239 255
227 239 255
227 239 255
227 239 255
227 239 255
227 239 255
227 239 255
227 239 255
227 239 255
227 239 255
227 239 255
227 239 255
227 239 255
227 239 255
227 239 255
227 239 255
227 239 255
227 239 255
227 239 255
227 239 255
227 239 255
227 239 255
227 239 255
227 239 255
227 239 255
227 239 255
227 239 255
227 239 255
227 239 255
227 239 255
227 239 255
227 239 255
227 239 255
227 239 255
227 239 255
227 239 255
227 239 255
227 239 255
227 239 255
227 239 255
227 239 255
227 239 255
227 239 255
227 239 255
227 239 255
227 239 255
227 239 255
227 239 255
227 239 255
227 239 255
227 239 255
227 239 255
227 239 255
227 239 255
227 239 255
227 239 255
227 239 255
227 239 255
224 236 252
220 232 247
200 212 224
189 202 210
161 176 179
171 184 191
138 154 152
129 145 141
103 122 110
102 119 108
71 91 66
83 101 84
67 88 61
76 96 77
90 107 96
86 105 86
73 94 65
74 94 70
66 85 60
87 104 90
86 101 94
105 120 116
87 103 92
63 82 57
57 76 49
54 75 43
61 81 55
49 68 39
61 80 57
71 87 70
83 98 89
97 111 106
107 123 116
110 127 125
105 119 116
126 140 144
125 138 139
106 120 117
107 120 121
97 110 106
54 70 48
58 76 52
68 84 65
61 78 59
89 103 96
97 111 106
94 109 102
94 107 104
106 120 115
93 105 102
101 113 113
83 97 90
98 111 110
101 114 112
85 97 96
96 109 107
103 115 117
84 98 90
47 65 36
50 65 42
60 76 56
53 67 50
79 93 83
89 102 97
88 100 99
82 95 90
80 92 86
83 95 92
90 102 102
85 97 95
80 94 86
90 102 101
82 94 89
83 96 89
75 87 80
61 76 62
40 57 31
38 52 29
42 59 33
46 63 37
40 56 31
43 59 33
42 58 33
41 57 31
48 64 41
35 49 28
54 66 57
66 80 68
58 71 57
77 89 81
70 82 76
74 85 81
74 83 82
58 70 58
41 56 32
45 60 39
38 53 30
39 54 29
43 59 33
44 60 35
46 62 36
38 53 30
38 53 30
35 49 27
37 51 29
40 56 31
37 51 29
36 50 27
35 49 27
39 54 30
58 67 63
84 95 92
64 74 70
67 77 72
64 76 68
53 63 53
64 73 69
87 98 98
75 85 83
71 83 77
68 80 70
67 77 73
76 87 81
69 80 76
62 73 65
69 80 73
95 106 107
76 86 83
51 61 55
31 43 24
40 53 35
36 48 31
39 52 35
52 64 51
41 55 37
31 45 22
43 58 36
50 60 51
45 55 47
47 60 42
67 77 74
59 71 62
65 74 70
66 76 72
70 81 77
66 78 70
40 51 38
56 68 55
67 81 69
56 70 52
41 52 40
46 60 40
42 58 33
43 56 38
36 50 27
34 48 25
40 53 34
52 64 53
39 53 34
50 64 47
36 52 28
62 73 65
88 99 100
80 91 90
86 98 95
85 97 94
62 74 65
81 93 89
79 90 86
86 96 97
78 91 84
72 84 77
91 101 103
73 86 80
87 98 96
91 103 103
86 98 95
86 97 97
67 81 71
57 70 57
59 72 61
56 69 55
66 79 69
61 72 63
71 83 77
69 82 70
85 97 93
65 78 67
76 89 80
83 96 88
80 91 88
76 89 81
49 64 44
60 74 62
60 75 59
47 63 41
65 82 64
57 73 51
58 74 55
45 60 38
47 64 37
46 64 36
48 66 38
48 66 37
54 73 43
68 81 70
98 111 109
101 114 112
108 122 120
108 122 121
80 94 85
111 125 124
106 120 116
93 106 103
106 118 117
104 117 115
101 114 112
105 119 116
90 106 99
84 100 90
61 79 56
50 67 41
57 77 48
66 82 67
80 94 85
90 106 95
93 107 103
109 124 120
117 132 130
108 122 121
80 96 84
68 88 65
54 74 43
50 70 39
57 78 45
55 76 44
59 81 47
70 89 65
69 87 65
71 91 68
74 93 74
82 100 84
83 101 86
89 105 90
83 102 82
69 89 63
67 88 58
107 124 118
130 144 148
125 139 142
117 133 131
121 137 132
121 136 135
137 152 156
161 174 183
179 192 201
200 213 225
211 223 238
222 234 250
224 236 252
227 239 255
227 239 255
227 239 255
227 239 255
227 239 255
227 239 255
227 239 255
227 239 255
227 239 255
227 239 255
227 239 255
227 239 255
227 239 255
227 239 255
227 239 255
227 239 255
227 239 255
227 239 255
227 239 255
227 239 255
227 239 255
227 239 255
227 239 255
227 239 255
227 239 255
227 239 255
227 239 255
227 239 255
227 239 255
227 239 255
227 239 255
227 239 255
227 239 255
227 239 255
227 239 255
227 239 255
227 239 255
227 239 255
227 239 255
227 239 255
227 239 255
227 239 255
227 239 255
227 239 255
227 239 255
227 239 255
227 239 255
227 239 255
227 239 255
227 239 255
227 239 255
227 239 255
227 239 255
227 239 255
227 239 255
227 239 255
227 239 255
227 239 255
227 239 255
227 239 255
227 239 255
227 239 255
227 239 255
227 239 255
227 239 255
227 239 255
227 239 255
227 239 255
227 239 255
227 239 255
227 239 255
227 239 255
227 239 255
227 239 255
227 239 255
227 239 255
227 239 255
227 239 255
227 239 255
227 239 255
227 239 255
227 239 255
227 239 255
227 239 255
227 239 255
227 239 255
227 239 255
227 239 255
227 239 255
227 239 255
227 239 255
227 239 255
227 239 255
227 239 255
227 239 255
227 239 255
227 239 255
227 239 255
227 239 255
227 239 255
227 239 255
227 239 255
227 239 255
227 239 255
227 239 255
227 239 255
227 239 255
227 239 255
227 239 255
227 239 255
227 239 255
227 239 255
227 239 255
227 239 255
227 239 255
227 239 255
227 239 255
227 239 255
227 239 255
227 239 255
227 239 255
227 239 255
227 239 255
227 239 255
227 239 255
227 239 255
227 239 255
227 239 255
227 239 255
227 239 255
227 239 255
227 239 255
227 239 255
227 239 255
227 239 255
227 239 255
227 239 255
220 231 247
218 230 245
206 218 231
187 200 209
164 178 182
140 155 153
128 142 141
121 138 132
120 137 134
97 115 103
87 107 89
82 99 86
87 106 89
99 117 106
107 122 117
67 88 61
67 87 61
65 86 56
81 101 77
100 116 108
105 121 112
124 138 141
119 134 134
128 144 147
120 134 136
95 110 103
67 85 63
69 87 67
71 89 70
96 111 104
111 126 123
109 124 123
109 124 119
101 115 109
126 140 141
101 115 112
117 131 130
99 114 108
115 127 129
117 130 133
110 123 123
109 123 123
99 114 108
93 107 102
83 98 89
87 101 94
120 133 136
110 123 124
101 114 112
106 119 121
95 108 102
91 103 99
104 118 117
98 110 110
100 113 114
109 123 121
97 111 108
83 97 87
93 105 103
94 107 103
71 86 72
80 92 86
92 104 102
95 108 104
101 116 112
95 108 106
108 121 118
107 119 120
97 109 107
103 116 113
84 97 92
93 106 103
79 91 86
100 111 112
83 95 91
102 114 115
87 101 95
72 84 76
86 98 94
59 74 57
50 67 43
48 65 41
47 63 41
65 78 68
54 69 52
61 74 61
64 76 67
77 90 84
74 85 81
88 101 97
78 92 84
86 98 95
100 112 113
81 93 87
81 91 88
72 83 78
84 96 93
48 65 42
45 62 36
50 67 40
36 51 28
50 68 40
37 52 29
37 51 29
36 50 28
43 60 35
37 51 27
40 54 31
43 59 34
41 57 32
37 53 28
36 51 28
39 54 30
42 57 35
66 76 72
74 88 77
74 86 79
87 98 96
57 67 61
83 93 94
67 78 72
84 93 96
62 72 66
77 87 85
68 81 72
51 62 54
64 76 67
55 67 58
74 85 82
65 79 65
58 69 59
49 62 48
69 80 75
70 82 75
74 86 79
70 84 73
86 96 96
67 78 74
66 77 70
75 85 84
74 85 80
79 89 87
93 105 101
80 91 89
74 86 81
72 84 77
79 90 84
71 81 78
66 77 71
54 66 56
39 54 31
35 50 27
39 54 30
42 58 32
35 49 26
35 49 27
35 50 27
39 54 31
36 50 28
44 61 35
43 59 34
45 62 36
40 56 31
41 57 32
39 53 35
64 78 66
69 81 75
87 96 97
78 89 85
102 113 114
83 93 93
85 96 95
80 91 89
69 80 72
80 94 88
79 90 87
98 109 111
83 95 94
91 102 102
90 103 100
81 92 90
51 66 46
39 55 30
38 53 31
36 51 28
42 58 33
45 62 35
42 58 33
44 58 38
43 59 33
46 64 36
46 64 35
41 57 32
39 56 30
49 65 42
57 71 54
80 93 88
96 108 106
93 106 101
96 108 107
86 97 94
92 105 102
83 96 88
82 95 88
76 91 80
60 74 60
84 99 90
77 93 80
75 90 78
80 92 86
86 101 91
90 103 98
107 119 119
106 119 120
114 127 130
102 114 115
118 131 133
84 97 89
89 102 98
93 106 101
105 119 117
117 131 130
86 102 94
94 109 102
68 87 67
51 69 40
56 76 45
54 74 43
57 78 45
55 76 43
56 76 44
58 79 46
70 87 68
73 91 71
80 98 81
71 91 67
77 94 76
70 90 66
59 80 51
61 81 51
59 79 50
54 75 42
57 78 45
62 85 50
64 85 56
87 104 92
111 128 123
116 131 131
107 123 118
98 115 105
108 125 115
111 127 124
135 151 153
125 142 140
113 129 124
110 127 122
106 123 114
99 116 108
126 141 144
129 144 142
170 183 194
166 180 187
193 207 218
211 223 237
214 226 241
226 238 254
227 239 255
227 239 255
227 239 255
227 239 255
227 239 255
227 239 255
227 239 255
227 239 255
227 239 255
227 239 255
227 239 255
227 239 255
227 239 255
227 239 255
227 239 255
227 239 255
227 239 255
227 239 255
227 239 255
227 239 255
227 239 255
227 239 255
227 239 255
227 239 255
227 239 255
227 239 255
227 239 255
227 239 255
227 239 255
227 239 255
227 239 255
227 239 255
227 239 255
227 239 255
227 239 255
227 239 255
227 239 255
227 239 255
227 239 255
227 239 255
227 239 255
227 239 255
227 239 255
227 239 255
227 239 255
227 239 255
227 239 255
227 239 255
227 239 255
227 239 255
227 239 255
227 239 255
227 239 255
227 239 255
227 239 255
227 239 255
227 239 255
227 239 255
227 239 255
227 239 255
227 239 255
227 239 255
227 239 255
227 239 255
227 239 255
227 239 255
227 239 255
227 239 255
227 239 255
227 239 255
227 239 255
227 239 255
227 239 255
227 239 255
227 239 255
227 239 255
227 239 255
227 239 255
227 239 255
227 239 255
227 239 255
227 239 255
227 239 255
227 239 255
227 239 255
227 239 255
227 239 255
227 239 255
227 239 255
227 239 255
227 239 255
227 239 255
227 239 255
227 239 255
227 239 255
227 239 255
227 239 255
227 239 255
227 239 255
227 239 255
227 239 255
227 239 255
227 239 255
227 239 255
227 239 255
227 239 255
227 239 255
227 239 255
227 239 255
227 239 255
227 239 255
227 239 255
227 239 255
227 239 255
227 239 255
227 239 255
227 239 255
227 239 255
227 239 255
227 239 255
227 239 255
227 239 255
227 239 255
227 239 255
227 239 255
227 239 255
227 239 255
227 239 255
227 239 255
227 239 255
227 239 255
224 236 252
219 231 246
200 212 224
193 205 216
156 170 174
123 138 133
122 137 132
120 137 132
105 122 113
130 146 148
122 138 137
121 138 136
111 127 121
116 132 127
119 134 131
142 158 162
109 126 117
92 111 97
88 106 93
103 121 112
115 131 127
119 135 133
124 138 141
132 146 149
123 138 137
132 148 151
114 130 127
115 131 127
103 119 112
95 111 101
113 130 124
101 116 113
116 130 131
113 128 130
122 136 139
111 127 122
117 130 130
115 130 128
109 124 125
114 127 126
96 111 105
84 101 87
76 91 79
73 91 72
52 72 41
55 74 46
87 103 94
104 118 114
115 127 128
104 118 116
114 126 130
114 129 127
111 125 123
129 141 145
116 129 129
105 119 117
97 112 105
101 115 113
82 97 87
85 98 92
61 76 57
64 79 62
46 64 39
44 62 35
81 94 87
107 121 119
112 125 126
83 94 90
100 113 112
101 115 111
108 121 120
106 118 119
92 104 102
96 109 106
110 123 125
86 99 94
81 94 87
100 113 112
104 116 116
97 110 108
93 104 105
89 102 98
72 85 76
75 87 80
91 102 100
86 98 93
83 96 90
94 107 104
99 111 110
90 103 98
76 87 84
94 106 105
79 92 86
91 102 101
76 87 83
85 97 94
89 100 98
84 95 93
77 88 83
76 87 82
66 80 70
45 61 38
42 58 33
45 62 37
36 52 27
47 64 37
37 53 29
43 60 33
40 55 31
48 66 37
45 61 35
39 55 31
40 57 31
45 62 36
51 65 47
43 59 34
58 70 59
51 62 51
79 91 86
68 80 71
73 84 78
61 75 60
57 70 55
56 71 54
58 75 53
55 70 52
42 58 32
34 49 26
36 50 28
36 50 28
37 51 29
34 49 26
42 57 32
42 59 33
37 53 29
51 61 53
70 80 76
90 101 99
94 105 106
90 101 103
75 86 81
80 90 90
80 90 88
67 81 69
87 98 95
79 90 88
86 98 94
74 87 81
82 94 91
73 84 79
86 98 95
73 83 81
79 91 86
58 72 58
39 54 31
38 53 29
42 59 31
40 55 31
41 56 32
47 65 38
41 56 32
41 58 31
41 57 32
38 52 29
44 61 34
41 57 31
36 51 28
48 65 38
59 74 55
79 91 85
93 104 102
86 98 96
96 108 107
86 97 95
86 97 93
90 101 101
89 100 98
84 96 94
84 95 91
83 94 94
90 101 98
83 95 91
85 97 93
83 96 89
79 90 86
62 75 61
41 57 32
54 74 43
42 60 32
42 59 33
49 67 38
48 67 38
46 63 37
48 66 38
48 65 37
41 58 31
48 66 38
48 67 38
45 62 34
55 69 52
74 87 77
99 111 110
104 117 116
112 124 130
96 109 107
107 120 119
101 113 113
103 115 113
86 98 94
103 119 112
113 126 127
96 109 107
94 106 102
106 121 117
84 98 92
86 101 92
80 96 83
80 95 82
91 106 98
87 102 94
88 102 98
94 108 104
108 123 120
108 121 120
108 122 122
111 126 123
108 122 119
91 105 94
71 88 72
56 76 45
48 67 37
53 73 42
50 69 39
56 77 45
48 66 38
53 74 42
53 73 42
56 76 44
54 73 42
83 101 83
105 121 113
113 127 128
111 126 125
82 99 86
90 106 92
81 98 84
79 97 79
67 87 62
69 92 62
88 104 93
102 116 113
122 138 136
133 148 150
129 144 149
128 144 146
117 134 131
107 123 117
103 119 110
110 128 121
69 89 65
73 96 66
87 108 86
87 107 86
113 129 121
110 128 122
126 143 140
134 149 148
167 180 184
172 186 192
199 211 223
218 230 245
223 235 251
227 239 255
227 239 255
227 239 255
227 239 255
227 239 255
227 239 255
227 239 255
227 239 255
227 239 255
227 239 255
227 239 255
227 239 255
227 239 255
227 239 255
227 239 255
227 239 255
227 239 255
227 239 255
227 239 255
227 239 255
227 239 255
227 239 255
227 239 255
227 239 255
227 239 255
227 239 255
227 239 255
227 239 255
227 239 255
227 239 255
227 239 255
227 239 255
227 239 255
227 239 255
227 239 255
227 239 255
227 239 255
227 239 255
227 239 255
227 239 255
227 239 255
227 239 255
227 239 255
227 239 255
227 239 255
227 239 255
227 239 255
227 239 255
227 239 255
227 239 255
227 239 255
227 239 255
227 239 255
227 239 255
227 239 255
227 239 255
227 239 255
227 239 255
227 239 255
227 239 255
227 239 255
227 239 255
227 239 255
227 239 255
227 239 255
227 239 255
227 239 255
227 239 255
227 239 255
227 239 255
227 239 255
227 239 255
227 239 255
227 239 255
227 239 255
227 239 255
227 239 255
227 239 255
227 239 255
227 239 255
227 239 255
227 239 255
227 239 255
227 239 255
227 239 255
227 239 255
227 239 255
227 239 255
227 239 255
227 239 255
227 239 255
227 239 255
227 239 255
227 239 255
227 239 255
227 239 255
227 239 255
227 239 255
227 239 255
227 239 255
227 239 255
227 239 255
227 239 255
227 239 255
227 239 255
227 239 255
227 239 255
227 239 255
227 239 255
227 239 255
227 239 255
227 239 255
227 239 255
227 239 255
227 239 255
227 239 255
227 239 255
227 239 255
227 239 255
227 239 255
227 239 255
227 239 255
227 239 255
227 239 255
227 239 255
224 236 251
216 228 242
201 213 224
174 188 195
158 172 177
142 157 155
115 131 124
112 129 121
118 134 132
135 152 152
133 148 152
122 138 133
106 125 113
85 104 85
75 94 73
104 121 113
131 146 146
111 128 123
114 130 126
118 134 130
115 129 128
127 140 143
132 147 152
120 134 134
127 141 144
123 137 139
117 131 130
100 117 107
96 111 103
85 102 90
64 84 56
65 86 57
103 120 111
111 124 123
140 154 161
118 132 134
125 140 142
122 135 139
108 122 122
108 123 118
99 116 106
72 89 73
63 82 58
58 79 50
54 75 43
56 77 46
54 74 42
52 73 41
47 67 38
71 89 68
90 104 97
122 135 138
102 116 113
109 123 121
122 135 137
97 112 105
99 112 110
72 88 71
59 76 56
58 76 53
58 76 51
58 79 46
50 68 39
48 66 38
49 68 39
51 69 40
48 67 38
61 79 56
78 93 81
107 120 120
105 116 118
92 106 102
98 111 106
105 117 118
113 126 127
95 107 104
89 101 99
77 91 82
76 90 81
87 100 92
66 80 65
75 89 80
59 74 58
49 66 41
52 71 41
53 69 49
96 110 104
88 101 99
86 99 96
93 106 104
79 92 85
86 98 94
100 111 112
95 107 106
96 108 106
78 92 84
98 111 108
94 106 105
97 109 108
98 110 109
79 92 86
98 111 109
103 116 117
75 87 79
61 74 63
45 63 36
40 57 31
43 59 33
48 63 44
55 71 53
57 73 53
42 55 36
75 89 79
68 80 68
68 82 71
70 83 75
80 93 83
73 85 78
69 83 71
99 112 109
88 100 98
75 86 84
55 71 51
40 56 31
40 56 31
38 53 29
43 59 34
43 59 34
41 57 32
40 56 31
41 56 32
49 67 39
47 65 37
36 51 28
41 57 32
45 62 36
43 59 33
36 50 28
49 67 39
53 66 52
79 93 84
81 91 91
82 94 92
83 97 90
88 101 98
77 88 85
77 88 84
93 106 102
96 108 107
94 105 106
85 96 93
83 94 91
69 82 74
101 115 113
87 100 97
89 99 98
69 84 69
42 58 33
43 59 34
41 57 31
39 55 30
48 66 39
36 51 28
39 54 30
37 52 29
43 59 34
41 57 32
39 55 31
39 55 30
44 60 34
42 59 33
40 58 31
51 66 47
93 106 104
103 117 116
89 100 100
82 94 87
86 96 97
97 110 107
97 110 109
107 119 121
91 103 101
93 105 104
76 88 83
94 107 103
99 112 108
89 101 99
83 95 92
81 96 84
56 69 56
39 56 29
51 70 40
47 65 36
42 59 32
46 64 36
51 70 41
42 58 32
51 70 40
51 69 40
44 62 34
47 65 37
49 67 38
41 57 32
58 74 54
79 94 82
105 119 115
91 104 102
105 118 118
94 110 103
89 104 95
92 106 101
106 120 121
109 123 122
96 110 104
111 123 125
115 128 130
101 114 112
106 121 119
84 96 92
52 72 41
57 78 46
46 63 35
48 67 38
52 71 44
59 79 52
70 87 69
69 84 68
76 94 73
76 93 78
94 110 102
90 106 97
79 93 83
64 81 60
66 85 61
58 76 52
64 85 57
57 76 47
50 68 42
49 68 38
57 78 46
58 79 45
56 77 44
57 77 45
79 96 81
109 123 124
116 131 130
121 135 139
134 149 151
124 138 139
108 124 120
108 124 120
101 116 109
82 100 84
91 108 94
106 122 118
109 124 122
132 146 151
124 138 140
114 130 125
74 94 70
71 94 62
84 104 83
76 95 74
66 88 54
71 93 64
71 92 64
69 91 60
85 107 85
84 103 86
85 106 82
87 108 85
96 114 99
126 140 138
159 173 174
179 193 199
200 213 224
212 224 238
225 237 253
226 238 254
227 239 255
227 239 255
227 239 255
227 239 255
227 239 255
227 239 255
227 239 255
227 239 255
227 239 255
227 239 255
227 239 255
227 239 255
227 239 255
227 239 255
227 239 255
227 239 255
227 239 255
227 239 255
227 239 255
227 239 255
227 239 255
227 239 255
227 239 255
227 239 255
227 239 255
227 239 255
227 239 255
227 239 255
227 239 255
227 239 255
227 239 255
227 239 255
227 239 255
227 239 255
227 239 255
227 239 255
227 239 255
227 239 255
227 239 255
227 239 255
227 239 255
227 239 255
227 239 255
227 239 255
227 239 255
227 239 255
227 239 255
227 239 255
227 239 255
227 239 255
227 239 255
227 239 255
227 239 255
227 239 255
227 239 255
227 239 255
227 239 255
227 239 255
227 239 255
227 239 255
227 239 255
227 239 255
227 239 255
227 239 255
227 239 255
227 239 255
227 239 255
227 239 255
227 239 255
227 239 255
227 239 255
227 239 255
227 239 255
227 239 255
227 239 255
227 239 255
227 239 255
227 239 255
227 239 255
227 239 255
227 239 255
227 239 255
227 239 255
227 239 255
227 239 255
227 239 255
227 239 255
227 239 255
227 239 255
227 239 255
227 239 255
227 239 255
227 239 255
227 239 255
227 239 255
227 239 255
227 239 255
227 239 255
227 239 255
227 239 255
227 239 255
227 239 255
227 239 255
227 239 255
227 239 255
227 239 255
227 239 255
227 239 255
227 239 255
227 239 255
227 239 255
227 239 255
227 239 255
227 239 255
227 239 255
227 239 255
227 239 255
227 239 255
223 234 250
212 224 238
200 212 225
185 198 207
146 160 160
135 150 145
103 122 110
116 134 128
119 137 134
136 152 153
126 142 137
114 132 128
105 124 111
85 103 86
82 104 78
64 86 55
76 98 69
80 100 78
98 115 105
88 106 90
90 107 93
83 102 85
114 129 126
124 139 142
139 155 159
126 141 142
111 126 122
94 110 101
89 106 92
67 89 56
67 87 61
67 88 58
63 85 51
59 80 47
64 87 52
80 96 86
118 134 131
116 131 129
104 118 113
98 113 105
83 99 88
76 93 74
51 70 40
60 79 53
55 75 43
53 73 42
54 74 42
58 79 46
52 72 41
54 75 42
55 75 44
55 76 43
63 81 58
88 104 93
105 119 118
84 100 90
74 89 76
67 83 66
63 79 64
64 81 58
54 71 49
46 65 36
50 69 39
57 78 46
48 67 37
56 77 45
45 63 35
50 69 39
45 64 36
61 83 49
49 66 42
76 91 78
103 117 116
106 118 118
97 110 106
90 103 101
84 96 90
94 108 101
53 68 51
68 86 64
46 64 36
51 68 43
52 71 42
44 61 34
54 74 44
48 66 38
45 63 35
45 63 35
48 65 41
79 92 86
71 83 74
106 119 119
91 105 97
102 114 114
88 102 96
98 111 109
101 113 113
104 117 115
106 118 116
90 103 100
95 107 107
82 93 92
97 109 109
91 104 101
93 104 102
97 110 106
85 97 94
69 81 75
77 90 84
77 90 82
73 85 78
85 98 89
65 77 67
86 100 93
102 115 114
96 108 106
89 101 98
67 80 73
85 96 94
93 104 102
81 93 89
100 112 112
88 103 92
77 91 82
93 104 105
80 93 85
47 65 37
35 50 27
46 62 36
36 50 28
43 59 33
42 58 33
48 66 38
44 61 35
48 66 38
44 60 34
44 60 34
34 49 26
40 56 31
43 59 34
42 58 32
45 62 36
48 63 41
79 91 84
97 108 109
89 101 98
85 98 95
109 121 122
91 104 99
66 76 72
89 101 98
90 100 100
97 108 108
78 90 85
74 87 79
86 98 95
89 101 97
84 96 93
80 91 86
85 96 94
71 83 75
44 61 34
37 52 29
43 60 34
35 50 26
45 62 35
43 60 34
49 66 42
42 58 32
51 68 43
49 68 39
44 59 38
44 61 35
48 64 41
44 61 35
39 55 30
59 74 58
73 85 78
97 109 109
98 111 107
88 101 94
96 107 108
83 96 89
82 94 90
103 115 116
102 114 115
94 105 107
91 103 101
106 119 119
82 94 87
90 101 99
100 113 113
94 106 102
50 67 41
48 67 38
45 63 36
48 66 38
46 63 35
43 60 33
46 65 35
44 62 35
52 72 41
48 67 38
51 70 41
47 65 37
51 70 40
55 75 44
64 82 58
86 99 93
109 123 122
121 132 138
109 123 121
110 123 122
102 115 115
103 117 117
112 126 127
103 117 115
102 116 114
110 122 123
110 122 122
98 113 106
101 114 113
94 109 101
59 78 53
52 71 41
51 70 40
52 72 41
53 72 42
52 72 41
56 77 44
45 63 36
51 71 40
51 71 40
50 69 39
65 84 60
61 79 56
95 111 102
105 119 119
99 114 106
110 126 123
88 102 95
92 109 98
83 99 88
71 90 67
63 80 59
62 80 57
60 81 51
72 93 65
103 118 115
119 134 133
120 136 136
121 135 136
129 144 147
127 142 145
121 136 139
130 144 148
121 135 136
123 139 139
127 142 144
112 128 123
100 116 110
118 134 134
109 125 120
71 92 64
68 89 59
64 87 52
67 90 57
70 91 65
99 116 105
115 131 129
106 124 113
97 116 99
95 115 96
85 104 85
79 101 74
73 95 69
95 115 97
127 143 140
132 148 146
149 162 162
169 183 185
190 202 211
215 227 241
222 234 249
226 238 254
227 239 255
227 239 255
227 239 255
227 239 255
227 239 255
227 239 255
227 239 255
227 239 255
227 239 255
227 239 255
227 239 255
227 239 255
227 239 255
227 239 255
227 239 255
227 239 255
227 239 255
227 239 255
227 239 255
227 239 255
227 239 255
227 239 255
227 239 255
227 239 255
227 239 255
227 239 255
227 239 255
227 239 255
227 239 255
227 239 255
227 239 255
227 239 255
227 239 255
227 239 255
227 239 255
227 239 255
227 239 255
227 239 255
227 239 255
227 239 255
227 239 255
227 239 255
227 239 255
227 239 255
227 239 255
227 239 255
227 239 255
227 239 255
227 239 255
227 239 255
227 239 255
227 239 255
227 239 255
227 239 255
227 239 255
227 239 255
227 239 255
227 239 255
227 239 255
227 239 255
227 239 255
227 239 255
227 239 255
227 239 255
227 239 255
227 239 255
227 239 255
227 239 255
227 239 255
227 239 255
227 239 255
227 239 255
227 239 255
227 239 255
227 239 255
227 239 255
227 239 255
227 239 255
227 239 255
227 239 255
227 239 255
227 239 255
227 239 255
227 239 255
227 239 255
227 239 255
227 239 255
227 239 255
227 239 255
227 239 255
227 239 255
227 239 255
227 239 255
227 239 255
227 239 255
227 239 255
227 239 255
227 239 255
227 239 255
227 239 255
227 239 255
227 239 255
227 239 255
227 239 255
228 239 255
227 239 255
228 239 255
228 239 255
227 239 255
227 239 255
227 239 255
227 238 254
219 231 246
221 233 248
195 208 218
188 200 211
172 185 193
145 159 160
122 138 134
117 134 129
116 133 130
131 147 149
125 141 140
100 117 107
89 107 93
82 103 81
78 100 74
68 88 63
83 104 80
86 104 90
106 123 113
119 135 131
126 141 141
124 141 143
78 98 77
69 91 60
88 107 87
122 137 137
97 112 104
89 108 93
88 106 91
70 91 63
62 82 55
60 82 48
55 76 43
56 77 44
61 83 48
60 80 54
72 93 69
83 98 86
89 106 96
91 108 96
70 88 65
64 83 57
53 74 42
58 78 50
59 80 47
48 68 37
60 83 48
56 77 45
51 72 40
52 72 41
58 78 49
67 85 62
70 88 68
77 92 81
96 111 102
99 114 111
110 124 123
68 84 66
58 78 47
56 77 45
54 75 42
49 69 38
53 73 42
56 77 44
42 59 31
50 68 39
49 68 38
54 74 44
54 74 43
55 76 44
50 70 39
45 64 35
56 76 44
69 87 67
88 103 94
91 105 99
70 84 75
74 89 78
49 66 42
51 69 42
47 65 37
56 75 45
49 68 39
42 59 32
48 65 38
50 69 40
40 57 31
56 76 45
49 67 39
47 65 36
44 63 34
50 69 40
47 63 42
101 115 111
101 112 115
103 115 117
98 111 110
100 113 113
86 98 93
93 107 102
94 107 104
92 103 104
96 108 106
78 90 84
85 98 94
80 94 86
69 85 70
67 81 68
53 70 48
47 62 41
48 65 42
76 89 80
94 106 104
73 86 77
111 125 124
93 105 102
84 95 91
87 99 95
94 106 102
92 105 102
97 109 110
94 107 108
88 100 97
96 107 106
99 111 109
92 105 100
86 97 97
85 97 93
91 102 99
67 80 70
45 62 36
45 63 35
47 65 37
48 65 37
37 52 29
42 58 33
46 64 36
46 63 36
42 58 33
45 61 35
50 69 40
50 68 40
43 60 34
44 61 35
42 58 32
42 58 32
56 70 56
63 76 64
91 104 99
93 106 105
95 107 106
86 99 90
86 96 95
85 99 92
86 99 95
90 103 99
82 93 91
90 103 99
84 96 93
75 89 82
86 96 96
81 95 87
85 98 96
67 81 69
63 77 65
69 83 73
55 68 55
70 84 72
67 79 71
92 104 105
63 76 66
73 85 78
62 76 62
88 100 94
78 90 84
69 81 71
86 99 92
91 106 99
67 81 72
92 104 105
89 101 98
75 89 78
47 62 40
62 75 64
55 70 52
54 69 49
49 63 45
54 69 53
58 72 57
61 75 61
69 85 71
55 71 49
71 84 77
59 73 58
69 83 71
69 84 71
66 80 70
77 90 85
86 99 95
77 90 79
85 100 92
95 109 104
77 92 78
64 80 64
67 81 69
75 90 79
87 102 91
84 96 93
77 91 82
65 82 63
57 74 50
61 76 59
86 100 93
109 123 122
108 121 121
106 120 118
90 103 98
101 115 111
105 119 117
97 111 110
115 126 129
121 135 136
108 122 121
98 112 106
96 111 104
112 126 125
89 103 94
67 85 63
55 76 43
55 75 44
58 79 46
50 69 39
54 73 43
61 83 49
53 72 42
55 75 44
49 68 38
60 82 48
55 75 43
63 82 59
100 114 110
119 135 133
124 138 140
113 127 123
102 116 112
121 137 136
103 117 112
113 128 125
95 111 99
99 115 105
101 115 108
95 113 102
113 127 127
135 151 154
139 155 158
119 133 134
123 137 140
133 148 151
129 143 145
127 143 145
130 145 148
131 146 147
125 139 139
118 134 129
87 103 90
115 131 129
107 124 115
109 126 117
107 124 118
91 108 100
75 95 74
68 87 64
90 107 97
117 133 134
128 144 144
127 144 141
130 146 145
115 131 125
103 121 107
102 121 107
121 140 130
127 143 142
121 139 134
126 142 135
126 143 134
152 167 167
172 186 192
202 215 227
220 232 247
225 237 253
228 239 255
228 239 255
228 239 255
228 239 255
228 239 255
227 239 255
228 239 255
227 239 255
227 239 255
227 239 255
227 239 255
227 239 255
227 239 255
227 239 255
227 239 255
227 239 255
227 239 255
227 239 255
227 239 255
227 239 255
227 239 255
227 239 255
227 239 255
227 239 255
227 239 255
227 239 255
227 239 255
227 239 255
227 239 255
227 239 255
227 239 255
227 239 255
227 239 255
227 239 255
227 239 255
227 239 255
227 239 255
227 239 255
227 239 255
227 239 255
227 239 255
227 239 255
227 239 255
227 239 255
227 239 255
227 239 255
227 239 255
227 239 255
227 239 255
227 239 255
227 239 255
227 239 255
227 239 255
227 239 255
227 239 255
227 239 255
227 239 255
227 239 255
227 239 255
227 239 255
227 239 255
227 239 255
227 239 255
227 239 255
227 239 255
227 239 255
227 239 255
227 239 255
227 239 255
227 239 255
227 239 255
227 239 255
227 239 255
227 239 255
227 239 255
227 239 255
227 239 255
227 239 255
227 239 255
228 239 255
228 239 255
227 239 255
228 239 255
228 239 255
228 239 255
228 239 255
228 239 255
228 239 255
228 239 255
228 239 255
228 239 255
228 239 255
228 239 255
228 239 255
228 239 255
228 239 255
228 239 255
228 239 255
228 239 255
228 239 255
228 239 255
228 239 255
228 239 255
228 239 255
228 239 255
228 239 255
228 239 255
222 233 248
214 226 239
205 217 229
187 200 210
166 181 186
148 164 165
128 144 142
101 122 105
116 133 128
134 150 152
130 146 145
120 138 134
102 122 109
78 98 75
70 91 64
75 96 72
88 108 89
103 120 113
112 129 122
143 158 162
133 148 151
130 146 147
137 151 155
133 148 148
126 141 142
102 119 110
100 117 108
107 122 120
87 105 91
68 90 60
64 88 51
56 77 45
62 85 50
62 85 49
59 81 51
73 95 66
77 95 76
88 106 93
96 114 102
109 125 120
113 127 121
129 143 145
90 106 93
56 78 44
57 78 45
57 79 45
62 84 50
59 81 48
58 79 45
58 78 49
63 84 53
75 95 72
100 114 111
106 122 115
99 114 108
101 115 111
114 127 127
97 111 107
120 133 135
114 128 129
72 88 73
59 80 46
54 74 42
51 71 40
52 72 41
56 77 44
61 84 49
50 70 40
53 73 42
54 74 44
69 88 65
63 80 57
81 97 84
79 97 81
93 108 101
102 117 111
99 112 109
112 125 125
92 108 98
52 72 41
49 67 38
49 68 38
49 68 38
55 75 44
46 64 36
49 68 37
54 74 43
46 63 35
39 56 30
53 73 42
42 58 32
54 73 43
51 71 41
50 69 39
51 70 40
53 71 45
64 78 65
103 116 112
93 107 101
97 109 107
73 87 74
83 97 90
76 91 80
75 87 80
54 68 51
55 73 47
52 72 42
50 69 40
41 58 31
40 57 31
47 65 37
40 57 31
53 72 41
48 66 37
70 83 73
103 115 115
92 105 100
105 116 120
99 112 107
96 109 105
94 106 102
96 108 108
100 112 112
99 112 112
115 127 130
91 102 100
102 114 113
92 104 101
90 101 99
88 103 95
107 119 118
76 90 81
75 89 78
52 68 44
49 67 38
57 76 46
48 65 37
44 62 34
46 63 37
41 58 32
52 71 41
54 74 42
50 68 42
53 71 45
56 72 53
53 68 52
51 67 44
65 80 67
72 86 75
75 90 78
69 83 70
72 86 75
71 85 74
66 81 64
70 83 74
75 87 80
70 85 71
62 78 60
51 70 40
41 56 32
52 69 46
45 61 39
47 65 37
49 65 41
51 68 43
42 59 32
43 60 33
52 67 47
98 110 108
84 97 90
85 97 93
90 103 97
98 109 110
92 104 101
87 99 97
92 105 100
98 111 110
93 106 103
94 108 103
107 119 121
101 114 113
105 117 118
83 96 91
88 100 97
96 111 105
51 67 43
43 61 34
42 59 32
44 60 34
46 63 36
46 63 37
52 71 42
45 62 35
44 62 35
46 64 36
54 74 43
50 69 40
44 60 34
46 64 35
44 62 34
73 85 75
102 115 113
113 128 124
85 98 92
94 108 101
93 107 102
87 101 97
114 129 128
106 119 121
104 116 114
95 107 108
98 111 108
105 118 117
101 114 111
106 119 119
102 116 112
87 101 95
67 84 66
69 85 68
74 89 76
70 86 70
71 88 69
81 96 89
84 98 91
83 98 87
96 109 105
99 113 109
104 118 113
106 120 118
98 113 108
112 126 126
64 83 56
53 72 46
54 75 44
49 68 39
55 75 44
53 74 43
59 80 47
52 71 41
57 78 46
59 81 48
54 74 43
57 79 45
51 68 43
109 124 119
129 143 148
121 136 136
123 138 139
120 133 138
120 134 136
130 143 148
117 131 130
120 134 133
126 141 144
107 122 117
117 131 132
122 136 136
88 108 89
91 109 94
96 111 105
99 115 108
114 129 125
121 135 133
121 136 134
133 147 152
116 132 128
120 135 134
110 126 122
119 133 132
147 162 168
126 140 141
139 153 159
125 140 143
137 153 156
117 134 130
107 124 120
109 127 117
115 132 130
137 151 155
130 144 143
132 148 151
137 151 154
129 145 145
128 145 146
124 140 138
129 145 142
136 151 153
121 136 135
128 145 146
134 151 151
163 177 181
165 179 184
193 207 218
204 216 229
215 227 241
223 235 251
228 239 255
228 239 255
228 239 255
228 239 255
228 239 255
228 239 255
228 239 255
228 239 255
228 239 255
228 239 255
228 239 255
228 239 255
228 239 255
228 239 255
228 239 255
228 239 255
228 239 255
228 239 255
228 239 255
228 239 255
228 239 255
228 239 255
228 239 255
228 239 255
227 239 255
228 239 255
227 239 255
228 239 255
227 239 255
227 239 255
227 239 255
227 239 255
227 239 255
227 239 255
227 239 255
227 239 255
227 239 255
227 239 255
227 239 255
227 239 255
227 239 255
227 239 255
227 239 255
227 239 255
227 239 255
227 239 255
227 239 255
227 239 255
227 239 255
227 239 255
227 239 255
227 239 255
227 239 255
227 239 255
227 239 255
227 239 255
227 239 255
228 239 255
228 239 255
227 239 255
228 239 255
228 239 255
228 239 255
228 239 255
228 239 255
228 239 255
228 239 255
228 239 255
228 239 255
228 239 255
228 239 255
228 239 255
228 239 255
228 239 255
228 239 255
228 239 255
228 239 255
228 239 255
228 239 255
228 239 255
228 239 255
228 239 255
228 239 255
228 239 255
228 239 255
228 239 255
228 239 255
228 239 255
228 239 255
228 239 255
228 239 255
228 239 255
228 239 255
228 239 255
228 239 255
228 239 255
228 239 255
228 239 255
228 239 255
228 239 255
228 239 255
227 238 254
217 229 243
213 225 239
193 206 216
167 181 186
142 157 155
124 141 133
98 117 101
103 123 110
96 117 100
103 122 111
99 119 105
93 113 93
88 108 87
76 101 67
72 95 63
88 106 91
98 116 100
108 126 115
129 146 147
140 156 160
138 154 157
128 142 143
147 162 169
132 147 148
109 127 116
93 110 97
80 100 78
93 109 101
145 159 165
138 153 155
87 105 88
62 85 50
66 90 54
67 90 54
73 95 67
86 104 86
100 118 109
116 132 128
119 134 133
114 129 128
120 135 134
125 140 141
110 124 121
133 146 150
114 129 127
69 89 63
54 75 42
60 81 48
61 84 49
61 81 54
95 111 103
100 115 108
115 132 130
109 123 123
125 138 141
123 137 140
111 125 124
114 127 128
125 138 137
131 146 152
121 135 136
109 123 121
117 132 132
59 79 49
53 72 42
51 71 40
53 73 41
57 75 47
83 100 85
69 85 65
92 108 99
89 105 96
110 125 120
93 106 102
117 130 134
98 113 108
118 131 133
115 130 129
122 134 139
102 116 114
90 104 98
47 64 41
54 74 42
47 66 36
51 71 40
49 67 38
52 72 41
46 65 35
52 71 41
50 68 39
53 72 42
48 67 37
52 71 40
39 56 29
53 70 48
55 72 50
72 89 72
76 92 77
86 99 91
82 98 86
65 82 66
42 59 33
46 64 35
51 70 40
49 67 38
59 80 48
47 66 36
47 65 36
52 72 42
40 57 30
52 70 40
53 73 42
51 70 40
48 67 38
46 64 36
46 64 36
48 65 40
80 93 87
104 118 116
96 108 106
100 114 112
98 110 106
97 109 108
102 116 111
91 104 98
101 115 112
102 114 116
94 107 105
94 107 104
87 99 95
102 114 113
98 112 106
85 99 92
86 99 95
99 111 112
80 94 87
58 71 56
60 74 60
53 69 47
79 93 83
79 94 80
71 84 74
78 91 83
76 89 84
96 109 106
86 100 94
90 103 98
77 89 86
98 110 109
103 115 116
98 112 108
100 112 112
90 103 100
78 94 81
37 53 29
48 65 38
40 57 30
47 65 37
46 64 36
47 65 36
44 62 35
48 67 37
46 63 36
50 68 39
47 65 37
50 69 38
44 61 34
49 68 39
47 66 37
48 67 38
67 81 70
86 99 94
96 109 106
102 114 114
96 109 106
103 116 113
107 120 119
108 121 120
81 95 86
96 109 105
106 119 118
98 111 107
103 117 113
96 109 107
92 103 102
106 119 120
99 112 109
73 89 76
52 69 43
45 63 36
47 65 37
53 73 43
53 72 42
46 64 35
49 68 38
57 77 46
56 76 44
49 67 39
52 71 41
45 62 34
52 71 41
57 78 46
46 63 36
75 91 78
106 120 118
98 112 110
90 105 98
101 114 112
110 124 123
108 120 122
117 130 133
99 112 108
109 122 122
101 114 112
112 124 124
95 109 104
98 112 108
102 116 112
101 115 113
66 82 64
49 68 37
47 65 37
49 67 38
54 74 44
51 70 40
42 61 32
55 76 44
52 71 41
55 74 48
71 90 63
53 71 48
66 83 66
64 83 56
81 97 85
97 113 108
95 111 100
89 104 96
82 99 84
87 103 90
75 91 76
65 83 61
61 80 54
74 91 73
58 79 49
60 81 50
55 76 44
58 79 46
94 111 99
121 136 137
138 152 158
108 124 120
132 148 151
126 139 140
134 148 152
128 143 143
125 140 141
124 139 140
141 156 163
118 132 136
128 143 144
86 103 88
63 83 56
61 82 51
67 88 59
74 93 72
85 103 88
98 116 105
96 114 103
113 129 124
117 134 131
90 110 92
103 119 114
128 144 143
125 139 140
126 142 142
131 144 148
122 137 136
131 147 150
135 151 155
144 159 164
126 143 141
131 146 148
116 133 130
119 135 131
145 160 166
139 154 157
149 164 169
140 156 160
142 156 160
136 152 154
129 146 143
121 139 133
129 146 143
146 162 167
160 175 181
166 180 185
180 194 202
192 206 216
211 224 238
219 231 247
228 239 255
228 239 255
228 239 255
228 239 255
228 239 255
228 239 255
228 239 255
228 239 255
228 239 255
228 239 255
228 239 255
228 239 255
228 239 255
228 239 255
228 239 255
228 239 255
228 239 255
228 239 255
228 239 255
228 239 255
228 239 255
228 239 255
228 239 255
228 239 255
228 239 255
228 239 255
228 239 255
228 239 255
228 239 255
228 239 255
228 239 255
228 239 255
228 239 255
228 239 255
228 239 255
228 239 255
228 239 255
228 239 255
228 239 255
228 239 255
228 239 255
228 239 255
228 239 255
227 239 255
227 239 255
227 239 255
227 239 255
227 239 255
227 239 255
228 239 255
228 239 255
228 239 255
228 239 255
228 239 255
228 239 255
228 239 255
228 239 255
228 239 255
228 239 255
228 239 255
228 239 255
228 239 255
228 239 255
228 239 255
228 239 255
228 239 255
228 239 255
228 239 255
228 239 255
228 239 255
228 239 255
228 239 255
228 239 255
228 239 255
228 239 255
228 239 255
228 239 255
228 239 255
228 239 255
228 239 255
228 239 255
228 239 255
228 239 255
228 239 255
228 239 255
228 239 255
228 239 255
228 239 255
228 239 255
228 239 255
228 239 255
228 239 255
228 239 255
228 239 255
228 239 255
228 239 255
227 238 254
223 235 251
210 222 236
189 201 210
175 189 195
160 175 181
130 146 143
118 135 129
97 118 100
85 106 81
83 104 83
123 141 136
105 122 115
144 159 164
133 149 148
90 109 92
96 116 99
103 122 112
130 146 149
136 152 156
136 151 154
142 157 163
140 156 161
123 140 139
123 139 137
104 119 110
97 115 101
93 112 99
72 94 66
66 91 54
63 86 51
95 114 99
129 144 145
133 149 154
110 126 119
101 119 109
100 117 107
101 117 107
124 139 143
123 138 140
131 147 150
123 139 139
124 137 140
128 143 143
126 140 142
128 142 144
125 140 139
128 142 145
114 129 128
78 96 79
90 107 93
105 122 115
106 121 117
112 126 124
115 129 129
122 136 136
125 139 141
143 156 163
119 133 132
107 122 119
124 138 143
114 128 129
121 135 137
119 133 134
107 121 118
107 122 121
118 131 131
71 89 67
65 84 60
82 100 83
97 112 106
115 130 130
110 124 125
104 117 116
114 127 125
116 130 129
92 106 103
101 113 115
104 118 116
107 121 123
118 133 133
99 113 111
121 135 134
108 123 120
107 121 119
78 93 78
49 68 38
48 67 36
56 77 45
53 71 42
52 71 41
54 75 43
54 69 52
50 69 38
71 90 67
83 98 88
77 91 82
104 118 115
99 112 108
104 117 117
107 119 119
125 139 143
103 117 113
94 107 105
47 65 37
48 66 38
48 67 37
48 67 37
52 71 41
54 74 43
50 68 39
50 69 39
50 69 40
51 69 39
53 73 41
47 65 37
50 70 39
51 71 39
48 66 38
50 69 40
49 68 39
69 85 69
106 119 119
100 113 112
118 129 133
96 108 105
98 113 107
106 120 116
83 96 91
95 108 106
86 100 91
102 115 112
93 106 99
106 120 119
73 88 76
76 90 79
68 83 69
77 92 81
59 74 56
75 91 76
91 106 99
89 103 100
116 128 131
100 113 112
100 113 113
111 125 125
101 112 113
105 119 117
103 115 114
96 109 106
103 116 114
93 106 101
99 111 109
102 114 115
93 106 102
102 114 113
94 106 104
90 103 99
51 70 44
45 63 36
48 66 38
41 58 31
38 54 29
52 71 41
53 72 42
50 69 39
49 67 38
44 63 35
47 64 36
49 67 38
53 71 42
47 64 37
49 68 39
47 64 37
46 63 39
88 101 97
104 118 114
107 120 122
107 120 119
97 110 106
91 103 100
92 107 99
94 107 102
101 114 110
100 114 110
113 125 129
117 130 133
104 117 115
95 107 105
96 110 107
107 120 120
110 124 121
72 89 73
50 69 39
46 64 35
45 64 34
55 75 43
51 70 40
49 68 38
45 64 35
53 74 42
48 67 37
46 65 36
50 69 39
45 62 35
42 59 33
44 62 33
53 72 42
82 97 85
107 120 120
105 119 116
105 117 118
115 127 132
114 127 128
110 123 122
107 120 119
108 120 121
123 136 138
103 117 114
101 114 114
109 122 123
115 129 129
114 127 130
109 123 120
73 90 72
51 70 40
51 70 40
52 73 41
53 73 42
46 65 36
54 74 44
57 77 45
53 73 41
57 78 44
56 77 44
54 73 43
53 73 41
64 86 54
83 101 83
114 128 126
115 129 130
112 126 123
117 133 131
122 137 137
106 120 118
114 129 126
105 121 114
117 132 129
89 106 94
95 111 105
81 97 85
81 100 80
92 107 101
123 138 137
121 134 136
129 144 145
125 138 141
122 137 140
135 148 155
121 137 136
118 133 134
126 140 142
123 138 136
119 133 131
112 127 125
95 113 101
66 86 59
59 81 47
57 78 45
60 82 49
59 81 48
73 94 69
90 109 95
118 134 133
120 135 137
106 121 115
131 146 147
120 137 135
116 132 128
117 133 127
123 139 140
128 143 141
124 139 138
133 150 151
135 151 158
141 156 161
122 139 134
86 104 87
88 109 89
106 124 113
112 130 121
132 147 149
130 145 145
147 163 169
117 134 128
116 133 124
100 119 109
105 123 114
125 144 141
133 149 149
147 162 165
142 158 160
151 166 170
175 189 196
193 206 217
212 224 238
222 234 249
228 239 255
228 239 255
228 239 255
228 239 255
228 239 255
228 239 255
228 239 255
228 239 255
228 239 255
228 239 255
228 239 255
228 239 255
228 239 255
228 239 255
228 239 255
228 239 255
228 239 255
228 239 255
228 239 255
228 239 255
228 239 255
228 239 255
228 239 255
228 239 255
228 239 255
228 239 255
228 239 255
228 239 255
228 239 255
228 239 255
228 239 255
228 239 255
228 239 255
228 239 255
228 239 255
228 239 255
228 239 255
228 239 255
228 239 255
228 239 255
228 239 255
228 239 255
228 239 255
228 239 255
228 239 255
228 239 255
228 239 255
228 239 255
228 239 255
228 239 255
228 239 255
228 239 255
228 239 255
228 239 255
228 239 255
228 239 255
228 239 255
228 239 255
228 239 255
228 239 255
228 239 255
228 239 255
228 239 255
228 239 255
228 239 255
228 239 255
228 239 255
228 239 255
228 239 255
228 239 255
228 239 255
228 239 255
228 239 255
228 239 255
228 239 255
228 239 255
228 239 255
228 239 255
228 239 255
228 239 255
228 239 255
228 239 255
228 239 255
228 239 255
228 239 255
228 239 255
228 239 255
228 239 255
228 239 255
228 239 255
228 239 255
224 236 252
212 224 237
192 205 214
177 191 197
168 182 187
149 166 170
107 127 114
106 127 112
97 118 101
107 125 111
109 128 117
110 128 120
132 151 148
147 163 168
148 164 170
136 153 155
116 133 127
117 134 129
130 147 147
135 150 153
143 159 164
152 167 175
140 155 159
126 143 142
112 130 123
103 123 111
90 109 90
64 87 51
59 81 46
71 96 58
61 84 49
62 85 49
59 79 50
86 103 91
120 136 136
82 99 86
87 105 89
85 103 87
113 129 124
130 145 146
134 149 151
125 141 143
131 145 148
131 144 149
127 142 143
133 148 153
125 138 140
114 131 128
102 118 110
103 119 111
86 103 85
105 121 115
114 128 127
109 123 121
121 134 137
109 124 117
134 148 154
115 129 128
128 142 145
118 132 132
117 132 129
130 144 148
124 137 138
131 145 149
125 140 142
110 126 121
114 127 128
99 115 106
81 100 82
99 115 108
101 116 110
128 142 143
115 128 127
105 118 119
116 130 132
104 118 115
119 134 134
112 125 125
115 129 129
122 136 137
103 116 112
103 118 115
96 110 102
114 127 129
121 134 138
113 126 126
112 127 127
89 103 95
51 70 40
55 76 45
65 83 64
71 89 71
90 105 96
105 120 118
109 123 120
107 120 118
125 139 143
118 132 134
104 118 116
109 122 120
103 117 116
111 124 125
106 121 117
101 114 113
121 134 137
104 117 115
58 76 55
53 74 42
52 71 41
52 72 42
50 70 40
48 68 38
53 73 42
48 66 38
58 78 46
50 69 39
53 72 42
49 68 39
53 72 42
53 73 43
47 66 37
44 62 33
55 76 44
59 77 53
88 103 96
109 123 121
90 105 97
98 111 107
80 93 84
75 90 78
90 104 96
74 88 75
65 81 64
44 61 33
48 67 36
55 74 47
44 62 34
47 66 37
43 60 34
48 66 38
56 76 44
52 71 41
76 91 78
103 114 116
102 114 112
91 104 100
100 114 110
107 120 119
96 110 106
107 120 119
94 107 105
83 96 90
94 107 104
100 114 110
100 112 111
105 118 115
126 139 144
113 126 127
97 111 109
113 126 130
91 104 97
49 68 39
48 66 37
51 70 40
40 56 30
48 67 37
53 72 42
49 67 39
58 79 47
52 71 41
50 69 39
46 65 36
47 66 37
55 75 45
45 63 35
46 63 36
53 73 42
68 82 69
92 106 101
98 110 106
106 119 121
105 118 117
107 120 121
107 120 121
100 115 112
103 117 115
102 116 114
94 106 103
118 132 132
111 124 124
99 113 108
91 104 103
110 122 124
123 135 138
99 112 111
60 78 56
47 65 35
51 69 39
57 77 46
46 63 36
51 70 40
48 67 37
56 76 45
47 65 37
54 74 42
44 62 35
42 59 32
49 67 38
50 69 40
51 70 39
49 68 39
88 103 95
94 107 101
111 124 125
105 119 117
112 124 127
126 141 143
102 116 116
113 125 127
118 132 133
117 131 132
105 119 117
117 130 132
119 133 134
108 121 122
118 132 137
109 123 122
65 81 64
61 81 50
53 73 42
52 72 40
54 74 43
57 79 46
54 75 43
46 64 35
61 82 48
51 71 41
56 77 45
55 75 43
60 81 47
59 80 47
72 89 73
113 126 125
117 131 130
122 136 138
118 132 134
125 140 143
121 134 134
129 143 146
117 131 132
120 136 133
118 132 133
116 131 131
129 144 145
115 129 127
107 121 118
91 107 96
96 113 103
87 104 88
115 132 126
97 112 103
100 115 110
108 123 120
120 136 136
108 124 119
134 148 155
126 142 144
94 111 102
100 117 108
71 92 64
61 83 48
62 85 50
64 86 54
90 108 96
129 145 143
138 153 157
137 152 157
121 137 134
137 151 158
118 132 131
101 120 107
86 105 88
84 102 84
110 127 123
130 146 147
134 150 153
136 151 157
133 149 150
129 145 147
132 147 149
102 119 107
72 94 68
70 95 57
82 102 84
104 122 111
107 125 118
124 141 140
124 139 140
111 130 122
102 123 109
76 101 63
86 107 88
105 123 112
116 134 124
124 141 133
115 135 123
131 146 143
153 169 172
177 190 197
207 220 232
219 231 247
226 238 254
227 238 254
228 239 255
228 239 255
228 239 255
228 239 255
228 239 255
228 239 255
228 239 255
228 239 255
228 239 255
228 239 255
228 239 255
228 239 255
228 239 255
228 239 255
228 239 255
228 239 255
228 239 255
228 239 255
228 239 255
228 239 255
228 239 255
228 239 255
228 239 255
228 239 255
228 239 255
228 239 255
228 239 255
228 239 255
228 239 255
228 239 255
228 239 255
228 239 255
228 239 255
228 239 255
228 239 255
228 239 255
228 239 255
228 239 255
228 239 255
228 239 255
228 239 255
228 239 255
228 239 255
228 239 255
228 239 255
228 239 255
228 239 255
228 239 255
228 239 255
228 239 255
228 239 255
228 239 255
228 239 255
228 239 255
228 239 255
228 239 255
228 239 255
228 239 255
228 239 255
228 239 255
228 239 255
228 239 255
228 239 255
228 239 255
228 239 255
228 239 255
228 239 255
228 239 255
228 239 255
228 239 255
228 239 255
228 239 255
228 239 255
228 239 255
228 239 255
228 239 255
228 239 255
228 239 255
228 239 255
228 239 255
228 239 255
228 239 255
228 239 255
228 239 255
227 238 254
220 232 247
198 210 221
180 192 199
176 190 198
143 159 161
126 145 138
105 125 113
102 122 106
99 119 102
100 120 104
120 139 132
142 160 164
148 164 170
139 155 159
123 140 139
110 127 121
104 123 111
81 102 80
76 97 70
125 142 141
136 151 156
134 150 152
122 139 134
120 136 134
95 113 102
76 97 70
64 86 50
70 93 58
68 92 56
61 84 48
63 87 50
68 91 60
73 93 67
101 119 105
119 136 131
105 122 112
69 89 62
58 79 50
66 89 53
62 84 49
72 94 64
104 120 114
131 146 146
129 144 147
131 146 147
124 139 142
112 129 121
114 130 126
77 93 79
77 95 74
65 85 60
52 71 45
64 88 52
88 105 91
125 140 141
121 135 139
127 142 144
130 143 145
127 141 142
115 130 125
113 127 123
142 155 161
108 122 118
110 125 124
121 136 136
92 108 97
85 102 89
69 89 65
63 82 56
55 75 46
52 73 42
74 93 73
125 139 141
122 136 138
111 126 126
124 137 142
126 138 141
114 129 129
111 125 122
123 136 139
108 122 119
106 121 116
126 138 142
115 129 126
123 138 140
105 119 115
121 136 136
108 122 119
116 128 130
102 116 112
98 115 107
113 126 127
101 114 111
116 131 130
104 119 112
108 123 121
111 126 125
120 133 137
104 116 116
121 135 138
120 133 134
127 141 146
118 132 133
118 131 131
113 126 128
124 137 140
114 128 129
113 127 125
83 98 89
53 73 41
50 70 39
49 68 38
53 73 41
51 70 39
46 63 35
50 69 39
48 66 36
53 73 42
54 74 43
53 71 46
56 75 48
59 78 53
68 84 69
70 85 69
84 100 88
79 93 83
87 101 96
67 82 66
46 64 36
52 70 45
56 76 45
51 72 41
60 81 47
52 72 40
55 75 44
50 69 39
55 75 44
45 63 36
51 70 40
48 67 37
43 60 34
45 63 35
47 65 38
53 72 42
59 76 58
95 109 106
107 120 120
120 134 133
97 110 107
110 123 124
113 127 126
97 110 105
95 107 107
99 115 110
107 120 119
100 113 111
106 118 118
107 121 120
100 114 110
105 119 114
94 108 102
104 117 116
99 112 108
69 85 69
43 61 34
45 63 36
46 64 36
53 72 42
56 77 45
47 65 37
51 70 39
51 70 40
47 65 36
53 73 42
50 69 39
53 73 43
47 66 37
49 68 39
57 76 44
50 69 40
80 96 82
109 123 120
115 129 131
102 115 113
105 118 117
115 128 129
117 130 131
115 129 129
115 129 129
114 129 130
113 126 126
98 111 108
122 135 137
103 116 115
105 117 118
108 122 121
116 129 129
109 122 121
65 81 64
54 75 42
47 65 35
51 70 41
56 74 51
59 79 53
51 71 40
61 78 57
60 80 50
51 70 41
50 68 39
49 68 39
57 78 45
51 70 41
59 81 48
61 80 54
81 96 83
110 125 121
109 124 121
107 122 117
106 121 117
116 128 132
119 132 135
105 120 117
115 128 130
112 127 125
117 132 134
105 119 115
102 117 111
121 135 136
113 127 128
98 114 106
74 90 73
55 76 43
53 73 42
54 74 43
53 73 41
58 79 45
57 78 46
60 82 48
54 73 42
55 76 44
55 75 43
57 79 46
61 83 49
55 75 43
71 91 67
126 140 144
118 133 131
118 132 131
122 137 137
122 137 138
124 140 138
132 147 152
127 141 143
120 134 132
127 141 144
121 136 135
123 138 138
118 131 131
123 137 140
77 95 76
60 82 48
62 85 50
62 83 53
62 82 56
73 92 73
77 96 76
86 104 88
89 104 96
93 110 98
115 132 130
114 130 129
97 113 103
73 93 71
66 87 58
105 123 112
130 145 145
134 149 149
139 154 159
141 156 161
128 144 145
124 140 139
137 152 158
126 142 141
104 120 111
75 96 68
57 78 44
64 87 55
90 110 91
97 114 105
108 125 115
110 126 120
131 147 147
125 140 141
122 139 135
99 120 104
70 94 58
69 94 56
66 90 54
74 96 67
84 107 83
100 119 102
103 122 111
97 115 102
73 96 64
74 99 62
83 107 78
90 111 87
101 123 104
87 108 88
96 117 96
113 133 119
123 139 133
160 176 178
188 202 210
213 226 241
220 232 248
227 239 255
228 239 255
228 239 255
228 239 255
228 239 255
228 239 255
228 239 255
228 239 255
228 239 255
228 239 255
228 239 255
228 239 255
228 239 255
228 239 255
228 239 255
228 239 255
228 239 255
228 239 255
228 239 255
228 239 255
228 239 255
228 239 255
228 239 255
228 239 255
228 239 255
228 239 255
228 239 255
228 239 255
228 239 255
228 239 255
228 239 255
228 239 255
228 239 255
228 239 255
228 239 255
228 239 255
228 239 255
228 239 255
228 239 255
228 239 255
228 239 255
228 239 255
228 239 255
228 239 255
228 239 255
228 239 255
228 239 255
228 239 255
228 239 255
228 239 255
228 239 255
228 239 255
228 239 255
228 239 255
228 239 255
228 239 255
228 239 255
228 239 255
228 239 255
228 239 255
228 239 255
228 239 255
228 239 255
228 239 255
228 239 255
228 239 255
228 239 255
228 239 255
228 239 255
228 239 255
228 239 255
228 239 255
228 239 255
228 239 255
228 239 255
228 239 255
228 239 255
228 239 255
228 239 255
228 239 255
227 238 254
223 235 250
213 225 238
184 197 205
153 169 166
124 142 133
120 138 130
116 135 127
97 118 101
87 108 86
113 133 121
127 143 140
120 137 136
143 160 164
143 159 163
133 150 151
137 153 157
104 122 116
94 115 96
73 95 66
64 88 52
64 88 52
74 97 69
125 142 140
112 130 122
96 115 99
73 94 68
67 90 56
68 92 56
64 88 52
66 90 53
62 84 49
67 90 54
85 105 84
105 123 115
107 125 114
121 137 138
117 133 130
134 148 152
133 148 149
84 105 85
59 81 47
62 85 50
61 84 49
67 91 54
63 84 55
99 115 105
118 133 134
112 129 121
85 104 87
81 102 77
67 89 57
57 78 46
61 84 49
62 85 49
63 86 50
58 79 46
81 100 82
117 133 130
125 141 145
129 143 143
117 131 132
122 136 136
112 127 125
126 141 143
100 117 108
94 109 103
78 96 79
71 92 68
52 72 41
56 76 44
64 86 51
54 74 42
57 79 45
54 74 43
61 81 51
114 129 126
117 133 132
121 135 139
119 133 134
122 136 137
123 137 139
115 128 127
120 134 131
121 135 134
114 128 128
110 124 123
113 128 127
98 113 110
93 108 100
76 94 74
75 92 72
64 84 56
57 78 46
101 116 110
106 120 118
116 130 129
126 141 144
126 139 144
107 121 118
109 123 121
100 114 112
114 127 128
95 108 107
113 128 123
105 118 116
116 131 128
107 121 117
115 129 131
110 123 124
130 142 145
111 124 122
106 120 115
48 67 38
54 74 42
49 67 38
53 72 42
54 73 46
61 80 54
63 80 62
79 96 80
91 104 100
88 102 96
100 115 111
109 122 123
94 108 101
103 116 113
115 129 127
105 119 117
112 125 125
114 129 129
93 109 101
52 72 41
53 72 42
49 68 39
48 67 38
56 76 44
47 66 37
55 75 44
50 69 40
46 64 36
55 75 43
49 68 38
45 64 35
52 72 42
52 70 41
55 75 44
48 67 38
54 74 42
70 87 70
114 128 126
104 119 115
112 125 128
101 113 110
101 116 111
122 134 137
114 128 127
105 119 117
112 126 127
104 116 116
110 123 123
113 125 127
101 114 114
111 124 123
113 126 127
103 117 115
108 121 119
108 122 122
54 73 43
51 70 40
47 66 37
55 75 43
60 82 48
49 68 38
54 74 43
44 63 34
56 76 44
61 81 50
66 85 61
61 79 56
65 82 62
68 84 69
64 84 57
57 77 48
65 82 61
93 106 104
98 110 109
87 101 91
76 90 82
84 100 88
74 90 75
89 103 96
79 93 85
92 108 96
95 112 103
90 105 98
97 112 105
77 92 83
75 90 76
75 90 79
77 93 79
82 96 85
65 82 61
96 110 105
96 111 107
105 120 117
111 127 123
91 107 96
113 128 125
103 117 114
93 108 97
100 114 111
85 100 93
97 113 105
89 105 96
96 110 106
91 106 97
91 107 98
97 112 104
76 93 79
72 87 76
79 97 81
86 100 91
86 102 88
86 103 90
78 93 78
92 108 101
97 112 105
101 116 110
112 127 125
91 105 98
114 129 127
106 121 119
110 124 124
97 112 104
62 81 55
52 71 43
56 77 44
66 86 60
52 72 41
63 83 56
55 77 43
55 75 43
52 73 41
58 79 45
55 76 43
55 76 43
52 72 41
57 76 48
79 95 81
123 138 138
123 138 139
128 142 147
120 135 133
129 143 145
127 140 141
133 146 152
125 139 140
142 157 164
125 139 141
128 144 145
125 138 140
134 148 149
110 127 123
67 87 62
64 88 52
55 76 44
59 81 46
59 82 47
60 83 49
56 77 45
60 83 49
61 83 48
61 84 49
71 93 61
76 94 76
89 106 95
85 103 87
89 106 94
122 138 137
120 137 134
125 140 140
129 144 146
126 141 140
131 146 149
130 145 146
140 155 157
134 148 154
117 133 129
74 96 69
60 82 47
65 89 52
61 83 48
72 96 61
61 83 47
76 96 70
85 104 85
98 118 104
105 124 111
83 103 80
72 93 68
70 94 57
65 86 57
66 89 52
69 94 56
72 95 63
72 95 63
80 102 71
97 117 100
97 116 103
100 119 106
84 105 86
73 98 62
65 89 52
77 100 69
99 119 105
108 128 116
118 138 129
133 150 146
169 184 189
194 208 217
217 228 243
222 234 250
228 239 255
228 239 255
228 239 255
228 239 255
228 239 255
228 239 255
228 239 255
228 239 255
228 239 255
228 239 255
228 239 255
228 239 255
228 239 255
228 239 255
228 239 255
228 239 255
228 239 255
228 239 255
228 239 255
228 239 255
228 239 255
228 239 255
228 239 255
228 239 255
228 239 255
228 239 255
228 239 255
228 239 255
228 239 255
228 239 255
228 239 255
228 239 255
228 239 255
228 239 255
228 239 255
228 239 255
228 239 255
228 239 255
228 239 255
228 239 255
228 239 255
228 239 255
228 239 255
228 239 255
228 239 255
228 239 255
228 239 255
228 239 255
228 239 255
228 239 255
228 239 255
228 239 255
228 239 255
228 239 255
228 239 255
228 239 255
228 239 255
228 239 255
228 239 255
228 239 255
228 239 255
228 239 255
228 239 255
228 239 255
228 239 255
228 239 255
228 239 255
228 239 255
228 239 255
228 239 255
228 239 255
228 239 255
228 239 255
228 239 255
228 239 255
227 238 254
220 232 247
198 211 220
176 190 196
140 156 151
135 151 147
130 148 143
132 149 150
140 156 158
132 149 149
117 137 130
138 154 159
145 162 168
141 158 162
137 155 156
123 141 135
96 115 100
82 102 83
83 105 80
64 87 51
73 97 61
74 97 67
94 115 93
107 127 115
118 134 133
99 119 101
74 97 65
70 94 56
64 88 51
65 88 53
68 92 54
71 92 63
95 115 99
119 135 131
117 134 130
121 137 137
137 151 155
143 158 166
136 151 155
134 148 152
132 146 149
143 158 163
112 129 123
65 88 56
72 94 66
84 102 81
92 112 97
111 128 125
114 130 125
130 146 147
121 137 137
97 114 99
74 97 68
62 85 49
59 81 48
64 86 51
60 82 47
56 77 44
60 81 47
67 89 59
117 133 131
128 144 144
117 133 131
107 123 113
98 113 104
71 90 68
59 82 48
58 79 50
54 75 43
59 81 47
52 72 40
51 71 40
61 83 49
55 75 43
56 76 45
64 87 52
52 71 41
50 70 39
115 131 129
127 140 143
110 125 124
128 142 146
118 134 134
117 130 132
113 127 128
97 112 104
87 104 89
80 99 79
65 84 61
66 86 61
57 78 45
53 72 42
59 80 47
58 79 46
52 72 41
58 80 46
67 85 66
110 125 124
123 135 140
118 131 131
122 136 136
110 124 124
117 130 132
113 126 128
116 130 130
114 128 129
120 134 134
111 124 124
120 134 137
109 124 121
118 132 133
113 126 128
115 129 129
114 128 130
104 118 116
84 99 90
76 93 77
79 94 82
99 112 111
115 129 128
113 127 126
110 125 123
116 129 132
114 127 126
116 130 128
110 125 122
114 127 129
107 120 121
118 131 134
103 116 114
125 139 141
104 118 117
99 114 106
128 141 144
60 79 54
48 67 38
48 67 37
46 65 36
52 72 42
56 75 45
57 78 45
48 66 37
57 77 45
52 72 41
54 74 42
51 70 39
47 66 37
54 75 43
49 67 38
48 66 36
40 57 31
54 73 42
78 92 81
117 130 133
97 111 106
113 127 128
103 116 117
102 117 113
116 130 129
107 121 120
104 119 117
117 130 129
125 138 140
104 117 117
115 128 132
128 141 144
102 115 115
102 115 112
105 119 115
103 118 111
81 96 86
59 76 56
77 93 80
92 107 100
82 96 86
99 113 107
104 119 116
97 111 107
106 120 121
103 117 114
103 117 114
96 110 106
107 122 119
97 111 109
113 127 127
105 119 116
106 121 120
104 120 115
67 83 67
56 77 45
49 67 39
56 76 45
43 61 33
54 74 43
55 74 43
50 69 39
58 79 46
52 72 40
52 73 41
54 74 41
50 71 39
52 72 40
48 67 37
54 75 43
55 74 47
101 116 110
102 115 113
104 116 113
117 130 131
113 125 127
119 132 135
116 129 130
109 123 123
125 139 141
98 112 106
124 138 140
127 141 147
113 126 126
113 127 125
119 132 135
103 116 115
91 106 98
74 92 73
49 68 38
51 71 39
54 75 43
54 73 43
55 76 44
54 75 43
60 81 48
59 80 47
53 71 45
59 79 50
69 87 67
55 75 45
62 80 57
67 84 64
80 98 79
114 129 129
123 138 138
100 116 110
101 117 110
106 119 118
106 120 116
88 102 93
88 105 92
73 87 77
75 92 74
74 93 71
78 96 77
69 89 65
61 81 54
83 102 86
109 123 118
124 139 140
128 143 146
122 138 133
114 128 127
121 137 136
122 136 136
110 124 122
142 157 163
113 129 126
127 140 144
125 140 142
112 125 127
107 121 118
70 90 65
61 84 50
62 84 50
60 82 48
59 81 46
59 81 47
61 84 49
62 84 53
79 100 73
100 115 108
125 140 141
125 140 141
111 126 126
79 95 81
61 83 49
71 91 65
76 97 72
87 105 88
83 102 82
110 127 122
118 133 130
130 145 144
119 136 135
132 147 146
120 137 137
88 106 91
67 91 53
66 89 53
62 84 49
65 88 52
62 86 50
57 79 44
62 85 49
71 95 64
66 90 54
95 117 94
110 127 119
103 122 107
96 116 98
77 98 74
71 94 62
65 90 52
67 90 53
78 99 76
109 127 116
130 146 145
138 155 157
99 118 108
94 114 96
90 112 92
90 113 89
103 124 109
114 134 123
115 133 128
118 136 129
130 147 142
152 167 167
177 191 199
201 214 226
222 234 250
227 238 254
228 239 255
228 239 255
228 239 255
228 239 255
228 239 255
228 239 255
228 239 255
228 239 255
228 239 255
228 239 255
228 239 255
228 239 255
228 239 255
228 239 255
228 239 255
228 239 255
228 239 255
228 239 255
228 239 255
228 239 255
228 239 255
228 239 255
228 239 255
228 239 255
228 239 255
228 239 255
228 239 255
228 239 255
228 239 255
228 239 255
228 239 255
228 239 255
228 239 255
228 239 255
228 239 255
228 239 255
228 239 255
228 239 255
228 239 255
228 239 255
228 239 255
228 239 255
228 239 255
228 239 255
228 239 255
228 239 255
228 239 255
228 239 255
228 239 255
228 239 255
228 239 255
228 239 255
228 239 255
228 239 255
228 239 255
228 239 255
228 239 255
228 239 255
228 239 255
228 239 255
228 239 255
228 239 255
228 239 255
228 239 255
228 239 255
228 239 255
228 239 255
228 239 255
228 239 255
227 238 254
223 235 250
213 225 237
191 205 215
181 196 205
150 166 167
129 146 142
125 143 139
150 167 174
134 151 148
124 141 137
103 123 107
120 138 133
139 155 162
141 158 158
108 127 116
110 130 118
96 117 98
66 90 54
69 92 61
60 83 47
77 100 69
92 113 97
105 122 113
109 126 119
127 144 145
133 150 154
137 152 155
121 136 132
65 88 55
66 90 53
69 92 57
94 115 98
107 126 114
119 136 130
137 153 158
142 157 162
130 146 147
137 153 156
123 139 139
133 148 152
145 160 165
134 149 151
139 153 157
116 132 127
113 130 124
112 129 124
118 135 134
134 149 151
130 146 147
131 146 149
127 142 144
121 138 137
133 148 152
113 128 126
121 137 138
98 115 103
65 84 59
63 85 50
56 77 44
59 80 47
80 100 79
92 110 96
92 109 98
73 93 68
67 87 62
64 86 51
57 78 45
58 79 45
62 85 50
60 82 49
55 75 43
59 82 48
53 73 42
61 83 49
59 80 46
65 88 52
59 81 47
65 88 52
56 78 44
55 77 45
91 107 97
125 140 143
108 125 119
105 121 116
88 106 88
86 103 91
58 80 47
56 74 47
64 86 50
49 69 39
57 78 46
59 81 47
52 73 41
61 83 49
54 74 42
58 79 46
58 79 46
59 80 47
60 81 51
115 129 127
104 117 115
137 152 154
114 129 125
105 119 119
114 129 127
106 121 119
116 129 130
116 130 130
113 127 127
120 134 135
117 132 133
112 126 124
104 117 116
112 126 125
79 95 80
77 94 76
58 76 51
80 97 80
117 131 131
103 120 111
115 129 130
100 114 109
116 130 132
119 132 134
110 124 124
110 124 123
122 136 135
96 110 107
113 127 127
103 117 115
115 127 129
111 126 124
103 119 114
115 129 129
113 128 126
115 129 127
92 108 101
53 73 42
51 71 39
55 75 44
46 64 36
53 73 42
51 70 39
51 70 41
50 70 39
51 71 40
53 73 41
52 71 40
47 66 37
49 68 39
52 71 41
44 61 34
49 69 38
54 75 44
67 82 69
111 125 124
107 121 122
112 124 125
106 119 120
111 125 124
104 117 117
99 114 107
100 114 108
87 101 95
70 86 71
73 89 73
82 100 84
74 90 74
70 89 69
62 82 56
59 77 52
57 77 47
52 71 44
108 122 123
119 132 133
109 123 124
122 136 138
123 136 140
118 131 132
109 123 122
122 136 139
120 134 138
113 127 127
120 133 134
120 134 136
104 119 116
107 120 121
116 130 131
109 122 121
123 137 139
84 98 90
61 79 54
52 71 41
51 71 40
61 82 48
50 69 40
53 73 42
45 62 35
50 70 39
52 71 41
47 65 37
60 81 47
52 71 41
48 68 37
50 69 39
49 68 38
53 72 42
60 77 56
108 122 123
110 122 121
123 136 140
124 137 141
113 127 127
125 140 141
112 126 127
106 121 117
100 115 109
122 137 137
109 124 119
121 133 135
111 126 124
122 137 136
110 124 122
119 133 134
111 126 122
61 81 50
58 80 47
50 70 40
53 73 42
58 80 46
53 73 42
54 74 42
59 81 47
52 71 40
56 77 44
57 78 45
58 80 46
59 80 46
62 85 50
52 72 41
81 97 87
113 127 125
121 136 137
121 136 138
109 123 122
104 119 116
114 129 129
116 131 127
134 149 153
117 131 133
127 142 143
118 131 132
106 122 118
120 135 135
108 123 121
109 125 119
86 102 94
97 115 102
86 104 90
103 119 113
113 127 126
113 130 124
111 126 122
113 128 125
122 136 138
115 129 130
124 139 141
142 157 163
130 146 146
123 140 139
71 91 67
59 82 47
59 82 48
58 80 47
62 84 49
65 86 59
101 117 108
119 133 133
122 138 137
136 152 157
127 142 143
132 147 151
117 134 130
83 103 83
62 85 50
65 88 52
67 91 54
66 90 54
63 86 51
70 91 63
70 92 61
83 105 81
89 107 92
121 138 135
97 115 100
86 106 85
70 92 65
72 94 63
61 84 48
65 89 52
62 84 49
62 85 49
65 89 52
67 91 54
68 93 55
100 117 108
128 145 143
142 158 162
137 153 156
131 148 146
101 121 106
98 119 103
76 99 71
79 103 74
102 121 109
124 141 139
140 155 159
142 159 163
135 153 153
127 145 143
102 121 108
113 132 122
110 128 118
152 168 174
133 151 149
126 145 141
137 153 152
139 157 153
177 191 199
191 204 212
209 221 234
226 237 253
228 239 255
228 239 255
228 239 255
228 239 255
228 239 255
228 239 255
228 239 255
228 239 255
228 239 255
228 239 255
228 239 255
228 239 255
228 239 255
228 239 255
228 239 255
228 239 255
228 239 255
228 239 255
228 239 255
228 239 255
228 239 255
228 239 255
228 239 255
228 239 255
228 239 255
228 239 255
228 239 255
228 239 255
228 239 255
228 239 255
228 239 255
228 239 255
228 239 255
228 239 255
228 239 255
228 239 255
228 239 255
228 239 255
228 239 255
228 239 255
228 239 255
228 239 255
228 239 255
228 239 255
228 239 255
228 239 255
228 239 255
228 239 255
228 239 255
228 239 255
228 239 255
228 239 255
228 239 255
228 239 255
228 239 255
228 239 255
228 239 255
228 239 255
228 239 255
228 239 255
228 239 255
228 239 255
228 239 255
228 239 255
228 239 255
226 237 253
215 227 240
202 215 227
184 197 206
170 185 195
156 172 178
136 154 155
147 164 170
144 161 163
129 147 147
114 134 125
79 101 75
75 99 66
94 114 96
122 141 137
100 122 105
96 117 99
87 109 80
73 98 62
74 101 61
71 96 60
100 120 106
102 119 112
132 149 146
128 144 143
143 160 163
149 164 169
140 156 161
145 160 165
145 161 167
118 136 128
97 118 102
107 125 116
122 139 134
130 145 146
123 139 136
141 157 159
147 162 167
150 165 174
136 152 158
140 154 158
143 158 162
137 152 155
127 143 144
129 145 147
98 117 101
87 105 90
92 110 95
126 141 141
127 143 143
128 143 144
141 157 162
133 149 150
137 152 156
132 147 149
124 140 140
129 143 145
136 151 154
128 143 144
124 141 138
99 116 104
86 102 92
109 126 121
124 140 137
113 129 125
123 138 136
64 85 53
65 88 53
61 83 48
66 89 53
60 82 48
61 83 49
59 80 47
57 78 45
57 79 46
58 79 46
60 83 48
62 84 49
59 82 48
55 77 43
66 84 62
64 83 55
89 105 94
103 116 111
99 115 108
60 82 47
60 81 47
64 86 51
61 83 48
62 84 50
61 84 49
54 75 43
60 82 48
59 81 47
55 76 43
61 84 49
57 77 46
56 77 44
62 85 50
59 81 48
57 78 46
53 74 42
91 105 98
122 137 136
117 132 130
110 123 121
110 124 126
129 143 146
120 134 135
110 124 124
91 104 100
86 102 91
80 97 82
73 92 70
57 78 49
55 75 43
54 74 42
61 83 50
52 73 41
58 80 46
59 79 50
92 107 99
105 120 117
112 126 126
118 132 136
106 120 117
123 137 138
105 119 117
112 128 126
112 127 126
119 133 135
113 126 127
113 126 125
112 126 122
112 126 126
118 132 134
114 126 127
101 116 111
116 131 132
103 117 116
54 73 47
62 84 50
51 71 40
52 71 41
54 74 42
56 76 44
60 82 48
53 73 42
52 72 40
54 73 42
51 70 40
55 75 43
60 79 54
66 85 59
86 103 89
78 93 81
84 98 92
95 109 102
103 119 112
77 93 80
74 94 69
65 81 59
58 75 54
52 72 41
51 71 40
56 76 44
51 71 40
53 73 42
51 70 40
54 74 42
55 76 44
45 63 36
54 75 42
52 72 41
54 75 43
55 75 43
82 98 86
103 117 111
117 131 133
107 120 120
116 128 129
117 129 131
114 128 126
115 130 128
119 133 132
103 117 115
112 126 124
124 138 140
113 127 127
118 131 137
124 139 143
112 125 125
101 114 113
113 126 127
76 92 79
51 70 41
49 68 38
50 70 39
56 76 44
53 73 42
54 75 43
52 73 41
51 71 40
54 74 42
53 73 42
55 75 44
52 72 41
54 75 43
50 69 40
54 75 43
49 69 38
76 92 79
125 138 141
116 131 131
114 127 129
123 136 139
119 134 135
119 133 132
112 126 127
122 136 139
112 126 126
126 140 141
107 122 121
117 131 131
121 136 137
118 132 133
123 138 138
118 133 131
88 103 90
65 88 54
55 76 43
59 81 47
56 76 44
53 74 42
57 78 45
54 75 43
53 74 41
56 77 45
60 82 48
56 77 44
59 81 48
63 85 51
52 73 41
61 83 49
97 114 102
128 144 145
111 125 124
128 142 143
124 138 139
124 138 141
118 133 133
137 153 157
124 138 138
124 139 139
125 140 141
124 138 141
127 140 143
117 132 129
106 122 115
118 134 131
59 78 53
53 74 42
64 87 53
66 89 57
67 85 63
72 95 63
72 92 71
86 103 87
95 113 101
98 112 108
94 112 99
116 134 130
105 121 113
120 136 130
65 86 58
75 96 70
87 105 92
106 123 115
138 153 157
133 148 151
137 152 155
130 145 148
129 144 146
132 148 150
135 150 152
140 155 157
125 140 140
88 108 90
62 84 52
64 88 52
64 87 51
67 91 55
61 84 49
64 88 52
69 93 57
62 86 50
66 89 54
66 91 53
71 94 62
85 104 87
119 136 130
105 122 112
99 119 102
79 102 73
82 103 76
67 92 55
61 84 49
65 89 53
70 93 59
83 104 80
127 145 142
141 157 161
146 161 167
140 156 161
142 159 159
137 153 155
115 133 127
97 118 97
91 112 89
122 140 133
153 170 178
131 148 147
157 172 182
147 164 167
130 148 147
125 142 142
132 148 148
145 162 167
137 154 153
144 161 166
146 164 170
135 153 150
134 152 148
154 170 170
183 197 206
198 211 221
219 231 245
227 238 254
227 238 254
228 239 255
228 239 255
228 239 255
228 239 255
228 239 255
228 239 255
228 239 255
228 239 255
228 239 255
228 239 255
228 239 255
228 239 255
228 239 255
228 239 255
228 239 255
228 239 255
228 239 255
228 239 255
228 239 255
228 239 255
228 239 255
228 239 255
228 239 255
228 239 255
228 239 255
228 239 255
228 239 255
228 239 255
228 239 255
228 239 255
228 239 255
228 239 255
228 239 255
228 239 255
228 239 255
228 239 255
228 239 255
228 239 255
228 239 255
228 239 255
228 239 255
228 239 255
228 239 255
228 239 255
228 239 255
228 239 255
228 239 255
228 239 255
228 239 255
228 239 255
228 239 255
228 239 255
228 239 255
228 239 255
228 239 255
228 239 255
228 239 255
228 239 255
228 239 255
223 235 250
214 226 240
204 217 228
174 189 196
149 165 166
129 148 144
133 152 151
152 167 172
128 146 142
132 150 148
109 131 113
75 98 71
71 96 60
91 113 92
109 130 118
137 154 152
114 133 123
72 96 59
70 94 57
75 99 65
81 104 76
99 118 103
116 134 129
137 154 156
137 153 156
149 165 175
147 163 170
145 160 166
135 151 152
139 155 156
135 150 153
111 127 122
107 125 116
134 149 153
145 161 166
143 159 164
144 158 164
136 151 153
140 155 157
138 154 155
143 159 165
126 142 138
130 146 147
117 134 131
102 119 108
79 101 77
72 95 61
61 83 49
62 85 49
92 112 96
138 153 158
149 164 171
136 150 154
135 150 153
129 144 147
133 148 151
134 149 152
132 147 149
115 131 130
102 118 112
81 100 81
74 93 72
59 81 50
64 87 51
75 95 70
88 107 88
103 119 113
110 126 120
74 96 66
59 81 47
65 87 52
64 87 52
56 77 44
63 86 51
64 87 51
67 91 54
51 72 40
59 80 46
70 91 63
78 97 79
114 129 127
118 133 131
119 133 135
111 126 124
126 141 142
129 144 145
95 111 99
61 84 49
64 87 51
61 83 48
61 83 49
56 76 44
56 77 45
54 76 43
59 80 47
62 84 50
55 76 43
57 77 45
60 82 47
53 74 41
57 77 45
58 79 46
58 79 47
53 73 40
83 101 86
116 131 128
116 131 130
80 97 81
93 107 100
74 91 72
74 92 69
62 81 58
53 73 42
59 80 47
53 74 41
49 68 38
61 83 49
56 77 45
58 79 46
55 76 44
52 71 41
55 76 44
58 79 46
70 88 70
110 124 121
116 129 130
138 151 157
123 136 138
120 135 135
123 138 140
121 134 136
117 130 131
124 137 140
119 133 134
111 126 123
124 138 140
120 134 137
113 126 127
117 131 132
96 111 103
108 123 121
126 139 143
84 102 87
56 78 45
57 79 45
61 82 52
63 82 56
63 80 61
66 84 63
91 107 99
98 114 105
99 114 110
88 101 97
89 104 95
120 135 137
111 125 124
106 121 117
110 124 120
117 131 131
126 139 139
110 124 122
55 74 46
53 73 42
56 76 45
60 81 48
49 68 38
62 84 49
52 73 41
54 75 43
53 72 42
53 73 42
55 75 43
45 64 35
54 74 43
54 74 43
54 74 43
56 76 44
57 77 46
57 78 44
112 125 127
122 136 139
116 130 130
131 143 148
118 132 134
116 130 128
122 137 135
116 129 128
109 124 123
116 130 128
109 123 120
122 136 138
123 138 140
119 133 135
118 132 135
106 121 120
119 133 134
123 136 138
67 87 61
56 77 44
59 80 47
52 72 41
55 76 44
55 76 43
58 78 46
57 78 45
55 75 43
51 70 41
57 78 46
50 70 40
58 79 46
54 74 43
52 72 42
52 71 40
54 74 42
85 101 91
108 123 121
112 126 125
119 135 136
123 137 137
108 122 121
118 131 133
118 132 129
128 141 147
118 130 133
109 122 122
115 128 129
117 130 132
112 126 128
117 131 132
119 134 135
104 119 114
91 107 98
55 77 43
58 79 45
56 77 44
61 83 50
57 78 45
46 66 35
53 74 42
57 78 45
59 81 47
54 75 43
58 80 46
54 75 43
58 80 45
60 82 47
62 82 53
96 113 103
118 132 131
124 139 141
138 154 157
130 147 150
134 148 152
122 136 137
116 130 129
130 144 147
134 149 150
132 145 148
124 139 140
139 153 157
131 146 147
127 142 144
102 118 111
60 81 50
60 82 48
63 86 50
57 79 45
62 84 49
57 80 45
63 86 50
56 76 44
57 78 44
58 80 46
68 91 58
82 101 85
98 115 105
118 133 129
87 104 87
80 98 80
106 123 115
106 124 113
107 124 117
113 129 124
133 149 152
137 152 154
131 146 151
133 148 151
132 147 148
135 151 154
123 138 139
94 114 94
68 91 58
65 88 52
64 88 51
66 90 53
61 83 48
60 82 47
68 91 54
72 97 59
71 96 57
65 89 52
69 92 58
112 130 121
134 151 152
135 151 152
132 148 147
129 144 145
124 141 138
111 130 123
90 110 94
91 112 94
71 93 62
85 106 84
121 138 136
137 154 156
147 163 172
154 171 179
149 165 173
143 158 165
145 161 169
136 153 156
134 152 152
130 148 149
135 152 154
131 149 149
146 162 165
154 170 180
149 165 175
149 166 171
156 171 178
150 166 174
129 147 147
144 160 164
150 168 173
143 160 161
133 152 151
114 133 123
129 147 137
162 176 177
187 200 207
213 225 238
222 233 248
228 239 255
228 239 255
228 239 255
228 239 255
228 239 255
228 239 255
228 239 255
228 239 255
228 239 255
228 239 255
228 239 255
228 239 255
228 239 255
228 239 255
228 239 255
228 239 255
228 239 255
228 239 255
228 239 255
228 239 255
228 239 255
228 239 255
228 239 255
228 239 255
228 239 255
228 239 255
228 239 255
228 239 255
228 239 255
228 239 255
228 239 255
228 239 255
228 239 255
228 239 255
228 239 255
228 239 255
228 239 255
228 239 255
228 239 255
228 239 255
228 239 255
228 239 255
228 239 255
228 239 255
228 239 255
228 239 255
228 239 255
228 239 255
228 239 255
228 239 255
228 239 255
228 239 255
228 239 255
228 239 255
228 239 255
227 238 254
219 230 245
211 224 236
174 189 193
155 172 174
139 156 156
122 143 135
123 142 135
116 135 127
110 129 119
112 132 122
87 110 84
72 96 64
89 110 89
104 125 107
125 143 137
138 154 154
149 165 172
141 158 160
122 140 135
85 108 82
96 117 99
123 141 136
129 146 147
147 162 170
139 154 160
147 164 170
133 150 148
146 161 166
141 158 161
125 140 145
114 132 126
93 112 95
84 106 81
71 95 60
101 121 106
151 167 173
143 160 162
151 165 172
135 149 152
132 147 149
139 156 159
131 146 146
119 137 133
91 112 95
74 96 67
66 91 53
65 88 52
68 92 55
71 96 57
59 81 48
64 88 52
85 107 78
127 142 140
137 152 158
126 141 140
134 149 152
131 145 148
107 124 117
104 122 111
95 113 100
71 94 63
66 88 55
65 88 53
66 89 53
61 84 49
63 87 50
67 91 54
62 85 49
67 91 54
74 96 69
107 123 116
102 118 109
73 93 68
77 98 73
62 84 49
68 90 58
68 88 58
83 103 82
117 132 129
115 131 130
117 133 130
116 131 129
138 153 158
117 131 127
135 149 154
126 141 142
124 139 141
132 147 151
108 123 120
56 77 43
59 80 47
64 87 51
62 85 50
61 83 49
63 85 50
52 73 41
57 79 46
59 80 47
63 85 50
61 83 49
55 76 42
64 87 51
58 80 46
68 82 69
78 97 77
84 100 87
121 138 135
88 106 93
67 88 60
59 81 48
57 78 45
52 74 40
57 78 45
54 74 43
55 77 45
56 77 43
61 83 48
57 78 45
48 68 37
54 74 42
55 75 43
57 77 44
54 75 44
56 77 44
60 82 47
65 85 60
110 124 122
108 124 119
115 128 131
114 128 127
125 139 140
119 133 134
117 131 132
116 130 130
133 147 153
127 141 143
123 137 138
124 138 140
140 154 161
120 133 131
120 134 136
114 128 125
111 127 122
110 124 123
88 104 95
70 87 70
105 120 115
103 117 111
104 118 114
118 134 135
127 143 144
111 124 124
117 132 133
129 142 147
111 126 123
123 137 142
119 134 134
119 131 136
108 122 120
116 131 129
109 124 118
106 121 116
112 127 124
92 108 97
53 73 41
60 81 47
61 82 48
56 77 44
55 76 44
58 78 45
53 72 42
59 80 47
55 76 45
55 76 44
57 78 45
55 74 43
48 66 37
59 80 47
55 75 43
58 80 47
51 71 40
73 91 72
96 111 104
116 130 130
122 137 136
108 122 122
120 135 137
133 147 153
125 140 143
123 137 140
111 125 125
119 132 134
109 124 122
111 125 125
117 132 130
124 139 143
126 140 143
112 127 128
116 130 130
106 121 119
61 79 53
53 74 43
57 78 46
53 73 41
55 76 44
54 74 42
59 80 47
55 77 44
56 75 43
53 75 42
62 83 50
54 75 43
49 68 38
55 75 43
57 79 45
57 78 46
60 81 50
93 108 100
116 130 129
128 142 144
116 131 128
109 123 120
115 128 130
113 127 124
109 123 120
131 145 148
120 134 135
128 144 146
123 136 138
131 145 149
130 145 148
118 132 129
122 136 138
122 137 137
67 85 66
54 76 43
63 85 51
62 84 50
51 72 40
57 78 44
54 75 42
60 83 48
59 80 47
56 78 44
64 87 52
57 79 46
58 79 46
59 80 46
57 79 45
76 96 77
117 133 127
128 143 144
133 147 153
117 131 131
110 125 123
123 136 140
129 143 147
116 130 129
124 140 142
123 138 139
113 128 125
114 129 127
134 148 152
130 145 149
124 138 141
106 123 113
57 77 49
60 82 47
62 84 49
58 79 46
62 85 50
62 84 49
71 91 67
75 91 76
102 119 110
119 136 133
116 131 131
125 140 140
132 147 154
111 127 122
76 93 78
66 90 53
64 87 51
68 92 55
73 95 66
73 93 67
71 91 65
93 111 99
97 115 102
104 121 112
117 134 132
111 127 120
133 148 150
91 111 92
65 88 53
67 91 54
61 83 49
65 88 52
62 86 50
64 87 51
69 93 56
68 93 56
64 88 51
64 87 51
73 96 67
96 115 98
142 159 163
138 155 157
141 157 161
148 164 173
140 156 160
134 151 152
137 153 155
127 144 141
112 130 123
97 116 101
110 128 121
122 138 138
145 161 166
145 160 165
145 161 166
134 151 151
149 164 168
143 160 164
140 155 161
136 152 157
119 137 132
103 123 111
120 138 135
135 152 152
138 154 157
140 157 162
151 168 175
135 152 153
121 138 136
116 136 125
111 130 121
135 152 152
119 139 133
99 120 99
99 122 102
129 148 142
159 174 175
178 192 196
202 214 224
215 227 240
227 239 254
228 239 255
228 239 255
228 239 255
228 239 255
228 239 255
228 239 255
228 239 255
228 239 255
228 239 255
228 239 255
228 239 255
228 239 255
228 239 255
228 239 255
228 239 255
228 239 255
228 239 255
228 239 255
228 239 255
228 239 255
228 239 255
228 239 255
228 239 255
228 239 255
228 239 255
228 239 255
228 239 255
228 239 255
228 239 255
228 239 255
228 239 255
228 239 255
228 239 255
228 239 255
228 239 255
228 239 255
228 239 255
228 239 255
228 239 255
228 239 255
228 239 255
228 239 255
228 239 255
228 239 255
228 239 255
228 239 255
228 239 255
228 239 255
228 239 255
228 239 255
227 238 254
214 226 239
197 211 222
164 178 180
150 167 167
133 151 148
111 132 120
94 117 95
99 122 102
90 115 86
90 113 89
79 101 72
83 105 78
100 121 106
118 137 131
132 148 147
159 175 185
147 164 170
150 166 172
142 159 163
142 159 162
123 141 137
141 158 164
150 166 172
142 158 163
148 165 173
144 159 168
153 169 177
141 157 159
143 159 161
114 132 127
87 109 86
65 89 55
69 93 60
65 89 53
63 86 50
73 98 59
92 113 93
142 158 163
144 160 168
149 163 169
119 135 133
113 130 123
80 101 79
75 97 68
67 91 54
68 94 55
66 90 53
64 87 53
67 91 54
65 88 52
66 89 53
64 88 52
64 88 52
71 93 60
107 124 114
136 152 152
132 148 152
95 112 100
79 98 78
69 90 63
65 86 55
60 83 48
62 85 50
66 90 53
61 83 47
66 90 53
62 85 50
66 89 53
65 88 51
65 88 52
63 86 50
65 88 52
112 128 122
133 148 148
127 142 145
116 132 126
96 114 100
90 107 92
107 123 117
110 125 121
142 158 164
123 138 140
128 144 144
134 147 152
135 150 153
122 137 137
114 129 126
124 140 141
140 155 159
121 136 137
119 135 133
70 91 64
64 87 52
60 83 48
62 84 50
58 79 46
60 83 48
54 75 43
61 82 48
57 79 45
77 96 74
82 100 80
75 92 77
101 115 109
114 129 126
121 137 136
119 134 134
121 136 134
125 139 139
103 119 115
56 78 45
58 79 45
56 78 45
62 84 50
57 78 46
64 87 51
63 86 51
60 82 47
58 79 46
61 83 49
59 81 47
58 80 46
58 80 46
52 72 42
58 79 45
64 87 52
60 83 48
57 78 46
80 97 81
112 126 123
139 154 156
131 145 151
121 135 136
108 122 118
118 132 133
111 125 124
112 126 125
116 130 132
116 131 130
107 121 118
93 107 102
85 102 89
75 95 68
75 94 73
68 87 62
57 78 46
59 80 47
96 111 106
115 129 127
118 133 132
125 138 140
134 148 151
121 134 135
111 125 122
112 126 127
119 133 136
109 125 120
125 140 140
121 135 136
120 134 136
121 136 137
115 128 131
130 145 146
109 123 122
122 136 138
108 123 123
85 102 88
50 69 38
49 68 39
52 71 40
57 78 45
54 74 43
56 78 45
59 81 48
55 76 43
56 77 44
49 69 38
61 83 49
62 83 49
55 76 43
55 76 43
46 66 35
54 75 43
57 78 45
108 122 119
119 134 136
114 129 127
125 139 143
110 124 122
108 122 120
114 128 128
123 137 139
140 156 161
117 131 131
134 148 153
127 141 145
112 126 125
125 139 140
106 120 115
121 134 137
117 133 132
124 138 140
99 115 110
54 75 43
59 81 48
54 74 42
55 75 43
52 71 40
51 71 40
58 80 46
53 73 42
51 71 40
54 75 44
58 80 46
53 74 42
56 77 44
60 80 50
62 84 50
56 77 45
70 88 68
118 133 130
126 141 142
122 137 139
110 124 122
119 134 134
128 142 146
112 125 124
116 130 130
120 135 138
119 134 133
138 152 159
117 132 130
129 144 149
120 135 137
118 133 133
131 146 152
104 119 114
60 81 55
60 81 48
59 79 47
61 83 49
57 78 46
61 83 48
63 86 51
59 81 48
56 77 45
58 81 45
57 78 46
60 82 48
62 85 49
58 79 47
64 86 51
76 96 73
128 143 144
118 133 136
122 138 137
129 143 147
124 139 141
125 142 140
123 138 138
135 150 154
129 144 146
123 139 137
127 142 141
127 142 143
126 141 143
125 140 142
125 139 141
99 116 107
66 86 58
76 96 75
80 99 79
100 116 112
123 139 136
117 133 131
131 145 150
123 137 138
129 143 144
130 145 147
143 158 165
133 147 149
132 148 148
115 132 130
73 93 67
61 84 49
61 83 48
61 83 48
63 86 50
61 83 49
59 80 46
66 88 55
63 86 51
69 92 59
72 95 63
98 119 105
94 115 95
84 103 85
100 118 106
103 120 114
87 107 88
75 96 70
73 96 63
77 100 69
72 97 58
65 89 52
65 89 52
65 89 52
67 91 56
96 114 98
141 157 163
145 160 166
146 162 168
145 162 166
135 152 157
137 153 156
155 171 179
136 152 155
137 154 157
136 152 151
130 146 147
130 146 146
118 136 134
134 150 149
142 157 160
151 165 172
152 169 177
141 158 161
148 163 169
148 164 169
137 154 156
101 121 108
83 106 78
98 118 102
120 138 133
143 161 165
138 155 156
147 163 173
129 145 145
102 123 110
90 113 86
99 120 99
88 111 87
84 108 84
103 125 109
119 138 131
141 159 158
151 167 169
169 184 185
191 203 212
218 230 244
223 234 249
228 239 255
228 239 255
228 239 255
228 239 255
228 239 255
228 239 255
228 239 255
228 239 255
228 239 255
228 239 255
228 239 255
228 239 255
228 239 255
228 239 255
228 239 255
228 239 255
228 239 255
228 239 255
228 239 255
228 239 255
228 239 255
228 239 255
228 239 255
228 239 255
228 239 255
228 239 255
228 239 255
228 239 255
228 239 255
228 239 255
228 239 255
228 239 255
228 239 255
228 239 255
228 239 255
228 239 255
228 239 255
228 239 255
228 239 255
228 239 255
228 239 255
228 239 255
228 239 255
228 239 255
228 239 255
228 239 255
226 237 253
210 222 235
181 194 200
163 179 179
138 155 151
142 160 161
140 159 161
137 156 155
130 148 144
117 135 126
89 112 88
87 111 81
93 116 94
104 125 108
138 155 154
145 161 170
147 164 171
150 167 173
149 165 172
139 155 159
122 141 137
100 120 102
77 101 72
133 149 150
143 159 165
145 161 168
152 167 175
149 165 171
133 149 150
120 138 135
98 116 105
78 100 77
65 89 52
72 98 59
72 98 59
68 92 55
71 96 58
71 96 57
68 92 55
95 116 96
126 142 140
110 128 120
103 122 109
82 105 77
69 92 58
65 88 52
63 85 50
66 91 54
62 85 50
66 89 52
62 85 49
69 93 55
67 92 54
62 84 49
69 92 60
89 110 87
100 120 105
96 114 103
68 90 59
66 90 53
60 83 48
62 86 50
63 85 50
69 94 56
69 92 57
58 80 46
65 88 53
58 80 46
68 92 55
62 85 50
63 87 52
65 89 53
64 86 51
66 87 59
68 89 62
99 115 106
95 114 98
84 105 82
65 87 55
61 84 49
63 84 52
60 80 50
81 100 83
73 93 68
102 120 107
122 137 136
137 153 157
118 132 131
120 136 132
129 143 149
127 142 144
138 153 160
113 129 125
134 148 152
87 106 89
59 81 46
59 81 47
63 85 50
66 87 55
60 81 50
75 91 77
108 123 119
102 119 111
126 141 140
119 134 136
122 136 136
129 144 144
124 139 137
122 136 138
123 136 135
123 139 137
119 133 135
120 136 133
69 89 60
65 88 53
57 78 46
60 81 47
56 77 44
62 85 50
62 85 50
58 79 47
58 79 46
58 80 47
52 72 41
61 84 49
59 81 47
61 83 48
58 80 46
62 84 49
57 79 45
66 89 54
62 83 53
125 139 140
130 145 144
124 139 138
101 117 109
104 119 114
96 113 102
85 103 87
64 81 60
70 89 67
63 84 53
58 79 47
53 74 42
57 78 45
51 70 39
53 74 43
59 81 47
56 77 44
60 82 48
67 88 58
126 140 144
124 138 141
115 130 130
120 134 135
123 137 139
113 128 127
123 136 139
112 125 125
122 137 136
134 148 152
120 134 136
116 132 129
120 135 135
127 141 145
134 148 151
124 138 141
126 140 141
129 143 144
103 118 111
56 77 44
55 76 43
60 82 48
61 83 49
56 78 44
58 80 47
56 76 45
53 73 41
58 79 46
55 75 44
58 79 46
61 83 49
63 85 51
54 76 43
58 80 47
60 82 48
53 72 41
63 85 53
127 141 143
125 140 141
120 134 135
121 137 137
119 133 133
104 117 116
117 131 131
122 136 139
121 135 134
113 126 126
120 135 133
127 142 144
104 119 113
112 126 125
116 130 127
109 125 118
106 120 115
104 119 117
87 104 92
86 103 91
74 90 73
85 102 85
94 110 101
100 115 108
91 107 94
91 107 98
91 109 92
101 117 111
98 114 105
102 116 110
103 117 113
101 118 108
112 126 124
111 126 125
109 123 121
97 112 104
86 103 89
85 102 88
75 93 77
86 103 88
71 89 71
85 103 85
80 98 82
86 103 89
73 91 71
82 100 85
73 92 66
84 102 86
89 107 96
82 99 85
67 85 64
97 115 100
92 109 94
109 126 118
96 111 104
96 112 102
108 125 115
117 132 130
91 109 94
107 124 116
93 108 100
79 98 77
85 105 87
80 98 82
97 115 103
88 107 90
80 99 79
74 93 74
88 106 91
133 147 149
125 141 139
115 130 129
119 134 133
127 141 143
134 149 154
133 148 151
132 146 150
127 143 146
124 140 139
116 131 130
121 136 134
121 135 136
107 124 119
97 114 105
101 119 110
122 136 138
142 156 162
127 142 144
126 141 142
128 144 143
118 133 132
129 144 147
128 144 146
137 152 156
131 146 148
138 153 158
138 151 156
141 156 159
123 140 138
75 97 70
60 81 47
63 87 51
64 86 50
66 90 54
68 92 55
62 85 50
62 85 49
62 84 49
68 93 55
60 83 48
65 89 52
74 95 66
116 133 130
132 148 149
133 149 153
135 151 153
118 136 129
111 128 121
102 121 109
88 108 89
91 112 90
75 97 72
65 89 53
68 92 58
95 113 102
114 133 128
139 154 157
138 153 154
137 153 154
140 156 158
131 148 149
149 166 172
148 162 170
152 168 177
148 164 166
143 159 163
105 124 114
89 109 91
95 117 94
107 126 114
131 148 147
139 155 158
145 162 167
152 168 176
153 169 175
138 155 159
106 128 111
67 92 55
75 101 63
78 100 76
91 112 92
113 133 122
139 157 157
139 156 153
105 126 115
91 115 90
77 102 68
95 117 99
113 131 122
119 139 130
133 151 149
131 149 149
133 151 147
143 160 157
164 179 183
195 209 219
212 224 236
226 238 254
227 239 254
228 239 255
228 239 255
228 239 255
228 239 255
228 239 255
228 239 255
228 239 255
228 239 255
228 239 255
228 239 255
228 239 255
228 239 255
228 239 255
228 239 255
228 239 255
228 239 255
228 239 255
228 239 255
228 239 255
228 239 255
228 239 255
228 239 255
228 239 255
228 239 255
228 239 255
228 239 255
228 239 255
228 239 255
228 239 255
228 239 255
228 239 255
228 239 255
228 239 255
228 239 255
228 239 255
228 239 255
228 239 255
228 239 255
228 239 255
228 239 255
227 239 254
223 235 252
208 221 233
174 189 194
153 170 168
131 150 143
140 158 157
156 173 178
153 168 174
106 125 112
110 130 120
139 157 160
115 134 126
102 124 107
133 151 151
129 146 145
150 166 170
136 151 151
157 174 185
149 166 170
134 151 152
115 134 125
81 103 82
75 99 68
71 96 58
81 106 73
135 151 150
150 165 171
148 164 170
127 145 143
109 128 117
99 120 103
75 98 66
69 94 56
68 92 55
60 83 49
64 88 51
74 99 59
69 95 56
75 98 68
77 97 77
118 135 129
120 136 132
86 106 89
59 82 47
72 97 59
65 89 52
62 84 49
72 96 58
70 95 57
67 92 55
65 89 53
66 90 52
61 84 50
75 97 70
78 98 77
112 128 124
128 145 143
139 155 158
130 146 148
109 125 116
67 91 54
63 86 51
67 90 53
66 90 54
63 87 51
66 89 53
64 88 53
62 85 48
68 92 55
57 80 46
57 79 44
69 91 58
62 83 54
79 99 80
106 123 114
117 133 130
123 137 137
120 136 134
65 88 55
62 84 49
57 79 45
68 91 54
61 83 49
65 88 53
61 84 48
65 89 53
58 79 46
60 83 48
70 91 66
68 86 62
98 116 107
103 119 112
117 133 133
108 124 118
115 131 128
137 152 155
105 121 115
89 108 91
95 112 96
107 123 118
118 133 131
124 139 139
119 134 132
132 146 150
122 136 134
123 137 137
123 139 138
122 136 139
121 136 137
130 144 146
123 137 138
133 148 150
128 143 145
119 134 131
144 159 165
102 117 109
58 79 46
61 83 49
59 81 46
63 86 50
57 78 45
58 80 46
58 79 46
56 76 44
61 83 49
65 88 52
64 86 52
59 81 47
57 80 45
57 77 47
60 81 48
73 94 68
79 97 79
97 113 104
110 125 120
68 86 67
66 86 60
60 82 48
57 79 46
57 79 45
55 75 44
59 80 47
55 75 44
56 76 44
61 83 49
56 77 45
60 82 47
59 81 47
58 79 46
59 81 47
63 86 50
59 80 47
59 81 48
108 124 118
124 138 141
116 130 128
126 140 142
120 134 137
131 146 148
122 137 137
118 132 133
119 133 134
116 133 128
133 147 151
124 139 141
128 141 145
120 135 133
126 140 143
123 139 138
118 132 135
120 134 133
126 140 143
63 81 58
57 79 45
57 78 45
63 85 50
52 72 40
54 75 43
60 82 48
60 82 48
60 83 48
56 78 44
59 80 47
58 79 46
61 83 49
58 80 46
62 85 50
58 78 49
64 83 56
61 81 50
92 109 100
119 134 133
115 129 127
99 116 109
98 114 108
92 108 100
93 108 98
89 107 95
85 99 91
68 86 64
85 103 87
78 98 75
56 76 47
70 88 69
68 87 61
62 83 52
58 79 46
57 77 49
87 104 93
117 132 131
124 139 140
113 128 125
130 143 146
128 143 146
130 144 148
136 150 155
112 125 122
116 130 129
124 138 138
125 138 140
125 138 141
130 143 148
135 149 153
128 142 146
129 144 146
125 139 138
90 107 95
67 91 55
53 74 42
62 84 49
61 83 50
65 88 52
58 80 46
53 73 41
56 78 45
56 77 44
59 81 47
57 79 44
57 79 46
58 79 44
62 84 50
63 85 50
62 84 53
100 116 108
128 144 145
125 140 143
130 144 145
131 146 147
133 147 151
127 142 144
130 146 150
128 143 146
125 139 138
134 148 152
129 142 146
128 142 147
126 142 142
115 131 130
131 146 150
112 128 126
70 90 66
77 96 75
78 96 78
80 100 79
82 101 85
91 107 98
120 136 138
124 141 139
121 135 135
115 129 128
82 101 83
72 95 64
80 98 80
72 92 69
76 95 73
119 135 131
137 154 157
143 158 164
134 149 151
136 150 156
132 146 147
125 140 140
136 152 155
123 138 137
130 146 147
135 150 149
140 156 159
136 151 155
129 144 144
135 151 155
76 97 70
61 83 48
59 82 48
66 89 52
60 83 48
63 87 51
67 91 54
68 93 55
65 88 51
62 86 51
60 83 48
66 90 53
66 89 57
111 128 122
133 149 150
127 143 143
142 158 162
143 157 162
141 157 162
138 153 157
123 139 134
133 150 150
122 138 136
109 129 116
91 110 95
110 128 119
137 154 154
145 161 164
147 162 168
135 150 152
142 157 161
144 161 167
158 174 183
144 159 165
140 156 157
141 157 161
140 157 161
118 136 130
70 93 59
69 94 56
69 93 56
85 107 81
113 131 121
113 131 124
132 149 146
142 159 161
149 167 173
119 137 130
78 104 66
71 97 58
79 106 65
71 96 60
87 111 83
93 115 93
104 124 111
82 104 76
68 93 56
81 104 77
111 129 117
142 159 164
153 170 177
146 162 163
146 163 167
140 158 160
147 163 165
162 178 183
165 180 185
191 206 217
212 224 239
224 236 251
227 238 254
228 239 255
228 239 255
228 239 255
228 239 255
228 239 255
228 239 255
228 239 255
228 239 255
228 239 255
228 239 255
228 239 255
228 239 255
228 239 255
228 239 255
228 239 255
228 239 255
228 239 255
228 239 255
228 239 255
228 239 255
228 239 255
228 239 255
228 239 255
228 239 255
228 239 255
228 239 255
228 239 255
228 239 255
228 239 255
228 239 255
228 239 255
228 240 255
228 239 255
228 239 255
228 239 255
228 239 255
228 239 255
219 231 245
204 217 229
177 191 197
152 168 171
148 167 170
141 159 161
149 166 169
136 154 154
120 140 131
88 111 83
79 104 69
105 126 111
135 153 150
146 164 168
145 162 166
146 162 168
154 169 175
151 168 173
147 164 168
107 128 112
111 131 121
82 104 79
75 101 61
74 100 61
67 92 54
67 92 55
83 106 76
121 140 136
106 124 112
92 113 96
78 101 70
70 95 56
67 92 54
68 92 55
69 93 56
70 95 56
69 94 55
76 99 69
82 103 77
98 117 106
119 137 132
127 145 141
136 152 152
138 155 156
85 106 82
69 93 55
61 85 49
66 91 54
75 101 61
69 94 57
69 93 56
67 90 56
79 100 75
76 97 71
120 138 134
135 151 154
143 160 164
134 149 150
141 156 160
132 147 150
136 153 154
111 128 119
64 86 51
66 90 53
64 86 50
64 88 51
70 94 56
66 90 54
65 87 52
65 89 52
69 93 59
89 108 90
108 124 116
122 137 134
121 136 136
144 160 165
138 153 158
145 161 167
140 156 161
134 150 149
74 96 66
60 83 48
63 86 51
66 90 53
63 86 50
62 84 50
62 84 50
66 89 52
61 85 49
66 89 53
62 85 49
60 82 49
67 90 53
65 88 52
64 85 57
76 96 74
100 116 108
115 131 128
113 128 123
112 127 121
105 121 113
122 136 133
135 150 152
129 143 146
131 146 147
122 137 139
134 148 153
133 148 151
127 142 142
128 144 146
131 145 149
131 145 147
142 157 162
141 156 162
131 145 150
124 139 139
131 144 148
106 123 115
68 88 58
62 84 50
64 87 51
57 79 44
59 81 47
57 80 46
60 82 49
54 74 42
68 89 58
67 86 60
78 96 79
109 125 120
99 117 104
119 133 133
129 145 146
124 139 141
126 140 141
123 138 139
102 119 109
63 85 52
55 75 43
64 87 51
57 78 45
58 79 46
58 80 46
57 78 45
57 78 45
58 80 46
57 78 44
56 77 44
60 82 48
61 83 49
61 84 48
61 83 49
56 77 44
55 76 43
59 80 46
72 92 70
131 145 148
136 150 154
127 141 144
108 123 122
130 145 147
114 129 126
127 141 146
112 127 123
133 146 149
118 133 135
124 136 139
114 129 127
128 142 143
118 133 134
120 135 134
106 121 116
130 146 146
129 145 147
83 100 84
56 77 46
55 75 44
48 67 38
63 85 54
65 85 57
71 89 68
65 86 56
66 84 61
91 108 94
95 109 101
97 112 106
95 111 104
96 113 104
106 122 114
112 128 125
111 126 124
124 140 139
133 147 150
75 95 74
61 82 52
54 75 43
56 77 43
64 87 51
63 86 51
57 79 45
58 80 46
59 81 47
63 86 51
55 76 44
58 80 46
58 80 46
57 78 45
58 79 46
52 72 41
53 74 42
61 83 49
86 102 91
128 142 145
130 145 147
124 138 141
125 140 140
138 152 156
129 143 145
108 124 121
120 135 132
132 146 149
117 133 132
128 142 145
133 146 149
127 142 144
130 145 147
116 131 130
113 128 126
119 134 135
71 92 64
61 83 48
59 81 47
58 79 46
54 75 42
61 83 49
67 91 54
57 78 45
62 84 49
62 84 49
65 89 53
62 84 49
64 87 50
60 82 48
64 87 51
60 82 48
71 92 66
125 140 140
127 143 143
118 132 133
128 142 145
131 146 150
131 146 148
125 140 139
132 147 151
124 138 140
127 141 144
131 146 149
130 146 147
132 147 149
133 148 150
124 140 138
116 131 132
100 117 105
75 94 70
94 110 101
121 137 132
126 142 140
136 152 152
117 132 130
133 148 153
131 147 148
142 157 162
132 147 150
132 148 148
136 152 154
125 140 140
124 140 139
127 143 146
106 123 113
96 115 100
103 121 112
93 111 102
114 130 125
121 137 133
118 134 131
119 135 132
135 150 152
120 136 131
119 135 133
136 151 155
137 151 151
130 146 146
121 138 133
72 94 65
61 84 49
61 84 48
68 92 54
68 92 54
66 89 52
64 87 52
67 91 54
66 90 54
66 90 54
63 87 51
65 89 52
75 100 67
98 116 103
133 149 152
148 164 169
142 158 160
141 156 162
143 158 164
137 153 156
144 160 162
135 150 153
138 155 157
142 159 164
140 156 159
139 154 156
105 124 114
117 134 129
110 129 123
139 155 156
137 153 151
156 173 184
140 156 159
143 158 162
140 156 160
146 163 166
135 152 154
121 140 133
89 108 89
69 95 57
74 100 60
69 94 55
73 99 63
83 107 73
80 103 74
120 138 130
123 142 137
104 125 110
82 105 78
71 95 57
75 100 61
73 99 59
71 96 57
75 102 62
73 97 61
76 101 67
110 131 118
102 124 106
135 152 153
152 169 175
160 178 191
157 173 180
151 167 172
142 159 162
143 161 162
158 176 184
166 183 192
177 191 203
192 207 219
202 215 226
221 232 247
227 238 254
228 240 255
228 240 255
228 239 255
228 239 255
228 240 255
228 240 255
228 239 255
228 239 255
228 239 255
228 239 255
228 239 255
228 239 255
228 239 255
228 239 255
228 239 255
228 239 255
228 239 255
228 240 255
228 240 255
228 240 255
228 240 255
228 240 255
228 240 255
228 240 255
228 240 255
228 240 255
228 240 255
228 240 255
228 240 255
228 240 255
228 240 255
228 240 255
225 236 252
220 232 246
195 208 217
170 185 187
139 157 154
133 153 152
145 162 165
143 160 162
136 155 154
99 123 99
90 114 86
93 115 91
92 115 89
119 139 132
126 145 139
145 163 167
157 173 182
149 165 172
152 168 175
139 156 158
104 124 109
86 109 84
73 97 63
73 99 60
66 91 53
69 95 57
74 98 65
90 112 88
113 133 123
119 136 132
93 113 96
73 98 63
69 93 55
73 99 59
64 88 51
71 96 58
68 93 55
70 95 57
91 112 89
105 124 114
122 139 138
139 155 157
139 156 157
141 157 162
144 160 166
144 160 168
133 150 146
78 100 72
68 93 55
68 92 54
66 91 54
66 89 54
79 100 74
101 119 109
110 128 121
123 140 136
133 148 149
140 156 159
138 152 158
134 150 150
143 159 163
139 153 159
134 150 154
140 156 162
135 150 152
75 98 65
64 87 51
69 93 56
67 90 54
64 87 52
70 93 58
97 115 105
106 124 115
111 129 123
124 139 140
139 156 158
136 152 155
129 144 148
137 152 156
138 152 156
133 149 150
139 154 160
147 162 169
84 103 82
64 87 51
61 84 49
60 82 47
60 82 47
66 89 52
62 85 49
64 87 50
67 90 54
56 79 45
69 91 61
67 89 60
85 102 86
120 136 133
127 141 142
118 133 132
134 149 153
130 146 150
124 138 139
78 99 77
63 86 50
67 89 56
68 91 58
76 93 75
69 89 64
94 111 98
111 127 125
114 132 127
131 146 149
137 152 157
123 138 141
128 143 142
135 151 154
128 144 144
134 148 155
128 142 146
132 146 149
118 132 134
83 102 82
62 84 49
62 84 49
68 89 59
72 92 69
82 100 81
96 114 100
106 121 116
120 136 135
138 152 155
125 141 144
130 145 146
116 132 131
137 152 157
130 145 145
122 136 137
128 143 143
128 142 146
132 146 150
74 96 66
58 79 46
58 80 46
58 80 46
55 76 44
59 81 47
62 84 49
59 80 47
61 84 49
58 80 47
59 81 47
58 81 46
64 86 52
65 89 52
59 82 47
63 85 50
58 80 46
62 83 50
62 83 52
104 119 113
123 137 136
125 140 144
121 137 136
111 125 127
112 128 123
132 147 151
121 135 136
119 134 134
137 152 157
121 134 137
136 150 154
128 144 143
122 136 138
127 141 142
132 146 153
108 122 122
115 129 129
107 121 121
82 99 82
107 124 118
119 134 134
106 122 116
118 133 133
118 133 133
116 131 131
113 128 125
134 149 153
120 136 132
129 144 146
130 143 146
128 143 144
139 154 159
120 136 137
126 140 144
123 138 138
115 129 129
107 123 119
55 75 44
57 79 45
61 83 49
59 80 48
58 79 46
61 83 48
57 78 45
57 78 45
59 82 48
60 82 48
58 80 46
62 85 49
58 79 46
52 72 41
62 84 49
55 76 43
59 81 47
68 88 62
122 137 137
126 140 142
129 143 144
121 136 137
112 127 127
125 139 139
120 134 136
128 141 143
124 139 143
130 144 145
127 141 143
123 139 140
124 139 140
133 146 150
125 138 142
139 152 159
139 153 159
100 116 110
63 84 53
60 82 48
56 78 44
61 84 48
64 88 53
61 83 49
60 82 48
55 77 44
59 81 47
57 79 46
63 86 51
60 82 47
58 80 47
61 84 49
63 87 51
64 87 51
85 103 87
132 147 151
136 150 154
140 155 159
130 144 147
135 150 153
133 149 150
124 139 138
119 134 133
123 139 137
107 124 117
101 119 108
101 117 107
94 112 96
82 104 82
73 93 68
68 90 59
114 129 127
123 139 139
146 161 168
128 141 145
132 148 150
135 150 152
135 150 153
137 152 157
130 146 147
131 147 146
132 147 149
141 157 160
138 153 160
140 156 160
136 150 153
111 127 122
68 89 61
65 88 52
60 82 47
64 87 52
64 86 55
73 94 66
68 91 61
72 94 66
75 95 71
94 111 100
110 128 118
96 115 98
124 140 136
107 124 118
99 119 105
73 93 70
74 97 67
75 99 66
66 89 55
64 88 52
60 82 47
67 91 53
64 87 51
63 86 50
65 89 53
59 81 46
71 95 57
79 102 72
109 125 120
145 161 164
130 146 143
136 151 155
135 150 152
150 166 174
149 164 172
148 163 170
148 163 171
151 167 174
144 160 163
149 165 171
133 150 153
96 114 103
71 93 64
72 95 63
87 108 93
99 118 106
122 139 136
134 151 153
138 156 158
147 163 171
145 159 166
139 154 159
116 134 130
91 114 90
70 95 56
68 93 54
68 92 54
71 96 58
72 98 59
74 100 59
70 95 56
80 105 69
91 114 89
106 126 113
98 118 102
97 120 101
76 101 67
72 98 59
76 102 62
69 94 57
75 97 70
108 129 113
128 147 148
125 145 139
118 138 131
152 169 174
151 168 173
146 164 169
120 140 132
116 134 125
130 150 146
147 166 170
158 174 178
168 184 193
183 197 206
197 210 223
216 228 243
226 238 253
228 240 255
228 240 255
228 240 255
228 240 255
228 240 255
228 240 255
228 240 255
228 240 255
228 240 255
228 240 255
228 240 255
228 240 255
228 240 255
228 240 255
228 239 255
228 240 255
228 240 255
228 240 255
228 240 255
228 240 255
228 240 255
228 240 255
228 240 255
228 240 255
228 240 255
228 240 255
228 240 255
228 240 255
226 238 254
213 225 237
180 194 198
170 185 188
146 164 163
128 147 143
151 169 174
133 152 148
114 134 125
101 123 107
76 101 70
88 111 82
114 134 126
135 153 152
145 162 167
155 173 181
155 173 178
150 168 173
147 165 170
112 131 119
90 115 88
74 98 62
73 99 60
76 103 63
74 100 60
73 100 60
85 107 85
108 127 116
116 134 129
146 163 169
154 169 177
153 169 177
91 114 89
69 94 57
70 95 57
70 95 57
67 92 54
84 107 78
97 117 102
123 141 136
134 151 152
136 152 155
144 158 162
152 169 178
144 160 165
141 157 161
156 172 181
145 162 166
139 155 159
89 110 90
70 94 58
80 100 76
104 124 111
117 134 131
134 151 154
140 156 158
147 162 167
143 160 168
139 154 158
150 166 172
131 146 149
137 153 155
146 161 167
146 160 165
130 146 149
148 163 170
139 155 161
71 92 65
67 88 61
81 102 76
109 128 118
119 136 133
133 149 148
141 157 159
136 151 153
148 163 171
127 144 144
149 165 171
136 152 156
148 164 170
134 148 150
134 149 154
139 153 157
139 154 159
144 159 165
104 120 114
61 83 49
64 87 50
57 78 45
69 93 55
67 90 54
72 96 62
72 95 63
93 112 97
125 141 140
122 137 137
130 146 146
145 160 166
138 151 158
140 156 159
131 147 147
145 159 164
128 144 145
137 152 156
97 115 101
62 84 50
63 86 50
57 79 45
59 82 46
59 81 47
55 76 42
65 87 52
60 82 48
72 92 66
76 96 71
79 99 76
88 106 90
95 112 101
104 122 113
112 128 123
112 129 119
113 128 127
138 152 155
90 106 97
109 125 119
105 122 117
106 122 116
126 141 143
136 152 157
124 139 138
120 135 134
130 144 147
129 143 147
131 146 149
139 153 158
141 156 161
129 144 146
120 135 133
119 134 135
128 143 144
133 147 149
133 148 151
103 119 110
56 78 45
60 81 47
63 86 51
58 80 47
55 76 44
63 86 50
55 76 43
61 83 49
67 90 53
60 83 48
63 86 50
60 82 47
61 83 49
56 77 45
61 82 49
57 78 44
59 81 46
53 73 40
85 103 87
127 143 146
126 142 144
120 135 135
130 144 147
124 138 141
129 144 147
121 136 135
123 138 138
119 134 134
106 122 118
88 104 95
89 108 92
71 91 68
67 87 58
61 83 48
59 80 47
57 79 45
62 85 50
70 89 65
123 137 136
125 140 141
128 143 147
129 143 145
131 145 148
125 139 143
113 128 125
123 138 136
117 132 132
129 143 148
121 135 134
131 145 149
118 133 131
128 144 144
131 146 149
121 136 134
131 145 148
113 128 123
74 93 73
59 82 47
57 78 45
56 77 45
60 82 48
60 81 48
51 71 40
61 83 48
60 82 48
63 87 51
60 82 48
59 81 48
57 79 46
57 78 45
65 88 53
59 81 47
60 82 48
58 78 46
105 122 113
134 147 151
122 137 138
119 133 132
133 146 151
126 140 140
124 138 139
123 137 140
133 147 151
125 140 142
109 123 122
135 150 153
126 141 143
138 152 157
122 138 141
129 143 149
128 143 144
124 139 142
91 109 97
62 84 49
54 76 42
54 75 42
62 84 50
62 84 50
56 76 44
60 81 48
61 84 49
63 86 50
61 84 49
61 83 49
56 78 45
64 88 52
62 85 53
61 83 51
72 92 71
110 125 123
113 129 124
113 130 123
93 109 98
91 109 98
82 102 80
80 98 81
58 78 49
67 88 59
66 88 57
59 82 47
59 81 46
58 80 46
64 88 52
65 88 52
62 85 50
76 97 73
121 135 133
140 155 159
143 157 163
140 155 159
116 132 126
136 151 152
125 141 138
125 141 139
129 144 145
136 152 153
135 149 152
134 149 153
139 153 158
141 157 161
146 161 168
125 141 138
69 92 61
67 91 54
66 90 52
68 91 54
65 89 53
62 85 50
59 81 47
68 92 55
58 81 46
67 90 53
64 88 52
63 86 50
70 94 56
66 90 55
87 105 90
124 139 135
130 145 146
108 126 116
106 125 114
96 117 101
88 109 91
81 104 77
76 97 71
71 96 61
66 90 53
67 92 54
59 82 47
68 91 57
112 130 123
134 149 152
141 157 161
154 170 177
136 153 153
136 152 157
150 166 173
146 161 166
149 164 171
139 154 156
145 161 166
133 150 153
145 160 163
99 119 103
71 95 60
75 100 60
62 86 50
73 99 60
81 105 77
99 119 102
83 104 83
111 129 120
118 137 131
137 154 156
123 140 136
86 108 86
73 99 63
66 90 53
73 98 59
68 93 56
70 96 58
68 93 55
70 95 57
68 92 55
103 123 109
130 148 148
144 160 164
132 151 149
120 139 131
104 123 113
77 101 69
75 101 61
82 106 73
111 130 119
109 130 117
73 99 62
98 119 103
100 120 106
120 140 136
143 161 163
133 150 148
118 137 127
94 117 95
108 130 115
136 155 154
125 144 135
147 164 165
171 186 192
186 201 211
222 234 249
225 236 252
228 240 255
228 240 255
228 240 255
228 240 255
228 240 255
228 240 255
228 240 255
228 240 255
228 240 255
228 240 255
228 240 255
228 240 255
228 240 255
228 240 255
228 240 255
228 240 255
228 240 255
228 240 255
228 240 255
228 240 255
228 240 255
228 240 255
228 240 255
228 240 255
220 232 246
207 220 231
196 209 222
170 185 190
149 166 170
142 160 163
148 165 169
136 155 158
118 139 128
86 110 80
86 110 80
91 114 88
110 130 121
139 157 159
161 177 185
153 170 181
153 170 176
158 175 183
134 152 150
113 132 120
96 119 97
69 95 57
73 100 60
73 98 59
71 95 59
75 100 63
88 109 88
118 137 129
146 162 164
146 161 164
144 161 165
149 165 174
153 169 175
144 161 166
98 119 99
68 92 55
74 97 67
112 131 118
117 134 129
132 149 151
144 160 164
146 161 166
145 162 167
145 160 165
141 157 164
144 158 162
147 163 168
152 168 174
145 162 169
140 156 157
138 155 159
111 129 121
112 130 126
134 150 152
144 160 165
150 165 172
153 169 177
143 158 163
155 171 179
143 159 165
139 156 158
149 166 172
138 153 155
137 152 154
142 157 159
141 157 162
137 153 153
145 161 168
113 130 123
112 130 122
120 138 136
129 144 145
147 162 168
140 155 161
139 155 157
141 157 160
150 165 173
137 151 156
139 155 160
133 149 152
138 154 156
145 160 165
124 140 142
140 156 158
134 149 152
132 147 149
140 156 161
121 138 135
63 85 50
69 93 56
72 92 69
100 117 108
122 138 136
122 137 134
137 153 158
138 153 157
143 159 163
138 153 157
123 138 140
140 155 160
135 152 154
136 152 156
131 145 147
134 149 153
128 143 142
127 142 143
112 129 120
62 85 49
69 94 57
58 80 46
60 82 48
65 88 53
61 84 50
63 85 49
62 84 49
67 92 55
56 77 45
61 84 50
65 89 53
68 92 54
78 97 78
84 104 84
105 122 114
116 130 128
126 141 144
107 122 112
83 104 79
100 118 106
102 120 108
103 120 109
108 124 117
105 121 115
105 119 115
122 137 136
131 147 151
135 152 154
127 143 143
133 148 150
126 143 142
127 142 146
131 146 147
129 143 147
139 153 158
136 150 155
122 137 137
73 93 71
66 90 54
59 82 48
61 83 48
59 81 48
62 85 50
56 77 44
60 82 47
64 87 51
56 77 45
59 81 48
59 81 46
64 87 51
60 82 49
57 79 44
54 75 42
60 82 48
59 80 48
69 93 59
122 136 134
114 130 128
115 131 126
90 107 94
89 105 95
75 94 72
68 88 63
60 82 49
59 81 47
61 83 50
55 76 44
62 84 50
61 85 49
55 76 43
60 83 47
61 83 48
60 82 48
56 77 44
64 85 53
124 140 139
125 139 140
119 134 133
126 141 142
119 136 134
134 147 151
123 138 138
123 137 140
139 153 155
134 149 153
130 145 148
133 147 151
140 153 159
132 147 150
132 146 152
122 137 139
125 140 141
121 137 136
132 147 150
80 100 75
62 85 49
59 80 47
66 89 54
57 79 45
56 77 44
61 83 48
56 78 44
68 92 55
64 88 51
63 85 51
58 80 46
62 84 49
59 80 46
60 82 47
65 87 52
61 84 49
67 90 56
119 134 133
135 149 154
122 138 136
123 138 142
122 139 136
134 150 153
127 141 141
115 130 127
130 146 148
139 154 159
141 156 157
125 142 142
129 145 144
124 138 139
128 142 145
123 138 140
115 131 129
132 147 150
66 85 65
63 87 52
66 88 55
63 84 53
59 81 47
78 99 74
77 95 76
78 96 79
99 117 110
103 118 115
116 132 129
111 127 120
104 121 112
131 147 146
124 140 138
130 146 148
126 141 139
89 107 93
66 90 53
54 75 41
59 80 45
61 83 48
69 93 56
64 88 52
60 83 48
59 82 47
66 90 53
66 90 53
61 83 48
64 87 52
68 92 55
66 90 53
63 86 50
85 104 86
121 136 135
139 155 158
137 152 155
122 138 137
132 148 151
138 155 157
139 154 157
125 140 141
143 159 165
131 147 149
133 148 153
126 140 139
144 160 165
141 155 160
133 149 152
105 121 116
73 95 66
67 92 54
58 81 47
68 91 54
58 81 46
63 85 50
65 89 53
65 88 52
63 87 51
68 93 55
66 90 54
66 90 53
66 90 53
68 93 55
111 128 123
130 145 146
149 165 172
140 155 161
136 153 155
145 160 168
128 143 144
129 145 142
131 148 145
118 134 133
100 119 106
104 122 110
82 104 82
75 96 68
111 128 123
137 152 157
150 165 173
154 169 175
147 164 171
132 148 152
150 165 169
139 154 155
139 154 160
151 165 171
139 155 161
137 153 154
129 146 147
107 126 115
68 92 55
70 95 56
65 90 52
65 89 54
72 97 57
69 95 56
76 103 62
74 97 67
74 98 65
82 103 82
89 110 88
86 109 84
97 118 102
81 103 76
65 90 53
73 98 59
71 98 58
69 94 56
73 99 59
70 96 57
90 113 90
128 147 148
151 168 177
148 164 170
147 163 165
125 143 137
127 147 144
112 132 120
84 108 81
100 120 103
102 124 108
74 100 64
72 98 59
86 111 81
92 116 90
108 129 116
132 150 152
110 131 121
94 119 90
83 108 76
97 119 99
128 148 142
120 140 132
137 155 152
149 166 164
184 198 204
206 219 230
224 236 251
228 240 255
228 240 255
228 240 255
228 240 255
228 240 255
228 240 255
228 240 255
228 240 255
228 240 255
228 240 255
228 240 255
228 240 255
228 240 255
228 240 255
228 240 255
228 240 255
228 240 255
228 240 255
228 240 255
228 240 255
221 233 247
205 218 230
189 204 213
164 180 185
135 154 147
127 146 140
141 160 163
123 143 137
114 136 126
92 116 92
88 113 82
114 134 124
130 150 146
145 163 166
151 168 174
153 169 175
151 169 176
126 144 143
119 137 133
102 122 106
80 103 77
76 103 62
69 95 56
72 99 60
73 99 59
85 109 80
102 121 109
146 163 167
153 170 175
146 163 169
153 169 175
147 163 168
152 169 176
143 160 165
146 162 166
141 158 163
97 118 102
114 133 125
146 162 168
159 174 182
153 168 173
144 160 165
141 156 160
143 159 164
154 168 175
144 160 166
149 165 171
139 154 157
145 163 171
130 146 147
129 146 147
102 121 107
93 113 96
116 132 128
139 153 156
149 165 172
156 172 182
144 161 165
150 165 173
147 163 168
148 164 169
139 155 158
146 161 167
145 162 166
147 163 169
134 149 152
139 154 159
124 141 138
105 123 114
96 116 97
75 98 65
125 141 141
153 169 177
131 147 150
140 156 161
136 152 152
148 164 173
144 159 165
151 167 173
139 156 160
139 155 159
141 156 162
141 157 164
143 159 163
145 160 166
142 157 160
141 156 161
136 152 155
122 137 138
123 140 138
108 125 119
125 142 141
136 152 156
132 148 148
145 159 166
140 155 160
131 145 148
140 155 160
133 149 148
148 164 169
131 146 149
137 153 157
143 157 164
139 154 158
129 145 146
145 160 164
144 158 162
143 157 163
123 139 139
64 86 54
62 84 50
66 90 54
58 79 45
66 89 53
63 86 51
60 82 48
72 95 62
79 100 74
84 103 83
105 120 116
113 129 124
132 147 151
144 160 165
135 148 152
131 145 147
127 141 143
131 148 148
137 152 154
80 99 80
61 84 50
70 94 56
60 82 47
67 91 54
67 90 54
67 91 54
65 87 54
62 85 49
63 84 56
77 98 76
72 90 67
90 108 93
97 115 103
95 113 102
103 119 109
99 116 106
118 133 130
121 136 136
96 114 101
76 94 76
68 89 59
78 99 76
64 86 54
64 86 52
67 89 56
64 87 52
60 81 48
61 83 49
66 90 54
71 92 64
80 97 79
82 100 83
95 111 98
112 127 126
116 132 128
127 141 144
135 149 154
114 131 126
65 89 53
55 76 44
59 80 47
53 74 43
59 81 48
56 77 44
64 87 51
62 84 50
61 84 49
59 82 47
58 80 47
59 80 47
62 85 49
56 77 44
63 85 50
61 84 49
55 75 44
57 79 45
94 112 100
118 132 133
134 150 154
127 141 146
128 142 147
128 143 145
140 155 161
123 138 140
118 133 131
118 133 131
140 155 161
125 141 141
135 151 154
138 153 159
126 141 143
126 142 142
127 143 145
113 126 126
134 148 152
103 120 112
62 85 50
63 86 51
60 82 47
57 78 46
57 79 45
62 85 50
63 87 51
60 82 48
57 78 46
60 81 47
63 85 50
61 83 49
61 82 48
65 88 52
60 83 49
58 79 47
58 80 46
75 95 68
138 153 158
129 145 147
132 146 148
115 130 131
132 146 150
124 138 138
127 142 144
112 127 126
119 133 133
125 140 141
129 144 147
125 141 142
113 130 124
119 136 133
111 128 123
104 122 114
99 116 105
90 109 92
118 134 129
106 124 116
122 136 134
109 125 120
138 153 160
144 158 164
129 145 145
123 138 138
133 148 149
128 144 145
130 145 145
125 141 140
133 148 150
142 156 162
131 146 148
121 136 137
131 146 148
68 88 62
64 88 52
63 86 50
64 87 52
58 79 46
62 85 50
60 83 47
64 87 51
60 82 48
60 82 48
62 85 50
66 90 53
61 83 48
59 81 46
65 89 53
62 86 50
88 105 92
126 141 142
145 160 167
135 149 155
143 158 166
121 137 138
138 154 158
149 166 175
141 156 158
139 154 157
123 139 143
141 156 161
132 147 149
133 149 152
130 145 148
133 149 149
112 131 123
62 86 50
67 91 54
68 93 56
69 93 56
70 95 57
64 88 51
66 89 53
59 82 47
64 88 52
63 86 51
65 89 52
61 85 48
63 86 50
72 94 62
103 120 111
139 155 160
135 151 151
131 148 150
134 151 151
146 163 169
144 158 161
154 170 177
144 160 164
133 151 153
142 158 161
147 163 168
142 158 164
140 156 159
128 144 145
113 132 126
113 132 124
129 144 142
136 152 154
153 170 178
142 158 160
145 162 169
141 157 164
141 156 161
151 167 176
148 165 172
140 156 161
90 111 94
67 91 55
60 83 47
59 81 47
69 95 56
69 94 56
70 96 58
70 95 56
71 95 57
68 93 55
70 95 59
97 117 100
136 152 153
148 163 169
128 146 144
107 127 115
101 122 106
86 108 84
76 101 67
73 99 59
74 101 61
75 101 64
109 128 116
132 150 152
155 170 178
152 169 175
149 166 173
158 174 184
143 160 163
127 147 142
138 155 155
114 135 124
90 115 89
74 100 60
70 95 56
78 105 64
82 107 74
100 121 106
88 113 85
76 101 67
87 112 83
83 107 76
86 112 79
95 119 96
90 115 88
116 135 121
148 165 163
167 183 185
199 212 222
222 234 248
227 239 254
228 240 255
228 240 255
228 240 255
228 240 255
228 240 255
228 240 255
228 240 255
228 240 255
228 240 255
228 240 255
228 240 255
228 240 255
228 240 255
228 240 255
227 239 254
216 227 241
211 224 238
190 203 212
158 175 176
129 148 141
102 124 105
116 137 123
98 119 102
92 117 92
81 107 73
96 119 93
114 135 125
153 171 178
144 162 165
165 181 192
166 182 192
157 173 181
132 150 149
115 134 123
102 124 101
74 100 61
85 109 79
85 111 79
69 94 55
78 103 71
103 124 110
119 137 135
144 162 167
158 174 184
169 184 195
149 166 173
147 164 170
153 169 179
154 171 178
155 170 176
139 155 156
139 155 156
107 127 117
139 156 159
143 160 167
142 157 160
151 166 172
157 173 183
154 171 179
148 163 173
145 161 164
157 172 183
146 162 165
135 151 154
129 145 145
114 134 120
93 115 94
74 98 62
70 95 57
72 96 60
122 140 135
153 170 177
144 159 165
143 159 165
142 157 161
150 165 172
143 160 165
145 160 166
154 170 176
143 159 163
133 149 151
123 141 138
110 129 121
89 110 87
67 92 54
69 94 57
68 93 56
65 89 52
122 141 135
147 162 165
147 162 171
143 159 161
138 153 156
140 154 159
133 149 151
143 158 163
134 150 155
147 163 170
151 166 175
130 145 148
142 159 163
141 155 160
145 161 167
115 133 126
80 100 82
75 98 66
77 98 73
134 149 150
134 150 155
140 155 159
140 155 158
144 158 163
138 153 154
141 157 163
137 153 155
140 154 158
134 149 152
124 141 140
145 160 165
142 156 161
146 162 172
138 153 159
140 155 159
139 154 155
131 147 148
135 150 151
75 96 71
67 90 55
60 82 47
67 89 56
86 106 87
102 120 109
116 132 127
118 133 132
133 149 152
137 151 154
125 140 136
126 142 144
130 146 149
138 154 159
136 150 154
141 157 162
142 156 161
139 156 160
131 146 147
100 119 105
66 90 54
60 83 48
65 88 52
63 86 50
62 85 49
60 82 47
62 84 49
65 88 52
61 84 48
58 79 45
59 82 47
62 84 50
59 81 47
58 80 47
64 87 53
63 86 50
62 85 51
60 83 48
90 109 88
120 135 135
139 154 157
124 139 140
121 136 136
123 138 137
106 123 114
98 117 106
83 102 84
67 88 62
70 90 65
102 119 110
106 121 114
98 113 105
117 133 128
117 134 128
118 133 133
113 129 123
123 138 138
120 136 133
88 108 88
85 105 83
88 105 92
69 89 62
71 94 65
67 89 59
69 90 63
68 90 61
65 86 54
66 87 58
62 84 53
56 77 44
69 90 60
65 88 55
61 83 49
65 87 54
65 89 52
68 90 57
70 91 63
126 142 143
130 145 149
122 139 139
124 138 139
132 147 151
129 144 147
141 157 161
133 149 149
134 148 152
139 153 158
131 146 148
130 144 147
132 147 148
133 148 151
137 153 154
133 148 152
128 144 146
119 134 131
130 145 146
71 94 62
64 86 53
72 95 63
72 94 68
75 97 69
78 98 78
79 99 77
77 96 74
80 98 80
87 105 86
83 101 83
88 108 90
82 99 87
88 106 92
97 115 105
103 119 113
104 119 115
100 117 107
108 126 117
91 107 99
91 109 96
94 113 101
70 90 65
83 101 83
76 95 70
75 96 71
59 80 50
63 86 50
68 90 60
66 89 53
64 88 51
65 87 51
69 94 56
67 91 54
60 82 48
64 86 57
115 132 125
121 138 135
137 152 157
138 153 157
136 151 156
143 158 165
133 148 148
139 153 159
133 148 152
129 145 147
135 150 154
118 133 132
125 139 138
136 152 154
140 154 159
145 161 167
136 152 154
113 129 125
66 88 55
65 89 53
61 84 48
67 91 54
65 88 51
59 82 48
67 92 54
63 86 50
65 89 52
64 88 52
62 85 49
61 84 50
67 91 54
66 90 54
63 86 50
68 91 54
111 126 123
133 148 150
146 161 166
142 157 165
147 163 167
128 143 143
140 156 159
143 158 164
141 156 162
134 148 152
128 144 144
140 155 157
138 153 157
143 160 163
151 166 171
147 162 169
88 107 87
67 92 53
69 93 55
64 88 51
61 84 48
70 95 57
67 91 55
63 86 51
62 85 50
63 86 51
70 95 56
72 98 60
64 88 52
70 94 57
74 96 70
130 148 147
137 153 159
136 151 155
145 161 165
129 146 143
156 171 179
141 156 157
159 174 183
144 160 164
146 163 169
131 147 149
155 170 176
142 159 162
134 151 154
106 123 117
64 88 55
75 97 67
86 108 83
85 105 81
114 134 126
114 131 124
132 148 147
131 148 149
148 164 168
148 164 169
143 159 163
139 156 159
101 122 107
68 93 59
68 92 55
74 100 61
66 91 54
68 93 53
68 93 55
72 97 58
69 94 57
69 94 57
68 92 54
89 111 86
131 148 148
142 159 165
155 172 179
147 162 168
134 150 151
114 133 126
127 146 140
84 104 80
77 102 71
83 106 78
105 124 112
149 165 170
158 176 185
152 169 177
168 183 192
151 167 174
142 159 162
88 108 86
88 112 83
88 111 83
90 113 91
92 113 91
85 110 80
70 96 57
71 96 58
78 105 64
84 110 75
102 124 102
115 136 127
109 131 116
86 111 80
83 108 79
84 109 76
98 121 102
112 133 114
144 163 157
165 180 181
192 206 213
224 235 250
228 240 255
228 240 255
228 240 255
228 240 255
228 240 255
228 240 255
228 240 255
228 240 255
228 240 255
228 240 255
228 240 255
226 237 253
223 235 250
211 223 237
185 200 210
151 168 169
129 149 142
97 122 96
119 140 128
134 152 151
147 165 170
108 130 113
101 125 104
111 132 122
147 165 169
160 176 183
157 174 183
155 172 180
155 172 180
128 147 142
102 123 103
87 112 80
77 103 63
71 97 58
67 92 54
98 119 99
105 127 108
120 139 132
134 152 154
154 170 175
160 176 185
155 170 175
152 169 177
146 163 167
155 169 176
152 169 175
147 163 168
134 151 153
111 130 118
86 110 80
76 101 64
97 119 97
142 160 166
147 161 167
158 173 181
153 169 176
153 170 174
150 166 173
146 164 171
148 165 171
137 153 155
113 131 125
88 108 86
74 97 66
72 98 58
72 98 59
70 95 55
67 91 54
69 95 57
124 142 142
145 161 167
149 165 174
150 165 169
137 154 154
154 168 175
143 159 164
138 154 156
125 142 141
116 134 128
72 95 64
73 97 62
67 91 54
65 88 52
66 90 53
67 91 54
66 90 53
66 91 54
104 123 110
130 145 146
145 161 166
146 161 169
137 153 157
138 153 157
133 149 152
152 167 173
138 153 158
147 163 168
142 157 161
117 135 129
103 121 111
86 107 87
65 87 58
68 92 55
62 85 49
65 89 52
65 88 53
121 139 134
139 155 158
124 139 138
146 161 168
123 140 135
147 162 166
140 155 160
135 150 153
147 162 168
145 159 167
141 157 164
145 161 167
143 159 162
141 156 160
145 161 166
155 169 176
124 141 139
142 157 161
137 153 154
110 126 121
95 114 100
101 118 107
130 144 145
143 158 166
141 156 161
140 156 161
136 150 154
143 157 166
133 148 148
141 156 164
138 152 158
137 153 156
146 161 166
140 155 157
125 141 141
137 153 154
144 159 163
126 141 143
123 140 136
62 84 49
61 84 48
61 84 49
59 81 48
64 87 52
63 86 50
61 84 49
59 81 47
59 81 47
58 80 46
64 87 51
63 86 51
64 87 51
70 95 56
62 85 50
53 75 42
65 88 52
65 87 55
76 93 75
118 135 131
102 119 111
81 98 79
79 100 74
75 97 69
71 93 61
59 81 46
69 93 56
66 89 53
64 88 51
64 87 51
63 86 51
63 86 51
56 77 45
62 84 49
60 83 48
62 85 50
54 75 42
67 89 56
101 119 111
128 143 145
127 141 143
130 145 146
130 146 147
123 138 138
116 131 130
122 139 140
138 153 156
118 133 132
125 139 140
115 131 132
121 137 133
120 138 137
111 126 120
119 135 136
114 130 127
116 131 128
117 132 131
114 132 127
91 110 93
82 100 84
85 103 86
94 113 96
90 108 92
86 105 88
93 112 95
67 87 62
84 102 88
86 105 92
85 105 84
89 109 89
82 101 81
77 99 71
77 99 71
70 91 63
82 102 79
80 101 79
101 118 105
112 126 123
125 140 143
117 133 130
122 137 137
130 145 148
139 153 157
135 152 155
138 153 156
125 140 143
137 152 155
148 163 171
128 142 145
141 156 163
137 152 156
132 146 149
118 134 131
126 142 143
110 126 123
73 92 70
105 122 112
86 102 90
78 95 79
94 111 97
99 117 104
93 110 98
96 113 102
101 119 109
113 129 123
120 136 134
111 127 122
121 138 136
117 134 128
110 127 122
125 141 140
120 137 134
121 136 136
97 115 103
71 92 64
69 89 64
82 101 84
81 100 84
82 101 82
69 89 65
76 96 75
80 100 75
96 116 99
82 104 78
74 94 74
92 111 97
77 98 76
87 106 87
100 119 106
91 112 94
101 120 107
127 145 147
120 136 134
108 122 119
115 131 129
119 136 133
107 124 115
111 126 122
107 125 113
97 115 103
104 121 113
96 115 101
80 99 79
85 104 89
101 119 109
79 100 78
95 112 103
129 144 146
130 144 146
130 147 146
140 155 159
123 137 140
125 140 142
137 154 160
132 148 151
127 143 144
131 145 146
146 160 168
131 146 149
141 157 163
128 142 144
133 149 151
143 158 163
94 113 99
69 93 56
67 91 54
66 90 54
66 90 54
64 88 51
64 88 50
65 88 52
68 92 55
67 91 54
64 87 52
62 85 49
65 88 51
63 86 51
72 94 65
127 145 144
148 164 174
143 160 165
150 165 173
144 160 165
144 160 166
157 173 182
134 150 152
135 152 153
135 150 154
142 158 163
144 159 162
141 157 164
142 158 163
88 107 89
73 98 61
62 86 51
67 91 53
68 92 55
68 93 56
77 101 69
78 100 72
85 107 80
104 124 111
101 120 107
115 133 124
131 150 147
104 121 111
69 94 57
68 92 55
65 89 53
67 92 55
73 99 59
67 91 53
69 94 56
68 93 56
68 94 56
70 96 57
81 105 73
129 147 145
142 159 163
146 162 166
153 169 174
162 177 187
150 167 173
137 154 156
140 157 160
130 149 145
125 143 139
113 131 125
137 153 155
166 182 193
155 171 176
162 178 187
144 159 161
86 109 81
68 93 55
80 108 67
92 114 91
115 134 125
131 150 147
113 133 121
87 110 82
77 103 69
76 102 65
78 103 70
99 121 99
130 150 149
146 163 168
117 139 131
92 115 93
86 111 76
102 125 106
112 132 121
121 142 133
135 154 146
151 167 163
197 210 218
222 233 248
229 240 255
228 240 255
228 240 255
228 240 255
228 240 255
229 240 255
229 240 255
226 237 253
218 230 245
203 216 229
188 204 218
146 164 164
124 143 136
115 137 122
117 138 128
147 165 167
163 181 193
159 176 186
150 167 172
133 151 151
151 169 175
165 182 193
159 176 183
151 168 178
138 156 158
120 141 130
97 119 100
82 108 74
75 101 61
72 97 59
70 97 59
82 105 74
92 116 90
102 123 107
120 139 134
140 158 160
157 172 182
160 176 186
162 179 191
149 166 170
150 167 174
161 178 186
140 156 163
127 145 141
99 120 105
82 108 77
77 103 63
76 103 62
71 97 58
86 110 84
141 157 161
151 167 173
149 165 173
147 164 170
158 174 183
132 148 147
117 135 130
98 120 101
76 99 68
67 91 53
67 91 53
65 89 52
72 98 58
69 93 55
74 99 59
75 101 62
68 92 55
127 144 141
141 156 156
152 166 171
142 158 162
142 159 162
130 147 148
114 132 121
80 102 72
66 90 54
70 96 57
62 85 49
70 95 57
67 91 55
61 83 48
70 96 57
67 91 55
68 92 56
70 95 56
96 116 98
145 160 166
145 161 167
140 157 159
148 163 169
136 151 153
137 153 156
126 141 142
111 128 120
97 116 104
69 89 65
65 87 52
69 94 57
68 92 55
74 99 60
64 87 50
67 91 53
70 94 57
68 92 55
124 141 137
146 161 168
138 154 156
139 153 158
133 149 153
141 155 162
137 154 155
138 154 158
129 145 146
133 149 153
127 142 145
143 159 166
130 145 146
137 153 153
137 152 154
124 141 139
101 118 111
96 114 101
80 102 76
87 106 88
128 143 143
142 158 163
131 147 149
131 147 149
130 146 147
139 155 158
144 159 165
138 152 156
128 144 144
116 131 130
132 148 151
144 158 161
143 159 163
138 155 159
137 152 156
148 163 170
118 135 132
144 159 165
141 155 157
69 92 61
69 94 56
64 88 52
64 88 51
66 90 53
66 90 54
66 90 53
69 94 55
59 82 46
68 92 55
63 86 51
65 89 52
70 90 62
74 95 69
86 103 89
103 119 111
117 133 130
122 138 139
141 155 159
111 128 122
60 82 47
65 88 51
60 82 47
65 88 52
60 82 47
60 83 48
63 86 51
59 81 47
62 85 50
61 84 49
64 87 51
58 80 46
64 86 51
67 91 54
58 80 46
66 90 54
62 85 49
65 88 52
77 99 75
142 157 162
127 142 142
129 143 145
123 138 138
145 158 162
134 150 155
125 140 139
127 141 145
117 132 127
131 147 150
144 159 163
138 154 158
145 160 165
129 144 146
134 150 151
122 136 136
133 148 149
128 144 146
126 140 143
76 97 69
64 86 51
63 86 50
62 84 49
58 79 45
66 89 54
63 86 51
63 85 51
53 74 42
60 83 49
65 88 52
59 81 47
65 89 52
62 85 50
60 82 48
61 83 48
57 79 44
71 94 59
70 89 64
120 136 134
141 156 159
112 128 122
120 135 136
119 133 135
112 128 119
101 117 109
91 109 91
95 115 97
95 114 100
89 108 91
75 96 71
82 103 77
74 94 71
69 91 60
66 87 55
62 86 50
67 89 57
100 119 108
133 149 151
134 149 152
138 153 158
130 144 145
140 155 160
134 148 154
128 143 148
144 158 163
131 145 150
141 157 162
127 142 145
133 149 149
125 142 142
139 153 154
132 147 150
134 149 151
140 155 158
111 128 123
65 87 55
59 81 47
64 87 51
64 87 51
63 86 50
65 89 51
64 87 51
60 82 48
66 89 53
68 92 55
62 84 49
63 86 50
58 80 46
60 82 48
64 87 51
61 84 50
69 90 59
129 144 144
135 150 155
134 148 149
138 153 155
141 156 161
148 164 167
134 151 154
149 163 168
142 157 162
136 151 153
133 150 153
143 159 164
139 154 155
131 147 151
148 163 169
143 157 161
115 132 128
77 97 74
67 87 61
72 92 71
65 87 54
88 107 89
110 128 118
107 126 114
90 111 92
116 133 128
112 131 124
121 138 133
128 144 142
128 145 147
132 147 148
139 155 160
123 139 135
79 102 72
67 91 58
62 86 50
61 84 49
67 91 54
67 90 53
64 88 51
61 85 50
67 91 54
61 85 48
61 85 49
68 93 56
66 90 53
69 94 56
87 107 87
132 148 150
143 160 163
127 143 144
140 155 162
136 151 155
139 155 157
150 166 172
126 142 142
152 168 175
143 159 163
148 164 168
141 156 159
158 173 180
138 155 160
90 110 95
65 89 53
69 95 57
72 98 59
68 93 55
74 100 61
69 95 56
66 90 52
67 92 55
73 99 60
64 87 52
73 96 63
73 95 65
114 132 123
116 135 127
108 129 116
85 107 82
78 101 69
70 95 56
71 96 57
70 96 57
72 98 59
74 101 61
70 96 58
69 92 61
130 148 148
141 158 162
151 168 175
161 177 188
147 164 169
154 169 177
153 168 176
147 163 172
147 164 169
146 163 168
147 164 170
146 164 168
150 167 172
143 160 160
124 142 138
74 101 61
67 92 54
77 105 64
79 106 65
93 113 94
129 148 142
153 169 177
145 162 168
137 156 155
121 140 133
98 122 99
85 109 77
96 118 96
123 143 135
153 170 176
138 157 159
145 163 164
109 130 118
112 134 118
124 145 135
135 154 153
125 144 137
143 160 157
162 177 178
202 215 225
217 229 243
228 239 254
229 240 255
229 240 255
227 238 253
218 229 244
207 220 233
180 195 201
146 164 164
125 145 139
102 124 103
124 144 139
140 160 159
167 185 197
153 170 176
142 162 165
126 146 139
124 144 137
157 174 183
165 182 193
148 165 171
140 158 160
114 133 125
88 113 82
76 103 62
73 99 59
75 102 62
73 100 61
82 108 71
109 130 118
139 156 157
156 173 184
115 135 126
108 129 112
149 168 172
160 176 187
170 186 199
154 171 179
155 172 178
122 141 137
104 123 110
96 118 96
73 98 66
72 98 59
72 97 59
68 93 54
71 96 58
68 93 55
85 107 80
142 159 164
147 163 168
143 161 164
120 139 134
103 123 112
86 109 81
68 92 55
68 93 55
75 101 62
74 99 60
74 100 61
72 97 58
73 98 58
72 97 58
70 95 58
71 96 58
69 94 56
123 142 137
150 166 172
136 154 154
101 121 107
90 111 88
71 96 58
68 92 55
70 95 56
63 88 51
67 91 54
68 92 55
73 99 61
64 88 51
68 93 55
66 90 53
68 92 53
69 93 55
68 92 54
88 107 89
140 156 163
156 172 181
134 151 154
131 148 146
113 130 122
88 109 90
67 90 56
70 94 56
66 90 53
71 97 59
63 87 51
64 87 51
69 94 56
70 94 57
68 92 55
66 91 53
69 94 56
69 93 56
92 110 94
132 149 151
143 159 163
149 164 171
143 157 161
139 154 159
136 152 154
146 162 167
136 152 153
144 159 164
144 160 166
139 155 157
119 137 134
101 120 105
91 111 93
65 88 52
69 93 55
68 92 55
64 88 52
83 104 82
139 154 161
142 157 162
134 149 152
144 158 163
132 148 151
144 159 166
138 152 156
141 155 157
141 157 162
142 157 163
144 159 163
130 145 145
139 154 160
143 158 163
140 156 159
141 156 163
137 151 154
126 141 144
144 160 167
99 118 105
64 87 52
61 84 48
71 96 57
65 88 52
68 92 55
64 88 51
74 94 67
72 92 70
80 101 77
100 117 108
122 138 136
133 147 151
136 150 155
137 153 155
142 157 161
143 159 164
141 156 161
136 151 156
113 128 126
70 92 60
63 86 50
66 90 54
64 88 52
67 90 54
62 84 48
68 92 55
64 87 50
58 80 46
58 80 46
63 85 50
58 79 46
62 85 50
66 90 53
70 94 55
62 86 50
55 76 43
66 89 52
62 85 50
123 139 135
131 146 148
129 143 147
126 142 143
131 147 147
130 146 146
125 141 139
128 143 148
139 153 159
145 160 166
128 144 145
148 164 170
124 139 140
131 148 151
136 152 158
128 143 141
128 143 146
123 138 137
143 158 165
105 123 113
65 87 51
70 95 57
64 86 51
66 89 52
61 84 48
67 89 55
65 89 52
69 91 59
81 100 82
92 111 96
98 115 104
99 116 107
101 119 108
100 117 108
124 140 139
125 139 138
116 131 128
136 152 153
105 121 114
70 93 58
58 80 45
66 90 53
62 86 50
63 86 50
65 89 52
60 83 48
57 78 46
61 84 48
60 83 49
64 87 51
66 90 53
60 83 48
61 83 48
65 88 53
63 85 51
60 83 47
68 91 57
121 135 134
134 151 152
134 149 153
139 154 158
140 155 159
143 159 163
134 148 151
133 147 147
127 142 144
145 160 168
143 158 163
137 152 158
144 158 164
140 156 161
131 146 150
131 146 149
131 146 147
128 144 147
76 98 70
66 90 53
64 88 51
70 95 57
65 89 52
68 92 54
62 85 50
60 83 48
64 87 51
64 88 52
64 86 51
65 89 51
66 90 54
66 90 54
61 84 48
65 88 52
61 83 48
96 114 102
126 142 142
121 134 133
135 151 153
125 141 139
142 156 161
129 144 145
129 144 147
133 148 152
141 156 160
141 154 160
137 153 155
145 160 165
149 164 170
140 155 156
150 167 172
142 158 166
102 120 105
70 95 57
65 89 53
66 90 54
64 89 52
60 83 49
66 89 53
66 90 53
60 83 48
63 87 50
72 97 58
66 90 53
67 91 54
68 93 56
72 95 61
70 93 62
85 105 86
137 153 158
118 134 134
111 129 120
117 135 129
111 128 120
81 101 80
89 109 94
74 96 66
73 94 69
76 99 69
71 96 60
62 86 50
71 95 57
63 87 51
82 104 79
130 147 147
144 162 167
138 154 159
148 163 169
145 162 166
136 152 154
145 162 164
135 151 154
140 156 161
142 157 162
149 164 171
135 151 152
161 177 185
134 151 153
101 121 105
67 92 54
64 88 52
71 96 57
66 90 52
68 93 54
69 94 56
71 97 58
73 99 60
66 91 53
66 90 53
67 91 54
74 98 64
121 138 134
143 160 165
148 165 172
135 152 154
130 149 145
120 140 135
108 128 111
87 109 83
77 102 66
74 100 60
75 102 62
79 104 72
132 150 153
152 168 176
151 168 170
151 167 174
157 174 184
160 176 184
160 176 186
149 167 173
154 170 179
153 169 176
147 164 168
119 138 132
119 139 135
128 145 141
116 135 124
97 119 97
76 102 68
79 106 67
71 96 58
77 102 66
109 131 115
149 166 172
160 176 186
153 169 175
152 170 177
141 158 159
120 140 132
103 126 105
121 140 135
151 169 172
159 176 182
161 178 188
148 167 172
139 157 157
123 143 138
154 173 181
152 170 175
147 166 168
159 175 178
167 183 187
195 209 220
223 234 249
228 240 255
206 218 230
182 196 200
143 161 156
114 137 120
118 139 126
139 158 157
145 163 168
163 179 190
153 172 179
128 148 144
108 129 117
82 107 73
91 114 88
157 176 183
159 176 183
125 144 141
101 123 103
97 121 96
75 101 62
72 99 59
74 100 61
87 111 80
93 117 92
126 145 141
145 163 164
155 171 177
159 175 186
157 173 180
95 116 98
75 101 62
123 141 136
154 172 178
144 161 165
120 138 130
102 123 108
79 103 71
69 94 55
67 92 54
75 102 62
74 101 60
66 91 53
74 100 61
72 98 58
72 98 58
94 115 96
137 153 155
107 126 114
74 97 66
70 95 57
73 99 60
70 96 57
71 96 57
67 91 53
75 101 60
69 94 55
66 90 53
69 94 56
68 92 54
70 95 57
73 99 60
92 115 93
100 119 107
108 128 113
73 97 65
72 98 59
72 99 61
68 93 56
68 92 55
67 91 54
74 100 60
72 99 60
69 94 56
74 100 60
66 89 53
69 94 54
72 98 59
65 89 52
72 98 59
70 96 58
71 95 59
86 108 82
127 145 142
97 114 101
87 110 84
73 95 63
67 91 54
65 89 52
74 99 60
65 89 52
64 88 52
67 91 53
66 90 52
63 87 50
64 87 51
71 96 58
68 93 55
69 94 55
64 87 51
65 89 53
76 96 75
142 158 161
146 163 168
143 158 164
131 146 150
137 153 155
134 151 152
140 155 159
112 128 122
108 125 117
81 103 79
69 93 56
66 90 54
67 91 54
69 94 57
62 85 49
69 93 55
65 89 52
65 88 52
70 93 61
123 140 137
135 151 155
138 154 157
145 161 166
150 165 172
135 152 153
135 149 153
137 152 156
141 158 163
147 163 168
134 149 151
134 149 154
135 151 155
110 125 121
132 148 149
132 147 149
141 157 163
125 141 144
143 158 163
117 133 131
63 87 50
66 89 56
81 102 77
93 112 98
123 141 134
118 134 129
137 153 155
136 151 154
143 158 162
149 163 168
132 148 149
130 145 149
133 148 153
145 161 167
126 143 138
137 153 158
135 150 154
134 149 150
139 153 156
88 105 91
65 89 53
64 87 51
66 89 52
65 89 51
65 89 53
68 93 56
62 85 50
58 80 46
63 85 50
64 87 51
61 85 49
61 83 47
71 95 58
67 90 54
60 83 48
63 86 51
62 84 50
61 84 48
80 100 78
138 154 158
138 153 155
138 152 156
134 149 152
132 147 151
118 133 132
141 156 159
130 146 147
135 150 153
130 145 146
134 149 152
137 152 158
128 144 146
141 156 161
137 151 152
133 148 149
132 148 152
130 144 146
130 145 145
95 113 102
105 123 113
102 121 107
117 132 132
103 121 110
128 145 144
134 150 151
133 147 149
139 153 159
142 157 163
136 152 157
145 160 168
147 161 169
140 156 161
144 160 161
130 145 147
140 156 160
133 148 150
128 144 147
78 100 74
67 92 54
65 89 52
60 82 46
72 97 58
62 85 50
64 87 52
59 81 46
66 90 53
65 89 52
64 87 51
62 84 49
57 79 45
66 89 54
69 93 57
59 82 47
67 91 53
63 85 50
103 122 110
139 153 155
132 147 151
130 147 147
133 147 153
143 158 165
135 150 151
140 155 161
135 149 153
148 162 171
122 137 137
133 149 148
131 148 150
137 152 158
146 161 170
138 153 156
137 152 155
135 150 153
122 139 138
63 86 51
66 89 54
63 86 50
66 89 53
68 93 56
61 83 49
63 86 51
62 85 50
65 88 52
57 78 44
67 91 54
64 87 51
66 90 53
64 88 52
68 92 55
67 91 54
74 100 60
105 123 115
136 150 153
141 157 159
141 156 159
142 157 164
142 159 163
125 141 142
136 152 154
127 143 143
135 150 151
126 141 140
139 155 158
129 145 146
137 154 158
136 151 155
146 162 167
143 159 165
99 118 106
66 90 54
63 87 50
68 92 55
66 91 54
67 92 55
70 95 57
66 90 54
63 87 51
66 90 54
66 90 54
61 84 48
65 88 52
66 89 53
63 87 50
78 100 71
116 133 127
140 157 162
139 155 161
147 164 170
143 159 164
135 151 153
143 158 164
147 164 168
139 155 157
137 153 156
118 136 131
115 131 126
114 132 126
104 124 114
104 121 114
118 136 130
145 160 165
136 151 154
148 163 170
147 163 169
147 164 171
131 148 151
150 166 176
139 155 159
142 159 163
137 154 156
146 163 167
141 157 161
134 151 154
144 160 163
92 113 96
71 96 57
68 93 56
67 91 54
72 97 58
72 98 59
74 100 60
67 92 54
62 85 48
74 101 61
71 96 58
68 93 55
85 106 82
132 150 152
150 166 171
153 169 178
145 162 165
155 171 177
152 168 175
148 165 172
146 164 166
129 146 144
105 125 113
88 109 91
89 111 85
120 138 134
154 172 179
142 158 159
156 173 181
155 171 178
157 173 183
154 171 180
156 173 180
152 170 180
164 179 190
150 167 173
121 139 132
155 172 182
166 182 192
143 160 165
131 149 150
125 143 140
100 122 103
80 104 68
77 104 63
105 124 112
131 147 145
163 181 192
168 184 193
161 178 189
163 180 189
156 174 181
139 158 156
127 146 139
154 171 179
160 178 186
163 180 189
149 168 173
154 173 182
158 176 185
161 179 186
161 179 188
156 173 178
152 170 176
141 158 157
170 185 188
205 218 228
147 163 159
102 124 101
127 147 141
129 150 142
149 166 170
166 184 194
157 174 178
143 162 162
106 129 111
79 105 69
73 99 60
82 109 73
97 119 98
118 137 127
102 123 105
81 106 72
79 106 65
73 100 60
75 102 62
97 122 100
91 114 89
134 153 150
141 157 159
162 179 188
152 168 176
156 173 183
163 179 190
152 170 178
91 114 91
84 107 78
113 133 123
122 141 137
88 112 84
73 99 61
73 99 60
78 105 64
73 99 59
77 104 64
71 97 58
74 100 61
73 99 60
74 100 64
99 119 102
125 143 137
120 138 135
78 103 69
69 95 56
74 100 60
70 96 58
72 98 60
71 96 57
71 97 58
69 93 54
74 99 60
71 97 59
68 92 54
75 101 62
80 102 74
109 128 116
129 146 145
142 159 163
150 166 175
124 141 139
70 95 57
65 90 53
70 96 57
70 95 56
69 94 56
73 99 59
70 95 56
71 96 57
71 96 58
70 95 56
67 92 54
66 91 54
67 92 55
74 100 60
79 102 70
107 127 116
136 153 154
131 147 147
86 109 83
71 96 58
68 93 56
69 94 56
71 96 57
66 91 54
62 86 50
64 87 51
69 93 55
66 90 54
71 96 58
62 85 49
61 85 49
65 90 54
67 92 54
67 91 54
74 99 60
73 98 60
78 101 70
130 146 146
147 163 171
133 148 150
126 142 141
110 128 118
91 112 93
80 101 75
66 90 53
61 83 48
66 89 53
69 94 57
62 85 50
67 92 55
70 95 56
71 96 57
64 88 51
69 93 56
69 93 56
65 88 52
102 119 109
139 154 159
141 157 163
148 163 169
139 155 160
145 160 166
142 157 161
142 157 162
142 158 164
139 155 162
147 162 166
143 158 163
127 144 141
137 153 156
143 158 161
146 162 167
128 144 145
129 145 144
119 136 126
100 120 105
123 140 134
139 155 160
142 157 164
136 151 155
137 152 155
143 159 164
134 150 152
143 157 165
136 152 155
133 148 150
133 149 152
132 149 150
130 146 151
137 153 156
145 160 168
131 146 147
129 145 149
130 145 149
130 146 149
129 146 142
68 91 54
66 90 54
71 96 57
63 86 51
64 88 52
62 85 50
63 86 51
62 85 50
61 83 49
59 81 47
66 90 53
65 89 53
68 92 55
60 83 48
67 91 54
57 78 45
65 89 52
64 87 51
67 89 55
124 140 138
146 160 166
134 150 151
136 152 156
147 161 165
149 164 174
145 159 164
131 146 149
138 153 157
124 140 139
129 145 145
112 129 124
107 122 116
89 107 89
94 113 98
99 117 105
79 101 76
61 83 48
64 88 51
97 114 102
151 165 173
136 150 152
126 141 144
128 145 145
142 159 162
143 158 162
142 157 163
130 145 149
143 157 163
143 157 161
140 155 162
135 151 151
140 155 160
137 153 155
139 155 160
129 144 144
135 151 155
131 146 149
110 126 123
66 90 54
67 91 55
63 86 50
66 89 53
65 88 51
68 92 54
60 83 48
67 91 54
63 87 50
61 84 49
71 95 57
63 87 51
62 85 50
63 87 51
66 90 53
65 89 53
61 84 49
68 91 54
127 144 143
146 160 168
139 153 159
130 145 147
139 153 156
143 158 162
127 142 144
139 156 156
142 160 164
128 142 147
142 157 160
127 142 144
138 154 155
129 145 147
139 155 161
150 166 173
134 149 150
143 157 161
119 135 132
66 90 54
63 86 51
72 97 59
70 95 56
64 88 51
67 91 55
63 86 51
66 89 53
68 93 55
64 87 51
59 82 48
58 81 47
64 87 51
66 90 54
67 92 54
68 92 55
67 90 55
122 136 136
145 160 166
138 153 160
141 158 161
122 139 137
138 154 159
131 148 150
142 158 161
139 154 160
139 154 158
144 160 165
151 167 176
144 159 165
140 156 159
142 159 169
143 160 164
124 140 140
82 105 79
71 96 57
69 93 55
75 101 61
65 88 52
64 88 51
64 87 52
64 88 51
70 95 57
66 90 52
67 90 53
66 90 53
62 85 50
72 98 59
65 89 51
76 101 67
124 141 139
139 154 159
138 154 157
135 152 155
143 160 164
140 157 160
138 155 159
151 166 172
144 161 168
148 163 168
152 167 173
139 156 160
144 160 166
148 163 170
158 175 183
120 139 134
85 106 79
91 112 92
98 116 103
103 121 110
122 140 135
129 148 144
133 150 149
138 154 157
140 157 160
144 160 164
146 163 170
149 165 169
145 161 167
132 149 152
89 110 93
70 95 57
67 92 54
63 86 49
75 101 61
71 97 58
66 90 53
68 93 55
68 93 55
69 94 56
71 96 58
70 94 56
81 103 77
134 151 154
147 163 167
155 170 176
158 174 182
147 164 168
147 163 166
148 165 170
131 147 147
152 168 173
150 166 169
134 151 151
148 165 168
146 162 167
124 143 139
147 163 168
160 177 186
155 171 180
157 173 183
160 176 187
158 174 181
149 167 174
136 155 156
86 111 79
115 134 123
153 171 179
157 174 180
163 178 188
155 171 179
156 172 178
153 170 176
124 144 137
107 128 112
110 133 116
136 154 154
164 180 192
156 173 182
164 181 190
160 178 186
157 175 184
143 160 166
162 177 185
161 179 190
144 161 162
150 168 177
154 173 182
166 182 192
165 182 193
158 174 185
142 160 162
154 172 177
154 171 181
150 168 172
164 180 189
107 130 112
128 146 143
147 164 169
155 174 184
164 180 191
125 145 141
95 119 94
81 106 70
79 106 64
83 107 75
102 124 108
131 148 143
122 142 134
76 102 65
74 101 62
76 103 63
79 106 65
82 105 79
110 131 117
139 156 155
157 172 179
165 181 192
147 164 170
152 168 174
159 177 187
162 178 188
161 178 186
149 167 174
126 146 144
147 164 166
148 164 170
137 156 158
107 128 112
75 101 65
76 102 63
75 101 61
75 102 62
74 99 60
71 96 57
91 114 86
114 133 121
134 152 151
141 159 161
150 167 170
141 158 160
80 103 70
77 104 63
67 93 55
72 98 59
77 104 64
70 96 57
75 100 60
74 100 61
72 97 59
82 105 79
108 127 111
127 144 141
146 162 167
147 164 171
158 175 186
148 164 170
155 170 176
136 153 152
72 98 58
71 96 58
68 93 55
71 97 58
71 97 57
69 94 57
65 89 52
71 95 57
73 99 61
71 96 58
76 101 63
91 113 92
106 125 116
134 151 152
143 159 162
139 155 158
156 171 177
147 162 169
92 112 94
68 92 55
68 93 55
68 92 54
71 96 58
70 94 56
65 89 52
71 96 57
69 94 56
70 95 57
62 86 50
69 94 57
66 89 53
72 97 58
70 94 56
69 93 56
66 90 53
71 93 63
83 104 79
128 146 142
100 120 105
71 93 64
70 94 59
67 91 54
67 92 54
66 91 53
63 88 52
67 91 54
65 89 52
66 90 53
66 89 53
67 91 54
67 92 54
69 94 56
71 96 56
73 98 60
67 91 53
62 86 50
100 120 110
149 164 172
143 158 164
136 150 155
128 144 146
137 153 156
137 153 159
144 159 164
131 147 148
133 149 149
146 163 169
146 162 167
135 150 151
131 148 150
118 136 130
96 114 101
91 111 95
70 93 58
57 79 45
69 94 55
118 136 131
125 139 139
148 163 170
134 149 151
146 161 169
143 157 164
138 154 158
148 164 172
138 152 156
148 162 170
131 146 149
138 154 159
143 157 161
142 157 161
144 160 167
143 159 163
132 148 151
129 146 147
138 153 156
142 157 164
70 92 63
66 90 53
62 85 49
68 93 55
68 92 54
65 89 52
58 81 47
66 90 53
62 86 50
67 91 54
63 86 51
64 87 52
69 93 56
67 91 54
61 84 48
66 90 54
64 87 51
65 88 52
63 86 50
92 110 98
133 149 151
140 157 161
120 137 135
111 128 123
112 128 123
92 110 96
97 116 100
75 94 70
74 96 69
63 84 53
66 90 53
66 89 52
62 85 49
59 82 48
66 90 53
62 85 49
62 85 50
63 86 51
65 88 55
146 163 167
137 153 155
124 139 141
119 134 131
127 141 142
123 139 140
138 154 157
140 155 159
132 147 150
153 168 177
139 155 160
128 144 147
141 157 162
139 155 159
140 155 159
125 141 139
136 152 156
136 151 153
129 145 145
82 102 83
70 96 57
63 86 51
59 81 46
63 86 50
68 92 55
59 82 47
69 93 56
68 92 54
67 91 55
65 87 52
62 85 50
67 91 54
64 88 51
65 89 53
67 91 54
68 92 55
64 87 51
77 97 73
133 148 149
121 137 138
135 150 155
144 160 165
141 156 162
130 145 147
136 151 154
147 162 170
138 152 156
145 161 165
134 150 152
134 149 153
131 147 150
138 153 158
132 148 150
152 168 176
145 160 166
121 136 136
77 100 72
61 84 48
67 91 55
66 91 54
68 92 55
64 88 51
63 85 50
65 90 53
66 89 53
71 95 57
65 88 52
61 84 48
66 90 53
63 86 51
69 94 56
66 90 53
59 82 47
87 106 86
134 150 153
139 155 160
132 147 148
128 144 146
138 154 156
135 152 154
145 160 167
144 158 163
144 159 163
139 154 157
131 147 146
152 168 175
135 149 155
134 150 153
143 158 162
143 159 163
124 139 140
71 92 64
70 94 56
63 87 51
68 93 56
70 95 57
66 91 54
67 91 53
68 92 55
61 85 50
69 93 55
63 86 52
66 90 52
66 90 54
70 95 56
68 93 55
92 113 92
133 149 151
131 147 149
145 160 166
145 160 165
142 158 162
146 162 164
159 175 184
150 166 172
144 160 165
152 167 176
141 157 163
149 165 170
144 159 166
139 154 154
142 159 164
107 125 116
69 94 55
65 90 53
68 92 55
72 98 59
79 103 68
72 96 61
85 109 79
84 105 81
100 118 105
104 123 111
127 144 143
130 147 148
137 154 156
128 146 142
81 105 72
67 92 55
72 98 59
73 98 59
73 99 60
74 99 60
70 96 57
72 97 58
67 92 55
65 89 52
72 96 57
69 94 56
79 103 74
139 157 161
142 159 165
158 174 180
158 175 186
153 169 178
158 175 183
153 170 176
157 175 183
160 175 186
139 156 159
155 172 180
146 163 169
119 138 130
92 113 95
97 119 99
130 147 145
143 161 165
148 164 169
155 173 182
143 160 165
92 114 93
74 101 61
74 100 60
127 145 140
156 173 182
158 175 184
158 175 183
154 170 179
142 160 164
153 169 178
148 165 169
140 158 160
137 155 153
148 165 169
159 176 185
168 183 194
161 178 188
162 179 189
159 176 185
165 182 194
158 174 181
141 160 160
117 138 127
135 153 152
159 177 187
165 182 194
164 182 192
149 168 171
136 156 157
133 154 149
145 164 164
153 171 177
151 168 172
167 183 193
156 174 182
128 147 146
101 123 105
81 107 73
78 105 64
92 116 88
107 127 113
131 152 151
153 171 177
164 181 191
115 135 123
74 101 60
68 94 56
95 118 96
129 148 145
144 161 160
163 178 188
161 178 188
155 171 178
158 176 186
171 188 200
153 169 178
162 179 190
124 141 137
106 127 109
97 117 100
149 167 172
162 178 187
156 173 182
160 176 188
146 165 167
110 132 116
72 99 59
72 98 59
80 104 71
99 120 104
122 142 132
138 156 159
149 167 175
157 173 182
150 167 178
156 174 184
144 161 164
74 99 66
73 99 59
71 95 57
76 103 63
73 98 59
69 93 55
76 101 68
97 118 101
120 139 134
133 150 150
153 169 177
150 166 170
152 168 174
151 167 172
139 155 157
150 166 171
161 176 185
135 151 151
75 100 62
71 97 58
72 98 59
70 96 58
68 93 55
68 92 54
69 94 56
69 93 57
83 106 75
115 134 125
127 143 142
149 166 171
152 168 173
153 169 176
152 168 172
136 153 154
156 171 180
151 166 172
110 129 119
68 93 55
70 94 56
73 98 60
71 97 59
68 92 54
73 98 59
71 96 58
70 96 57
76 102 62
65 89 52
67 91 54
70 94 55
70 95 57
74 96 65
100 120 105
125 141 139
143 159 161
139 156 161
112 129 119
71 97 58
66 90 53
68 93 55
68 93 56
63 87 50
68 93 56
70 94 56
70 95 57
72 97 58
68 92 55
65 89 52
60 83 48
64 88 52
68 92 55
70 95 57
72 96 58
70 95 58
65 89 53
83 103 81
138 154 157
148 162 169
144 160 166
144 159 166
147 161 169
133 150 152
133 150 149
133 149 153
120 137 137
122 138 135
91 110 93
77 98 73
72 96 58
66 90 54
68 91 54
66 90 53
70 96 57
62 85 49
61 84 48
99 117 106
137 152 156
148 162 167
140 156 160
144 159 165
139 155 158
142 159 163
138 155 160
131 146 148
129 144 146
142 158 163
137 152 154
139 154 158
145 160 165
138 155 160
137 154 155
141 157 160
146 161 167
129 145 145
132 148 151
80 100 78
66 90 53
69 93 56
64 88 52
66 90 53
67 92 55
68 92 55
63 86 51
56 78 44
64 88 52
65 89 53
67 91 54
67 91 54
66 90 54
65 87 58
84 106 82
95 114 98
94 113 101
114 130 122
121 137 136
89 109 90
75 97 71
61 84 49
69 93 56
63 85 50
65 88 52
64 89 51
63 87 51
62 86 50
68 94 56
64 88 52
67 92 55
66 90 53
67 91 55
63 86 50
60 83 49
66 91 52
69 93 56
68 92 55
111 129 121
133 148 154
132 149 151
140 155 160
133 149 150
145 160 166
137 152 157
139 155 160
130 145 146
143 158 166
133 148 149
146 160 163
144 159 167
126 142 142
141 155 160
141 156 160
137 153 156
128 144 145
133 149 151
111 127 122
67 90 53
65 88 52
65 88 52
63 86 51
67 91 54
64 86 50
63 86 51
62 85 50
66 89 53
69 93 56
67 92 54
66 89 52
63 87 51
64 88 52
66 89 53
67 91 54
65 89 52
62 85 50
116 133 129
128 144 144
128 143 143
139 153 160
146 161 165
144 160 166
137 153 158
130 145 148
143 159 164
148 163 169
134 149 150
141 156 161
152 167 176
140 154 160
144 160 165
141 157 160
144 160 166
131 147 148
116 132 126
64 88 51
69 94 56
70 95 57
63 87 50
69 93 56
69 93 55
67 91 54
68 92 55
67 91 54
65 89 53
66 90 53
68 92 54
69 93 56
68 93 55
65 89 53
66 91 54
72 96 61
119 137 134
145 160 166
144 160 164
131 146 145
146 162 169
145 160 166
141 156 160
150 165 173
146 161 167
147 163 168
131 145 146
147 162 169
154 170 176
142 159 164
144 161 165
145 160 164
139 156 159
111 127 121
62 86 50
70 95 57
61 84 48
69 94 56
67 90 53
70 95 57
71 95 56
72 97 59
66 89 53
71 95 57
60 84 48
67 91 54
67 91 53
66 90 54
66 89 52
102 120 110
141 155 160
140 155 158
141 156 161
154 170 179
147 162 167
148 163 170
148 163 170
141 157 161
150 166 170
126 142 144
154 170 179
150 166 170
146 161 169
144 160 164
152 168 172
96 117 100
68 93 54
66 91 53
64 88 52
68 94 56
66 90 53
68 93 55
69 94 55
73 99 60
66 91 53
71 97 58
71 95 60
75 99 68
92 114 92
98 121 98
116 134 126
111 128 118
99 119 103
87 109 86
81 104 74
65 89 52
70 95 57
72 98 59
70 96 57
69 94 56
73 99 60
73 99 60
94 117 91
139 156 158
142 158 159
157 173 183
148 165 172
150 166 170
162 178 188
162 179 190
152 169 177
144 161 165
158 175 184
157 174 182
147 164 168
122 142 137
77 100 70
76 102 63
77 102 68
78 102 74
111 132 122
125 142 139
99 122 110
80 105 69
74 100 63
74 98 65
107 128 115
145 162 162
156 174 183
155 172 178
151 168 175
161 177 187
157 175 182
155 173 180
161 177 186
161 178 186
142 159 162
120 140 132
148 166 171
142 159 163
162 180 194
156 174 183
163 180 193
159 177 187
147 165 165
125 143 136
97 120 99
111 132 117
133 152 151
157 175 184
159 176 183
136 154 154
112 133 115
111 134 120
148 167 172
137 157 155
94 117 95
80 107 71
82 110 71
87 113 81
115 135 123
134 154 154
153 171 177
159 177 187
163 181 191
147 165 169
92 117 89
102 125 106
135 154 152
159 178 187
157 173 181
161 177 187
160 177 184
158 174 182
161 179 188
169 185 195
145 163 167
136 155 155
96 119 97
72 97 61
73 99 59
102 124 106
164 180 192
148 165 172
159 174 182
162 178 187
148 166 173
130 147 147
102 122 106
114 134 122
138 155 157
142 159 163
157 173 179
165 181 193
153 170 176
166 181 194
158 174 182
152 169 176
148 163 171
71 96 61
74 100 60
74 100 61
76 103 63
82 107 78
115 135 125
145 163 168
144 161 166
151 168 173
149 165 172
150 167 173
158 174 184
150 166 172
150 167 174
155 172 181
153 170 179
154 169 174
140 157 162
75 99 68
70 95 57
72 97 59
71 96 58
69 94 55
82 104 78
117 134 131
145 161 165
159 174 183
153 168 174
141 156 162
155 170 177
143 159 163
152 167 174
142 158 161
155 171 178
139 155 156
150 165 169
116 135 128
67 91 55
69 94 56
69 94 56
65 88 52
68 92 54
67 91 56
69 94 56
65 90 53
73 99 59
72 96 60
102 122 105
113 132 125
130 147 147
139 154 157
141 156 161
149 164 171
149 165 170
148 164 170
131 147 148
71 95 57
66 90 54
66 90 54
68 92 55
68 93 55
71 96 57
71 96 58
67 91 53
68 92 54
72 97 58
67 91 53
66 91 53
67 91 54
65 89 52
69 93 55
69 94 56
66 91 53
69 94 56
66 90 53
126 142 141
142 158 160
147 163 168
137 151 155
119 136 129
123 140 139
92 112 97
68 91 58
63 86 51
71 97 57
70 94 56
70 95 57
65 89 52
71 96 57
63 86 51
63 86 50
65 89 53
64 89 52
65 89 52
79 102 74
126 143 144
142 157 162
155 170 179
128 145 147
149 164 171
140 154 159
137 151 153
132 148 150
142 158 165
139 154 158
144 159 163
131 146 145
136 151 154
144 161 167
140 157 162
150 165 171
142 158 163
130 144 147
131 146 145
114 129 125
69 94 56
64 88 51
67 90 54
63 87 51
67 91 54
61 85 49
65 89 53
75 98 67
77 100 72
98 117 103
106 124 117
131 149 150
117 132 130
143 159 164
150 165 171
134 150 152
120 137 134
131 146 147
142 158 160
107 126 117
69 93 55
65 89 52
65 88 53
66 90 54
62 86 50
65 88 52
67 92 54
63 86 50
68 93 56
64 88 51
67 91 54
64 88 52
63 86 50
64 87 52
68 93 56
64 88 52
68 93 56
64 88 52
72 94 64
134 149 151
131 147 148
150 165 173
149 165 170
129 145 145
136 153 156
139 155 159
141 155 156
140 157 162
130 145 143
146 161 167
143 158 162
130 146 146
140 156 164
149 164 170
138 154 160
131 146 147
136 152 157
133 150 152
87 105 90
61 83 48
62 85 49
70 95 56
66 90 53
65 89 52
64 87 51
63 87 51
66 89 53
68 92 54
65 89 53
67 91 54
62 85 50
67 92 55
67 91 53
67 92 55
67 91 55
63 86 50
76 97 71
137 153 156
141 157 162
135 150 155
145 160 166
136 152 156
138 154 159
149 165 169
136 153 157
141 156 164
142 160 161
130 144 145
132 149 149
140 156 164
130 145 146
150 166 172
130 144 146
132 147 148
133 149 152
98 117 107
70 95 56
60 83 49
70 95 57
66 91 53
68 93 55
65 89 52
66 89 52
69 93 55
67 90 54
63 86 51
69 93 56
70 95 58
66 90 54
66 89 52
65 89 52
63 86 51
65 88 55
138 152 159
144 161 166
149 165 172
148 164 173
142 157 160
143 159 165
144 161 167
142 158 164
148 163 167
139 154 158
139 154 162
134 150 154
147 163 169
151 167 174
143 158 163
144 161 168
143 160 162
90 108 92
64 88 52
64 88 52
67 91 54
71 96 58
67 92 54
71 97 58
71 96 58
69 94 56
72 98 59
68 92 54
67 92 54
64 88 51
71 96 57
67 92 53
70 94 56
116 134 128
143 160 165
150 165 170
143 159 163
147 163 166
139 156 158
141 157 159
146 162 168
149 165 172
150 167 173
156 171 180
146 162 169
148 165 171
141 158 163
149 165 169
133 150 152
89 111 87
68 93 55
65 90 53
68 94 56
68 92 54
76 103 63
70 95 57
73 99 60
71 96 57
72 97 58
70 95 57
71 98 59
73 99 59
71 98 59
116 135 127
152 169 176
138 156 158
128 146 144
141 156 160
132 149 150
125 142 139
116 136 126
99 118 103
83 106 81
73 97 64
71 96 60
69 94 55
81 104 77
137 154 155
148 164 167
147 164 170
141 156 158
158 175 185
156 172 183
156 169 175
153 170 179
153 170 179
153 168 174
151 168 175
156 172 180
119 138 132
81 104 73
76 101 64
106 126 113
151 168 174
157 174 184
160 178 188
145 162 165
137 156 155
118 139 128
85 107 84
121 140 131
138 156 155
152 170 177
166 182 193
158 174 184
172 189 203
160 178 186
153 169 177
162 180 190
149 165 170
142 161 162
94 117 92
99 121 100
124 145 135
125 145 139
153 170 177
160 177 185
160 177 185
150 168 175
113 134 126
81 108 72
89 113 85
108 130 110
133 153 150
156 174 179
140 158 160
118 140 132
95 119 93
80 108 66
79 107 66
99 122 100
122 142 137
139 159 160
165 181 193
164 179 188
170 186 200
154 171 178
155 172 179
135 154 154
139 158 160
147 164 167
153 171 178
159 177 181
170 185 196
160 177 187
160 177 189
165 182 196
149 166 170
133 152 148
97 121 98
71 97 58
68 93 55
72 98 59
75 101 61
99 121 106
154 170 175
149 165 170
169 184 196
153 169 173
137 155 156
112 131 122
97 118 97
127 145 143
150 167 171
150 166 168
144 161 168
151 169 177
151 168 177
155 171 181
155 170 178
160 175 182
134 151 153
75 101 65
83 106 77
116 137 128
140 158 160
150 167 174
156 173 181
159 177 188
142 159 161
152 168 173
155 171 178
157 175 182
155 172 181
161 176 186
150 166 174
159 176 184
150 166 174
154 169 176
137 154 156
77 101 69
73 99 60
89 110 93
116 136 125
135 153 151
145 161 166
153 169 174
153 168 178
157 173 185
149 166 174
153 169 176
143 160 164
145 160 167
158 173 183
149 164 170
149 166 172
145 160 165
152 169 177
128 146 142
72 97 58
73 98 59
67 91 54
71 96 57
71 95 58
66 91 54
78 102 71
96 116 95
122 139 137
140 156 157
145 161 165
146 162 168
143 158 163
141 156 156
141 156 158
136 153 156
142 157 162
139 156 159
138 154 154
68 92 58
67 91 54
69 94 56
69 93 55
65 89 52
71 96 58
67 92 54
69 94 56
66 91 54
71 96 57
69 93 55
65 88 52
67 92 54
69 94 57
68 92 54
73 99 60
66 91 54
64 87 50
81 101 77
113 130 124
109 126 117
74 95 69
73 98 59
68 92 54
69 94 56
72 97 58
70 95 57
68 93 54
59 83 47
62 85 49
69 93 55
68 92 55
63 87 51
74 100 60
63 86 51
66 91 53
66 90 53
69 93 55
68 91 58
134 150 150
132 149 150
145 161 166
145 161 167
149 165 172
139 153 158
144 159 166
145 160 164
144 160 165
135 151 153
142 156 161
142 157 162
153 168 175
137 153 156
139 156 159
145 160 165
143 159 164
148 164 169
149 163 169
143 158 162
74 96 67
71 95 60
75 96 72
93 110 95
111 127 122
130 146 143
126 142 140
125 142 142
145 161 167
141 157 159
142 158 161
148 162 167
145 160 168
139 155 158
140 155 160
136 150 156
131 147 151
143 159 161
132 148 150
126 142 141
69 94 55
66 90 54
66 91 53
66 89 52
64 87 51
65 89 53
61 84 49
67 91 54
67 90 53
67 91 54
64 87 52
67 91 55
67 91 54
68 92 55
67 91 54
57 79 44
62 85 49
69 94 55
65 89 53
110 127 120
136 151 156
132 148 150
136 152 156
143 158 164
135 151 156
146 161 169
140 154 158
128 143 148
139 155 158
135 151 152
129 145 147
140 154 159
133 149 151
141 157 161
142 157 163
138 154 156
149 164 171
135 151 153
126 143 141
64 88 52
64 88 52
67 92 54
65 88 53
62 85 49
72 97 58
64 87 52
68 93 55
62 85 50
62 85 49
68 92 54
68 93 55
68 92 55
69 93 56
64 88 51
65 88 52
63 86 51
67 91 55
105 122 111
140 155 161
154 170 176
144 159 166
132 149 152
132 148 148
146 161 166
142 158 162
135 150 153
135 151 153
142 158 162
143 159 165
136 151 155
138 154 155
153 168 175
151 167 175
131 148 146
141 157 159
131 147 146
70 93 62
65 89 53
66 89 53
69 93 56
67 92 54
65 89 53
65 88 51
64 88 52
60 83 48
64 88 52
66 89 52
69 94 57
63 87 51
67 91 55
65 89 53
62 86 50
66 90 54
93 112 97
137 153 159
138 154 157
146 160 164
146 162 169
141 158 163
141 157 158
137 154 155
135 151 154
143 159 164
146 161 165
142 157 159
131 147 147
148 164 170
154 170 177
142 158 161
139 155 158
131 148 147
72 95 62
65 89 52
69 94 56
64 88 52
67 92 54
70 95 56
71 97 58
64 88 52
72 98 58
67 91 54
71 95 58
76 102 62
72 98 58
72 97 58
67 91 54
70 94 59
128 145 144
146 161 168
149 165 173
147 162 168
144 160 165
138 155 155
152 169 177
151 167 176
143 158 163
146 163 167
150 165 170
147 163 169
141 157 159
148 165 171
146 161 167
134 150 155
68 91 56
72 98 60
69 94 57
68 93 54
79 107 65
68 93 56
69 94 56
68 92 54
72 99 59
68 92 54
75 101 61
70 95 57
66 90 53
74 98 67
116 135 126
144 161 163
158 174 184
154 171 179
158 174 181
139 156 154
145 161 166
152 168 177
139 155 155
128 147 147
133 151 151
123 142 136
102 124 106
111 132 121
137 155 155
151 166 175
144 161 167
144 161 166
151 168 175
154 171 178
157 174 182
159 175 184
158 174 183
147 163 167
152 169 177
142 159 163
119 136 129
113 132 122
154 172 178
152 169 174
160 176 183
167 183 194
151 169 177
146 164 168
162 178 188
151 167 175
145 162 164
146 164 168
148 165 170
149 167 174
168 184 195
155 173 179
164 180 189
155 172 178
154 171 179
155 173 182
157 173 178
145 164 165
105 127 109
77 104 64
85 111 79
94 116 95
114 135 121
140 158 160
161 178 188
155 172 182
124 145 141
91 115 89
76 102 62
83 109 75
94 118 93
114 135 128
125 145 139
80 106 71
107 128 108
126 145 142
152 170 177
155 172 179
163 181 191
162 179 189
171 188 202
161 178 188
139 157 157
105 125 111
119 139 129
167 185 198
166 183 194
157 174 184
161 178 189
163 180 189
159 177 185
149 167 173
116 136 127
95 119 90
75 103 62
74 101 61
78 105 64
77 104 64
75 102 61
74 100 60
115 134 124
157 173 181
149 166 170
133 151 151
94 117 91
81 105 71
73 99 60
69 95 57
74 99 62
92 115 88
136 154 152
149 165 174
159 175 187
156 172 181
156 173 182
163 180 193
154 170 179
137 155 157
112 130 120
145 162 167
160 178 190
154 170 179
145 160 164
142 158 166
155 173 180
150 167 172
138 154 155
159 175 184
150 167 174
157 173 182
154 170 180
148 164 169
163 178 190
144 161 164
151 168 175
151 169 173
115 134 124
135 153 156
151 168 173
153 169 177
155 171 181
148 163 170
149 165 173
146 163 169
149 165 171
155 170 177
150 166 171
150 165 171
142 158 162
141 156 162
147 164 170
151 167 174
157 171 180
150 166 173
132 150 149
74 98 65
68 93 55
70 94 59
89 112 84
103 123 110
134 151 152
133 150 152
139 155 158
142 158 162
139 156 162
157 174 182
151 165 171
142 157 161
149 164 171
143 159 162
138 154 158
148 164 169
148 164 171
145 162 166
88 109 86
70 95 56
67 92 55
67 92 55
60 83 48
64 87 50
68 92 55
67 91 52
70 95 58
63 86 52
75 102 62
68 92 55
67 91 53
69 93 58
85 106 82
114 131 124
123 140 139
136 152 154
149 165 171
132 150 149
67 91 54
68 93 55
63 86 50
64 87 51
67 91 54
63 87 51
66 89 52
71 96 58
70 94 55
64 87 51
71 95 57
70 93 56
63 87 50
66 89 53
71 96 57
65 89 53
65 89 51
64 88 52
66 90 52
109 126 121
132 147 147
139 155 157
148 164 170
134 150 153
143 157 160
148 163 169
135 151 155
139 154 160
152 166 174
132 148 151
136 151 152
142 157 162
144 158 163
151 168 173
131 145 148
131 148 146
133 148 152
123 138 137
107 124 121
120 136 129
135 151 154
144 161 168
151 165 170
138 154 159
138 154 159
148 164 169
135 151 152
147 163 169
133 148 152
134 150 157
144 159 166
133 149 153
127 142 144
142 157 161
147 163 169
132 149 150
138 154 158
140 157 161
148 163 168
93 111 99
66 89 53
70 95 58
62 85 48
69 94 56
67 92 54
68 92 55
66 90 53
65 89 53
74 99 59
67 92 55
68 93 55
63 87 52
70 94 56
67 92 54
65 89 52
61 83 48
69 93 55
66 91 53
69 91 60
141 157 161
140 158 162
138 155 158
149 164 170
133 149 152
147 162 169
152 166 173
134 149 150
128 144 145
144 160 164
133 150 151
140 157 162
137 153 152
144 159 163
139 155 159
136 152 155
143 159 165
142 157 159
142 159 164
87 106 88
63 86 51
65 89 53
71 96 57
66 89 54
69 94 56
69 93 56
66 90 53
65 89 52
66 91 55
66 89 52
60 83 48
73 99 60
72 98 60
68 92 55
65 88 51
73 98 63
73 97 62
69 93 58
125 141 140
137 153 156
125 142 140
135 152 153
122 139 133
125 142 140
113 130 124
129 146 146
117 133 129
103 120 112
107 125 117
106 124 113
98 119 101
98 118 104
107 125 114
93 111 95
96 116 101
104 122 110
112 129 122
132 148 147
135 152 154
131 148 150
133 150 153
125 141 140
127 144 141
130 145 143
137 154 156
136 152 154
131 147 145
134 150 152
130 148 149
126 143 140
123 141 140
124 141 140
124 140 137
138 154 158
121 139 133
90 109 89
107 126 112
107 125 116
87 106 89
99 118 101
110 129 121
112 130 124
118 134 130
116 134 128
101 119 107
122 139 133
120 137 136
127 144 146
122 139 139
124 142 138
130 147 148
111 129 122
75 98 67
82 104 76
76 99 67
77 101 68
74 99 62
65 88 54
67 91 55
71 97 58
66 91 55
72 98 59
72 98 59
66 90 53
73 99 60
71 96 57
71 96 58
90 109 89
146 163 167
140 157 158
142 159 164
144 161 168
139 157 159
142 158 161
151 167 174
140 157 163
150 166 172
146 162 166
140 156 156
140 156 159
152 167 173
148 164 171
142 158 162
118 136 129
75 100 65
70 95 57
66 90 52
70 95 57
73 99 60
67 92 54
76 102 62
72 98 59
67 92 54
67 92 55
73 100 60
71 97 58
76 103 62
75 99 65
137 155 157
148 164 171
156 172 180
153 170 177
157 174 184
158 174 183
148 165 171
150 166 171
149 166 173
140 158 161
149 166 171
149 166 172
144 162 166
149 166 172
127 144 142
115 134 125
146 163 167
154 172 180
157 173 179
151 167 173
151 167 176
157 174 183
169 185 198
162 179 190
136 155 157
97 117 98
118 138 132
164 181 190
157 175 187
150 167 174
168 185 197
152 169 180
162 179 188
159 175 184
156 172 182
165 181 193
166 183 195
130 149 145
93 116 91
98 120 102
133 153 151
153 170 175
149 167 174
157 175 180
165 182 192
157 174 184
158 175 185
146 164 166
103 126 109
72 99 60
78 105 63
74 101 61
86 111 81
102 126 104
120 141 134
133 152 151
126 147 139
97 120 101
80 108 66
77 104 63
72 98 59
85 110 79
126 147 140
155 173 181
156 175 181
163 179 191
164 181 192
160 177 187
150 169 175
128 147 143
95 119 95
80 106 69
77 104 67
131 150 148
161 178 188
164 181 192
161 179 188
157 174 182
143 162 164
97 120 98
81 107 71
74 101 61
74 101 61
77 104 64
71 96 56
76 103 62
76 102 62
77 104 64
78 106 67
115 134 125
107 127 114
89 112 88
79 107 65
74 100 61
77 104 63
72 98 59
74 100 60
74 100 60
80 107 66
77 102 70
105 126 112
142 159 162
155 172 177
149 165 169
122 140 132
104 124 113
99 120 103
153 168 175
157 174 183
148 164 172
155 171 178
157 171 179
157 174 182
156 172 179
162 178 190
159 175 184
153 169 175
152 168 176
148 164 169
155 170 176
148 165 169
151 168 174
145 162 167
105 124 109
91 115 89
136 153 154
152 169 175
156 171 177
155 171 179
153 170 176
153 167 172
157 174 181
159 175 185
156 173 181
159 173 183
146 162 169
153 169 176
143 158 163
149 166 172
151 167 174
152 167 174
140 157 156
156 171 181
146 162 168
99 119 104
121 140 135
123 142 135
148 164 170
152 168 178
140 156 161
142 158 164
155 171 180
160 174 182
155 171 179
141 158 164
143 159 163
148 164 169
143 159 163
153 169 175
147 162 166
140 156 160
156 172 180
153 170 177
92 115 95
67 92 54
68 92 54
65 89 53
64 88 52
65 89 53
71 96 57
66 90 54
66 90 54
76 100 66
77 99 70
114 134 124
112 131 120
135 151 152
145 161 165
153 168 177
153 169 178
138 155 158
133 149 150
140 156 159
71 96 59
64 88 51
71 96 57
69 94 55
72 97 58
70 95 57
68 92 54
66 90 53
66 91 53
59 82 47
71 95 57
62 85 49
68 92 54
64 87 51
67 92 55
71 96 57
65 89 52
67 91 54
69 93 56
92 112 88
149 164 172
147 161 167
142 158 163
139 155 160
156 171 182
143 159 160
135 151 153
142 158 163
139 154 158
130 147 149
136 151 153
126 142 141
119 136 133
102 120 107
85 106 86
64 88 51
68 94 54
72 97 59
67 91 55
94 114 96
152 166 174
155 171 178
129 144 147
148 164 171
138 155 157
141 155 157
142 158 163
141 157 158
148 164 172
136 151 153
137 152 156
143 159 165
145 161 165
148 163 167
145 162 167
139 155 159
141 157 161
145 160 165
144 162 168
118 137 132
70 94 57
66 90 54
69 94 56
65 89 52
65 88 52
69 94 56
68 92 55
64 89 52
64 89 52
66 90 52
61 84 48
65 88 52
67 91 54
65 89 52
70 94 57
65 89 52
72 98 59
69 93 56
71 94 59
110 128 116
142 158 162
148 164 172
148 164 172
131 147 149
128 145 147
125 140 141
140 156 160
140 156 162
135 150 152
134 149 149
135 151 153
144 161 167
135 151 153
137 153 155
141 157 160
133 150 151
143 158 162
143 159 166
121 138 132
65 88 51
67 90 53
70 92 60
76 98 71
90 109 94
78 99 76
98 117 103
103 122 115
105 123 111
112 129 124
110 128 120
116 134 128
126 143 143
129 146 145
132 148 148
144 160 163
147 162 169
138 155 158
119 135 134
70 95 57
69 93 56
69 93 55
71 97 58
72 98 59
68 93 55
69 94 57
66 90 53
65 88 52
67 91 54
66 91 54
69 94 57
71 97 59
67 91 54
63 87 51
65 89 52
63 87 51
72 96 60
133 149 151
152 168 175
137 152 156
140 156 161
137 154 154
141 158 162
137 153 156
147 163 167
135 151 153
147 163 170
143 160 163
141 156 161
146 162 166
137 152 155
141 158 163
144 160 166
142 158 164
146 163 167
83 105 76
68 93 55
71 96 58
70 96 58
66 90 52
69 94 56
69 93 56
63 87 51
69 94 56
65 89 53
73 100 61
69 94 55
69 92 55
69 94 56
62 86 50
73 98 63
70 95 57
125 143 140
135 150 151
130 147 148
149 164 169
147 163 170
141 158 160
143 160 163
123 141 139
112 131 127
134 150 151
95 115 96
109 128 119
103 123 109
89 110 90
94 116 93
84 106 82
111 129 118
155 171 177
154 171 178
151 167 172
143 159 163
139 156 157
153 170 182
146 162 167
150 165 170
140 157 159
139 154 158
147 164 168
161 176 184
159 175 183
152 168 173
141 158 164
100 121 107
69 94 57
70 95 57
68 94 55
69 95 57
72 98 58
67 92 54
70 97 58
71 96 57
73 98 59
69 94 56
70 95 56
73 99 60
73 99 60
76 102 67
132 150 151
144 161 163
144 161 165
151 166 171
148 164 171
148 165 173
150 167 172
152 168 177
143 160 166
146 163 171
152 167 176
152 170 177
155 171 181
143 159 162
85 109 80
78 104 63
80 104 73
97 120 96
105 124 109
115 133 127
131 150 144
140 158 159
103 124 109
87 110 86
71 97 58
79 103 71
136 154 152
163 180 191
156 173 181
153 171 178
154 170 172
159 175 184
158 175 182
162 179 187
155 172 181
163 179 187
156 174 184
145 164 168
97 118 99
74 100 61
84 109 74
101 123 101
119 139 130
143 161 166
153 170 176
161 177 185
155 172 181
154 172 179
118 138 126
78 106 64
76 102 62
79 107 66
77 104 64
76 104 63
86 111 80
100 123 102
114 136 123
91 117 85
79 105 67
76 104 63
78 105 65
169 186 198
169 186 201
167 184 196
163 180 193
153 170 176
115 135 125
109 130 120
77 104 63
79 106 65
79 107 66
83 108 73
140 158 159
165 183 196
150 168 173
122 143 136
94 116 91
76 103 63
77 105 63
77 103 63
75 101 61
73 99 60
75 103 63
71 97 59
72 98 59
85 108 79
117 137 130
140 157 161
112 131 119
77 104 64
76 103 62
78 104 64
75 102 62
77 104 64
72 98 59
73 100 60
71 97 58
77 104 64
76 103 62
83 108 77
102 122 109
146 164 171
106 126 113
73 98 62
75 101 61
93 114 94
150 167 171
161 177 185
155 173 181
154 168 173
151 168 173
146 162 168
143 159 163
148 164 172
158 175 182
160 175 188
148 164 172
141 158 160
124 142 138
98 119 101
86 111 78
68 93 55
70 96 57
81 105 75
154 171 178
149 164 170
161 176 188
158 174 184
141 157 161
151 169 175
158 174 185
154 170 177
149 166 173
155 171 178
153 168 175
154 168 175
155 171 181
158 173 183
156 171 181
153 169 177
132 149 146
107 126 111
98 117 101
140 156 158
160 176 185
147 164 170
150 166 174
158 173 183
153 168 179
145 162 167
153 167 173
159 174 181
155 171 179
145 160 166
157 173 181
144 161 166
148 166 173
137 153 157
151 168 174
144 160 165
146 162 168
145 160 165
117 134 129
68 93 55
67 91 54
68 93 55
72 97 57
73 98 60
81 106 73
101 120 105
121 139 136
122 140 141
145 160 166
148 164 171
152 167 173
156 172 185
148 164 172
153 170 177
157 173 181
159 174 183
137 154 154
149 166 172
90 111 93
69 95 58
68 93 55
72 97 58
72 97 58
69 93 54
63 86 50
64 88 51
68 92 55
64 88 51
69 94 57
66 90 53
71 96 57
69 94 56
67 92 54
71 95 56
70 94 56
66 90 53
64 87 51
72 96 61
140 156 161
135 151 155
142 156 160
138 154 158
143 160 167
139 155 157
128 145 144
112 130 123
107 126 115
96 115 98
72 95 66
63 87 50
61 84 49
67 90 54
66 89 53
67 91 53
72 98 59
69 93 55
64 87 51
69 93 56
131 148 151
137 152 157
136 152 154
136 150 152
130 146 145
148 163 171
142 158 161
137 154 156
144 159 164
153 168 176
137 153 156
140 157 161
151 167 172
146 160 164
149 164 171
139 157 163
142 157 162
150 165 172
138 154 159
140 156 160
78 102 69
70 95 57
66 90 54
65 89 53
67 92 54
69 94 57
71 95 57
69 93 56
73 99 59
67 91 54
65 89 52
61 84 48
70 95 56
67 91 53
69 94 56
65 90 53
60 84 47
66 90 54
63 87 50
94 114 97
144 159 164
139 153 156
137 153 155
140 157 161
144 160 163
144 159 165
130 146 147
141 157 159
147 161 169
141 157 164
136 153 155
133 149 151
123 140 140
120 137 136
127 144 141
101 121 107
95 114 98
98 117 100
89 109 91
126 143 141
122 139 139
143 158 164
140 157 161
136 152 156
142 157 161
152 167 175
139 155 160
138 154 159
142 157 161
149 164 171
140 157 158
145 161 165
147 163 167
147 162 169
152 167 176
155 169 175
154 169 176
133 150 149
88 109 89
68 92 55
69 93 55
65 89 52
67 92 55
71 96 58
69 93 55
69 93 56
69 94 56
62 86 50
70 94 57
63 86 50
69 94 56
70 96 57
64 88 52
68 93 55
69 95 57
70 95 56
92 113 94
141 155 159
142 159 164
140 157 163
148 164 171
141 156 159
144 160 167
142 157 164
141 157 162
139 156 158
150 166 172
138 155 157
145 161 167
150 166 172
148 164 169
143 159 164
150 166 169
144 160 167
134 151 152
71 94 62
63 87 51
67 92 55
65 90 53
66 90 54
68 93 55
68 91 54
68 93 55
68 94 56
70 95 57
66 90 53
68 92 55
69 94 57
70 94 56
71 97 58
73 98 58
79 101 75
142 157 163
155 170 181
153 167 175
140 156 157
146 163 169
152 168 173
140 156 162
143 157 160
143 158 163
140 156 160
151 166 171
145 161 166
150 166 173
163 178 189
133 149 149
144 160 163
121 140 132
95 115 97
89 110 89
103 124 109
109 129 118
122 141 137
120 139 136
138 153 153
141 158 159
136 153 156
136 153 156
142 158 163
150 166 175
149 166 172
145 162 165
151 166 175
99 119 103
75 101 62
69 94 56
70 95 56
70 96 57
71 96 58
72 98 59
69 93 55
74 101 61
68 92 54
69 95 56
72 97 58
69 95 56
71 97 59
96 119 95
138 154 158
160 175 186
162 178 187
149 165 174
159 175 182
151 167 174
164 179 189
151 168 175
161 178 190
152 168 173
154 171 180
152 170 178
166 183 195
127 144 141
75 100 66
69 95 57
71 97 57
73 99 60
100 123 103
131 148 150
154 170 175
141 158 160
120 139 136
115 135 127
95 117 97
87 112 83
119 139 134
150 167 174
155 172 181
159 176 184
157 174 183
153 171 177
157 174 180
156 174 181
162 178 187
156 174 182
160 176 185
140 158 158
97 120 97
77 104 65
75 101 60
73 99 61
77 103 66
116 136 127
109 130 114
132 151 149
149 167 174
156 173 179
106 127 112
72 98 58
75 102 62
72 99 60
77 103 63
74 101 60
76 102 62
83 110 73
77 104 66
111 132 120
109 129 116
104 125 103
165 183 193
165 183 197
155 174 181
116 137 129
92 116 90
78 106 65
77 104 63
80 108 68
76 103 61
72 98 60
101 124 105
143 162 165
123 145 137
87 112 86
77 105 64
73 99 59
74 101 61
79 106 65
75 102 61
77 104 64
74 100 60
82 108 71
99 120 104
121 140 129
144 161 161
154 170 178
155 172 180
107 127 115
73 100 60
74 100 61
75 102 62
74 100 61
71 97 59
71 96 58
73 99 60
76 102 65
95 118 95
115 135 126
132 150 147
163 181 193
147 164 169
142 158 162
132 151 152
90 114 89
96 118 98
145 162 166
155 172 180
157 174 181
152 169 177
161 177 187
154 170 178
154 171 179
164 179 188
149 165 169
139 156 155
103 124 109
77 100 72
72 97 61
74 100 60
71 97 59
70 96 57
72 98 59
74 98 62
145 162 167
165 181 192
155 170 180
161 177 189
151 169 174
157 174 183
152 168 174
157 174 183
153 169 177
154 169 174
153 168 175
158 173 183
146 162 166
131 147 149
109 130 117
88 111 88
74 99 59
72 97 59
76 101 63
148 166 169
162 178 189
149 166 172
161 177 187
150 165 171
152 169 177
140 157 160
152 168 174
143 160 164
149 165 171
149 165 173
155 172 182
149 166 172
152 167 172
150 166 173
141 158 160
158 176 181
150 165 172
150 167 175
127 145 145
66 89 54
79 105 72
93 115 91
103 120 106
132 150 146
148 163 169
140 156 160
153 169 178
140 156 160
139 156 158
154 169 178
147 163 167
129 144 146
143 160 163
135 151 153
148 164 172
148 165 171
150 166 174
147 164 171
115 133 126
71 96 58
67 91 53
65 89 53
67 92 54
74 100 61
64 87 51
73 98 58
66 91 54
64 88 51
67 92 55
74 100 61
73 98 58
64 88 52
68 92 55
71 96 57
68 92 54
73 98 59
72 97 58
67 92 54
127 143 140
129 146 145
124 140 140
104 121 112
97 117 99
66 89 56
69 94 56
63 87 50
71 96 58
71 96 57
64 87 51
74 100 60
65 89 53
73 98 59
71 97 58
65 87 52
60 84 48
66 89 53
65 90 53
67 91 54
116 133 129
151 167 174
147 164 171
149 164 170
136 151 152
138 156 160
138 154 156
141 156 160
143 159 163
140 155 159
144 159 166
141 156 160
148 162 169
146 161 170
147 163 167
139 155 158
133 147 152
138 156 162
146 161 165
139 155 158
105 124 108
63 86 50
60 83 48
71 96 57
74 100 61
66 91 54
66 90 54
64 87 51
66 90 53
66 90 54
65 89 53
65 89 52
70 94 57
69 94 56
72 97 59
66 90 53
69 93 55
68 92 55
65 88 52
70 92 61
133 150 151
145 162 167
145 163 168
133 150 153
122 140 136
103 121 108
118 136 130
101 120 108
93 113 98
77 97 75
67 90 57
68 92 58
68 92 54
67 92 55
60 83 47
67 91 53
72 97 58
70 95 57
69 93 56
106 124 113
143 159 165
143 159 166
148 162 168
144 160 164
151 167 172
154 171 178
145 162 165
143 158 161
134 148 151
146 163 170
147 162 168
139 155 160
139 154 160
137 153 155
145 160 166
145 161 164
148 163 171
148 163 169
139 155 158
76 101 64
69 94 56
67 91 54
67 92 55
77 104 64
66 90 53
66 89 53
69 94 56
69 94 56
68 93 55
67 91 54
67 92 54
72 97 58
68 92 55
73 98 59
70 95 57
67 91 54
73 98 59
125 142 141
144 161 168
144 161 168
143 160 166
144 160 165
140 155 159
133 150 151
144 160 165
144 161 167
145 160 165
153 167 174
149 165 172
151 166 173
151 167 173
151 166 172
148 165 174
146 162 164
153 167 177
103 123 110
64 87 51
69 93 56
71 96 57
66 89 53
73 99 60
68 92 55
71 96 57
67 91 54
72 98 59
66 91 53
71 97 58
70 95 57
73 99 60
69 93 55
72 97 57
68 93 55
115 134 126
148 164 171
139 155 162
149 164 170
149 165 172
149 165 171
145 160 166
139 157 159
141 156 159
141 156 159
143 159 162
159 175 181
152 166 173
148 165 170
150 165 169
156 171 179
146 162 169
95 116 98
71 96 57
69 94 55
73 99 59
68 93 55
70 96 57
69 94 56
73 98 61
67 92 54
87 110 83
85 108 83
90 111 92
106 126 114
112 129 122
132 149 152
132 150 149
84 106 80
74 97 66
73 96 63
69 93 55
71 98 58
72 98 58
68 93 56
68 94 56
68 93 56
67 92 54
75 101 61
71 96 56
71 97 58
75 102 62
86 107 84
150 167 172
155 171 179
160 177 185
161 177 187
149 166 170
157 174 182
155 173 182
150 167 172
153 169 177
152 169 177
164 180 190
154 170 177
152 169 178
133 151 148
76 99 68
89 109 87
127 145 142
145 162 170
155 172 179
149 167 174
147 165 170
161 178 187
159 175 185
157 173 180
149 166 173
139 157 159
136 153 155
144 162 167
143 162 166
157 173 181
154 170 176
144 161 165
162 179 191
169 187 198
151 168 173
158 175 184
161 178 185
144 161 165
105 127 111
73 100 60
77 104 64
75 101 61
77 104 64
71 97 57
75 102 61
81 106 73
105 126 112
129 147 140
112 134 120
82 108 72
75 102 63
80 108 67
78 105 64
76 102 62
79 107 65
75 102 62
99 123 99
137 157 155
146 165 166
132 150 149
125 144 139
81 107 74
80 108 67
79 107 66
74 101 61
78 106 65
75 101 62
82 107 74
114 133 122
104 124 110
86 113 80
77 104 64
77 104 64
71 98 58
81 109 68
79 106 64
75 103 63
75 102 62
78 102 70
106 127 111
130 148 145
153 170 178
160 177 188
157 174 184
152 169 176
155 172 179
97 120 98
76 103 62
69 95 57
74 101 61
78 104 63
76 104 63
86 110 82
108 129 116
121 139 134
153 170 175
148 165 172
158 175 183
164 180 190
160 176 182
163 180 192
151 166 173
148 164 170
126 144 139
137 155 157
150 167 172
154 172 179
156 173 180
149 165 171
148 165 168
133 150 150
110 130 119
100 121 104
76 101 67
69 94 56
70 95 57
70 95 57
71 96 58
76 103 63
71 97 58
72 98 58
78 103 69
150 166 173
154 169 174
152 170 177
148 164 169
156 171 180
146 163 169
149 166 170
149 164 169
164 181 192
160 175 185
127 145 141
97 118 101
85 107 82
74 101 61
74 99 59
71 96 58
74 100 60
75 101 61
68 92 54
134 152 149
154 170 178
140 157 162
149 164 169
154 169 176
151 168 175
144 160 163
152 167 174
149 165 172
152 169 173
145 162 164
159 175 185
143 158 163
146 164 171
143 159 163
160 176 185
147 163 169
155 170 179
146 162 166
126 143 143
134 151 149
140 156 162
145 161 168
155 170 178
167 183 194
150 166 172
149 166 171
156 171 179
153 168 176
153 170 178
148 164 170
157 173 183
156 173 181
148 164 169
144 161 164
141 158 163
138 154 158
148 165 167
155 171 177
129 146 144
74 100 61
71 96 58
70 95 57
69 94 56
78 104 63
70 95 57
63 86 50
72 98 60
70 95 57
68 92 55
68 92 55
66 91 53
70 95 57
67 92 55
65 90 52
80 103 75
96 117 96
113 130 124
112 131 122
128 145 144
73 96 63
63 86 51
69 93 55
69 94 56
65 89 53
70 95 58
68 93 55
69 93 55
69 94 56
68 92 54
69 93 56
63 86 50
67 91 55
66 91 54
71 96 58
69 93 55
68 92 56
66 90 54
66 90 53
89 111 86
139 155 157
149 164 168
152 169 176
136 152 155
151 166 172
133 150 147
133 149 151
143 159 163
152 167 173
139 155 159
130 146 143
148 163 170
140 155 159
141 157 163
142 158 162
153 169 177
134 149 151
144 159 168
156 172 181
127 142 143
77 102 65
62 85 49
68 93 55
69 94 56
67 92 53
70 95 56
63 86 52
71 96 57
69 94 56
66 91 54
67 92 55
74 99 62
73 98 65
95 116 98
80 101 77
102 120 106
115 136 127
131 147 147
138 155 159
117 136 128
69 91 66
69 93 56
59 83 48
67 91 54
65 89 52
70 95 57
66 91 54
62 86 49
66 91 53
67 92 55
66 91 53
68 92 55
65 89 53
65 88 52
64 88 52
67 92 55
73 98 59
70 94 56
72 96 63
136 152 157
142 158 162
141 157 161
153 169 177
148 164 169
133 149 154
140 156 157
131 147 150
138 154 156
150 165 173
142 157 161
142 158 162
144 161 167
135 152 155
138 155 160
147 162 170
146 162 170
148 165 173
142 159 164
93 112 93
70 96 57
71 96 57
69 93 55
71 96 57
66 91 54
66 90 53
65 88 53
65 90 52
65 89 53
72 97 58
69 93 57
65 89 53
69 94 55
67 91 54
65 89 53
65 88 53
74 100 60
87 107 87
134 150 153
141 157 158
148 165 174
154 170 176
142 158 160
149 165 171
148 164 170
148 163 169
153 168 174
151 168 174
143 159 166
153 168 176
151 166 176
145 161 164
150 166 173
137 153 157
159 176 186
134 152 155
76 100 66
66 91 54
69 94 56
69 94 56
70 96 57
68 93 55
68 93 55
72 97 58
72 98 59
67 92 54
61 85 50
71 97 59
69 94 56
74 99 60
70 96 57
74 99 60
64 89 52
129 146 141
145 160 164
151 167 173
141 158 162
152 168 172
140 155 157
147 164 170
143 160 165
147 164 169
153 169 178
149 165 171
150 165 173
150 166 174
154 170 181
154 171 180
150 166 171
131 149 148
85 108 85
75 101 62
73 99 59
70 96 57
71 97 58
68 93 55
65 90 53
71 97 57
66 90 52
70 95 56
69 95 57
73 99 60
69 94 56
72 98 59
74 98 62
104 123 113
149 165 171
150 166 170
142 159 163
140 157 159
124 143 138
111 131 122
89 111 89
92 114 93
71 95 60
78 104 66
70 96 59
74 100 61
66 92 53
73 100 61
116 137 125
156 172 180
146 162 166
158 173 182
152 170 176
158 174 185
148 165 171
159 176 187
155 172 183
155 172 179
144 162 168
154 172 177
150 167 171
145 161 165
120 140 132
149 167 172
150 168 175
157 172 181
150 166 173
162 178 189
155 171 180
156 174 182
163 179 189
154 171 176
167 182 193
166 183 195
153 169 174
126 145 141
98 121 97
119 139 130
138 156 156
147 164 170
153 170 176
167 185 199
156 173 183
152 169 177
161 178 187
161 177 188
156 174 182
104 124 109
75 103 62
75 102 62
72 97 57
76 103 63
77 105 64
74 101 61
82 111 69
79 107 66
81 105 72
104 126 111
113 133 117
93 118 93
82 108 75
83 110 71
74 101 62
76 103 63
78 105 64
88 113 80
127 147 143
88 112 84
78 104 67
79 107 66
77 104 63
78 105 64
77 105 63
82 107 73
115 136 124
154 172 180
157 174 185
134 153 151
75 102 62
75 102 61
78 105 64
76 103 62
82 109 67
78 105 63
89 114 84
124 144 136
141 158 160
157 174 182
159 176 184
161 179 190
158 175 184
153 170 177
162 180 190
155 172 180
103 124 104
78 105 65
74 100 60
82 109 70
91 113 91
124 143 140
160 177 188
153 171 176
152 168 174
151 168 173
156 173 180
166 183 194
148 165 171
160 177 186
156 173 180
152 169 176
160 176 184
143 159 163
86 108 80
111 131 117
128 146 142
150 166 172
125 143 136
96 119 99
84 109 76
72 99 60
75 102 62
76 102 62
75 102 62
75 101 61
72 97 58
72 99 60
70 95 56
73 98 59
72 97 58
73 99 59
148 165 170
155 171 179
151 168 175
147 163 172
154 170 179
148 165 173
155 171 177
130 148 146
109 128 117
83 105 80
77 104 63
70 95 57
75 101 60
75 101 61
71 96 57
73 97 58
71 96 57
69 94 57
70 94 56
133 151 149
150 167 174
150 166 173
150 166 175
157 172 178
149 165 171
156 172 180
158 174 184
150 166 174
150 167 172
149 164 169
155 170 179
155 170 178
156 171 178
142 158 164
134 149 151
122 140 135
99 121 102
74 98 65
77 100 70
144 160 165
143 160 162
147 163 166
145 161 166
140 155 159
150 166 173
158 174 184
150 167 171
147 165 171
148 164 172
147 163 168
143 160 164
135 151 157
147 162 166
150 165 170
146 162 167
148 164 172
151 167 171
140 156 160
131 149 147
67 91 53
73 98 59
71 96 58
70 95 57
66 90 53
68 92 54
66 90 54
65 89 53
69 93 55
71 97 58
65 90 53
93 114 93
96 116 100
129 146 142
138 154 157
147 162 167
151 168 175
139 155 156
151 167 174
140 155 160
72 95 62
69 95 56
66 90 54
72 98 60
71 96 57
68 93 54
70 95 57
72 97 59
70 96 57
70 95 57
71 97 57
66 90 54
67 91 54
69 94 56
70 94 56
68 93 56
69 94 56
69 94 55
63 86 50
80 104 73
135 151 153
153 167 175
144 159 165
145 162 169
138 154 156
138 154 156
143 160 163
140 156 158
153 169 176
150 165 171
142 157 161
142 159 162
142 158 165
155 170 176
132 148 147
152 168 180
140 154 157
140 156 157
144 160 164
141 157 158
80 102 77
74 99 60
67 92 55
73 99 59
62 86 50
70 96 56
74 97 66
103 122 108
106 125 111
119 135 134
130 146 146
141 155 158
146 162 164
134 150 153
153 169 177
148 164 170
149 164 171
133 149 150
152 168 177
140 154 158
77 102 67
65 89 52
65 89 52
67 91 54
67 91 54
68 92 54
66 91 54
67 91 54
64 87 51
74 99 60
62 86 51
72 98 59
74 100 60
63 86 50
63 86 51
65 89 52
67 91 53
64 88 51
73 99 60
98 117 104
134 151 153
150 165 172
142 159 166
153 169 178
147 163 170
139 155 159
146 163 168
139 155 159
148 163 169
145 162 168
141 157 162
152 166 174
142 157 159
148 164 173
151 166 173
153 168 175
151 167 174
146 162 166
130 146 150
65 89 53
66 91 54
67 91 54
74 99 59
67 91 53
69 94 56
71 97 58
71 96 58
65 89 52
71 96 57
71 96 58
70 95 56
65 89 52
68 92 54
68 93 55
64 88 51
68 92 55
71 96 57
117 134 126
140 156 157
155 170 176
151 167 174
153 170 174
144 161 166
154 168 176
146 162 170
145 162 167
140 156 159
144 161 165
149 164 170
133 149 152
140 156 161
154 169 179
145 161 167
154 170 178
146 163 168
114 132 126
69 93 57
68 93 56
69 94 56
68 93 55
66 90 53
67 91 53
71 97 58
65 89 51
71 97 58
64 87 51
72 98 60
70 96 56
68 93 56
71 95 56
65 89 52
75 101 61
101 123 103
142 159 162
151 166 174
148 165 170
142 158 165
155 169 176
147 163 169
154 169 178
145 162 165
148 165 172
154 170 179
155 170 179
147 164 170
151 166 171
144 160 167
151 168 178
139 155 155
124 140 135
75 99 66
73 99 59
70 95 56
71 96 58
67 92 53
70 95 56
72 98 59
72 98 59
69 93 55
70 95 58
72 98 58
69 94 57
70 95 58
72 98 59
78 104 66
117 136 129
156 173 183
155 170 176
148 164 169
147 163 170
156 173 183
156 173 180
143 159 159
139 157 159
118 136 131
121 139 133
127 145 141
110 128 116
97 118 98
86 110 85
125 142 136
162 178 185
149 166 172
160 176 185
142 158 165
158 173 182
143 160 164
148 164 171
159 176 185
141 160 161
124 142 138
94 116 94
77 103 66
74 99 66
133 149 151
159 174 182
154 170 179
158 175 184
152 168 175
158 175 181
155 170 179
165 182 191
149 166 172
156 172 179
164 180 192
156 173 180
166 181 191
111 133 119
75 102 62
75 101 62
85 109 82
97 118 100
119 139 130
130 150 147
152 170 175
152 168 175
173 190 201
159 176 185
145 163 167
99 121 105
76 104 63
73 100 61
72 99 60
74 100 60
75 102 62
77 104 63
77 104 63
78 106 64
84 110 76
127 148 142
169 184 193
149 167 171
127 146 141
88 113 84
81 109 69
73 99 59
74 101 62
81 108 72
78 106 64
79 107 65
78 106 65
78 106 64
98 123 99
128 147 139
152 171 178
160 179 190
150 168 174
160 177 184
126 147 142
72 99 60
73 100 60
76 104 63
77 103 66
98 120 99
134 154 154
159 176 184
164 180 190
168 184 196
163 180 192
159 176 187
150 167 172
161 178 187
165 182 195
164 179 188
159 175 181
86 110 82
78 103 71
108 129 112
136 155 156
154 170 177
166 182 191
160 177 188
160 177 186
163 179 190
150 167 174
156 174 180
164 181 192
150 166 172
160 176 186
150 168 174
158 175 181
157 174 187
135 152 153
80 104 73
107 128 112
141 159 162
148 165 167
123 143 136
106 127 111
86 109 83
76 102 63
71 95 57
73 99 59
73 99 60
71 97 58
76 102 62
74 100 60
78 104 63
78 105 64
72 98 59
75 102 61
136 153 153
152 169 176
163 179 190
167 183 195
130 148 146
109 131 115
88 111 85
74 100 60
73 99 59
73 99 59
70 97 59
69 94 56
76 103 62
71 96 56
74 101 61
75 102 62
68 93 56
72 98 60
74 100 61
118 136 134
151 167 175
147 164 172
152 168 175
161 178 188
139 155 160
153 169 176
165 181 190
143 160 167
155 172 183
152 168 172
149 165 170
129 147 146
106 126 113
81 105 73
71 96 57
70 95 57
77 104 64
70 96 58
68 93 55
144 160 163
151 167 174
144 160 161
150 166 171
151 168 174
147 163 168
154 170 179
141 159 164
147 163 167
149 164 175
147 163 170
144 160 166
147 163 168
152 168 175
150 166 174
152 167 174
157 173 182
148 165 170
141 157 161
144 160 168
85 106 85
69 93 56
66 90 53
69 94 56
72 98 58
70 96 57
79 104 72
95 115 96
112 130 124
129 146 141
145 161 168
152 169 175
146 163 169
158 174 183
147 163 167
146 162 171
156 172 181
147 163 168
141 157 158
145 162 169
92 112 93
68 93 55
67 92 55
66 89 52
65 89 53
70 96 56
68 92 54
70 94 56
68 93 55
65 89 51
69 93 55
60 83 46
66 91 54
71 96 58
69 93 56
71 95 58
68 93 56
71 95 57
73 99 59
68 93 55
129 147 145
149 166 170
158 174 183
150 165 174
137 153 156
155 171 181
155 171 182
134 149 150
138 153 155
142 158 163
153 170 176
151 166 174
144 160 168
133 150 151
143 158 163
139 155 159
148 164 172
145 161 166
134 150 153
137 153 157
113 132 123
107 125 115
111 130 121
133 151 150
134 150 154
142 158 161
145 161 167
149 165 170
145 162 168
141 157 163
141 158 164
136 152 154
143 159 164
148 163 168
137 152 158
158 173 181
138 154 157
140 157 161
158 174 181
146 162 169
104 123 110
68 93 56
73 98 60
71 96 58
70 95 57
70 94 57
73 98 59
65 89 54
69 93 55
70 95 58
69 94 56
65 89 53
71 96 58
70 95 57
68 93 55
73 98 59
68 93 56
63 87 50
68 92 55
72 96 60
145 161 165
147 162 169
146 161 166
142 158 161
146 162 165
148 164 172
146 160 168
144 160 164
143 159 164
143 160 164
156 172 180
141 155 160
148 163 171
152 167 177
147 163 171
141 158 160
144 159 166
153 169 178
146 162 169
103 121 112
69 94 56
65 89 52
72 97 59
65 89 52
72 98 59
68 93 55
66 90 54
71 97 58
65 89 53
63 88 52
74 99 60
66 90 54
66 91 55
71 96 59
72 98 59
67 92 55
68 93 56
76 100 65
146 163 169
144 161 163
135 151 154
150 166 172
160 176 186
158 174 184
142 158 162
158 174 181
145 160 163
145 161 166
155 170 178
144 160 164
150 166 171
139 155 159
142 158 163
137 154 157
146 163 169
133 149 151
96 117 96
73 98 59
72 98 58
69 94 55
71 97 58
70 94 57
74 100 60
73 98 59
68 92 54
69 94 55
63 87 51
68 93 55
62 86 50
72 98 59
69 94 56
71 97 58
70 95 57
102 122 108
152 167 173
154 169 176
148 166 171
151 166 172
145 162 170
137 154 157
151 167 173
153 170 176
153 168 177
147 164 169
144 161 166
168 183 195
150 165 169
137 153 155
140 156 159
155 171 177
112 132 122
72 98 58
76 103 63
75 101 62
72 99 60
68 93 55
74 101 60
70 95 56
69 94 56
71 97 58
73 98 59
72 98 58
70 95 57
71 97 59
72 97 58
72 98 59
141 158 159
164 180 192
151 167 174
152 168 174
153 169 176
149 165 170
143 160 163
160 175 183
165 181 194
164 180 189
150 166 173
151 167 175
155 172 179
147 166 173
135 154 154
118 138 128
120 138 131
123 141 132
134 153 155
148 164 169
158 175 183
139 157 160
111 130 118
73 97 63
69 95 58
73 99 60
73 99 59
71 96 58
82 107 73
134 152 151
160 177 187
160 177 188
151 168 175
161 177 185
155 172 178
158 175 183
158 175 179
162 179 190
162 178 187
162 179 191
161 178 189
148 165 169
113 134 125
70 95 57
75 102 62
75 102 62
74 101 61
80 107 68
79 105 72
100 123 103
119 139 129
134 153 153
149 166 170
149 167 174
95 118 96
70 96 57
73 100 60
79 107 65
76 103 64
76 104 62
80 107 66
74 100 60
76 102 63
81 108 72
122 143 134
151 169 173
160 177 188
156 174 185
157 174 180
132 151 147
104 126 107
84 110 75
75 102 62
79 106 70
99 123 100
116 138 126
152 171 174
169 185 196
159 176 188
169 186 197
163 181 192
173 191 206
114 136 122
76 103 62
75 102 63
105 127 111
133 151 148
156 171 176
160 177 186
162 179 189
171 186 196
166 183 195
152 170 176
162 179 188
163 180 190
165 181 192
149 166 172
156 174 181
147 164 167
128 147 144
152 170 176
148 166 170
139 157 157
165 182 194
150 168 174
155 172 183
170 186 198
162 177 188
163 179 192
151 168 174
162 180 191
141 157 160
164 181 191
147 164 167
155 171 178
148 164 170
126 145 139
150 167 172
160 176 184
152 169 176
155 171 181
157 174 184
155 172 183
144 162 166
129 147 143
86 109 84
85 108 78
71 96 57
69 94 56
74 101 62
74 100 60
71 96 57
75 101 61
73 99 58
76 103 63
130 147 146
138 155 156
120 139 129
88 111 86
75 100 63
71 96 58
75 101 60
73 99 60
75 101 61
74 100 61
69 93 56
70 95 56
76 102 62
71 96 58
75 102 61
71 97 57
67 92 54
78 104 63
74 100 60
109 130 121
146 164 171
145 162 166
165 181 191
161 176 185
153 169 177
156 172 182
156 172 182
141 159 158
122 140 135
113 133 122
73 98 61
74 101 61
70 96 57
71 97 58
71 97 58
75 101 61
74 101 61
77 103 62
70 95 57
123 141 136
159 175 183
163 179 190
145 161 164
153 169 176
155 171 179
147 163 168
140 156 161
146 163 168
158 174 179
146 162 168
156 172 179
143 160 166
153 169 175
150 166 173
151 168 173
147 164 170
158 174 182
157 174 182
149 165 171
100 120 105
63 87 50
78 102 71
74 99 66
124 142 135
124 142 140
143 160 165
146 163 169
155 171 178
142 158 163
157 172 180
139 155 158
138 155 159
142 157 162
151 166 175
152 168 175
154 170 178
135 152 153
149 165 170
136 153 153
126 144 138
68 94 55
66 90 53
70 95 57
72 97 59
71 96 58
67 92 54
72 97 59
70 95 57
69 93 56
66 91 53
68 93 56
67 91 53
69 93 56
66 90 53
73 98 59
70 94 56
66 89 53
69 95 55
66 90 53
86 108 86
153 169 178
140 158 162
144 160 166
141 158 161
142 158 162
154 169 176
145 162 168
141 158 163
142 158 164
146 164 168
146 162 167
146 161 166
148 163 169
123 140 139
128 145 147
96 116 101
101 120 105
77 100 75
64 88 52
79 100 78
156 171 178
136 153 155
153 169 176
155 171 178
135 153 154
147 163 169
148 164 169
141 157 159
158 174 186
144 159 163
140 156 159
145 161 163
154 170 175
147 163 168
146 162 166
145 160 167
150 166 171
152 168 176
138 153 159
136 153 156
67 92 54
63 87 50
66 90 53
67 92 54
65 89 52
67 92 55
74 100 61
72 97 58
67 91 54
73 98 60
71 96 58
69 94 57
72 98 58
68 93 56
71 96 57
71 96 57
68 92 55
69 93 56
70 94 56
116 134 128
146 161 168
143 160 162
151 167 175
144 160 164
153 168 175
156 172 180
142 158 161
144 159 164
147 162 167
139 155 156
153 169 177
143 159 165
135 152 154
134 150 152
139 155 157
137 153 158
152 168 175
146 161 169
119 136 130
74 99 62
68 93 55
69 94 56
66 90 54
69 94 55
63 86 51
67 90 54
70 95 56
72 98 58
69 94 56
73 98 59
72 98 58
71 97 58
73 99 60
72 97 58
75 101 61
72 98 59
70 96 57
102 121 106
141 159 163
133 148 152
147 164 169
144 160 165
150 165 169
145 162 169
150 166 175
149 165 173
143 159 162
145 161 168
150 166 173
156 171 178
143 160 165
146 163 167
142 159 165
142 159 163
147 163 172
143 159 163
70 94 59
70 94 56
68 92 55
72 97 58
74 100 61
72 98 59
71 97 57
71 96 58
71 97 58
68 92 54
69 95 56
71 96 58
65 89 52
62 86 49
75 101 61
72 97 57
70 96 58
134 152 151
145 160 163
156 170 179
152 169 176
159 175 184
156 173 180
149 165 170
153 169 177
155 170 176
152 168 173
154 171 179
143 159 165
147 163 168
151 168 172
149 166 169
156 172 179
156 172 179
84 106 81
72 98 58
71 96 57
77 103 62
73 99 59
67 91 53
72 98 59
73 99 60
74 101 61
74 100 60
70 95 56
72 99 60
71 97 59
72 98 58
69 94 57
85 107 80
152 168 174
145 161 163
153 169 175
159 176 186
156 173 180
156 174 182
155 172 182
158 174 179
154 169 175
157 174 183
153 169 175
163 179 188
163 180 188
162 178 189
155 172 179
92 114 93
79 105 67
104 124 107
139 156 159
156 173 181
132 150 149
125 143 139
113 133 124
95 118 94
83 106 77
74 101 62
77 103 65
70 95 56
80 104 72
141 157 161
162 178 188
158 174 182
157 174 184
151 168 176
157 173 180
151 167 172
153 171 180
159 176 185
157 175 184
150 168 175
152 168 177
155 172 179
100 121 102
73 100 60
72 98 59
75 102 62
77 105 64
72 98 58
74 100 59
75 101 60
77 104 63
76 102 68
94 117 95
108 129 116
89 114 85
83 109 75
79 106 68
81 110 68
78 105 64
79 106 65
78 106 65
77 104 63
74 101 61
85 110 75
123 141 133
156 174 182
151 168 173
169 186 197
166 182 192
153 172 178
145 162 163
102 125 100
134 153 148
158 176 184
168 184 195
164 182 193
163 180 188
163 181 194
154 172 182
159 176 182
162 178 186
105 129 107
111 132 120
155 172 177
160 177 187
171 187 198
165 183 193
167 184 195
163 180 191
157 174 183
164 180 188
163 181 194
172 189 200
162 178 188
158 176 186
148 165 171
115 136 126
110 132 115
160 177 188
160 177 189
174 189 204
160 175 183
158 175 185
166 183 193
156 172 182
154 171 179
158 174 184
158 176 186
156 172 179
170 186 196
149 165 170
153 170 176
128 147 145
100 122 107
79 105 69
108 130 114
166 181 192
159 177 187
159 176 186
160 177 187
160 177 185
154 169 176
163 178 187
162 179 190
148 166 170
156 172 177
127 147 146
100 121 105
84 109 77
76 102 62
79 107 66
78 103 67
101 122 100
125 144 139
110 130 118
75 102 61
77 104 63
72 97 59
72 98 59
73 99 60
74 100 61
76 103 63
71 97 58
70 95 57
72 97 58
69 94 56
75 101 61
74 100 60
73 98 59
71 97 58
72 98 59
74 100 60
71 97 57
96 117 98
149 165 170
156 174 181
154 172 180
153 169 175
140 156 157
116 134 128
88 112 84
78 103 68
74 100 60
68 93 55
74 100 61
70 95 57
72 97 59
67 92 54
67 91 53
70 96 57
72 98 59
69 95 56
72 98 59
109 128 116
152 168 172
145 162 168
150 164 170
159 175 182
147 163 168
159 174 183
160 175 185
158 174 182
152 168 177
142 158 161
140 156 159
152 168 172
152 168 173
162 178 186
157 172 182
144 161 165
153 170 177
160 176 185
134 152 151
107 127 115
132 150 149
148 165 172
148 165 172
157 173 179
153 169 179
153 168 175
151 167 175
144 160 165
155 171 180
147 163 168
151 168 175
151 169 176
141 157 160
155 171 179
150 167 172
146 162 169
162 178 188
144 160 167
152 168 177
132 148 148
72 98 58
68 93 55
70 95 58
71 97 58
72 97 59
68 92 55
70 96 56
72 97 58
72 98 60
69 93 56
70 94 57
66 90 53
67 92 54
69 94 56
70 96 57
71 96 57
67 91 53
68 93 55
68 93 55
72 96 61
135 150 153
131 148 148
150 164 172
156 171 178
140 157 161
147 163 169
141 158 160
139 157 160
120 138 132
96 115 101
96 115 98
76 102 62
70 95 56
67 91 52
67 91 54
68 93 56
66 90 53
67 92 54
68 92 56
70 95 58
123 141 138
151 166 174
148 165 172
156 172 181
138 152 156
148 164 169
148 163 169
137 154 157
149 165 171
157 173 180
137 153 156
149 164 170
137 152 154
139 155 158
156 171 180
140 155 161
152 168 174
150 166 173
151 167 173
148 164 171
102 121 107
71 96 58
66 90 52
69 94 56
68 92 53
69 95 57
68 92 55
68 93 55
72 98 59
70 96 57
67 91 54
65 88 51
72 98 59
71 95 56
68 92 55
68 94 55
69 94 56
70 96 57
62 86 48
73 95 69
139 156 157
138 154 157
150 167 172
144 159 166
143 160 164
137 153 156
139 156 159
160 177 187
144 162 169
146 162 167
151 167 173
137 153 155
149 166 173
144 160 167
158 175 181
151 167 174
138 154 160
149 164 172
145 162 168
97 116 99
72 98 60
69 94 56
68 92 55
67 91 54
67 91 54
66 92 54
71 96 58
68 92 55
69 94 56
70 95 57
68 93 55
66 90 53
71 96 57
67 91 54
71 97 58
73 99 59
70 95 57
75 100 66
137 154 154
146 161 167
150 166 171
141 156 159
143 160 164
135 151 152
147 163 169
157 172 181
148 165 172
150 166 174
140 155 157
146 163 167
152 167 173
150 167 176
153 170 178
141 159 161
147 164 169
147 163 169
114 133 123
61 85 49
71 96 59
71 97 58
74 100 61
66 90 54
73 98 60
67 92 55
72 97 58
67 92 55
70 95 57
70 96 58
73 98 59
76 102 62
71 97 58
70 95 56
66 90 52
90 110 90
152 168 174
150 166 175
155 169 177
149 166 171
162 178 187
152 169 177
151 167 175
155 172 179
158 174 183
156 173 180
159 176 186
148 164 168
145 161 166
161 178 190
141 157 163
158 174 182
141 159 164
68 93 55
75 102 63
71 96 58
68 93 54
76 102 63
75 101 61
69 94 56
74 100 61
77 104 64
72 98 58
65 89 52
71 97 58
68 93 57
73 99 59
68 92 55
103 124 108
155 171 180
150 167 174
155 171 178
146 163 170
155 171 178
151 167 175
149 166 173
149 166 176
146 163 167
150 166 170
149 165 173
165 181 191
148 164 170
141 158 160
114 133 123
144 162 166
152 169 174
161 179 188
152 169 179
154 170 178
160 177 185
157 174 183
159 176 185
146 163 166
140 157 159
119 136 130
105 127 111
99 120 103
107 128 113
151 168 175
158 173 183
157 174 184
157 174 183
164 181 191
154 170 179
161 178 188
171 188 203
156 174 186
160 176 184
159 175 186
160 176 185
141 159 157
102 125 109
78 105 65
77 104 64
76 103 63
80 107 65
78 105 64
76 103 62
76 103 62
74 101 60
73 99 61
76 104 63
95 119 91
142 160 161
134 152 152
120 139 134
92 115 90
76 103 62
79 106 65
76 103 63
77 104 63
78 106 65
76 103 66
118 139 128
160 177 188
167 184 197
161 179 189
158 176 185
161 179 189
159 177 187
168 185 197
161 179 188
161 178 188
166 183 195
166 183 193
170 186 198
160 178 189
159 177 185
146 165 164
151 168 175
162 179 189
163 180 189
164 182 194
161 177 187
163 180 190
162 179 189
164 180 192
150 167 175
162 179 189
165 182 191
147 166 171
141 158 160
102 124 105
89 114 86
73 99 60
94 118 90
164 181 191
156 173 181
163 182 192
162 180 191
164 181 193
160 177 187
155 172 177
158 176 185
152 168 177
168 185 196
148 166 173
150 168 174
107 128 112
86 109 88
73 98 62
78 105 64
78 105 63
103 126 107
155 172 180
164 180 188
154 170 176
167 182 192
161 178 187
162 179 189
158 175 182
155 171 178
162 178 185
161 178 186
147 163 171
163 180 188
152 169 174
119 136 132
95 118 93
138 155 159
153 171 180
164 180 191
117 137 126
73 99 59
73 99 60
70 96 57
76 102 61
73 98 58
75 102 62
69 94 56
73 99 60
72 97 59
73 99 60
73 100 59
69 94 56
69 93 56
71 96 58
71 97 58
76 103 63
70 94 56
69 94 57
92 114 90
145 163 168
139 157 157
102 124 107
74 98 61
76 102 62
69 95 57
70 96 57
71 97 58
70 95 57
70 95 57
71 96 57
73 100 60
74 101 60
75 101 62
66 91 54
76 102 62
73 98 59
65 90 53
73 99 59
103 124 111
156 172 180
144 161 166
155 171 181
147 164 171
144 161 166
154 170 178
156 172 181
155 171 177
143 158 162
154 170 179
150 166 173
145 161 167
154 170 178
148 163 168
132 150 150
127 143 142
104 123 107
73 97 61
72 98 58
93 116 90
155 173 182
138 154 156
136 152 155
143 161 163
147 163 168
154 170 180
149 165 168
153 168 177
150 167 174
136 153 158
139 155 156
148 165 170
160 176 185
139 156 159
163 179 188
154 170 176
155 173 179
145 161 165
163 177 186
151 166 175
86 111 80
72 97 59
75 101 61
65 90 52
64 87 50
66 90 52
76 103 62
69 94 56
70 96 57
66 90 53
67 92 54
67 91 55
68 93 55
69 95 58
71 96 57
70 96 57
69 93 55
72 98 59
72 97 59
72 98 59
122 140 134
131 149 149
131 148 149
111 129 120
89 110 88
87 110 86
67 90 53
72 98 59
65 89 52
66 90 53
67 92 54
65 88 51
72 97 58
67 91 54
67 90 53
71 97 58
69 94 56
73 99 60
71 96 57
67 91 55
101 120 109
144 160 168
145 160 165
136 153 157
150 167 171
145 161 163
147 164 169
146 162 168
146 162 166
149 164 170
150 166 171
150 165 175
143 160 163
164 180 191
155 171 178
134 151 153
149 165 170
147 163 167
138 155 156
149 166 171
134 151 150
66 90 53
69 95 57
72 98 59
68 92 55
68 93 56
76 103 63
71 97 59
70 96 56
66 90 52
74 100 61
68 93 55
72 97 58
65 89 51
68 93 55
70 95 58
67 90 52
72 98 58
71 96 58
69 93 55
122 139 135
148 165 170
148 165 173
142 158 162
148 164 170
135 151 153
141 157 159
143 159 163
141 157 161
145 160 166
151 166 172
139 155 160
150 165 170
138 155 161
141 157 162
147 162 166
152 168 176
144 159 166
140 156 161
138 153 154
77 102 67
67 91 54
69 94 56
75 101 61
70 94 56
70 95 56
71 97 57
73 98 60
72 97 58
73 99 60
72 98 59
66 90 53
77 103 63
72 97 59
66 90 53
73 98 58
68 92 54
67 92 54
89 109 89
140 156 160
157 173 183
148 164 173
148 165 172
152 169 175
145 160 166
148 164 170
159 175 184
160 176 185
143 159 165
152 168 174
140 157 160
150 167 174
147 164 169
148 165 171
155 171 180
147 163 167
142 159 163
74 100 63
75 101 61
70 96 57
72 98 59
71 97 58
71 97 58
66 90 53
70 95 57
65 89 52
71 96 58
68 94 55
74 100 60
66 91 53
67 91 55
62 85 49
75 102 62
72 98 59
112 132 123
161 177 186
150 167 174
146 163 169
148 165 172
149 165 173
150 167 173
143 159 164
152 169 174
152 167 172
160 177 183
143 159 165
152 169 176
148 165 170
139 155 161
156 173 180
153 169 178
112 131 122
74 101 61
73 100 60
69 94 56
69 94 56
74 100 61
76 102 62
72 98 60
70 96 57
69 94 57
75 101 61
72 98 59
74 99 60
71 96 56
73 100 60
74 99 61
109 128 119
154 170 178
156 173 182
149 165 170
151 169 176
165 182 194
149 165 173
150 166 172
154 170 179
153 168 177
125 144 139
110 132 116
87 110 85
76 103 66
71 97 58
118 138 131
157 173 182
156 173 183
161 178 188
159 174 184
142 160 164
158 174 182
154 171 177
159 177 185
160 176 184
150 165 173
150 167 172
159 176 186
155 172 181
144 161 164
129 147 146
130 148 146
144 163 166
165 181 192
151 169 175
164 180 191
161 178 188
160 177 186
159 177 187
167 185 198
169 185 192
159 175 182
155 172 180
87 112 81
73 100 60
74 101 61
75 101 62
75 101 61
73 99 59
80 107 65
82 110 67
77 104 63
75 102 62
72 98 58
97 120 95
148 166 171
165 183 196
158 175 184
144 163 167
127 147 146
104 126 106
92 117 87
74 102 61
77 105 63
79 103 71
120 141 132
147 166 172
167 185 198
163 180 191
168 185 197
165 183 195
166 183 196
168 185 199
160 178 192
174 190 202
159 176 184
159 176 185
138 157 156
92 117 91
117 137 126
154 172 181
165 182 195
165 182 193
169 185 196
165 182 193
171 188 201
161 178 188
168 184 194
159 177 185
154 171 179
120 141 132
98 120 102
81 106 70
78 105 64
75 102 62
77 104 64
105 126 110
159 175 182
159 176 183
162 178 187
163 180 190
163 180 191
154 171 179
151 168 174
164 180 190
148 164 171
128 147 143
97 120 100
76 103 66
75 102 61
76 103 63
74 100 60
75 101 61
76 104 63
96 117 97
159 175 182
153 170 178
161 178 186
155 171 177
156 173 182
150 166 173
168 185 198
160 177 188
159 176 186
159 175 185
149 167 171
125 144 142
90 112 91
74 101 62
68 94 55
75 99 66
89 111 91
121 141 133
125 144 138
88 114 78
71 97 58
73 98 60
73 99 60
73 99 60
73 98 60
75 102 62
67 91 54
72 98 59
67 92 54
79 105 65
71 98 60
72 98 59
70 96 57
71 96 57
72 98 59
82 107 74
106 128 109
126 144 141
84 108 76
72 97 61
72 98 58
72 98 60
70 95 57
63 87 50
75 101 61
72 98 59
73 99 60
71 95 56
74 99 60
68 93 54
73 99 59
77 103 62
71 96 57
74 100 61
70 95 57
72 97 58
73 99 59
87 110 84
155 170 181
157 172 183
156 172 180
149 165 171
147 164 172
154 172 182
156 171 178
158 174 184
155 171 178
153 168 175
140 155 158
123 142 139
92 115 89
82 107 72
77 102 65
73 99 60
71 97 58
70 95 57
75 101 62
74 98 65
148 163 168
155 171 178
146 163 170
154 170 176
142 158 161
150 167 174
153 169 175
150 166 174
158 174 182
139 155 158
160 175 184
147 164 172
153 170 178
154 170 177
144 160 166
141 158 162
145 160 164
152 167 175
144 161 165
144 160 166
104 122 112
66 89 53
72 97 59
70 95 57
70 95 57
74 100 59
67 92 55
72 97 59
69 93 56
69 94 56
72 97 58
69 95 56
71 95 57
73 98 59
70 96 58
80 104 74
97 117 100
103 123 111
134 151 152
146 163 168
129 147 145
68 92 55
71 96 57
69 93 56
68 93 55
67 92 55
69 95 57
65 90 53
62 86 50
71 96 58
69 94 56
68 92 55
69 95 57
66 91 54
72 98 59
71 97 58
67 91 53
68 93 55
68 92 54
70 96 56
71 94 63
142 159 163
146 163 166
149 165 171
151 167 174
142 158 162
140 157 160
141 156 160
154 171 178
149 165 172
152 168 175
151 166 173
150 165 172
138 154 158
154 170 179
145 162 167
143 158 164
150 165 171
145 161 166
142 158 163
155 171 179
96 116 98
65 88 52
70 95 56
72 98 59
70 95 57
64 89 52
69 94 56
69 93 55
72 98 59
67 91 53
64 88 52
67 92 54
68 92 55
72 97 58
68 93 55
71 96 58
71 95 56
69 94 56
66 91 54
70 94 59
145 160 165
150 166 174
145 162 167
155 172 182
160 175 185
153 168 176
159 174 183
150 166 172
147 163 168
151 168 175
143 160 163
145 161 166
155 170 178
154 170 176
151 168 177
143 160 166
146 162 167
149 165 171
148 165 171
96 117 98
67 92 55
70 95 57
67 91 54
72 97 58
76 101 67
75 99 68
82 103 82
83 107 80
73 97 64
99 122 102
82 103 82
101 121 106
104 122 109
107 126 115
101 120 106
100 120 105
116 134 125
122 141 135
133 149 151
119 136 132
109 126 118
108 127 117
114 133 122
108 125 113
118 137 133
114 133 124
102 121 108
109 128 118
106 123 112
119 139 133
121 139 134
114 132 124
97 117 99
93 114 98
114 132 119
123 142 136
92 114 95
124 143 139
122 140 138
124 141 135
118 138 129
121 140 133
108 127 114
122 143 135
99 120 103
118 136 128
96 116 101
104 125 109
94 115 100
86 109 84
96 117 94
86 109 84
83 105 79
85 109 82
132 149 148
148 165 168
147 164 169
153 170 176
155 171 177
142 158 164
150 167 174
147 164 170
152 168 174
156 173 183
147 164 169
153 169 174
157 172 179
144 161 165
155 172 179
165 181 191
159 175 184
94 115 93
63 88 52
69 94 55
73 99 60
72 97 59
75 102 62
73 99 58
77 104 63
75 100 60
71 96 57
67 92 56
72 98 59
69 95 56
74 101 61
68 94 56
77 104 63
140 157 159
150 167 175
153 171 179
156 172 183
157 173 182
147 164 171
118 138 128
100 121 100
77 102 67
74 99 60
74 100 60
71 97 58
73 100 61
73 99 60
72 98 59
123 141 137
157 174 184
157 174 182
147 163 165
156 174 182
157 174 182
157 175 185
154 172 178
154 171 180
147 165 171
154 170 177
153 170 176
163 181 194
162 179 190
137 154 153
78 104 66
80 106 68
84 109 77
99 122 103
120 139 134
143 162 166
150 166 170
160 176 186
156 172 181
158 174 183
155 172 180
166 183 196
143 161 164
95 120 92
74 101 61
77 104 63
79 107 67
75 102 62
74 100 60
78 106 65
74 100 60
74 100 61
73 99 59
77 104 63
100 123 102
154 171 179
167 185 198
164 182 193
155 173 181
163 180 189
149 167 172
132 151 153
101 125 107
95 119 96
75 102 61
119 139 123
157 175 184
157 175 182
169 187 199
163 180 188
165 182 192
172 188 203
166 183 194
158 175 183
125 146 138
91 116 86
82 110 71
77 105 65
121 142 134
172 189 202
163 180 189
163 181 191
162 179 191
167 182 192
167 183 193
162 179 188
158 174 182
111 132 117
78 104 69
75 102 61
77 104 64
71 97 59
73 99 60
77 105 63
77 105 64
120 141 134
158 175 184
163 179 188
149 166 172
158 174 182
168 185 197
154 172 180
139 158 159
116 136 124
78 103 72
76 103 62
75 101 62
76 104 63
73 99 60
71 98 58
76 103 64
70 95 56
74 100 59
97 117 100
152 168 173
155 172 180
157 173 181
154 171 183
168 186 199
159 176 188
152 169 177
161 178 189
142 159 160
106 127 112
83 108 76
71 96 58
68 94 56
76 103 62
74 100 60
74 100 60
72 97 58
70 96 58
98 119 104
153 170 176
145 162 166
113 132 124
98 119 101
88 111 84
71 97 58
73 99 60
70 96 58
72 98 59
80 108 67
77 104 63
71 97 59
73 99 59
76 100 66
105 126 109
144 160 163
144 160 164
157 174 183
148 165 170
95 117 93
76 102 62
74 101 61
74 100 61
75 101 60
70 95 57
70 95 56
69 94 55
72 97 58
71 96 58
69 94 55
76 103 62
70 96 58
71 97 58
73 100 60
75 102 62
74 100 60
69 95 56
72 99 60
76 102 64
146 162 166
148 164 171
163 179 190
162 179 191
156 172 182
139 154 162
138 155 157
138 156 158
110 130 117
92 115 89
71 97 58
69 95 56
76 103 63
73 99 59
75 102 62
76 103 62
67 92 53
72 97 58
66 91 53
75 101 61
133 151 149
142 158 162
141 159 164
156 173 181
152 168 176
161 177 188
146 163 169
144 161 166
151 167 171
145 160 165
151 169 177
152 169 176
148 164 167
143 158 163
152 168 174
153 169 176
143 159 160
160 176 186
152 168 174
160 175 186
138 155 158
67 91 55
69 95 56
69 95 58
71 97 58
69 94 56
71 97 57
74 100 60
65 90 53
69 95 57
84 108 76
106 125 112
114 131 126
129 146 146
143 160 162
152 168 174
155 171 180
147 163 167
143 158 160
153 168 176
154 169 174
79 100 70
70 96 57
69 94 56
65 88 53
72 97 58
71 97 58
76 102 63
74 100 61
71 96 58
72 98 59
69 93 55
71 96 58
70 95 57
68 93 55
66 90 53
75 101 61
67 92 55
67 92 55
75 102 62
67 92 55
116 134 131
153 168 174
151 168 175
140 157 159
141 158 162
147 163 168
142 159 163
142 158 162
137 154 157
146 164 168
140 157 160
160 175 185
156 171 179
155 171 180
143 157 165
149 165 171
153 169 176
153 169 176
153 167 175
142 158 159
116 133 127
71 97 58
75 102 62
69 93 54
71 96 58
71 96 58
67 92 54
69 94 55
67 93 54
68 93 55
68 93 55
67 92 56
73 99 59
68 93 56
69 95 57
68 93 55
69 93 55
77 104 63
72 98 59
69 93 56
117 135 128
154 170 180
148 165 174
145 161 165
155 171 179
151 167 174
138 154 157
145 163 168
137 153 157
150 165 174
149 167 173
147 164 170
121 139 133
129 147 142
130 147 145
123 142 140
114 132 123
110 129 117
98 117 104
98 120 100
126 144 141
140 157 160
142 159 164
140 157 163
161 177 186
157 174 183
152 168 176
157 173 182
162 177 186
149 164 171
148 165 171
151 167 174
145 162 165
150 165 172
162 179 190
142 160 166
148 165 170
144 161 166
145 161 161
77 102 67
74 99 60
71 97 58
72 97 58
72 97 58
74 100 61
72 98 59
70 95 57
72 98 59
72 97 58
69 95 56
71 96 58
71 97 58
69 94 56
73 99 60
69 93 55
72 98 58
78 103 68
131 148 147
148 164 171
154 170 176
141 158 160
155 172 179
147 163 166
151 167 176
158 175 182
152 168 175
153 168 177
153 170 176
156 172 179
147 163 167
154 171 178
148 163 169
147 163 169
149 165 171
138 155 157
84 106 81
80 103 77
86 109 83
92 114 88
97 119 98
115 134 124
118 137 129
109 127 116
116 135 128
127 145 145
128 147 142
134 153 152
135 151 153
142 159 163
132 150 151
145 162 170
144 161 165
77 102 69
71 97 58
77 104 64
74 100 60
69 94 56
73 100 60
74 101 60
71 98 60
69 94 56
73 99 60
69 94 55
75 102 62
72 98 58
75 101 61
74 99 60
95 118 96
140 158 161
124 143 138
99 120 104
80 103 75
76 102 61
75 101 61
77 104 64
75 102 61
73 99 60
72 98 58
77 103 62
70 95 57
74 99 60
74 100 60
76 102 64
143 161 163
157 173 180
158 175 183
157 174 183
168 184 194
164 181 191
159 177 185
144 162 167
155 173 179
157 175 184
159 176 187
157 173 181
160 176 184
169 185 196
128 148 144
80 108 67
75 102 62
70 95 55
78 104 64
77 105 65
81 107 71
94 117 92
109 131 118
117 138 129
144 162 163
149 168 175
163 179 190
142 160 165
85 112 75
74 101 60
74 100 61
78 106 65
73 99 60
72 98 58
79 107 66
70 96 57
79 106 65
77 104 63
77 104 64
109 132 120
155 172 179
159 177 185
162 179 188
152 170 177
168 185 196
163 179 190
164 180 187
152 171 178
127 146 143
124 144 136
128 146 139
161 180 188
164 181 190
170 187 200
158 174 183
143 161 163
114 137 122
89 114 88
78 105 64
80 107 65
79 106 65
78 105 65
141 160 160
157 174 181
165 183 193
161 179 186
155 171 177
158 174 182
134 154 150
98 121 99
78 105 64
81 109 67
75 102 62
77 104 63
77 105 65
75 103 63
75 102 62
77 106 64
76 103 63
118 139 127
149 165 171
166 183 195
163 181 194
165 182 192
132 151 151
94 116 93
80 105 69
73 100 61
75 101 62
74 100 61
78 105 64
69 95 56
75 102 63
77 104 63
75 101 62
78 106 65
78 105 64
103 124 109
168 185 195
163 180 190
171 186 198
154 172 181
156 173 184
154 171 178
113 133 119
88 114 81
75 101 61
77 103 63
79 106 65
72 99 59
73 99 59
76 103 63
76 104 63
73 100 60
74 101 62
76 102 62
115 134 125
150 168 176
146 163 169
159 177 185
152 168 174
157 174 183
136 155 154
124 143 139
110 132 118
84 107 76
76 102 64
83 106 79
108 128 115
149 166 169
161 178 185
158 174 184
156 173 182
160 176 186
152 168 175
151 167 172
87 110 82
78 104 63
76 103 61
67 92 54
71 96 59
73 99 61
77 103 63
74 100 61
68 93 55
73 99 60
75 102 62
73 99 60
75 101 62
75 102 61
76 102 62
79 105 64
72 98 59
68 92 55
73 100 61
69 94 55
136 153 154
150 165 171
155 172 180
136 152 155
128 146 142
94 115 93
75 101 64
69 94 56
67 92 55
75 101 60
70 95 57
69 94 56
78 105 64
78 104 63
67 91 54
73 99 60
67 91 54
68 94 56
73 99 60
75 101 60
120 139 133
142 158 164
152 167 170
148 164 169
153 170 174
147 164 171
147 164 170
158 174 183
157 173 182
143 159 161
146 162 167
148 165 173
162 177 189
153 169 176
154 170 178
151 167 176
143 159 162
140 157 160
151 168 174
160 176 185
156 174 182
71 95 60
73 97 59
65 89 52
74 101 62
77 102 66
95 116 99
113 132 119
130 147 144
132 150 151
132 148 150
152 169 176
142 159 168
144 162 166
156 173 182
149 165 172
154 170 177
155 171 179
152 169 176
147 163 170
154 169 176
103 124 110
66 90 53
72 98 59
71 97 58
69 94 56
72 98 59
70 96 58
71 96 58
64 89 52
72 97 58
68 93 55
72 98 59
74 99 60
71 97 58
68 93 55
72 98 59
66 89 53
69 93 56
73 99 60
67 91 54
85 107 83
144 161 165
157 173 180
150 167 174
160 176 185
145 161 169
147 163 170
151 168 175
149 164 170
148 164 172
152 167 173
149 166 174
153 168 177
153 169 176
146 162 168
148 166 171
155 171 178
149 164 169
151 168 178
154 170 177
140 156 159
79 103 74
71 97 57
72 98 59
68 92 55
70 95 56
71 96 58
70 94 57
70 94 57
67 92 55
72 97 58
72 97 57
65 88 52
68 93 55
69 95 57
72 97 57
67 91 53
85 111 74
80 103 77
95 117 95
104 123 112
129 147 144
130 149 145
122 139 134
100 120 105
101 120 106
86 108 84
87 110 84
78 103 70
74 100 60
74 101 61
65 90 54
66 91 53
73 97 59
70 96 57
67 91 54
75 101 61
71 95 57
69 94 55
75 101 62
130 149 150
149 164 169
142 159 164
150 167 175
154 170 175
152 168 177
146 162 168
138 154 159
150 167 174
146 162 168
141 158 161
154 171 176
146 163 167
153 168 175
146 162 167
155 170 178
154 171 177
149 165 170
150 166 173
121 139 135
72 98 58
69 93 55
70 95 56
73 99 59
73 98 60
69 94 56
73 100 60
74 99 60
69 93 55
70 95 57
70 96 57
69 94 55
67 92 55
73 98 59
72 97 58
71 97 58
65 90 53
112 132 122
151 167 174
154 170 180
156 172 179
154 170 180
159 175 184
153 171 177
149 167 175
142 158 165
153 169 176
136 152 157
150 167 176
155 170 178
157 173 184
150 167 174
151 166 174
162 179 190
154 171 180
130 149 146
73 98 59
71 97 57
74 101 61
74 100 59
71 96 58
73 99 59
76 103 63
72 99 59
71 97 58
72 98 59
73 99 59
71 96 58
75 101 61
83 107 75
80 104 71
88 111 86
107 128 114
130 147 142
134 153 149
120 139 132
120 137 130
117 138 126
102 124 105
99 121 103
84 106 85
77 102 71
72 98 59
78 104 69
98 118 101
120 141 134
142 158 160
160 175 184
127 144 142
69 94 55
67 92 55
76 103 62
74 100 60
76 103 62
71 98 58
75 102 62
76 102 61
66 91 54
74 101 61
62 86 50
73 99 60
71 97 57
71 96 58
86 111 81
152 169 174
163 180 192
167 184 195
165 182 193
156 172 180
175 192 208
160 177 187
155 172 181
164 182 191
149 166 171
165 181 191
158 175 185
154 171 180
165 181 192
120 139 134
72 98 59
75 102 62
70 96 57
76 102 62
77 105 64
77 104 63
74 101 61
73 98 59
74 100 64
78 102 71
104 126 113
132 151 148
110 130 116
93 115 90
83 110 73
76 103 62
77 105 64
76 103 63
75 101 62
78 105 64
75 103 63
74 101 61
78 105 64
73 99 59
112 133 118
159 176 186
164 182 193
162 180 189
163 182 195
158 175 186
166 183 198
159 176 185
170 187 198
154 172 182
155 173 181
147 166 168
154 172 176
154 173 178
103 126 107
84 111 76
81 109 67
78 105 64
79 106 66
79 107 66
80 107 64
78 106 65
146 163 165
169 186 198
164 181 192
140 159 165
136 155 152
102 124 108
80 107 66
77 103 62
75 102 62
72 99 59
76 103 63
81 110 68
80 108 66
79 107 65
77 104 63
77 104 63
74 100 60
124 143 138
165 181 192
148 166 170
119 140 133
84 108 79
72 99 59
77 103 62
79 106 65
76 102 62
77 103 62
77 103 63
75 102 61
75 102 61
75 102 62
71 97 58
72 98 59
76 103 63
76 102 62
106 127 112
165 182 194
168 184 195
155 171 178
128 147 140
85 111 82
76 102 65
71 96 57
74 100 61
75 102 63
70 95 56
74 101 62
74 99 60
73 99 59
71 96 57
73 99 59
80 108 67
77 103 62
77 104 64
107 127 114
157 174 182
163 180 190
153 169 175
159 175 184
158 173 184
166 181 190
157 173 179
152 169 177
142 160 163
86 110 80
99 121 105
120 139 132
137 155 157
150 168 175
155 173 183
153 169 174
148 165 171
151 168 177
155 172 182
97 118 97
73 99 60
72 97 57
73 99 59
76 103 62
72 98 58
74 100 60
75 100 60
75 101 62
77 103 62
67 92 54
73 100 59
74 101 61
74 100 61
78 104 63
73 99 59
70 96 57
72 98 59
70 95 57
80 104 71
127 147 143
116 136 125
77 101 69
72 98 59
67 92 53
74 100 60
69 95 56
71 98 58
76 103 62
73 98 59
70 95 57
74 101 61
73 98 59
67 92 54
68 93 55
76 102 62
76 102 62
71 97 58
72 97 58
69 94 56
101 120 107
155 172 180
143 158 164
149 165 173
152 168 175
153 169 177
153 169 175
147 163 167
152 169 172
153 168 175
135 150 150
161 177 186
157 174 182
152 170 176
154 170 178
152 168 176
154 170 178
150 166 173
159 176 186
141 157 162
151 169 174
114 133 122
112 131 124
122 139 136
128 145 144
156 173 184
151 166 170
152 168 176
156 172 181
149 167 175
154 171 179
149 165 173
148 164 171
157 173 182
152 168 171
151 168 176
152 168 176
147 164 172
156 172 182
152 169 175
137 153 154
126 144 141
70 95 57
67 92 55
69 94 56
71 96 58
69 94 56
68 93 55
70 96 58
69 94 56
71 96 58
74 100 60
70 96 57
73 99 60
69 94 57
72 98 59
66 90 53
73 99 59
68 93 54
74 101 61
71 97 59
74 100 60
151 167 173
148 165 171
146 163 169
139 156 157
152 169 177
148 164 170
143 160 166
142 159 161
154 169 178
146 163 168
147 163 166
149 164 171
144 161 167
142 157 162
163 180 192
148 163 170
146 161 166
153 169 178
149 165 169
155 172 182
120 139 130
73 98 59
75 101 61
73 98 59
74 101 61
71 96 58
72 97 59
85 107 83
95 116 95
103 122 109
108 128 115
108 126 116
129 147 144
123 140 139
138 155 158
147 164 169
152 169 176
150 166 171
142 159 162
156 172 180
103 122 108
72 98 57
73 98 59
68 93 55
72 98 60
71 96 57
73 98 60
74 100 61
74 100 60
70 96 57
68 93 55
75 101 61
68 93 55
74 100 60
70 95 57
70 95 57
74 100 60
72 99 59
72 98 59
94 115 94
142 158 163
148 165 171
147 162 166
150 165 170
149 165 171
145 162 167
142 158 161
150 167 175
144 161 167
150 166 174
153 168 177
144 160 164
157 172 180
155 171 179
157 173 181
152 168 177
160 177 189
152 169 175
141 159 162
70 95 57
71 97 58
70 95 57
70 95 56
71 96 57
68 93 55
75 101 61
71 96 58
74 101 61
69 93 55
73 99 60
71 97 58
70 95 57
76 102 63
70 95 56
76 103 62
71 96 58
67 91 54
109 127 120
150 167 173
146 162 168
158 174 180
150 167 172
160 177 186
148 165 171
150 167 172
154 170 176
151 168 173
160 175 184
152 169 176
154 171 179
147 164 170
154 169 175
147 162 166
153 169 176
163 179 190
96 117 96
69 93 55
70 95 56
75 101 61
71 97 58
73 100 60
71 97 59
74 100 61
73 99 60
75 102 62
70 96 58
74 100 61
73 99 60
77 103 63
68 91 53
71 97 58
75 101 61
136 153 154
162 180 192
158 175 182
162 180 190
145 162 168
150 167 173
144 162 166
122 140 135
105 125 113
75 100 65
88 112 86
97 119 102
115 134 124
123 143 139
145 162 166
144 161 164
116 137 126
72 97 61
72 99 58
64 89 52
67 92 55
74 100 60
67 92 54
70 96 57
78 104 64
75 100 61
78 104 64
74 101 61
74 101 61
74 101 60
77 104 63
99 121 98
153 171 176
164 181 191
156 172 178
170 187 200
149 166 174
155 173 181
168 185 199
159 176 185
167 183 195
150 167 173
163 180 191
159 176 182
165 182 195
153 169 179
105 127 111
77 104 63
78 106 64
78 105 65
73 99 59
75 101 61
78 106 65
74 102 62
75 101 62
74 101 61
81 109 67
80 108 66
76 103 62
122 143 136
137 156 155
139 158 158
127 147 141
95 117 94
83 109 75
77 105 65
77 104 64
73 99 60
73 100 60
74 101 61
78 106 64
124 143 138
161 179 190
164 181 194
162 179 189
156 174 183
170 187 202
163 179 190
164 182 193
177 194 208
163 180 190
163 181 188
143 162 165
83 110 71
78 105 64
73 100 61
74 102 62
75 102 63
77 105 64
80 109 67
83 111 69
85 111 79
154 172 178
160 178 187
121 142 131
79 103 71
77 105 64
74 100 59
77 105 64
77 104 63
76 104 63
76 103 62
76 103 62
78 106 65
77 105 64
77 103 63
74 101 61
75 102 61
91 115 87
121 140 135
111 134 120
77 103 62
75 103 63
82 109 68
79 107 65
78 105 64
72 98 58
74 101 61
77 104 63
72 98 60
77 104 63
73 99 60
76 102 61
76 102 62
79 106 65
76 103 63
79 106 65
105 126 106
146 163 168
108 130 113
77 101 70
74 100 60
77 104 64
77 103 63
73 100 60
76 104 64
73 99 59
68 94 56
72 98 58
73 98 59
75 101 60
73 99 59
73 99 60
76 103 62
78 105 64
75 101 61
98 121 99
163 178 189
163 179 189
154 170 176
160 175 183
150 166 171
122 141 135
112 132 121
81 107 71
72 97 59
70 96 57
73 99 59
71 97 57
75 101 61
69 94 56
112 132 117
120 141 132
130 148 142
142 158 161
147 163 166
112 133 119
73 99 60
74 101 61
73 99 59
76 103 62
75 101 62
71 96 58
70 95 57
75 101 61
74 100 60
72 98 59
64 89 53
75 101 61
64 88 51
70 95 56
73 99 59
97 119 99
111 128 118
123 140 136
149 167 174
125 143 136
69 94 56
74 100 61
72 98 59
71 96 57
74 100 60
75 101 61
74 101 61
69 94 56
72 98 58
71 96 57
69 94 56
76 102 62
72 98 60
78 104 63
69 94 55
77 104 62
77 104 64
75 101 61
72 97 59
85 109 80
150 167 174
152 166 175
159 175 185
153 169 175
157 174 184
160 176 183
150 166 173
151 166 173
158 174 180
145 163 167
155 172 178
152 169 177
145 161 167
153 170 177
146 162 168
145 161 167
138 156 157
124 143 138
109 129 117
77 102 67
119 138 133
147 164 170
151 168 175
163 179 193
147 163 169
153 169 176
155 170 176
160 176 186
150 165 171
149 166 173
158 174 181
145 162 167
154 170 175
158 173 179
150 166 172
150 166 173
158 173 181
146 164 168
157 173 183
143 160 163
155 170 180
73 97 65
72 98 59
74 99 60
68 93 55
73 98 59
72 98 58
66 90 53
73 99 59
70 95 57
70 96 57
64 87 50
69 94 55
67 91 54
70 95 56
71 97 58
75 102 62
71 97 58
74 100 60
69 94 56
70 96 57
119 138 131
143 159 165
148 163 170
144 161 166
148 163 169
151 167 175
156 173 182
137 155 158
155 172 182
147 162 170
150 166 173
143 159 165
148 164 170
144 161 165
150 165 171
152 169 175
150 167 174
146 161 166
146 162 166
148 165 166
122 141 136
111 129 119
101 120 109
130 148 145
133 151 150
145 161 165
139 156 158
149 166 173
151 167 171
145 161 164
149 167 178
160 175 186
157 174 184
167 183 192
155 171 178
143 159 165
156 172 180
157 172 179
154 170 178
144 161 166
141 157 161
67 91 53
72 97 58
72 98 59
73 98 59
72 98 59
69 95 56
68 93 55
64 88 52
77 103 63
68 93 55
74 100 60
72 98 59
76 102 62
69 95 56
72 98 58
73 99 59
77 104 64
71 97 58
72 98 59
117 136 129
155 172 180
152 169 174
150 168 175
155 171 176
154 170 177
157 173 182
153 169 175
149 166 173
153 169 176
151 167 173
153 169 175
146 163 169
161 178 186
149 165 170
144 162 169
159 175 182
143 159 167
156 172 181
120 138 130
75 101 61
75 102 62
75 102 61
72 98 59
70 95 57
72 98 58
73 99 60
68 93 55
73 99 60
71 97 58
71 96 58
70 95 56
70 96 57
78 105 64
71 97 58
70 96 58
72 98 59
77 102 64
148 166 174
155 172 179
158 175 184
160 176 187
154 172 180
160 176 186
153 169 179
157 172 182
152 169 175
155 171 181
156 173 180
158 176 185
154 170 181
153 169 175
149 166 173
163 180 191
159 177 185
150 166 173
74 101 61
74 100 59
71 97 57
77 103 63
77 104 64
71 96 57
69 94 56
72 97 58
71 97 58
72 99 60
75 101 61
70 94 56
75 101 62
74 100 60
73 99 59
71 97 58
92 116 93
145 162 166
140 157 155
115 135 123
102 123 106
80 104 74
72 98 58
71 98 58
75 102 61
75 101 61
78 104 63
69 95 57
78 105 64
77 104 63
75 101 62
77 104 63
82 107 72
130 149 148
139 157 161
135 154 155
131 149 148
113 133 122
101 124 102
96 120 96
78 103 69
75 102 62
73 100 61
75 101 62
77 105 63
76 102 62
76 103 62
73 99 60
126 145 135
158 174 183
163 178 190
164 178 187
167 184 197
159 177 187
163 181 192
152 169 176
160 176 187
156 174 184
160 176 185
158 174 181
156 172 178
165 182 192
144 160 167
87 110 85
71 96 57
75 101 61
82 110 68
71 98 59
76 102 61
78 105 64
84 112 70
77 104 63
75 102 63
77 105 64
75 102 62
81 105 71
131 148 145
157 174 184
163 180 191
163 179 189
156 174 183
131 151 151
115 135 123
84 109 82
79 106 68
75 102 62
75 102 62
70 96 58
112 134 119
160 178 188
165 182 193
161 178 187
163 180 189
167 185 198
166 183 195
170 187 199
171 188 201
175 191 206
163 180 192
76 103 63
80 108 67
81 109 67
78 106 65
77 104 64
74 101 61
76 104 63
82 109 70
108 131 112
112 133 118
91 117 85
77 104 63
81 110 68
81 109 67
81 109 67
79 107 66
77 104 63
77 105 64
72 98 59
75 101 61
80 107 64
76 103 63
78 105 64
90 113 88
126 145 137
151 168 173
124 144 135
78 105 64
74 101 62
79 107 65
78 105 64
79 107 66
80 107 66
76 103 63
79 106 65
76 103 62
79 106 66
72 98 59
73 99 60
71 98 58
72 98 58
72 98 59
91 114 88
136 156 154
134 152 152
76 103 62
73 99 59
76 103 63
74 101 60
77 104 64
75 101 60
75 101 61
69 95 56
77 105 64
71 96 58
74 101 60
74 100 60
73 99 59
79 108 67
78 105 63
76 102 62
74 102 62
73 99 59
97 120 98
159 175 186
156 172 179
130 147 145
114 132 122
80 106 71
74 100 61
74 100 60
73 99 60
73 99 60
73 99 60
75 101 61
71 97 58
78 104 63
75 101 61
75 101 61
76 103 62
74 100 59
79 106 65
83 107 77
112 132 119
126 145 140
119 139 130
106 127 115
76 101 66
74 100 64
77 104 63
79 106 65
72 98 59
71 97 59
71 98 58
72 98 59
74 99 63
103 123 109
122 141 138
161 177 185
153 169 177
157 174 184
156 172 180
159 175 184
141 158 161
73 99 59
72 98 59
75 102 61
74 100 61
73 98 59
72 98 59
67 92 55
71 96 57
77 104 63
75 100 61
68 93 55
66 91 53
71 96 58
71 96 58
69 94 55
72 98 59
73 99 60
73 99 59
75 101 61
72 98 62
138 156 157
150 167 173
155 170 177
158 174 187
152 168 174
146 161 164
162 177 185
164 180 191
158 173 184
153 170 175
156 173 178
163 180 191
129 147 143
120 138 131
98 119 100
72 96 64
75 102 62
75 102 62
70 95 57
70 95 57
103 124 105
156 173 181
147 162 168
161 176 185
163 180 189
153 169 176
160 176 185
148 164 169
153 169 175
148 164 171
153 168 177
143 160 164
140 157 159
152 166 174
152 167 173
147 163 168
158 175 185
155 172 179
152 168 172
151 168 174
158 173 180
117 137 127
70 95 57
75 101 60
70 96 56
72 98 59
73 98 58
68 93 55
72 98 58
74 100 60
76 103 63
69 95 56
69 94 57
73 99 59
69 95 57
65 89 53
74 100 60
69 94 55
68 92 55
69 94 56
71 96 56
79 103 72
146 163 169
157 173 182
159 175 184
145 160 165
152 169 177
164 180 190
146 163 169
152 167 172
143 160 163
152 168 175
147 164 170
141 158 159
130 147 142
112 130 124
113 131 128
94 116 94
94 116 92
75 100 66
74 100 61
70 96 58
138 155 157
153 167 173
148 164 170
161 177 188
147 163 169
165 181 193
152 166 174
138 155 159
150 166 173
158 174 184
152 169 179
161 177 184
145 161 165
143 158 160
154 170 177
149 166 175
151 167 173
149 165 170
148 165 170
153 170 176
102 123 104
67 93 56
73 99 60
67 92 54
70 95 57
74 100 60
73 99 60
75 101 62
69 95 56
69 94 56
77 104 63
72 98 57
69 93 56
72 97 59
72 97 58
77 104 63
72 97 57
70 96 58
69 95 57
86 109 84
137 152 152
156 171 180
149 164 172
147 164 170
157 175 185
148 164 166
154 171 178
155 172 181
154 170 178
150 166 172
151 168 174
143 160 166
151 167 173
150 166 173
148 165 173
154 169 176
156 172 182
162 178 187
158 175 183
85 108 83
73 99 60
75 102 62
76 102 62
73 98 59
74 101 61
72 97 58
74 100 61
68 93 55
66 92 55
67 93 55
69 95 57
75 102 62
72 98 58
73 99 60
71 97 58
68 92 54
74 100 60
108 127 114
157 173 183
158 175 184
150 166 172
167 184 194
161 177 187
155 172 184
160 175 182
143 160 164
153 168 172
164 179 189
144 162 169
142 159 162
164 180 190
159 175 187
162 179 190
145 161 166
148 165 172
118 136 130
70 95 57
78 104 63
71 97 58
72 98 58
75 102 62
75 101 61
78 105 63
75 102 61
73 99 60
73 100 60
86 110 82
90 114 87
116 135 127
138 156 157
157 174 181
151 169 177
132 150 148
73 99 59
69 94 56
72 97 58
71 97 59
71 97 58
73 100 61
76 103 63
74 99 60
74 100 60
71 98 59
73 99 60
74 101 61
72 98 59
75 101 60
74 101 61
92 114 91
147 164 167
161 179 192
163 178 187
159 176 186
164 181 190
160 177 188
159 175 181
151 168 177
144 163 166
127 145 141
121 142 131
106 127 111
93 117 92
79 104 71
72 98 59
130 150 150
162 180 190
162 180 191
159 177 187
159 178 189
155 171 177
153 170 176
152 169 177
153 171 179
160 176 182
164 182 192
159 176 185
160 178 186
160 177 187
139 158 158
84 107 80
77 104 63
75 102 62
73 99 60
76 103 63
75 102 61
76 103 63
75 102 62
77 105 64
75 102 61
74 100 61
73 99 60
81 107 73
145 163 167
165 183 194
157 173 181
159 175 180
157 174 183
168 186 197
165 182 193
143 161 165
123 145 139
108 132 115
88 112 86
86 112 76
121 142 129
164 180 188
161 179 187
159 177 185
171 189 204
166 183 194
165 182 192
161 180 190
166 183 195
168 186 196
78 105 64
74 101 61
81 109 68
80 108 67
80 108 66
82 108 71
108 129 115
144 163 167
147 166 169
81 108 67
81 109 68
75 101 61
79 107 66
75 102 61
79 106 65
81 109 67
79 106 66
78 105 64
82 111 69
75 102 62
80 107 70
109 132 113
139 157 158
164 182 192
157 173 181
171 187 198
114 138 120
79 106 65
75 102 62
77 104 64
78 105 63
79 106 65
77 104 63
76 103 62
73 100 61
77 104 64
74 100 60
76 103 62
72 98 59
88 113 82
124 144 138
146 165 169
164 182 194
162 178 189
153 170 176
74 100 62
79 105 63
80 108 65
75 101 60
75 102 62
74 100 60
70 97 58
73 99 59
76 103 62
75 102 61
75 101 61
75 102 63
77 104 63
72 98 58
74 100 61
74 101 62
73 100 61
81 106 74
104 126 109
128 146 143
78 103 71
71 96 58
77 103 63
74 100 61
75 101 61
69 95 57
77 103 63
79 107 65
72 98 59
74 100 61
81 108 66
75 101 61
78 105 64
76 103 63
72 98 59
81 109 67
70 96 58
72 98 59
118 138 128
159 176 185
148 166 172
158 174 182
155 171 180
162 178 187
137 154 154
136 156 155
123 142 135
92 113 88
112 134 117
147 164 170
152 169 177
160 177 185
156 172 179
154 170 182
155 170 177
162 177 186
151 168 172
162 179 191
145 162 164
80 107 69
74 100 60
74 100 61
73 99 60
71 97 58
71 97 58
71 98 60
71 96 58
74 100 61
78 105 65
75 102 61
71 97 58
71 96 58
71 96 57
70 95 57
70 96 57
77 104 63
74 100 61
76 102 61
70 95 56
140 157 162
155 170 177
154 170 176
156 173 184
161 176 186
147 164 170
148 165 171
153 170 177
120 140 131
116 135 125
96 118 95
74 99 63
72 98 59
73 98 60
71 96 58
73 99 60
68 93 55
71 97 58
74 100 60
71 96 58
76 101 66
155 171 180
147 163 168
153 170 179
145 162 168
163 178 190
155 172 182
153 169 177
152 169 176
151 168 176
150 167 171
154 170 176
151 168 174
156 172 184
154 169 177
160 175 185
146 162 167
153 170 177
151 167 173
159 175 182
163 179 190
133 151 153
68 93 55
68 93 55
68 93 55
79 106 66
71 97 57
74 100 60
66 91 54
68 93 54
72 98 59
74 101 61
74 100 61
73 99 59
65 89 51
71 96 58
71 97 58
73 99 60
68 92 53
70 96 57
72 98 59
71 96 58
135 153 152
150 164 170
151 167 174
154 171 176
143 160 161
138 154 157
123 142 138
114 133 122
96 117 99
82 104 79
72 97 62
71 98 58
71 95 56
69 94 56
74 100 60
69 95 56
74 100 60
72 98 59
74 100 61
70 96 57
112 130 122
151 167 173
147 163 172
153 169 174
154 170 177
149 165 168
154 170 179
162 178 188
145 162 167
155 170 176
168 183 196
147 164 170
158 174 182
162 178 185
162 178 188
160 177 186
155 171 179
154 171 178
149 164 168
159 175 185
127 144 143
74 100 60
70 94 56
76 103 62
70 95 56
73 99 61
74 99 59
76 102 62
75 101 60
70 96 57
72 97 59
68 93 56
73 99 59
72 98 59
75 101 61
73 99 60
74 100 60
72 98 60
74 100 61
77 104 63
134 151 150
147 164 171
148 165 169
167 183 195
157 174 184
146 162 166
157 173 181
152 169 177
146 163 167
160 176 186
149 165 170
159 176 185
148 163 167
150 167 175
148 164 164
154 171 182
158 175 183
154 170 177
163 177 188
135 153 152
72 97 59
74 100 60
74 100 60
65 89 52
79 106 65
77 104 63
74 100 60
73 100 60
74 101 61
72 98 58
68 93 56
72 98 59
71 97 59
68 93 54
76 103 63
77 104 64
71 96 57
74 101 61
134 151 149
147 163 170
151 168 174
153 169 176
167 184 196
152 169 177
162 178 188
149 166 171
153 169 173
158 175 184
151 169 176
162 178 187
152 169 175
158 175 185
145 162 165
158 175 184
153 170 176
149 165 176
89 114 85
76 102 62
73 100 61
77 103 66
85 108 78
104 127 112
104 124 112
125 143 140
138 156 158
156 173 181
147 164 169
166 182 192
154 170 177
150 168 174
152 169 174
149 166 174
161 177 183
109 128 120
78 104 64
71 97 58
78 105 63
76 103 63
72 98 59
72 98 58
72 98 59
73 100 60
73 99 60
71 96 57
79 106 65
72 99 60
75 101 61
72 98 58
75 101 61
117 137 129
162 179 190
165 183 195
149 167 178
161 177 186
161 177 186
157 175 184
159 175 187
160 178 187
158 175 183
162 178 189
164 181 196
148 165 172
154 170 177
148 165 166
147 164 170
135 153 155
148 166 169
138 156 160
155 172 181
160 177 187
161 176 184
148 165 170
162 178 192
143 160 164
154 171 177
158 175 180
166 183 195
163 180 192
169 184 196
140 158 162
80 108 68
78 105 65
74 101 61
77 105 64
77 104 64
76 104 63
77 105 64
78 105 65
79 107 65
76 104 63
74 100 61
78 105 64
85 110 80
156 174 178
163 179 189
167 185 198
163 180 189
165 182 193
161 178 188
167 184 194
169 185 196
158 175 188
163 181 191
145 164 166
126 145 140
143 161 163
156 173 180
160 179 189
167 184 195
170 187 197
173 190 202
171 188 204
167 185 199
160 177 185
80 108 67
76 103 62
76 103 63
91 116 86
111 135 117
153 170 177
162 181 191
175 192 206
145 164 166
76 103 63
77 103 63
81 110 68
75 102 61
80 108 66
78 105 65
80 108 66
77 104 63
76 103 62
88 114 83
119 141 134
150 168 175
168 185 197
159 177 187
168 186 200
155 173 180
157 175 186
103 127 107
79 106 65
78 105 63
77 104 64
78 105 65
78 106 65
78 105 65
74 100 61
78 106 64
75 101 61
80 106 68
103 126 108
137 156 159
153 170 179
165 183 194
166 184 197
162 178 189
164 179 189
132 151 149
73 100 59
76 103 63
71 97 58
78 105 65
76 103 64
74 100 61
76 103 62
76 102 63
79 106 65
72 98 59
77 104 64
71 97 58
77 104 64
77 104 62
73 99 59
90 113 88
117 136 127
150 167 172
157 175 184
77 103 65
73 99 60
70 95 57
79 105 64
77 104 64
77 104 63
74 101 61
70 95 56
74 100 59
76 102 62
77 104 63
76 103 62
77 104 62
71 97 59
77 104 63
74 100 60
76 103 63
74 101 61
78 105 63
99 123 100
159 177 186
162 179 190
162 178 186
158 175 184
166 181 192
135 155 157
126 144 140
97 118 102
76 104 64
83 109 75
87 112 82
108 128 114
107 127 115
131 150 147
140 158 161
149 166 170
162 177 186
153 169 175
158 174 182
155 170 176
80 105 72
75 101 61
71 97 58
75 101 60
76 102 63
78 104 63
74 100 60
75 102 62
75 101 61
76 103 63
76 102 62
73 99 60
69 95 57
69 94 56
71 96 56
73 99 60
69 94 56
71 97 58
75 102 62
72 98 59
117 137 128
151 168 171
155 171 179
156 172 182
133 153 151
110 127 117
100 120 103
73 97 61
72 98 59
74 100 60
73 99 59
77 104 63
77 103 63
72 98 59
73 98 60
73 99 60
71 97 59
70 96 58
75 101 60
75 101 61
72 97 58
139 158 158
153 170 178
151 166 174
144 161 164
161 177 186
159 175 182
151 168 176
147 164 169
155 171 179
152 168 175
154 171 176
151 167 174
154 171 178
146 163 169
154 171 181
160 176 186
161 177 186
156 173 182
150 168 174
144 161 165
152 168 175
84 108 76
72 98 59
70 95 57
76 102 61
69 94 56
72 97 58
70 95 57
70 96 57
67 92 55
72 97 58
69 94 57
72 97 58
73 99 61
69 95 56
71 97 58
70 96 58
72 98 59
80 105 71
90 113 85
106 127 112
128 145 145
94 115 98
96 119 97
75 100 63
69 94 56
73 99 59
74 100 60
68 93 55
70 95 56
70 96 57
71 97 57
71 96 57
72 97 59
73 99 59
71 97 58
73 99 60
74 100 60
68 93 55
70 95 57
73 99 60
78 104 70
144 161 164
153 169 178
142 157 164
156 173 181
151 167 177
149 166 174
145 162 166
152 169 176
144 160 165
155 172 182
161 177 186
152 167 172
144 161 165
158 173 181
155 170 176
151 168 172
163 179 189
160 176 182
142 159 162
160 175 182
92 115 87
74 100 60
76 102 62
72 98 59
71 97 57
69 94 55
74 100 60
65 88 52
68 92 55
67 92 55
75 102 62
68 93 55
69 94 57
75 102 61
76 102 62
68 93 55
74 101 62
71 97 58
74 100 60
82 107 76
155 173 181
159 175 183
141 157 160
154 170 176
155 171 178
155 172 180
159 176 186
148 165 170
154 169 178
156 173 180
163 179 189
153 170 179
163 180 192
151 168 174
148 165 166
151 167 173
151 168 174
157 173 181
148 164 173
85 108 80
75 101 62
73 99 60
65 90 52
73 98 59
72 98 58
73 100 60
76 103 63
73 99 59
72 98 59
69 94 57
72 98 60
76 103 62
74 100 60
74 99 60
71 96 58
77 103 64
74 100 61
94 117 99
151 166 173
140 159 162
159 175 183
155 173 182
155 172 181
156 173 183
152 169 177
154 171 175
154 171 177
153 169 174
153 168 174
156 173 181
161 176 186
145 161 165
149 165 168
153 168 175
121 140 134
109 129 120
130 150 147
148 166 171
151 167 171
159 176 186
160 177 186
162 178 187
157 173 181
154 170 178
154 171 179
164 180 189
156 173 181
151 168 174
156 173 183
154 170 177
146 164 170
155 172 181
146 163 168
85 109 79
74 101 61
71 96 57
77 105 64
74 101 61
74 100 60
74 101 61
79 107 65
77 103 62
74 101 62
72 97 58
76 102 62
74 100 60
74 101 61
73 100 60
74 100 61
138 159 159
151 169 174
157 174 186
166 180 190
160 176 181
155 172 180
166 184 195
166 184 197
157 174 182
162 179 189
164 179 191
151 168 174
158 174 182
171 188 201
158 174 182
145 163 169
85 109 82
77 104 63
79 105 69
90 114 90
105 127 111
131 150 146
133 152 152
148 166 168
159 176 187
151 168 175
161 179 192
155 171 181
168 184 196
171 186 197
120 140 135
78 106 65
73 98 59
73 100 61
75 102 62
75 102 62
79 106 65
71 97 57
74 101 61
80 108 67
78 105 63
75 102 62
75 102 61
87 110 82
154 172 179
176 192 203
172 190 201
178 195 210
161 179 189
159 176 186
169 184 195
160 178 185
161 179 189
172 188 200
166 183 195
169 187 200
127 147 141
116 135 126
140 160 160
155 173 182
161 178 187
167 183 194
161 179 188
164 181 190
71 98 58
84 110 79
127 147 144
157 175 183
160 178 186
172 188 201
160 177 184
168 185 198
134 154 153
78 105 64
78 105 64
75 102 62
78 105 65
80 108 66
78 106 65
78 106 64
86 111 81
126 145 141
151 170 174
157 174 184
157 174 182
167 185 197
166 184 193
158 176 186
166 183 194
158 174 184
93 117 93
80 107 66
80 108 67
73 99 59
77 105 65
74 100 60
78 105 64
80 108 66
83 107 78
121 142 131
136 156 156
168 185 197
151 167 177
165 182 191
157 173 180
165 182 192
161 178 185
148 165 170
133 151 149
73 99 60
75 101 61
76 104 63
74 101 62
70 96 57
76 103 63
77 103 62
77 104 63
74 101 61
77 104 64
76 104 63
76 102 62
92 115 92
131 149 145
159 175 180
172 188 203
156 173 181
169 185 196
151 167 173
84 111 73
72 98 58
77 104 64
75 101 61
75 102 62
76 103 62
70 95 56
80 108 67
76 103 63
80 107 66
74 99 59
76 103 63
74 101 61
74 100 60
75 101 61
72 98 59
79 106 65
69 94 56
81 108 66
96 120 97
158 175 184
152 169 175
143 161 163
115 134 128
92 114 91
75 98 66
73 99 60
72 97 59
78 104 64
74 101 62
75 101 61
76 101 62
78 106 65
76 102 62
71 97 58
74 100 59
78 102 73
92 115 93
111 131 124
116 135 125
114 135 126
104 126 109
86 108 81
83 107 78
73 100 60
77 103 63
75 102 62
74 100 60
73 98 59
76 103 62
73 98 60
70 96 58
76 102 63
74 100 60
77 104 64
69 94 56
74 100 61
74 101 60
71 97 58
74 97 64
103 122 108
117 137 129
79 102 73
69 94 55
78 105 64
74 100 61
70 95 57
71 97 59
70 95 57
72 98 59
70 96 57
71 97 58
75 101 61
71 97 57
68 93 54
75 101 61
73 98 58
69 95 56
73 99 60
78 105 65
70 96 57
125 143 137
157 173 177
158 173 182
149 165 171
150 165 170
156 172 181
156 172 179
161 176 185
156 171 179
159 176 185
155 171 181
150 166 175
147 163 168
156 172 178
148 166 170
156 171 180
155 170 178
147 163 168
157 173 184
154 170 179
150 166 176
112 131 120
73 99 60
71 97 57
72 98 58
70 95 57
72 98 59
75 101 61
72 98 59
72 98 59
72 98 59
67 91 54
76 100 67
89 110 94
97 117 101
130 149 145
149 164 171
149 165 169
149 165 172
150 168 175
155 172 179
143 160 164
80 105 69
71 96 58
71 97 57
75 102 63
74 100 60
73 98 59
71 96 57
72 97 58
66 91 54
74 101 61
71 97 58
69 94 56
78 104 64
70 95 56
69 94 56
70 96 58
70 95 57
75 102 61
74 100 60
75 101 61
120 138 131
156 172 181
142 159 163
149 165 170
151 168 176
158 175 184
156 172 183
157 173 183
149 165 171
152 170 178
150 167 173
156 173 181
161 177 186
161 178 188
144 162 168
147 165 171
147 163 167
154 171 180
163 180 191
147 163 167
130 147 147
74 100 61
71 97 59
75 101 61
67 91 54
75 102 62
68 92 54
68 93 54
73 98 59
74 101 62
69 95 56
72 98 58
73 98 59
73 99 60
78 104 64
75 101 61
71 96 57
78 104 64
73 100 60
70 96 58
126 144 141
153 170 179
162 178 190
146 163 168
156 173 182
159 175 185
163 178 189
162 178 186
160 175 183
154 171 177
158 175 184
148 164 171
154 171 180
158 173 182
155 171 176
157 173 182
150 166 171
161 177 187
159 174 183
130 147 147
77 104 63
74 100 59
70 95 56
70 95 56
74 99 60
78 105 65
76 102 62
73 98 59
72 98 60
68 93 55
72 97 58
78 105 65
67 92 54
69 95 57
75 101 62
69 95 56
71 96 58
74 100 61
136 154 153
159 176 185
152 169 177
154 170 180
168 184 196
156 171 183
152 168 174
149 166 172
152 170 176
141 159 162
117 137 127
114 133 126
112 132 121
98 119 99
81 106 73
74 100 60
77 105 64
74 100 60
134 152 152
160 178 187
159 176 185
145 162 165
155 172 178
160 176 187
154 170 178
156 172 183
158 175 181
152 169 174
159 176 186
157 173 181
158 175 182
164 179 189
160 178 188
162 178 190
155 172 180
125 145 140
74 100 60
75 101 62
73 99 59
74 100 61
72 99 59
76 102 62
67 91 53
74 100 60
76 104 63
77 104 63
77 104 63
73 100 60
72 98 59
74 100 61
78 105 65
79 104 72
145 163 168
162 179 190
157 174 182
159 175 182
161 178 185
166 183 193
172 188 201
166 183 194
149 165 172
161 178 189
162 179 189
161 178 187
160 176 184
161 178 186
156 173 181
122 141 133
72 98 59
75 102 61
75 102 62
69 95 57
75 101 61
72 99 60
75 102 63
82 109 75
89 113 87
120 139 128
132 150 151
139 156 157
145 162 168
155 171 180
112 132 120
79 107 65
78 105 65
76 104 63
77 104 63
77 104 64
76 104 63
79 106 66
75 101 61
76 103 62
79 107 66
73 100 60
75 102 62
100 123 104
157 175 183
171 187 199
161 179 189
162 180 190
167 184 198
161 179 189
165 182 192
164 182 193
160 179 189
174 192 207
152 170 176
156 173 181
114 136 122
82 109 70
93 118 89
109 132 116
133 153 150
153 171 179
164 182 194
133 153 152
160 178 187
160 178 191
164 181 194
172 188 200
178 196 211
164 181 191
170 187 199
110 131 117
77 104 63
77 104 63
78 107 66
71 98 58
78 105 64
108 131 114
145 165 167
160 176 183
171 188 200
156 174 182
158 176 184
160 177 188
153 171 177
158 174 182
173 190 203
176 193 208
159 176 184
82 107 78
73 99 59
75 103 63
77 104 63
73 100 60
83 110 70
99 120 99
137 155 153
155 173 180
166 183 195
165 182 191
162 180 191
161 178 186
160 178 189
163 179 189
165 183 192
156 172 180
159 176 188
139 157 157
76 102 62
77 104 64
78 105 64
76 103 63
79 106 65
76 103 62
77 103 63
75 102 63
75 102 62
76 101 67
117 139 126
145 162 164
159 176 188
169 187 199
154 171 178
162 179 187
161 178 187
151 168 174
163 181 194
88 112 85
76 103 63
78 105 64
75 102 61
73 99 60
72 98 59
76 102 62
76 103 64
76 102 62
76 103 63
71 97 58
79 107 65
76 103 63
76 103 62
74 100 61
76 102 63
72 97 58
78 105 64
72 98 59
108 129 115
117 136 127
86 110 80
75 101 61
79 106 65
76 103 62
77 104 64
74 101 60
77 104 64
74 101 61
69 94 57
73 98 59
76 103 63
72 97 59
79 106 65
74 100 59
74 101 61
75 102 62
77 104 63
72 98 58
72 98 58
141 160 163
160 177 188
157 173 183
160 177 187
147 164 167
147 163 166
127 146 144
124 144 137
123 143 140
114 135 120
96 118 96
76 100 66
76 102 65
72 98 59
74 100 61
84 108 74
108 127 114
127 146 141
154 171 178
153 169 177
161 178 188
78 103 66
72 99 60
70 96 56
76 103 62
73 100 60
68 94 56
75 102 62
71 97 58
71 96 56
77 104 64
72 99 60
72 98 58
72 98 60
68 92 55
73 99 59
72 98 58
77 103 63
70 95 57
74 101 61
72 97 59
98 119 103
154 170 178
149 166 171
161 176 185
157 173 183
145 160 166
155 171 178
140 156 159
156 172 180
154 171 179
158 175 184
150 166 172
154 171 180
155 171 178
147 164 169
154 171 178
151 167 175
156 172 180
159 175 184
160 178 187
152 168 175
124 142 138
71 96 58
72 97 59
72 98 59
72 98 59
73 99 59
83 107 77
106 126 112
128 146 141
136 153 153
143 161 165
154 172 180
156 173 181
152 168 173
160 176 186
163 181 192
149 165 172
148 164 171
149 166 175
150 166 172
156 173 180
99 119 103
72 97 59
69 94 56
74 100 60
75 101 61
67 92 55
74 100 61
71 97 59
67 92 53
74 100 61
72 99 59
77 103 63
76 102 61
70 95 56
71 96 56
72 98 59
70 95 56
73 99 60
73 99 60
72 98 59
103 124 108
156 173 182
150 167 172
154 170 178
155 171 177
155 172 178
144 161 163
153 169 176
152 169 175
140 156 159
152 169 177
162 178 188
154 171 183
155 171 181
146 162 169
148 164 169
143 160 169
159 174 184
147 164 169
166 182 192
149 166 174
87 108 86
72 98 60
71 97 58
71 96 58
73 99 58
66 91 52
71 97 58
68 93 55
67 91 54
77 104 63
70 95 58
70 96 57
74 99 59
73 99 59
74 100 61
69 94 56
76 103 61
73 99 60
67 92 55
86 110 82
154 170 177
158 175 182
151 167 175
150 167 176
154 171 181
154 169 176
148 164 170
155 172 178
156 173 183
157 174 181
154 170 180
153 169 176
144 162 168
153 169 177
150 167 175
154 170 177
163 180 191
153 170 177
153 171 178
91 114 90
74 100 60
71 96 57
73 100 61
72 98 59
73 98 58
74 100 60
69 94 57
72 97 58
76 103 63
76 103 62
73 99 60
77 105 64
68 93 56
71 97 58
75 101 62
76 101 63
88 112 86
110 132 119
135 152 155
129 148 142
120 139 129
98 120 100
100 122 100
77 101 68
77 105 64
72 98 59
71 97 58
74 100 61
75 102 62
70 95 57
75 103 63
74 101 62
70 95 57
76 102 62
71 98 59
84 110 76
159 176 185
164 181 192
158 174 183
158 176 185
163 178 188
149 166 174
154 171 178
157 174 185
165 180 188
166 182 193
164 180 190
159 176 186
167 183 193
163 179 187
158 175 182
152 169 176
149 167 173
100 122 105
75 102 61
75 101 61
69 94 56
76 103 63
74 101 60
74 101 61
71 97 58
77 104 63
75 103 62
76 103 62
70 96 57
74 100 61
73 99 60
77 104 63
70 96 56
101 123 104
154 171 180
153 170 177
161 178 190
157 174 184
161 178 186
159 175 183
169 185 194
155 172 180
165 181 193
165 182 193
160 178 188
153 171 178
165 182 190
161 179 190
148 166 172
120 140 136
74 100 61
75 102 61
79 107 64
73 99 61
76 103 63
82 110 68
77 104 64
75 101 61
77 104 63
77 104 64
74 101 62
87 112 84
99 122 100
110 131 116
103 125 112
118 139 128
87 112 82
78 105 67
76 104 64
77 105 64
71 97 58
80 108 66
77 104 64
76 103 63
78 105 63
77 105 64
75 103 63
120 142 133
159 176 186
167 184 195
160 177 187
161 178 186
174 191 205
161 179 190
170 187 199
157 175 183
161 178 185
155 173 179
159 176 188
156 175 183
118 140 130
82 110 68
75 103 63
75 102 62
79 105 69
88 113 84
171 188 201
169 187 201
173 191 206
152 170 177
162 179 189
166 183 196
162 179 190
160 178 189
100 123 99
74 102 61
78 106 65
88 116 77
104 127 108
135 155 153
161 179 189
160 178 186
168 185 198
164 182 195
167 184 196
178 194 208
157 174 182
161 178 190
156 174 181
161 179 188
160 178 189
158 175 184
79 105 70
78 105 64
79 106 65
89 113 84
109 131 118
145 164 169
152 170 176
166 183 193
170 187 199
155 172 180
153 171 178
164 180 188
162 179 189
168 186 196
154 171 178
168 185 199
160 177 186
175 192 206
131 151 152
75 103 62
77 104 64
74 101 61
77 104 63
73 99 60
77 104 63
84 109 77
110 130 116
133 152 149
159 176 186
168 184 194
167 184 198
158 175 186
169 185 198
154 171 179
162 180 190
162 180 193
163 179 190
157 174 182
95 118 93
75 101 61
75 103 63
75 102 62
78 105 65
74 101 61
78 105 65
75 101 60
74 100 60
72 98 59
76 103 62
73 99 60
75 101 61
75 101 61
72 98 59
80 105 71
104 125 107
132 151 148
153 169 176
148 164 172
81 105 72
74 101 61
75 101 62
77 104 64
73 99 60
74 100 60
73 99 60
72 98 59
77 104 64
77 103 63
74 101 62
76 102 62
75 101 62
73 99 60
79 106 65
69 94 57
76 102 61
76 102 63
73 99 60
75 102 62
121 140 134
164 180 191
162 178 187
160 176 186
156 172 182
153 171 179
158 174 183
158 174 184
169 185 199
158 174 184
162 178 189
162 178 190
125 145 140
113 133 117
89 113 87
106 126 111
122 140 133
139 156 157
128 146 147
144 162 162
151 166 171
90 113 88
73 99 60
70 95 58
75 101 61
79 107 66
74 101 60
70 96 57
69 94 56
76 102 62
71 96 57
72 98 59
74 101 61
72 98 58
71 96 57
76 103 63
69 95 57
75 101 62
78 106 65
74 100 61
70 95 57
77 102 68
153 169 180
153 170 179
158 174 182
155 171 179
160 175 184
155 171 181
156 172 181
165 181 193
151 167 174
162 178 185
162 179 189
150 167 172
160 178 187
154 170 178
155 171 180
147 162 165
151 168 177
156 175 186
153 170 175
163 179 190
143 160 162
96 120 92
110 130 119
121 140 134
123 141 135
157 173 180
148 164 168
165 181 192
160 178 186
145 161 166
164 179 190
153 170 174
150 167 174
159 176 185
151 167 176
160 176 185
163 180 190
147 164 170
148 166 169
152 169 176
149 165 172
141 160 162
71 96 58
73 98 59
71 96 58
72 97 57
70 95 56
75 102 62
67 92 55
75 101 62
71 97 58
73 98 59
72 98 59
70 95 57
71 96 57
73 99 59
74 99 60
73 99 60
77 105 64
71 97 58
66 91 54
74 101 61
140 156 156
156 173 178
151 167 176
155 172 182
156 173 181
149 166 172
158 174 184
153 169 175
152 169 176
156 174 183
146 162 168
153 169 174
155 172 180
159 174 181
156 173 181
162 178 186
152 168 174
159 175 182
157 173 180
155 172 179
132 150 151
73 99 60
74 100 60
73 98 59
70 95 56
72 98 60
72 97 58
73 99 60
69 94 56
73 99 59
71 96 57
70 95 57
71 97 58
73 99 59
74 100 61
79 107 66
71 98 60
74 99 59
75 101 62
69 94 55
122 141 135
147 164 170
154 170 178
156 171 177
154 169 179
157 173 182
152 169 176
151 169 175
162 178 186
152 167 173
159 174 183
160 176 183
154 170 178
158 175 186
150 167 173
162 178 189
156 172 178
162 178 188
156 172 179
136 153 155
72 97 59
70 97 57
68 93 55
75 101 61
74 100 61
76 102 61
82 104 79
90 113 85
99 120 99
106 127 112
121 141 133
117 137 127
121 139 135
151 167 173
147 165 172
152 170 175
159 175 181
152 169 175
120 138 134
72 97 59
70 96 58
72 97 57
78 105 65
71 97 59
74 100 61
69 94 55
71 98 58
72 99 59
72 98 59
72 97 59
76 103 63
69 94 56
78 105 64
73 99 59
72 98 60
78 105 64
105 125 109
155 171 179
160 176 185
163 179 188
156 173 181
159 176 186
162 178 185
146 164 169
168 184 195
152 168 175
151 169 177
160 177 185
150 167 173
156 173 182
160 176 186
156 173 179
163 180 191
153 170 176
76 102 65
76 103 63
76 102 61
71 97 59
72 98 59
75 102 62
76 103 63
73 99 60
72 97 58
71 96 57
74 101 62
74 100 60
76 103 63
75 103 62
75 102 63
72 98 59
141 159 161
160 176 185
159 177 188
160 177 185
160 177 189
158 176 185
156 174 183
166 182 194
157 173 184
167 184 196
169 187 201
159 176 186
156 173 182
159 177 189
165 182 193
161 179 189
99 121 101
80 108 66
71 98 59
78 106 65
80 107 66
80 107 65
77 104 64
78 106 65
74 102 61
78 105 64
73 99 59
75 102 63
75 101 62
78 105 63
105 129 108
153 172 179
164 182 194
152 170 177
140 159 159
124 144 137
103 125 106
82 108 69
73 100 60
78 106 64
78 106 65
72 97 57
75 102 63
79 107 66
132 152 148
169 187 201
168 185 198
167 184 197
167 184 197
167 185 199
155 173 181
163 180 190
170 187 197
167 185 197
169 187 198
160 179 186
161 177 185
109 130 118
81 109 66
76 103 63
76 103 63
77 105 64
161 177 185
167 184 195
157 174 184
174 191 203
165 182 192
177 195 209
170 187 199
155 174 183
82 109 72
91 116 89
119 139 130
152 170 179
163 181 190
166 183 194
160 177 185
172 189 201
165 182 194
164 181 188
160 177 188
165 183 195
169 186 200
167 184 195
159 177 188
165 182 194
162 180 191
161 180 190
79 106 66
92 117 91
127 147 142
155 174 182
158 175 185
162 179 190
158 176 185
161 179 187
167 185 197
169 185 196
162 179 188
160 178 186
160 177 184
164 182 194
162 178 190
172 189 202
163 179 189
163 180 190
135 154 150
74 101 61
75 102 63
75 102 62
78 106 65
97 121 101
122 142 133
152 168 173
163 179 190
159 176 184
162 180 190
160 176 184
153 169 173
166 182 192
163 181 192
176 193 205
154 171 178
165 183 197
167 182 193
164 182 191
112 135 120
74 101 62
75 101 62
75 102 62
78 105 65
79 106 65
76 103 63
83 111 68
72 98 59
76 103 63
74 101 61
73 99 59
82 108 72
103 124 106
126 146 143
164 181 192
169 186 198
154 170 175
163 179 189
155 172 181
97 120 100
75 101 61
81 108 66
74 101 62
68 92 54
73 100 60
76 103 62
79 106 65
76 102 61
74 101 61
68 93 55
77 103 63
82 110 68
74 101 61
75 102 62
74 100 61
73 99 59
75 102 62
70 96 58
74 101 62
105 126 108
161 177 186
161 177 187
155 172 180
159 176 187
158 175 182
155 171 178
159 175 185
148 165 169
123 142 134
105 126 110
76 99 71
75 101 61
68 93 55
70 95 56
72 98 58
79 107 66
77 104 64
72 97 58
71 97 58
78 105 64
124 143 139
151 167 173
149 166 174
139 157 159
134 152 153
128 148 145
136 154 152
123 142 137
101 121 106
102 123 107
75 99 66
88 112 81
77 104 67
71 96 58
75 102 62
77 104 63
73 99 60
72 98 58
75 101 61
72 98 60
74 100 61
135 153 151
149 165 171
155 171 178
147 163 169
150 168 174
151 168 176
151 167 175
147 164 168
162 178 187
159 176 187
148 166 169
159 175 183
143 161 169
160 177 186
147 162 165
152 168 175
147 163 167
128 146 140
115 134 124
96 118 97
80 106 74
138 155 158
145 162 166
159 175 184
148 164 170
157 172 181
146 162 168
150 166 170
159 175 184
160 178 189
157 175 183
168 183 194
157 173 182
148 165 172
148 164 171
164 180 192
155 172 180
155 171 180
160 176 186
154 172 178
159 174 181
153 169 177
74 100 63
78 105 64
72 98 59
73 100 61
72 97 58
74 100 60
72 97 58
74 101 61
70 95 57
73 100 60
73 99 59
74 101 61
71 96 58
74 99 59
75 102 62
72 98 59
75 101 61
72 99 59
69 95 56
73 99 59
108 129 113
155 171 181
163 180 189
166 182 192
150 167 172
151 167 175
164 180 192
149 166 172
160 176 182
153 170 176
158 175 183
148 164 169
157 175 183
161 177 186
155 171 180
151 169 177
146 162 166
160 175 185
147 165 171
156 171 179
148 166 170
85 110 80
70 96 57
70 95 57
75 101 62
74 100 60
75 101 62
75 102 62
74 101 61
73 99 60
73 100 61
72 98 60
71 96 58
73 99 59
77 103 63
72 98 59
72 98 58
74 101 61
72 98 59
76 102 62
87 110 85
165 182 191
156 173 180
162 178 187
144 161 164
162 178 189
153 170 178
163 179 190
155 172 179
155 171 178
153 169 176
157 174 183
156 172 179
160 177 186
158 174 182
151 167 174
152 168 174
146 164 169
141 160 165
142 159 160
105 125 113
124 143 138
124 141 137
141 158 160
146 163 170
148 165 171
151 168 176
158 175 187
167 183 196
152 169 174
144 161 165
152 168 174
158 174 183
151 168 176
149 166 170
154 171 180
147 164 170
161 177 187
157 174 182
97 118 101
75 100 62
75 101 61
79 104 71
74 99 60
76 101 67
77 103 65
72 98 60
74 100 61
73 100 61
76 102 62
71 97 58
79 107 65
74 100 60
74 100 61
74 101 61
73 99 60
75 101 62
139 156 156
160 176 185
161 177 185
164 180 191
160 178 187
162 179 190
162 178 188
159 176 183
151 167 172
155 173 181
157 174 183
162 179 190
151 168 173
153 171 178
153 171 180
164 180 188
160 176 184
132 151 147
76 103 63
73 99 60
78 106 64
74 101 61
75 101 61
75 101 60
77 104 63
75 102 62
76 103 62
82 110 67
77 104 63
80 108 66
79 106 64
79 106 65
75 101 61
75 102 62
146 163 165
164 181 190
165 182 191
160 176 184
163 181 192
157 173 182
159 176 184
162 180 191
160 177 190
156 173 178
159 176 185
151 166 172
167 182 193
163 179 187
163 181 193
157 176 185
82 107 77
77 105 64
73 99 59
74 101 61
76 103 62
77 104 63
74 101 61
80 108 67
77 104 63
78 104 64
76 104 64
75 101 61
80 107 65
74 101 61
120 140 130
160 178 187
166 183 193
177 193 206
170 188 201
164 182 194
151 167 172
150 169 173
133 151 148
120 141 132
92 116 91
78 103 71
80 109 68
74 102 62
131 150 149
159 177 185
158 174 184
168 185 197
159 176 181
161 178 188
173 189 204
167 185 196
172 189 202
167 186 199
167 185 195
160 178 189
164 182 193
95 117 96
75 102 61
80 107 66
79 107 66
166 184 196
168 186 198
165 183 193
166 184 197
176 191 202
164 180 191
161 178 190
160 178 187
128 148 142
154 171 176
164 182 194
165 182 194
169 186 198
160 177 187
164 182 193
162 180 190
155 172 179
171 188 203
167 184 195
165 181 193
168 185 195
158 175 184
162 179 187
168 184 195
169 186 195
147 165 169
151 168 174
157 175 184
164 181 192
166 183 194
164 182 194
160 177 187
168 185 198
158 176 184
165 183 191
158 174 185
171 187 202
173 188 199
161 179 189
161 179 188
168 184 196
167 184 194
159 177 187
160 178 187
140 158 157
75 101 60
85 112 76
111 133 121
145 163 161
156 174 181
162 179 189
164 182 193
160 178 187
154 172 181
153 170 178
165 181 189
155 173 184
160 177 186
160 177 188
166 182 191
165 181 190
162 177 185
168 184 197
158 176 184
106 127 110
75 101 62
76 102 61
75 102 63
76 103 63
70 95 57
74 101 60
72 99 59
76 103 63
83 108 77
111 131 118
143 161 163
162 180 191
165 182 194
166 182 194
163 179 189
159 176 183
160 177 190
159 176 185
151 168 175
119 138 126
74 101 61
74 101 60
74 100 60
76 102 62
76 102 63
76 103 63
71 97 59
74 99 60
74 100 62
78 105 64
69 95 56
74 100 61
75 102 62
75 102 62
78 105 64
70 96 57
78 106 65
73 99 60
75 101 61
89 110 85
158 173 179
162 179 188
149 166 170
146 164 169
151 168 173
118 137 129
93 115 90
75 101 60
77 104 63
78 104 64
78 105 63
74 100 61
80 108 67
72 99 60
78 104 64
72 99 60
74 100 61
76 103 63
67 92 55
76 103 63
117 137 126
154 171 176
160 176 187
170 187 201
160 175 185
157 172 182
155 171 178
147 164 169
157 173 180
157 174 183
154 171 177
167 182 192
156 171 181
156 172 180
136 155 155
142 159 163
136 154 151
124 144 138
127 145 139
126 144 137
103 125 109
116 135 125
135 154 154
150 167 173
153 170 177
155 171 177
158 175 184
150 166 174
147 165 168
162 178 187
151 167 175
158 175 184
152 169 176
137 155 154
125 145 135
102 123 109
79 105 66
74 101 60
75 101 62
72 97 58
73 98 59
71 96 58
114 133 124
165 181 190
156 172 178
155 172 180
147 163 173
158 175 183
163 180 191
157 173 185
155 171 176
166 181 190
151 167 172
153 170 177
155 172 179
153 170 175
152 168 174
167 184 196
152 169 178
155 172 179
156 173 181
157 174 185
156 172 181
113 131 124
75 102 61
76 103 62
68 94 56
81 108 67
71 96 57
78 105 65
67 92 55
78 105 64
76 101 61
66 91 54
73 98 59
77 104 64
74 101 61
74 100 60
72 98 60
75 102 61
68 93 55
76 102 62
76 102 62
81 105 72
147 163 167
158 176 187
150 167 172
155 172 181
151 169 176
150 168 172
161 178 189
154 171 178
162 178 188
152 168 175
158 174 183
162 178 185
148 165 172
145 161 167
166 182 195
157 173 184
160 177 186
153 168 177
155 171 178
156 173 181
109 127 119
72 97 58
71 96 57
74 100 61
76 102 62
77 104 62
73 99 60
73 99 59
77 104 62
73 99 59
72 98 59
72 99 59
72 98 59
75 101 60
72 97 58
71 96 56
67 93 55
80 106 65
76 103 63
72 97 58
137 154 157
146 163 167
143 161 163
148 163 170
154 171 177
163 180 190
159 176 184
153 171 178
146 163 169
145 162 167
155 173 180
142 158 162
132 150 150
142 161 164
136 156 155
131 149 146
142 160 159
148 165 168
142 159 163
144 162 166
87 112 81
82 108 74
85 109 82
76 103 66
85 110 78
79 106 70
73 99 62
75 101 61
80 106 70
74 101 61
71 97 58
74 100 61
74 100 61
76 103 63
75 101 61
73 100 60
75 102 62
77 104 64
113 133 124
158 175 186
155 172 179
166 183 193
163 178 185
159 175 183
161 176 184
157 174 180
150 166 172
149 166 171
149 166 170
144 162 168
145 163 166
144 161 164
142 160 162
133 152 148
142 160 161
129 147 146
135 152 153
124 143 141
129 146 139
136 154 152
140 159 161
140 158 159
137 158 158
151 169 171
154 172 177
155 173 179
149 167 173
152 169 176
157 175 184
170 186 198
164 181 192
149 164 168
161 178 190
152 170 178
99 120 104
75 102 62
72 99 60
74 102 61
74 100 61
72 98 59
73 99 60
73 99 60
74 101 61
78 105 64
77 104 63
72 98 59
79 106 65
78 106 65
73 100 60
76 103 63
97 120 98
160 179 185
160 177 188
153 170 177
158 175 184
149 166 171
163 179 191
161 178 187
157 174 180
158 174 180
169 185 198
167 184 196
167 185 198
163 181 190
143 160 164
167 184 197
128 145 145
82 110 71
73 100 61
76 103 62
78 106 64
67 92 55
75 101 61
77 105 64
76 103 63
79 107 66
78 106 64
74 101 62
74 101 61
76 103 63
79 106 67
122 141 137
155 173 184
167 185 198
169 186 198
162 180 192
155 172 180
152 170 176
164 179 188
159 176 184
170 187 201
143 161 166
149 167 172
127 146 140
99 121 102
137 155 153
167 184 194
167 183 190
166 181 190
167 185 197
162 180 189
170 187 201
174 191 204
163 181 192
173 190 202
166 183 196
165 182 194
151 170 175
86 112 82
75 103 62
77 104 63
162 180 191
174 191 205
170 187 199
175 191 202
167 184 198
145 163 165
128 148 142
109 132 117
170 187 199
172 190 203
162 178 189
168 185 197
175 191 205
167 184 196
158 177 187
160 177 185
165 183 195
167 184 193
154 173 181
167 184 192
168 186 199
169 186 202
162 180 188
136 155 155
102 126 104
108 131 114
166 183 194
157 174 182
151 170 177
163 180 190
163 181 190
161 178 185
168 184 194
165 183 195
170 187 201
159 177 186
168 186 198
174 190 202
152 169 176
170 188 199
158 175 185
149 166 175
171 188 199
156 174 183
134 153 152
136 154 155
167 184 198
159 176 189
152 170 177
160 177 185
158 175 185
150 168 175
164 182 194
169 185 198
157 174 181
160 177 187
174 189 202
157 174 183
165 182 191
176 192 207
166 183 196
162 178 189
155 171 179
162 178 186
107 128 113
77 105 64
73 100 60
78 106 66
75 101 61
76 103 62
76 102 62
91 115 92
137 153 152
157 175 183
155 173 184
153 170 179
166 181 190
163 180 192
165 182 191
171 187 197
154 170 177
163 179 191
157 175 183
159 176 185
124 143 136
75 102 62
76 103 62
76 103 63
74 100 61
77 104 64
72 97 59
78 105 65
72 98 59
77 104 64
74 100 61
73 100 60
75 102 63
74 100 60
74 100 60
75 101 61
76 102 61
75 101 61
74 100 61
70 95 56
76 102 64
147 165 169
131 149 148
113 134 122
77 101 70
73 99 60
78 105 64
76 103 63
74 100 60
75 102 61
71 97 59
72 98 59
73 99 60
75 101 61
73 100 59
73 99 60
77 104 63
74 101 61
72 98 59
70 96 58
71 97 59
87 111 85
162 179 190
156 173 183
169 185 195
153 170 177
156 173 182
165 182 193
163 180 191
152 169 178
157 174 181
156 174 182
160 176 186
153 170 177
153 169 177
159 175 182
157 174 182
159 176 184
158 175 182
165 181 192
162 179 189
163 178 190
142 159 162
75 101 61
73 100 59
70 96 57
76 103 63
74 100 61
95 117 98
118 138 130
147 164 167
159 177 184
138 156 158
135 153 154
135 152 152
129 148 144
123 143 135
113 132 120
123 141 134
123 142 136
108 130 115
99 121 105
108 129 113
113 132 121
146 164 169
135 152 152
151 168 174
149 165 168
151 166 171
160 176 183
160 177 184
152 168 172
158 174 182
152 168 175
169 185 197
144 162 165
150 167 173
162 178 186
151 168 176
163 179 189
149 165 172
153 170 178
156 174 183
164 181 192
146 162 168
76 103 62
77 104 63
76 101 61
74 100 61
77 103 63
73 99 60
71 96 58
71 96 57
74 100 61
75 102 61
72 98 58
75 102 61
71 97 58
78 104 64
77 104 63
73 99 60
68 92 55
74 101 60
73 98 58
76 102 62
133 151 150
160 176 186
159 177 186
155 172 179
154 170 176
161 178 188
148 165 170
156 173 181
155 171 178
155 171 181
164 181 191
153 169 178
149 166 171
159 175 184
160 178 189
156 172 179
160 175 186
160 177 186
154 170 177
154 170 176
130 148 147
83 107 75
96 119 99
87 112 85
103 125 110
103 125 106
94 115 97
101 123 107
92 113 94
100 122 103
87 110 87
85 109 80
87 111 80
89 112 86
80 106 69
79 105 69
73 98 62
77 103 63
70 95 56
76 103 63
91 115 89
161 176 186
169 184 196
142 159 163
157 174 182
159 175 186
154 170 177
161 177 185
150 167 175
162 178 187
165 182 196
152 168 177
152 169 176
154 170 177
158 175 184
164 181 195
158 174 184
158 174 181
157 174 180
151 167 171
117 137 128
77 104 63
74 102 62
75 101 61
75 102 61
71 97 58
77 103 63
75 101 60
72 97 58
75 101 61
77 103 62
77 104 64
72 98 60
74 100 59
71 97 58
72 99 59
76 103 62
75 101 61
72 97 58
144 161 167
160 175 185
157 173 180
168 184 198
157 173 180
160 177 187
151 169 178
164 180 188
163 179 190
148 165 171
153 171 180
166 183 195
158 174 184
159 174 183
161 176 185
160 176 186
154 170 177
166 182 191
128 148 142
72 98 59
78 105 65
70 96 57
73 100 61
69 95 57
77 104 63
76 103 63
75 102 62
84 109 75
80 105 70
81 104 76
92 114 91
105 127 110
99 121 102
116 136 126
110 130 116
133 153 151
104 126 109
96 120 99
98 121 97
89 114 87
79 106 68
76 100 68
75 102 61
77 104 62
70 96 57
74 101 61
75 102 61
75 102 62
78 105 64
76 103 62
77 104 63
77 105 64
127 147 143
157 173 184
168 185 194
166 183 194
156 174 184
167 186 199
159 177 188
156 173 179
155 172 181
169 186 196
162 180 192
162 179 191
164 180 190
165 182 194
177 194 209
164 182 194
122 144 136
72 98 58
77 104 63
68 93 56
75 102 62
78 106 66
80 108 66
74 100 60
77 104 64
79 106 65
81 109 67
75 102 62
77 104 64
75 102 62
88 113 84
142 160 163
157 174 181
163 180 191
173 190 204
152 170 176
168 185 199
157 173 181
161 177 184
164 181 193
156 173 180
169 187 200
164 182 194
164 181 189
164 181 192
120 140 133
123 144 135
150 168 170
156 174 184
166 183 192
168 185 197
166 182 194
166 183 194
162 180 190
168 186 198
160 178 189
158 176 186
153 171 176
84 110 76
81 109 68
171 188 202
176 192 207
161 178 189
164 183 194
112 133 116
93 118 86
80 109 68
126 146 140
152 170 178
160 177 185
161 179 191
172 188 201
167 185 201
174 190 202
168 185 199
152 170 178
166 183 196
168 184 197
165 182 192
167 185 199
155 173 182
121 142 133
100 124 100
78 106 64
73 101 60
104 125 112
168 186 200
168 186 199
173 190 204
164 181 193
157 174 179
167 183 194
175 191 202
159 175 186
169 186 198
170 187 198
160 177 187
160 177 187
159 177 188
163 179 189
153 172 181
168 184 194
140 158 158
105 127 111
123 143 136
163 178 187
166 184 197
171 187 198
162 179 188
162 178 186
160 177 188
162 178 187
164 179 189
175 191 205
176 192 207
155 174 183
156 172 180
163 181 193
163 180 192
152 169 175
163 179 190
166 183 196
165 181 191
164 180 190
101 123 106
76 103 62
79 106 64
76 104 63
107 127 113
141 159 160
155 171 178
157 175 184
173 190 204
159 175 185
167 183 195
155 173 184
168 183 193
164 181 191
163 179 190
159 175 186
163 179 190
157 175 184
156 173 182
166 183 194
122 141 135
75 103 63
74 101 61
74 101 61
79 107 66
77 103 62
78 106 65
72 98 59
74 101 60
76 103 62
70 96 57
76 104 64
77 104 63
74 101 61
78 105 64
77 105 64
74 100 60
82 109 70
108 130 113
137 155 157
140 156 157
91 113 93
77 103 62
74 100 61
75 101 61
79 106 65
72 98 59
74 100 60
72 98 58
72 99 60
75 102 62
79 106 65
74 100 60
74 101 62
70 95 57
75 101 62
75 102 62
70 95 56
71 97 59
78 105 64
78 105 64
76 102 65
158 175 183
156 173 182
164 181 192
154 170 178
153 171 178
160 177 188
163 180 191
164 180 191
168 183 195
165 182 196
146 162 169
167 184 196
151 168 175
152 169 176
162 179 191
152 169 175
161 178 191
162 179 189
163 178 188
158 174 183
161 178 188
83 109 77
92 113 96
122 142 136
131 149 145
156 172 179
152 168 173
144 162 169
156 174 184
162 178 187
162 178 188
145 162 165
153 170 175
154 171 180
169 185 195
168 184 195
165 182 194
158 175 185
159 175 183
155 171 183
157 172 179
152 169 178
90 114 87
74 100 60
74 101 62
69 95 56
73 99 60
74 100 61
77 104 63
83 106 79
85 108 75
104 126 109
89 113 87
89 111 85
101 122 108
89 112 85
83 106 76
104 124 107
87 110 87
106 127 113
98 119 98
111 132 120
106 126 110
125 143 139
136 154 156
125 143 141
136 153 156
126 144 141
133 152 149
131 148 148
132 150 146
127 146 141
134 154 151
130 149 148
134 153 152
123 143 137
122 140 133
118 136 132
132 150 148
118 138 131
133 152 150
138 156 158
137 155 153
134 151 149
108 128 112
107 128 116
111 131 119
101 123 105
111 131 116
106 127 112
108 128 115
103 123 107
103 123 109
94 116 90
95 118 97
80 105 76
82 105 79
85 110 80
84 108 76
85 108 79
92 115 90
116 136 128
123 141 137
115 135 127
137 155 153
107 130 113
93 114 99
101 122 102
86 111 76
75 101 61
75 101 61
69 94 55
77 103 62
70 95 57
77 104 63
71 97 59
76 103 62
74 100 62
74 100 61
72 98 59
70 96 57
74 101 61
74 100 61
77 104 62
135 153 155
156 173 182
159 176 187
148 165 172
152 169 177
152 169 175
154 171 180
155 172 181
162 179 190
160 176 184
156 172 180
165 180 191
159 175 184
165 183 195
161 178 188
165 182 193
159 176 186
158 175 185
157 173 179
142 159 162
68 93 55
69 94 56
74 100 61
73 99 59
71 97 58
72 97 58
72 98 59
68 93 54
76 103 63
75 102 61
72 97 59
81 109 67
72 98 59
71 97 57
79 106 65
76 104 63
73 99 60
72 97 57
100 122 103
155 171 174
152 169 176
164 180 190
156 173 181
158 175 181
157 174 180
160 178 188
156 172 177
147 164 170
162 178 186
162 177 186
144 160 164
158 175 186
157 175 181
165 181 191
164 181 194
155 172 180
159 176 184
92 116 88
77 104 63
75 102 63
79 106 65
75 101 62
76 103 63
76 104 63
76 102 62
75 101 61
77 105 64
75 102 62
75 102 62
74 100 60
73 99 60
76 103 63
76 103 63
75 102 62
112 133 119
162 178 188
164 180 190
161 177 186
153 171 180
155 172 179
155 174 180
133 151 154
138 156 158
130 148 143
114 135 124
108 130 113
105 125 108
86 113 80
76 102 62
79 106 65
76 103 63
137 155 157
155 173 182
172 189 204
161 180 192
166 184 197
161 178 187
158 176 184
161 178 187
162 179 190
164 181 192
170 187 200
161 179 188
169 187 199
161 178 189
165 182 194
149 166 173
102 125 106
74 101 61
79 107 65
77 105 64
78 106 65
72 98 60
72 98 58
69 94 56
75 101 61
78 105 65
77 104 64
75 102 61
72 99 59
78 104 63
89 112 83
147 166 171
172 188 200
166 183 195
171 188 200
164 181 193
156 173 181
161 178 186
157 174 183
160 178 188
167 184 195
164 181 193
168 185 200
168 186 199
155 173 180
91 115 88
77 104 63
84 110 78
113 135 122
131 152 145
155 173 182
159 178 188
165 183 196
172 188 201
173 191 209
165 181 190
167 185 195
132 153 151
81 110 67
165 182 191
144 162 166
112 134 120
81 109 70
83 111 67
82 111 68
78 104 63
135 155 149
167 184 197
168 185 198
156 173 183
162 179 186
169 187 199
163 181 193
174 193 208
168 185 196
169 185 198
160 177 189
153 171 178
112 134 119
81 107 69
78 105 63
77 104 63
79 107 66
81 110 68
116 137 125
167 185 198
158 174 182
163 179 188
168 185 198
158 175 182
169 185 199
166 183 194
165 183 196
165 183 192
168 184 197
170 186 199
171 187 200
162 178 189
144 163 167
103 125 106
81 107 71
75 102 62
78 106 65
104 126 108
157 175 183
165 181 190
164 180 189
164 181 192
160 177 187
167 184 194
153 171 178
159 177 188
171 188 203
174 191 204
166 182 194
164 181 192
161 177 185
160 176 185
170 187 200
162 178 186
160 176 185
164 181 192
157 173 179
116 133 126
99 121 102
119 139 131
154 170 178
163 180 191
165 181 192
164 181 191
160 176 183
146 164 170
156 174 183
167 184 196
151 168 173
163 180 191
153 170 177
158 176 185
167 184 198
157 174 183
159 176 184
167 184 196
158 175 188
140 158 162
74 100 60
75 102 62
73 100 60
73 99 60
80 107 65
75 102 61
76 103 62
78 105 64
77 104 63
76 103 63
76 103 63
72 97 58
71 97 59
86 111 78
117 136 125
131 149 146
145 162 166
167 183 191
151 167 172
162 179 193
114 134 121
77 103 63
76 103 63
73 99 60
75 101 61
75 102 62
71 97 58
77 105 65
76 103 63
72 99 59
77 104 63
76 102 62
75 103 63
76 103 62
77 105 64
73 100 60
71 98 59
76 104 63
73 99 59
75 102 62
72 99 59
141 160 162
168 183 194
160 176 184
158 175 182
162 178 187
153 169 175
156 173 182
160 177 188
157 175 181
154 171 180
164 181 192
168 184 194
169 184 194
156 172 179
152 169 175
162 179 189
160 176 184
156 172 179
132 151 149
115 134 126
99 120 102
140 157 156
159 176 184
152 169 178
158 175 185
155 170 178
151 169 177
162 178 188
161 177 185
157 173 182
160 177 185
153 170 177
144 162 168
154 171 178
141 157 161
157 174 184
157 174 182
156 173 185
159 176 186
147 165 169
154 171 181
155 172 179
106 127 113
75 101 61
74 100 60
73 99 59
70 96 58
76 104 64
71 98 58
76 102 62
71 97 58
70 95 57
78 105 65
71 97 57
75 101 61
74 100 60
74 100 61
79 106 65
72 98 58
75 101 61
73 99 61
75 102 62
76 102 63
121 139 135
153 170 180
154 169 179
166 182 193
154 171 180
165 181 193
147 163 168
158 174 183
165 181 191
151 167 176
159 176 187
161 176 188
151 168 176
162 179 189
160 176 186
161 178 190
152 168 173
161 177 187
146 162 167
163 180 191
150 167 174
95 117 97
76 103 63
74 100 61
74 100 60
69 95 57
76 102 62
84 109 75
89 112 89
94 114 99
103 123 109
113 132 121
140 157 157
141 160 163
143 160 159
161 177 187
147 163 169
157 174 184
159 176 185
160 177 187
161 177 185
146 163 168
79 106 64
74 100 60
73 100 60
77 104 64
78 106 65
73 99 59
71 98 58
72 98 59
74 101 62
72 98 59
75 101 61
73 99 60
71 97 58
75 102 61
75 101 61
68 92 55
76 103 63
66 92 54
73 100 61
92 114 96
154 171 178
155 172 180
153 170 178
156 172 182
156 172 181
146 164 168
157 173 182
154 171 174
153 169 174
162 178 191
160 176 185
163 180 190
159 175 185
160 176 184
155 173 181
160 176 187
155 171 181
157 174 181
163 180 190
107 127 114
70 95 57
72 99 59
75 102 63
78 105 64
76 103 63
74 100 61
71 97 59
77 103 62
70 96 57
77 105 65
70 94 56
72 98 59
76 103 63
77 104 64
76 103 63
72 98 60
78 105 64
75 102 62
143 161 162
156 175 183
158 175 185
154 170 179
153 169 173
158 175 183
159 176 187
160 176 183
160 177 187
152 169 179
172 188 201
158 174 182
159 176 185
156 173 180
162 177 186
160 177 188
169 184 194
169 184 195
137 155 159
73 99 60
70 95 57
77 104 64
77 103 63
76 104 63
77 104 64
73 99 59
74 100 60
80 108 67
73 99 60
77 104 63
73 99 60
78 106 65
78 105 63
79 106 64
78 105 65
72 99 61
148 167 173
152 170 177
156 173 182
163 180 191
164 181 192
163 180 190
143 161 167
167 184 194
157 175 183
159 175 185
159 176 184
169 185 195
162 179 192
169 186 197
147 164 170
150 167 170
145 164 165
146 165 167
135 153 153
140 160 161
145 163 165
154 171 177
167 183 196
166 181 194
163 181 193
159 177 188
169 186 197
161 178 189
162 179 191
164 181 192
160 177 186
171 188 200
143 161 164
82 108 72
76 103 63
79 106 65
77 104 64
81 108 66
79 106 64
77 104 63
77 105 64
76 104 63
76 105 65
82 111 68
77 104 63
75 102 63
79 108 67
114 134 123
159 177 185
165 182 194
169 187 200
169 186 199
165 182 193
158 176 184
163 181 191
164 181 193
163 180 190
166 184 195
165 183 195
168 185 199
169 185 195
139 158 158
85 111 77
78 105 64
81 109 67
76 104 63
84 111 73
95 119 92
108 131 113
134 155 152
154 173 181
167 185 195
171 188 204
173 192 208
117 139 131
139 158 159
108 129 111
80 107 66
77 104 63
75 102 61
78 105 64
73 100 60
155 173 177
170 189 203
166 184 192
170 187 200
168 185 197
166 184 196
171 188 200
172 189 202
164 182 193
142 162 165
109 131 116
85 112 74
78 106 65
80 109 67
78 105 64
82 110 67
78 105 64
83 111 69
121 141 135
156 174 182
162 179 187
172 189 204
161 180 192
175 192 207
165 183 195
163 178 187
160 177 187
163 181 193
161 178 189
164 180 193
140 160 162
99 122 99
77 103 65
75 103 63
75 102 61
78 104 63
80 108 66
111 131 118
170 187 198
162 177 185
157 173 180
164 179 187
167 183 195
152 170 178
166 183 194
164 180 191
162 179 191
164 181 194
178 196 212
171 188 203
166 183 194
170 186 199
158 176 187
156 174 181
160 177 184
153 171 179
135 155 153
143 163 163
162 179 187
163 180 191
162 178 190
165 182 193
151 168 174
150 168 175
171 188 200
163 181 196
166 183 196
150 168 173
156 172 181
163 180 191
154 171 179
164 179 189
174 191 204
162 179 189
161 178 188
161 179 189
165 182 191
151 168 173
74 101 62
78 106 65
78 105 64
77 105 64
76 102 61
72 97 58
76 104 64
75 102 62
78 105 64
75 102 62
99 121 103
123 143 135
148 167 173
166 183 190
161 177 186
159 175 182
165 181 192
166 183 192
161 177 185
151 169 174
123 143 137
73 99 60
75 102 62
75 101 62
72 98 59
74 99 61
74 100 60
75 102 61
73 99 59
77 104 64
73 99 59
72 98 59
75 102 62
69 95 57
78 105 63
71 97 59
76 103 62
73 99 60
73 100 61
77 104 64
71 96 58
135 155 152
154 170 179
161 177 189
163 180 191
163 179 189
167 182 195
153 170 174
169 185 197
159 175 186
155 172 180
150 166 171
163 180 190
159 176 185
154 171 176
133 151 148
109 129 112
90 113 85
73 100 60
76 103 62
76 103 62
74 100 60
122 143 130
154 170 179
153 169 179
159 175 186
148 165 172
158 174 180
153 170 179
161 178 190
160 176 185
150 167 174
154 170 177
153 169 177
153 169 178
156 173 183
157 174 181
159 177 186
149 166 169
153 170 176
155 171 179
159 175 184
156 172 182
144 162 162
74 101 61
75 101 61
74 100 60
73 100 60
74 100 61
73 99 60
72 98 59
74 101 60
72 98 59
71 96 58
70 96 57
79 106 64
75 101 61
77 104 63
75 102 62
71 97 59
72 98 59
74 101 61
74 100 60
73 99 60
108 129 113
161 178 187
168 184 195
155 171 181
151 168 176
162 179 189
157 173 181
150 167 172
161 178 191
163 180 190
157 173 183
151 168 174
159 176 182
154 171 178
150 166 172
150 165 172
165 180 188
163 180 187
151 168 174
157 174 181
147 164 171
116 135 125
125 143 138
133 151 150
145 161 167
149 166 170
158 174 183
161 178 186
156 173 184
167 185 199
158 174 181
159 175 183
151 168 173
146 163 171
150 167 173
159 176 186
154 170 178
161 178 189
157 173 181
156 171 178
151 169 177
155 171 179
84 107 84
73 100 61
74 101 61
72 99 60
77 104 63
79 107 65
75 101 61
70 95 57
74 101 61
72 99 59
72 98 59
77 103 63
74 101 62
73 100 61
73 100 60
71 96 58
76 103 63
71 97 58
72 97 58
70 95 57
145 161 165
154 172 179
161 177 187
157 174 183
161 177 185
156 173 180
158 173 182
146 164 170
156 174 181
158 174 183
152 168 177
158 175 184
164 180 190
155 173 181
157 175 185
160 177 186
163 180 191
155 172 179
157 174 183
151 166 172
77 103 65
77 104 63
75 101 60
77 104 63
72 98 58
75 102 62
78 105 64
71 97 57
79 107 66
71 97 58
77 104 63
75 102 61
76 102 61
75 102 63
73 100 60
79 106 64
79 106 64
70 96 56
87 113 82
154 171 181
164 182 194
160 177 185
149 165 169
162 179 187
162 179 189
168 184 198
155 173 177
155 173 182
166 183 196
163 180 192
167 184 196
156 172 184
162 178 187
156 173 181
152 170 176
164 180 189
142 159 163
95 117 96
73 100 60
76 103 63
76 103 63
75 102 62
74 99 60
74 100 59
76 102 62
79 107 66
75 102 62
72 99 59
74 101 61
77 104 63
77 104 63
80 108 66
74 100 60
73 100 60
101 122 101
163 180 190
165 181 191
154 171 180
159 176 184
161 178 185
157 174 182
165 180 192
157 174 181
170 187 200
159 176 186
160 178 187
161 179 190
160 177 185
158 176 186
152 168 175
175 191 204
145 163 164
76 102 63
76 102 62
74 101 61
78 105 64
101 124 101
106 129 109
124 143 138
130 149 145
128 145 145
146 163 168
163 181 190
160 178 186
166 184 199
166 183 197
163 181 191
120 142 132
75 102 62
80 108 67
78 105 64
75 102 63
77 104 64
77 104 63
79 107 66
78 104 63
80 108 65
80 107 66
78 105 64
80 108 66
78 106 65
77 104 62
123 144 137
166 183 193
171 188 202
166 182 194
171 187 200
166 184 196
169 185 197
163 180 192
168 186 198
160 179 192
166 184 195
163 181 192
158 177 187
171 187 200
119 139 132
82 110 67
78 105 64
78 106 65
80 107 66
77 105 64
80 108 66
77 105 64
77 104 66
89 114 85
113 135 123
151 169 173
126 148 137
168 185 197
172 189 202
138 158 157
95 122 93
82 110 68
83 111 68
81 109 70
149 168 172
165 183 194
170 187 197
168 185 201
167 183 190
170 188 200
171 188 200
134 154 148
94 119 92
79 106 68
80 107 66
78 105 64
80 108 67
80 107 66
77 105 65
77 106 66
78 105 64
73 99 59
136 155 156
164 181 193
158 176 185
170 185 195
156 173 181
163 181 192
161 178 187
169 185 196
165 183 196
159 175 185
121 141 131
92 116 89
76 103 63
81 108 66
76 103 62
75 102 63
80 107 66
73 100 60
80 107 66
124 145 138
166 183 194
172 187 199
169 187 198
168 186 200
162 179 190
161 179 189
155 171 178
164 181 191
167 183 192
167 183 196
166 183 193
169 185 198
163 178 189
166 183 195
156 173 180
131 149 145
117 137 126
78 104 67
73 100 61
124 145 140
163 179 187
161 179 190
162 179 190
166 182 192
165 182 193
159 176 184
156 175 184
157 174 182
168 185 196
165 180 188
164 181 193
172 189 201
155 172 181
162 178 187
162 179 188
168 184 194
163 180 190
166 183 194
169 185 196
147 164 168
73 99 59
75 102 62
76 103 63
80 107 65
74 100 60
79 107 65
76 103 63
93 117 92
138 158 157
153 170 176
163 180 191
164 181 190
156 173 179
164 182 194
154 169 177
159 176 188
157 173 181
162 179 188
161 177 185
156 174 180
141 160 163
74 100 60
81 109 67
75 102 62
76 102 62
75 102 62
71 97 58
75 102 61
77 104 63
73 99 59
71 97 58
75 102 62
77 105 64
71 96 58
75 102 62
78 106 65
77 104 64
72 99 60
77 103 63
70 96 58
73 99 60
112 132 119
161 177 185
155 172 178
165 182 193
155 171 180
165 181 192
155 170 178
152 168 174
161 179 190
147 164 166
129 147 145
119 139 132
81 107 71
78 105 64
76 102 62
76 103 64
75 102 62
73 99 60
74 101 61
72 98 58
75 101 61
104 123 106
152 169 175
142 159 164
161 178 186
165 181 193
173 189 199
158 176 182
161 177 186
155 170 176
155 171 179
166 182 193
149 165 169
149 166 171
148 164 170
157 173 183
165 182 192
146 163 166
159 176 184
165 181 192
160 176 185
155 172 179
149 165 172
73 97 61
74 100 60
74 101 61
77 104 63
72 98 59
76 102 62
74 101 61
69 95 57
78 105 64
73 99 59
72 98 59
73 100 60
73 98 60
73 99 59
77 104 64
76 102 62
73 99 60
75 102 62
78 106 65
77 103 63
70 95 56
153 169 178
154 171 178
162 179 189
149 167 174
149 165 172
160 177 186
167 184 194
160 177 185
152 168 176
154 171 179
159 176 185
156 173 181
144 161 163
128 147 145
112 131 122
112 134 122
96 119 97
82 107 73
73 99 60
73 100 60
79 105 70
160 176 186
158 175 182
159 175 182
151 167 172
160 176 186
153 169 175
172 188 202
162 179 190
166 182 192
160 177 187
153 168 173
158 175 185
149 167 174
149 166 174
158 176 186
161 178 188
160 175 185
163 180 191
171 188 201
156 172 175
124 142 138
76 103 63
79 106 64
80 107 66
75 102 62
77 104 64
77 104 64
71 97 57
73 98 60
72 98 59
71 97 58
74 101 60
69 95 58
74 100 60
77 104 63
77 103 62
73 99 59
68 92 55
71 97 58
71 97 58
104 125 110
155 171 179
162 177 185
158 175 182
154 170 176
157 173 181
162 179 189
160 175 185
156 173 179
149 167 175
151 167 173
158 175 184
157 173 181
153 170 177
157 173 181
157 173 179
165 181 190
160 177 187
156 172 180
145 163 165
115 136 123
73 100 61
76 103 63
76 102 61
73 98 59
76 103 62
75 102 63
73 99 60
71 97 58
77 103 63
73 99 60
70 96 57
75 102 62
74 100 61
78 105 65
75 102 62
70 96 58
75 102 63
73 100 60
110 131 116
174 191 205
153 170 176
162 178 188
164 181 189
161 177 186
161 178 186
170 186 199
152 169 177
163 180 192
161 178 190
159 175 185
160 176 186
169 187 198
162 178 187
167 184 194
165 182 193
161 176 183
137 156 158
81 107 68
76 102 63
74 100 60
73 100 60
77 105 64
74 100 61
79 107 66
75 102 62
73 100 60
71 97 59
71 97 57
76 103 62
80 107 66
73 99 59
76 102 62
74 101 61
78 106 64
133 152 146
154 170 175
160 177 185
160 178 187
162 179 188
161 178 186
161 178 189
157 176 187
159 176 183
156 172 182
171 187 199
161 179 189
159 177 186
161 178 188
156 172 181
163 181 191
162 178 187
125 145 136
78 106 65
76 103 62
74 100 61
79 107 66
76 103 62
72 98 58
78 105 64
78 106 65
75 102 61
74 101 61
87 113 84
100 124 100
114 135 124
124 143 139
141 160 159
92 115 91
83 109 71
81 107 71
75 103 64
79 106 64
73 100 60
79 107 65
72 98 58
78 106 64
83 111 68
79 106 65
75 101 61
79 107 66
78 105 65
87 114 80
140 158 158
167 183 193
165 181 190
172 190 205
157 173 182
171 188 202
148 167 171
170 187 199
173 191 206
166 184 197
168 186 200
164 181 192
157 175 183
160 178 190
106 129 111
76 104 63
78 105 64
79 107 65
76 104 64
76 104 64
79 107 66
82 111 69
96 120 94
133 154 152
161 180 193
155 173 181
178 195 210
172 190 205
167 185 198
152 169 174
132 153 145
83 110 70
76 102 65
149 166 172
167 185 198
160 178 189
169 187 200
159 177 185
125 145 138
84 109 77
76 103 62
80 107 65
74 101 61
78 105 64
76 103 62
81 109 66
76 103 63
82 111 69
75 103 63
78 106 65
78 106 64
135 153 152
161 179 189
162 180 190
166 183 196
162 179 189
161 179 186
156 174 184
144 162 162
106 129 110
80 105 72
75 103 62
79 107 65
75 102 62
76 104 63
78 106 65
78 105 64
73 100 60
80 109 67
72 99 59
110 131 116
174 191 203
169 186 200
162 180 192
158 176 185
167 184 196
173 191 206
153 170 178
152 170 178
159 176 187
163 180 192
157 175 180
153 168 178
153 171 177
114 135 124
90 115 86
80 108 66
77 105 64
78 106 65
80 108 66
120 140 131
153 172 179
167 184 198
162 179 190
157 174 182
169 186 197
156 174 183
160 177 187
172 189 203
166 183 195
168 185 198
156 173 183
166 183 193
159 174 183
172 188 200
161 177 185
167 184 199
162 179 190
158 176 186
156 172 179
163 180 189
77 103 63
75 103 62
76 103 62
75 101 67
102 124 103
134 152 147
166 182 190
171 188 199
159 176 186
158 175 180
155 172 180
158 175 184
158 174 182
156 172 181
166 183 194
165 182 195
166 181 194
150 167 175
168 185 196
165 182 194
146 165 170
72 98 58
76 102 62
77 104 63
74 101 61
74 100 61
80 107 66
73 100 60
73 100 59
76 103 63
74 100 60
74 100 61
73 100 60
72 98 59
81 110 68
70 96 58
73 99 60
74 100 60
76 103 63
76 103 62
73 99 60
102 124 107
156 174 182
163 181 192
160 177 190
168 184 197
152 170 176
129 146 144
113 134 120
81 105 74
73 99 61
76 102 62
75 102 62
73 100 60
79 106 65
74 100 61
77 104 64
74 100 60
75 102 62
77 103 63
74 100 61
74 100 61
74 101 60
151 170 177
164 182 194
157 174 183
159 174 184
156 172 181
163 178 189
155 172 181
159 175 183
157 173 182
158 175 183
163 180 192
163 179 188
151 168 175
159 176 184
156 172 180
165 181 192
159 176 184
156 172 180
159 175 182
158 174 184
154 171 179
106 127 113
72 98 59
74 101 62
76 102 62
79 106 65
75 101 60
71 97 59
78 105 64
75 101 61
76 103 63
75 102 62
77 104 63
72 98 58
72 98 59
71 97 58
75 101 61
70 95 57
74 101 60
73 99 60
77 104 64
76 103 64
131 149 145
160 178 190
161 178 185
155 171 180
155 173 179
147 165 168
141 159 162
108 129 115
104 125 108
95 116 98
84 109 74
73 99 59
77 104 63
72 98 59
76 102 61
72 98 59
70 95 58
73 100 61
74 101 61
68 92 54
73 99 59
134 153 154
165 182 194
154 171 180
160 177 187
160 177 187
162 179 189
155 172 182
155 171 178
158 175 184
164 181 191
163 179 186
159 175 184
160 177 186
170 185 196
158 175 183
153 170 179
161 177 187
161 176 185
162 178 188
151 168 172
150 166 172
77 103 66
77 104 63
75 101 61
76 103 63
72 98 59
68 94 56
79 106 64
72 98 59
80 107 66
73 99 59
77 103 63
72 97 59
76 103 62
69 94 55
70 96 57
76 103 63
76 103 63
78 104 64
69 95 57
78 105 64
154 171 177
166 183 193
154 172 182
157 174 184
156 174 180
158 175 184
150 168 177
168 185 197
159 175 186
157 174 184
160 177 186
159 176 185
148 166 172
161 176 184
167 183 194
162 178 185
158 175 186
160 177 185
161 177 186
138 158 160
79 105 67
77 104 64
75 101 62
76 102 61
81 109 67
74 101 61
72 97 58
79 105 65
72 97 59
74 101 62
81 109 67
75 102 62
80 107 66
76 103 62
72 98 60
80 108 67
78 105 64
76 103 63
91 114 88
156 173 180
146 164 170
161 178 188
168 184 196
163 180 190
163 179 190
155 172 176
157 175 182
173 190 204
158 175 184
157 174 182
163 181 192
171 187 202
167 185 196
161 179 190
166 183 197
152 169 176
161 178 188
110 131 122
76 104 63
71 98 60
81 109 67
75 101 62
76 103 63
76 103 63
74 101 61
76 103 62
77 105 65
74 100 61
77 105 64
78 105 64
75 102 62
76 103 63
80 107 65
74 102 61
83 108 76
152 170 176
165 182 191
160 177 186
155 173 179
167 184 197
160 177 186
160 177 187
163 179 192
160 177 183
161 179 187
167 185 198
157 173 180
165 181 194
170 187 200
164 181 193
158 175 183
163 180 190
82 106 75
72 98 59
71 99 60
80 109 67
75 103 63
77 104 64
76 103 63
74 101 61
77 104 63
76 104 64
80 108 66
78 105 65
77 104 63
75 102 61
78 105 64
94 120 93
155 172 179
152 170 177
141 160 160
128 147 142
104 126 110
101 127 103
87 112 79
77 104 63
73 100 60
73 101 61
77 104 63
77 104 63
73 100 61
77 105 64
88 112 83
158 176 184
160 176 188
162 179 189
168 185 197
175 193 207
154 172 179
164 181 190
168 184 197
169 185 196
169 186 197
167 184 194
167 184 195
161 178 187
159 177 187
98 122 93
77 105 65
80 108 66
77 106 65
76 104 63
78 104 67
122 142 131
162 180 189
165 182 192
166 184 196
163 181 192
171 189 203
173 191 207
176 192 207
164 182 191
163 181 192
157 175 181
117 139 127
162 180 193
181 199 218
154 172 179
119 140 130
83 110 70
83 112 69
81 109 67
78 106 65
80 109 67
78 106 66
82 111 69
78 107 65
75 102 62
77 104 64
83 112 70
80 107 66
84 112 69
80 108 66
142 160 163
156 175 184
170 187 200
167 184 194
151 170 173
126 148 139
88 115 80
77 104 63
82 110 68
80 108 66
76 103 62
81 108 67
76 103 62
81 108 66
79 107 66
76 103 63
79 107 66
81 110 67
77 105 64
109 130 116
161 178 188
163 180 191
167 183 196
150 167 174
162 179 189
161 178 186
168 185 195
157 175 183
162 179 188
152 169 176
127 146 144
95 120 93
80 108 69
79 106 66
75 101 61
75 102 61
81 109 67
75 101 61
75 102 62
121 142 131
158 176 187
163 180 191
159 176 184
163 179 190
164 182 194
160 177 187
165 181 192
172 188 202
160 178 188
165 182 193
162 178 185
166 183 194
160 177 187
163 180 191
159 176 183
170 186 196
160 177 186
173 190 203
166 184 194
167 184 195
82 108 71
112 132 120
135 153 154
151 169 177
152 169 175
172 189 202
167 185 199
159 176 185
165 182 193
167 183 195
172 189 204
164 182 194
158 174 181
156 173 179
158 176 186
156 174 182
164 180 189
159 176 185
168 187 199
158 174 181
159 177 185
80 108 67
78 106 64
80 107 65
74 102 62
76 103 64
77 104 63
76 102 62
78 105 64
74 101 61
77 105 64
76 103 63
74 101 61
73 99 60
76 103 62
77 104 63
78 105 64
74 101 61
75 101 62
81 109 67
75 101 62
80 107 65
147 164 168
135 154 151
121 141 134
86 111 76
80 108 67
76 102 62
76 103 63
73 100 60
77 104 63
78 106 65
73 99 60
74 100 60
70 96 57
76 103 63
76 103 62
77 103 62
70 95 57
71 97 58
70 97 57
77 103 63
74 100 61
133 152 152
154 171 175
161 177 188
153 171 176
154 169 177
163 179 191
164 180 189
153 170 179
150 169 176
153 170 176
162 179 189
160 177 186
166 183 193
147 163 170
154 171 179
144 161 165
156 174 183
145 163 169
161 177 185
161 177 186
165 181 193
137 155 155
76 102 62
70 96 57
70 96 57
72 99 59
71 97 58
77 103 62
75 102 61
76 103 62
72 98 59
71 97 58
75 102 62
73 100 61
74 101 61
75 102 61
79 107 66
72 99 60
72 98 59
78 106 65
88 113 79
88 109 89
125 144 139
125 145 135
109 132 117
102 123 106
81 107 71
71 98 59
74 100 60
77 103 63
75 102 62
75 102 61
78 106 64
78 105 63
68 94 55
73 100 60
75 101 61
75 102 62
76 102 62
72 98 59
75 101 61
78 106 65
75 101 61
101 122 106
161 179 189
157 174 184
150 167 174
157 175 186
151 168 173
168 184 197
165 181 192
156 173 181
160 176 183
160 178 187
160 177 187
158 175 183
160 177 184
168 185 196
151 166 175
166 183 192
158 175 186
161 179 191
158 175 186
164 180 187
124 144 133
78 107 66
78 105 64
76 103 62
75 101 62
73 99 59
78 106 65
75 101 62
74 101 60
72 98 59
78 105 65
77 103 63
70 96 57
69 94 55
79 105 64
75 102 62
76 102 62
71 96 58
70 96 57
75 101 62
106 126 113
158 174 183
162 178 188
157 174 184
159 176 185
159 177 188
153 170 175
161 178 187
161 178 189
162 179 189
153 170 178
165 182 193
164 179 188
158 175 183
159 175 184
163 180 189
165 181 191
159 175 184
172 188 203
162 178 187
114 134 124
74 100 61
71 96 57
78 106 64
75 101 62
77 104 64
76 103 63
75 102 61
76 104 63
75 102 62
77 104 63
78 104 64
80 108 67
77 105 64
76 102 62
76 103 62
76 103 63
75 102 61
74 101 60
121 140 131
162 179 188
160 176 185
161 178 189
153 171 179
165 181 192
158 174 182
164 180 190
160 177 186
163 179 189
161 180 191
167 184 196
166 185 197
168 185 198
161 178 187
148 165 170
163 179 190
156 174 182
156 174 182
72 98 59
76 102 62
76 104 63
73 100 60
75 101 61
73 99 59
77 104 64
78 105 64
76 103 62
76 103 63
75 101 61
71 97 58
77 104 64
81 109 67
75 102 61
75 102 61
76 104 63
108 131 111
169 186 197
167 182 194
166 183 195
170 187 199
161 178 189
166 184 195
165 182 193
158 176 187
160 178 188
163 180 190
163 180 190
163 180 191
164 180 188
161 178 187
162 179 192
161 178 188
130 150 146
80 106 65
72 98 59
79 106 65
72 98 59
70 95 57
77 105 65
78 106 65
76 103 63
77 104 63
76 103 62
79 107 65
76 103 63
76 102 62
78 106 65
79 107 66
109 129 117
158 177 188
177 194 208
166 182 191
154 172 176
167 184 194
168 186 199
158 175 183
145 164 163
128 149 144
117 139 125
95 120 94
78 105 67
81 108 66
80 108 67
91 115 90
168 185 198
158 176 182
166 184 195
170 189 201
162 179 190
163 180 190
167 183 193
159 177 186
163 182 192
170 188 202
160 178 189
168 186 199
168 186 197
152 171 177
89 114 85
79 107 65
82 109 70
116 138 124
145 164 168
166 184 195
172 188 202
167 185 200
171 188 202
163 181 195
161 178 188
175 193 205
167 185 197
168 186 199
164 180 190
168 186 200
163 181 189
128 149 143
133 153 151
82 109 73
81 109 66
77 104 63
80 109 67
77 104 63
74 101 61
80 108 66
79 107 66
78 105 65
77 105 64
78 105 65
77 104 63
78 105 65
80 108 66
79 107 65
79 107 65
144 162 164
169 187 200
152 171 175
112 134 120
82 108 71
74 100 60
75 101 62
74 101 61
78 105 65
80 108 66
74 101 60
76 104 63
79 108 65
77 104 63
79 106 64
77 104 64
75 102 61
79 107 66
78 106 65
109 131 114
166 184 196
172 190 204
161 179 188
160 178 190
159 177 187
166 182 194
170 187 200
149 169 174
100 122 106
77 104 64
81 109 67
78 106 65
69 95 57
78 105 64
79 107 65
79 106 65
78 106 65
78 105 64
78 105 65
112 133 118
155 171 180
168 185 197
148 166 173
161 178 188
172 189 203
159 177 187
166 182 192
165 182 196
170 186 198
162 178 188
166 182 193
164 182 195
172 189 203
168 185 195
167 184 195
170 187 200
153 171 178
167 184 196
134 152 152
114 135 121
147 165 169
158 174 180
158 175 183
168 185 200
161 178 190
164 180 193
167 184 196
160 177 188
149 166 172
155 172 180
160 178 189
169 186 197
154 171 179
167 184 196
166 183 195
157 174 182
150 167 174
176 193 208
159 177 188
163 181 194
162 179 189
99 121 98
77 104 64
77 104 63
76 104 63
80 108 66
76 103 63
77 104 63
75 102 63
79 107 64
78 105 64
76 103 63
81 109 67
73 100 59
78 105 64
73 99 60
76 103 62
76 103 62
87 111 83
105 126 107
127 147 142
153 171 178
111 132 119
78 105 65
78 105 64
72 97 58
78 105 64
76 103 63
77 104 63
77 104 63
77 104 64
76 102 62
73 99 60
72 99 59
73 98 59
77 103 62
76 102 63
73 99 60
75 102 62
75 102 62
73 99 60
76 103 62
73 99 59
117 136 131
155 173 180
154 171 179
169 185 198
161 178 189
158 174 183
162 179 189
157 174 181
156 173 183
161 177 187
159 175 183
160 178 187
160 177 188
162 178 189
155 171 179
163 177 187
156 172 177
157 174 183
174 191 202
155 173 181
161 177 189
146 165 168
74 101 61
72 98 60
76 103 63
81 108 67
77 104 63
76 103 62
78 106 65
72 98 59
76 103 63
73 99 59
76 103 63
73 100 60
72 97 61
108 126 114
113 134 121
122 140 134
127 145 142
142 159 162
152 169 177
163 180 192
153 170 178
86 110 80
73 99 60
74 100 60
74 100 60
75 102 62
75 101 62
78 104 64
74 100 60
74 100 60
79 106 65
76 104 63
72 98 59
83 111 69
70 96 57
74 101 61
74 100 60
77 103 64
75 101 62
75 101 61
73 99 60
71 96 57
151 169 175
154 172 179
165 181 188
169 186 198
149 166 170
161 177 188
152 169 176
160 177 187
167 184 197
162 178 188
153 169 175
157 173 179
161 178 186
163 179 189
154 170 180
157 175 185
147 164 169
156 174 184
162 178 190
157 175 182
146 163 166
77 104 64
77 105 63
75 102 63
75 102 62
74 101 61
75 100 61
76 103 63
74 100 61
73 99 60
70 96 57
76 103 63
79 107 65
74 101 62
73 100 60
75 102 62
74 99 60
76 102 62
76 103 63
71 96 58
83 109 75
163 179 188
153 171 179
159 176 185
155 171 180
159 175 183
162 179 190
163 179 189
159 175 181
160 177 183
157 175 183
168 184 196
161 178 186
156 174 183
157 174 183
159 176 188
156 174 184
159 175 185
150 168 176
157 175 184
157 174 184
76 103 62
74 100 60
76 103 63
73 99 59
72 98 58
74 101 62
79 106 64
75 102 62
77 104 64
77 104 64
75 102 63
72 98 59
77 103 63
76 103 62
81 109 67
74 101 61
76 103 62
74 101 61
81 107 70
166 183 193
163 180 192
165 182 190
165 182 196
163 181 192
173 190 203
155 173 182
164 182 194
171 187 199
158 175 185
167 183 195
167 185 196
157 174 184
170 187 200
157 173 181
166 183 196
162 179 189
161 177 187
134 154 151
79 107 66
72 97 58
77 104 63
75 102 62
77 104 63
80 107 65
77 105 65
76 103 63
75 102 62
75 102 61
75 102 61
75 103 63
71 97 58
74 100 60
78 105 65
77 105 64
74 102 62
139 158 159
162 178 188
169 185 196
159 177 187
160 177 185
162 179 188
161 178 187
166 183 193
161 179 189
169 185 198
157 174 181
162 178 190
163 182 195
169 187 199
171 188 200
158 175 183
153 170 177
114 135 125
75 101 61
79 107 66
74 101 61
79 107 66
80 108 66
79 107 67
74 101 61
77 105 64
75 102 62
78 105 64
74 101 61
76 103 64
76 104 63
76 104 64
76 103 62
143 162 164
167 185 198
161 178 189
154 172 181
163 180 190
164 179 189
167 183 194
171 190 205
159 178 189
170 187 201
174 191 203
162 180 189
138 157 155
131 152 147
109 130 115
152 170 174
167 184 196
166 182 192
166 184 193
161 178 188
160 178 188
163 181 191
163 179 191
163 180 191
171 189 202
175 192 207
166 182 191
173 190 205
159 177 186
147 165 171
118 141 131
146 165 169
159 175 184
180 196 209
170 188 203
167 185 197
171 190 206
171 186 197
165 184 198
166 184 196
162 181 192
171 189 203
166 183 194
165 183 191
141 161 159
116 137 129
168 185 198
169 187 199
143 163 164
111 135 120
82 110 68
79 107 66
78 106 65
79 107 66
79 106 64
77 105 65
78 107 66
79 107 66
80 109 67
81 109 67
84 113 71
78 106 65
76 104 64
91 117 86
113 133 123
98 123 102
77 104 63
79 107 65
77 104 64
79 106 64
83 112 70
82 111 68
74 102 61
76 103 63
76 104 64
79 106 65
81 109 67
78 106 64
78 105 64
81 110 68
76 103 63
79 107 65
80 107 66
119 141 129
165 182 194
162 179 189
171 187 200
164 181 191
149 168 176
122 142 134
85 112 80
79 107 65
78 106 66
78 106 65
76 102 62
74 100 60
80 108 66
75 103 63
79 106 65
73 100 59
77 105 64
74 101 61
79 106 64
101 125 106
173 189 203
167 183 195
156 173 179
166 182 194
166 183 193
172 188 198
165 182 192
163 181 193
156 174 185
159 176 184
165 182 193
170 187 198
160 177 187
163 181 192
161 178 187
130 150 145
116 137 129
91 118 87
76 103 62
74 100 61
143 161 164
172 188 204
159 176 183
164 181 193
163 180 190
160 176 182
156 173 182
161 178 188
170 188 203
159 176 187
170 186 195
173 189 205
161 179 189
167 184 197
169 185 197
169 186 198
162 180 189
170 187 199
170 187 198
169 186 199
174 191 204
97 119 95
76 103 63
76 104 63
76 102 62
72 98 59
78 105 64
75 102 62
70 96 57
76 104 64
76 102 62
75 101 61
77 104 64
74 100 60
76 103 62
103 125 107
124 144 136
148 167 172
159 176 186
160 177 187
147 164 170
172 188 200
114 135 125
75 102 62
76 103 63
75 102 62
74 100 61
72 98 59
77 105 64
70 96 57
69 95 56
68 93 56
74 101 61
76 102 62
71 97 59
72 98 60
78 106 65
71 96 58
78 106 64
76 103 62
79 106 64
74 101 61
73 99 59
100 123 104
152 168 174
157 174 185
159 176 189
157 173 178
164 181 192
156 173 182
160 177 188
166 183 195
158 174 185
160 178 189
164 180 191
154 171 179
163 180 189
162 178 188
156 172 180
155 170 178
165 182 193
160 175 183
169 185 196
163 179 187
156 173 180
101 122 104
69 95 56
78 106 64
77 104 64
76 103 62
74 101 61
76 102 62
86 110 81
105 127 106
127 146 141
134 152 151
149 167 171
159 176 186
169 186 197
154 171 176
156 173 178
152 170 176
159 176 185
158 173 179
155 172 178
162 179 190
122 141 136
71 97 58
73 99 60
75 102 62
73 99 59
78 105 65
76 103 62
77 104 62
77 104 63
79 106 64
77 104 63
75 102 62
78 105 64
72 98 59
80 108 67
76 103 63
79 107 66
75 102 61
77 103 63
75 101 62
80 108 66
135 154 155
153 170 179
161 177 187
148 166 169
160 176 186
166 183 196
157 173 182
163 178 186
161 178 190
158 176 185
149 165 171
153 170 176
152 168 172
164 181 192
149 167 171
161 177 186
156 173 184
161 178 188
166 183 193
151 167 174
155 171 180
85 108 81
72 98 59
73 99 60
74 101 62
80 108 66
78 105 64
75 102 63
75 101 61
72 98 59
79 107 66
78 105 64
78 106 66
74 99 60
71 97 57
74 100 60
72 99 59
80 107 65
73 99 60
77 104 64
75 101 61
127 145 139
166 182 191
163 180 190
155 172 177
156 173 181
166 183 194
173 189 202
156 173 181
150 167 173
165 183 194
175 191 204
158 174 182
165 180 188
160 178 188
154 171 180
163 179 188
163 179 186
156 173 181
165 181 192
149 166 175
109 130 117
74 100 61
80 108 66
73 99 60
76 102 62
73 99 60
74 100 60
74 101 62
77 105 65
74 101 62
76 103 63
74 100 60
80 107 66
76 103 63
77 105 65
74 101 60
76 103 62
79 107 66
78 105 64
120 141 131
157 174 183
161 178 190
163 181 192
167 184 197
159 177 187
162 179 186
158 174 182
166 183 196
155 172 180
164 182 193
157 174 181
161 178 189
170 187 199
162 179 189
167 183 195
170 186 197
164 181 190
167 184 197
101 124 102
76 103 63
77 104 63
72 98 60
73 99 59
79 106 65
79 107 66
79 107 66
79 107 65
73 99 60
79 106 65
77 105 64
80 107 65
73 100 60
76 103 62
76 103 62
74 101 61
94 118 94
154 173 180
167 184 197
159 176 188
159 176 185
164 181 193
167 185 196
173 190 204
174 192 207
166 184 195
164 181 192
155 172 181
162 180 192
158 175 183
167 184 195
167 185 198
155 172 180
157 175 183
85 110 81
77 104 63
75 102 63
82 111 69
74 102 62
78 105 64
79 106 65
77 104 63
74 102 63
77 104 64
78 105 64
83 111 68
78 106 65
78 105 65
75 103 63
80 104 73
148 166 170
171 187 198
164 181 191
160 177 188
163 180 191
168 185 198
167 185 198
161 178 188
164 182 194
158 175 184
169 186 198
170 188 200
163 179 190
161 179 188
159 177 186
118 138 129
109 131 113
141 159 158
148 167 169
151 168 175
173 190 204
171 188 201
171 187 199
151 168 173
168 186 199
170 187 199
171 189 203
143 162 162
106 129 112
130 150 146
174 191 206
173 190 203
165 183 196
163 181 192
172 190 203
171 189 203
175 193 208
167 186 199
172 189 202
172 191 204
160 178 189
148 168 174
93 119 90
84 112 70
109 131 113
171 187 197
174 191 203
168 185 199
172 188 201
159 176 181
121 143 136
83 110 74
81 110 68
81 110 68
79 107 66
77 104 63
81 110 68
82 110 67
79 107 66
79 107 66
94 119 90
126 145 138
163 180 190
105 126 108
78 105 65
82 110 67
81 108 66
78 106 65
77 104 63
77 104 64
77 105 64
83 111 69
81 110 68
82 111 69
74 100 61
79 107 66
77 104 62
79 106 65
81 109 68
75 102 62
78 106 64
81 110 68
119 139 129
171 188 200
158 176 185
137 157 156
102 125 102
81 109 67
80 108 67
82 110 68
81 109 67
74 100 60
76 103 63
79 107 66
76 102 61
78 105 65
79 107 66
78 105 64
79 107 65
77 104 64
77 105 65
76 103 63
109 130 116
157 174 183
172 189 201
166 181 191
165 182 192
165 181 193
161 179 190
172 189 202
171 187 197
159 178 189
168 186 199
165 182 193
162 179 189
145 164 163
115 136 126
84 110 75
75 102 62
77 105 64
78 106 64
77 104 64
77 104 63
139 156 156
171 187 199
162 179 188
161 178 188
154 171 181
156 173 180
166 184 196
171 187 199
174 190 203
167 183 194
159 176 186
170 187 198
165 183 194
164 179 188
164 180 192
157 174 183
166 183 198
179 197 213
157 175 184
160 177 186
154 171 179
120 140 132
73 100 61
76 103 63
74 100 60
74 101 60
75 102 63
77 104 64
75 102 62
75 101 61
76 103 63
86 111 83
118 137 125
132 150 151
154 171 177
153 171 178
165 181 191
166 183 194
155 174 182
156 173 181
158 174 184
156 174 183
137 155 155
71 97 57
73 99 59
74 101 61
79 106 65
75 101 61
72 98 59
74 101 61
75 102 62
76 103 62
70 95 57
77 104 63
73 99 60
77 105 64
74 100 60
76 103 63
72 97 58
74 101 61
74 101 61
74 101 61
75 102 63
72 97 59
161 178 185
163 179 190
154 171 178
172 188 200
152 170 179
167 183 195
159 175 182
157 175 185
159 175 183
159 176 188
162 178 187
164 181 192
155 171 179
166 184 196
159 175 182
159 176 184
159 175 183
163 181 189
155 173 181
156 172 180
171 187 200
112 133 124
71 97 57
95 118 94
105 126 112
123 142 134
143 159 161
154 173 180
166 182 195
166 182 193
155 172 179
164 180 187
152 171 178
165 182 193
155 171 179
161 179 188
158 174 181
158 175 185
156 173 181
162 180 190
160 177 186
154 170 178
146 164 168
74 101 61
77 105 64
75 102 62
75 102 63
76 102 63
70 96 57
69 95 55
73 99 60
68 93 56
76 103 62
77 104 63
73 100 60
75 101 62
73 100 59
76 102 62
78 105 63
75 101 61
74 100 61
74 100 60
78 106 66
90 113 89
166 181 192
161 178 189
169 185 197
157 174 182
157 175 185
152 169 176
155 172 178
162 180 191
166 184 197
153 169 174
165 181 191
158 175 183
157 174 182
153 170 177
158 175 184
158 174 179
156 172 179
158 176 186
149 167 171
156 174 183
134 152 152
72 99 59
75 101 61
78 105 64
72 99 59
73 99 59
76 102 62
73 99 59
74 101 62
74 100 61
72 97 58
74 100 60
73 99 60
72 98 59
78 105 65
77 105 64
78 105 64
77 104 63
77 105 64
76 103 62
81 107 74
158 175 183
165 181 193
166 182 192
172 188 201
165 182 193
166 181 191
161 178 189
165 181 191
170 187 200
160 178 191
156 173 181
165 182 193
170 186 200
158 174 183
147 165 167
162 179 190
168 183 194
154 171 179
168 184 197
152 170 178
73 99 59
77 104 63
77 104 63
75 102 61
72 98 58
78 106 65
74 100 61
77 104 64
75 101 61
77 104 63
77 104 63
75 102 62
75 102 62
74 100 60
78 105 64
72 99 59
76 103 62
77 104 64
81 107 69
154 173 182
165 182 192
152 170 176
166 183 193
169 186 202
162 178 187
169 185 195
159 177 187
163 181 191
170 185 198
161 179 190
158 175 182
161 178 188
176 194 209
157 174 182
172 189 201
168 186 196
163 180 191
142 159 162
75 101 61
78 105 64
74 101 62
75 100 60
74 101 62
75 103 63
77 105 64
79 106 65
74 100 60
74 101 61
80 108 66
80 108 67
76 102 62
77 105 64
77 105 64
76 104 63
75 102 62
125 146 138
171 187 200
165 182 191
156 174 183
167 184 197
169 186 197
166 183 193
161 179 191
161 179 189
164 182 193
168 185 196
160 177 188
158 176 189
166 183 194
163 179 188
159 177 185
161 178 188
139 157 158
76 102 63
77 104 63
78 105 64
78 105 64
77 104 64
76 104 63
74 100 60
76 104 63
77 105 64
79 108 66
77 104 64
78 106 65
79 107 65
78 107 66
77 103 64
110 132 117
159 177 186
153 171 178
163 179 192
170 188 203
167 184 195
167 184 195
167 184 197
165 183 192
165 183 194
174 190 202
168 186 199
166 182 193
158 175 182
169 186 198
158 176 186
88 115 84
75 102 62
80 108 67
79 107 65
100 123 101
111 133 122
131 151 145
149 167 175
167 184 196
139 157 157
109 131 114
74 101 61
80 109 68
82 110 73
149 169 174
169 186 196
166 182 192
170 186 195
171 188 200
167 184 195
178 196 212
169 187 200
169 186 197
138 157 157
92 116 90
78 106 64
79 108 66
76 104 63
127 147 142
176 192 203
169 187 199
162 179 190
173 190 206
167 184 198
170 187 197
160 178 186
117 140 125
79 107 68
75 101 61
81 110 68
82 111 69
78 105 64
103 127 105
148 165 168
171 189 203
166 183 193
163 180 191
92 117 89
82 111 68
79 107 65
80 107 66
78 105 64
73 99 60
80 108 68
77 105 64
83 111 69
81 109 67
80 108 66
81 109 66
81 109 67
80 108 66
77 104 63
81 110 68
78 106 65
76 103 63
77 103 66
123 144 134
131 149 146
76 104 64
76 104 63
78 105 64
81 109 67
77 106 65
80 107 66
79 107 67
76 104 63
79 107 65
76 102 62
81 110 68
80 108 67
78 105 64
81 109 67
78 104 64
77 104 64
78 106 65
78 105 64
90 113 87
171 187 198
169 186 198
163 180 189
159 176 184
174 190 202
164 180 189
155 171 182
159 177 185
163 179 187
159 177 183
124 145 139
88 112 83
79 106 65
78 106 64
78 106 64
79 106 65
78 105 64
73 100 61
78 105 64
81 109 67
127 146 140
166 183 195
166 183 194
155 169 177
166 181 193
174 191 204
171 188 202
169 185 196
167 183 194
167 184 197
165 182 193
168 186 199
170 187 200
161 177 188
163 179 190
161 176 183
166 183 195
162 178 188
151 168 171
168 186 199
159 175 186
135 154 155
79 107 65
69 94 56
79 106 65
77 103 62
79 107 66
82 108 72
104 124 109
127 146 142
154 171 177
158 175 185
150 166 172
157 173 180
171 187 202
160 178 190
159 175 183
169 186 197
167 184 196
163 179 190
162 178 186
162 179 188
160 177 184
78 105 65
76 103 63
76 103 63
75 102 61
72 98 58
71 97 58
74 101 62
76 103 62
74 101 61
75 102 62
78 105 65
77 103 63
74 100 61
77 103 63
75 102 62
72 98 59
72 98 59
77 104 63
82 109 67
80 106 65
75 103 62
142 159 162
157 175 184
167 184 196
164 180 190
162 178 189
159 176 185
154 171 180
164 180 190
167 184 196
157 174 183
158 175 184
167 183 195
166 182 194
159 176 185
158 175 186
163 180 189
155 172 182
155 173 180
153 170 178
133 150 145
133 151 149
121 142 132
145 162 169
154 171 179
153 170 178
158 176 184
154 170 178
164 180 191
163 181 191
161 179 187
165 181 193
160 176 184
159 175 182
165 181 190
147 164 167
162 178 189
157 173 179
150 168 176
161 177 186
156 173 184
161 177 184
160 176 183
150 167 173
94 117 93
76 103 62
79 107 65
77 105 64
76 102 62
75 102 63
75 101 62
74 100 61
78 105 64
72 99 60
79 106 65
74 100 60
77 104 63
74 100 60
74 100 60
77 104 63
74 101 61
77 104 64
75 101 61
73 99 60
75 102 63
146 163 165
158 174 182
150 166 173
162 179 189
159 178 186
160 177 187
154 172 182
166 184 194
160 177 187
161 178 189
154 171 180
161 178 186
170 185 197
163 181 192
155 171 176
165 181 190
157 173 179
157 174 185
162 179 184
154 171 177
159 177 185
93 117 90
75 103 62
73 99 59
72 99 60
72 98 58
77 104 63
74 100 61
74 102 62
77 105 65
78 106 65
76 103 64
78 105 65
73 100 60
76 103 63
74 100 60
77 104 64
75 103 63
71 99 60
73 99 59
76 102 62
127 146 142
151 169 176
159 175 185
160 177 184
172 188 199
161 177 186
164 181 192
162 179 188
166 183 194
153 170 176
168 185 197
156 174 182
160 177 188
174 190 204
150 167 173
160 178 187
158 176 185
161 177 189
164 181 191
163 179 189
112 133 119
72 98 59
74 101 62
73 99 59
73 99 60
76 102 62
73 99 59
79 107 66
77 104 64
77 103 62
76 103 62
79 107 65
78 106 64
84 112 69
77 104 63
73 98 59
75 102 62
75 102 63
76 103 62
101 125 103
157 175 184
167 185 196
170 187 196
167 183 192
166 182 193
166 183 193
165 182 194
159 176 185
164 182 193
162 179 189
167 183 197
154 173 182
159 176 184
169 186 198
172 189 203
165 182 191
159 175 184
159 176 185
101 124 106
77 105 64
76 104 63
78 105 65
78 104 64
74 101 60
76 103 62
80 108 66
79 107 65
76 103 62
74 102 63
78 106 64
78 106 65
76 103 62
79 108 67
80 108 66
74 100 61
79 105 67
158 177 186
167 183 192
161 178 188
162 180 190
159 176 185
169 186 200
161 177 187
163 180 191
171 188 202
165 181 190
170 187 199
163 181 191
158 176 186
164 181 194
160 177 187
163 180 193
165 182 194
108 131 114
75 101 61
81 108 67
79 106 64
77 105 65
78 106 65
79 106 64
78 105 64
78 105 64
77 104 63
82 110 67
76 104 64
78 106 65
78 106 65
76 103 64
75 102 63
128 148 145
166 184 197
173 189 202
173 190 204
161 179 187
172 188 203
172 190 203
167 185 196
169 186 198
166 183 195
170 187 198
165 184 197
162 180 191
167 185 200
175 192 207
149 169 173
85 112 75
78 105 63
82 110 69
76 104 63
78 106 65
92 117 87
131 150 145
157 175 184
164 182 191
139 158 159
123 146 136
99 122 100
81 110 71
93 119 91
158 176 186
166 184 197
170 187 200
171 189 203
172 191 207
164 182 191
173 190 204
91 115 87
79 107 66
78 106 65
83 111 69
78 106 64
84 113 70
142 160 163
170 188 203
176 194 212
164 182 194
174 192 207
171 188 200
163 181 194
176 192 206
169 187 199
170 188 200
142 161 164
105 129 105
114 136 125
151 170 178
167 184 193
172 188 199
167 184 195
177 194 209
173 190 204
98 122 100
79 107 66
80 107 66
78 105 65
74 101 62
82 110 68
80 109 67
76 104 63
79 107 66
83 111 68
76 103 63
79 106 65
80 108 67
82 110 67
79 107 65
80 108 67
90 116 84
125 145 139
169 187 201
147 167 172
78 105 64
76 103 63
82 110 68
78 106 65
79 107 66
80 108 67
75 102 62
75 102 62
77 103 63
77 105 64
75 101 61
79 106 65
81 109 67
81 109 67
81 108 67
77 104 64
77 105 64
78 105 65
74 101 61
86 113 77
159 176 186
163 181 192
165 181 193
161 177 184
169 186 197
161 177 188
153 170 175
111 132 120
92 115 92
75 102 62
77 104 64
78 105 63
80 107 66
80 106 65
80 107 66
78 106 65
76 103 62
76 104 63
72 99 60
76 103 62
119 140 129
169 186 200
167 183 195
163 180 190
174 190 203
161 179 188
165 181 192
158 175 185
170 186 198
163 181 192
169 185 197
158 174 182
162 178 187
169 186 197
159 177 187
162 178 188
167 183 194
159 176 184
164 181 193
156 173 179
161 177 186
143 161 166
76 103 63
75 102 61
97 118 99
116 136 125
149 167 173
149 168 174
158 175 184
173 190 205
163 179 190
172 188 199
172 190 206
164 182 192
164 180 190
161 177 187
153 171 175
163 180 190
166 182 193
163 180 190
167 183 194
153 170 176
162 178 185
95 119 96
80 108 66
72 98 58
75 102 62
77 103 63
74 100 60
78 105 64
75 102 63
75 103 63
77 104 64
74 99 59
75 102 62
77 104 64
74 100 62
78 106 64
78 106 65
78 106 66
78 105 63
75 102 62
73 98 60
73 99 61
120 140 129
163 181 194
158 175 184
164 180 190
164 181 190
156 174 184
167 184 196
162 178 189
161 178 189
160 176 182
162 178 188
162 179 187
164 180 189
151 168 173
151 168 173
128 147 142
113 133 119
93 115 90
79 106 65
79 106 65
78 105 64
83 110 72
159 175 182
161 179 189
163 180 192
161 177 187
162 178 189
161 178 190
159 176 186
171 188 200
163 179 191
155 172 177
163 179 187
157 174 180
169 184 195
166 183 195
160 176 185
152 169 176
154 172 182
156 172 180
153 171 178
165 181 192
151 169 177
122 143 137
73 100 60
73 100 61
76 103 64
76 104 64
76 103 63
73 99 60
73 99 60
76 103 63
78 106 65
77 103 63
72 98 59
78 106 65
72 98 58
76 103 63
77 104 63
69 95 56
79 106 65
74 100 60
77 104 64
74 100 61
116 137 124
166 183 195
159 175 182
165 183 196
157 174 183
160 178 189
158 175 182
156 173 181
174 190 204
149 167 173
163 180 192
155 172 178
161 179 188
150 168 176
163 181 194
163 181 190
158 175 185
161 178 188
156 173 183
163 181 193
159 177 188
131 150 148
74 100 60
77 104 64
72 98 59
76 103 62
74 101 60
76 103 62
78 106 65
75 102 62
78 105 63
76 104 63
73 100 61
78 106 64
76 102 62
74 100 61
76 103 62
72 98 60
73 100 61
78 106 65
79 106 64
82 107 76
165 183 195
162 178 188
163 179 189
165 181 192
167 183 194
171 188 201
159 176 185
160 176 185
163 180 191
167 183 195
165 182 195
153 169 174
175 191 204
161 179 189
150 167 171
153 171 179
163 180 189
163 181 193
167 184 195
157 174 180
80 107 68
72 97 59
80 108 66
72 99 59
76 102 62
77 104 64
77 104 66
80 107 69
79 105 70
89 113 86
82 109 73
88 115 82
94 117 92
96 121 93
96 120 92
86 111 83
90 115 87
93 117 89
86 112 80
155 172 178
157 175 185
160 178 185
160 176 184
167 184 194
160 177 185
156 173 179
148 166 171
166 182 193
168 185 194
165 182 191
158 175 181
163 179 190
160 177 184
162 179 187
163 178 186
158 174 181
162 180 191
155 173 178
83 109 74
72 98 59
80 108 66
78 105 64
81 109 67
80 107 65
77 105 64
80 108 67
79 106 65
76 103 62
78 105 64
77 104 64
78 105 64
80 108 67
71 97 58
78 106 65
73 100 60
108 130 113
165 183 196
162 178 187
166 183 193
168 185 198
162 181 195
167 186 200
169 185 196
164 180 191
157 174 184
157 176 185
166 182 196
164 180 191
152 171 179
173 190 204
162 179 188
169 186 199
152 170 175
82 109 75
75 102 61
77 105 64
78 105 64
76 104 64
77 104 63
78 106 63
75 102 62
77 105 63
80 108 66
80 108 66
82 110 68
73 100 59
78 106 64
81 110 68
81 108 71
160 178 185
164 181 191
174 192 206
175 192 205
171 189 204
167 185 198
164 181 191
163 181 192
169 186 197
163 181 192
162 180 191
155 173 181
164 181 191
164 183 194
167 186 199
123 143 136
79 107 66
79 107 69
96 121 97
141 159 159
166 183 194
168 187 202
177 195 211
170 188 202
171 190 204
170 188 200
171 188 201
157 175 185
136 156 157
155 173 181
154 172 178
160 178 187
170 186 197
171 186 198
174 191 207
169 187 201
75 103 63
83 112 70
79 107 65
83 112 70
80 107 65
81 110 69
161 178 187
172 188 200
167 185 199
174 191 205
173 190 204
178 194 209
168 186 197
177 194 207
165 183 194
155 173 181
142 162 164
96 120 97
101 124 104
131 152 148
162 179 188
166 183 196
170 186 197
175 193 208
172 189 204
92 116 87
77 104 63
76 102 62
77 106 65
78 107 66
82 110 68
76 104 63
78 105 65
80 107 65
80 108 66
79 107 66
77 105 65
77 104 64
81 108 66
107 131 116
143 162 161
163 180 190
164 181 193
169 186 197
132 152 149
76 103 62
80 108 66
82 110 68
76 103 63
77 104 64
75 102 61
82 110 68
84 112 69
77 104 64
80 108 66
78 106 65
78 106 64
80 108 66
78 106 65
73 99 60
75 102 62
79 107 65
78 106 65
81 109 67
87 110 82
173 190 203
172 188 202
163 179 187
160 177 189
134 153 152
94 117 95
79 107 66
72 98 59
76 103 63
82 110 68
79 107 66
79 105 64
78 105 65
67 92 54
80 108 67
76 103 62
79 106 65
75 102 62
77 105 63
81 109 67
98 122 100
163 180 192
167 183 195
158 175 185
165 181 191
170 186 198
170 187 201
168 185 199
165 182 193
170 187 200
173 190 202
158 174 180
165 181 192
165 183 194
168 184 195
162 178 188
160 178 190
170 187 200
156 173 181
158 177 188
177 193 205
154 171 175
118 138 130
152 170 178
157 173 179
167 185 197
165 183 196
164 180 189
161 177 188
158 174 184
163 179 189
166 183 195
157 175 184
171 187 199
178 194 208
155 172 176
157 174 180
166 183 193
153 169 179
167 183 195
166 183 194
162 180 193
159 176 189
113 134 121
77 104 63
76 104 64
74 101 62
76 103 62
77 104 64
74 101 61
71 98 59
71 97 58
77 105 64
76 103 63
76 102 63
77 103 63
73 100 60
76 103 63
79 107 65
75 102 63
79 106 65
77 104 63
75 101 61
76 104 63
102 124 105
160 177 186
166 183 195
164 181 193
171 187 199
157 174 186
163 179 185
152 170 179
160 176 185
149 166 169
140 158 160
129 148 142
94 118 94
77 104 64
80 107 65
78 106 64
73 99 59
77 104 64
77 103 64
79 106 65
79 107 65
74 101 61
139 158 157
166 182 193
168 186 196
160 176 185
162 179 186
161 178 188
157 175 184
161 179 190
174 190 204
159 177 186
165 181 193
160 177 187
150 167 174
166 183 193
161 177 185
156 174 182
162 180 192
155 172 179
167 183 194
170 187 198
155 172 179
142 159 162
73 99 60
75 102 62
76 103 63
74 100 60
73 99 60
78 106 64
77 104 64
72 98 59
72 99 59
76 103 64
78 105 64
76 103 61
73 99 59
77 104 63
74 101 60
77 105 64
77 104 63
76 104 63
76 103 62
80 108 67
80 104 73
157 174 182
160 177 188
163 180 190
166 183 197
164 180 190
156 172 180
167 183 194
157 174 184
161 177 186
162 179 191
159 177 187
161 178 186
153 170 173
156 173 183
155 172 182
158 175 185
161 179 189
158 174 185
164 182 194
168 184 195
149 167 171
77 102 67
74 101 61
76 103 62
77 105 64
77 105 64
76 104 63
73 99 59
76 103 62
69 94 55
77 103 62
77 103 63
74 101 60
78 105 64
81 108 67
76 103 63
76 103 63
77 104 64
73 99 60
70 95 56
75 102 62
141 159 161
156 174 183
149 167 171
157 174 184
155 171 177
141 159 163
147 165 168
142 160 160
143 162 166
130 150 146
134 153 151
129 149 145
122 141 131
111 132 120
111 132 120
120 140 131
117 138 130
98 122 96
92 113 94
104 128 108
138 156 155
155 171 177
161 179 188
158 175 183
157 173 181
156 173 182
165 182 192
160 177 185
168 185 196
168 186 199
153 171 175
166 183 193
160 176 188
158 175 182
167 184 196
162 179 190
161 179 190
167 184 196
165 181 191
152 170 175
76 103 62
79 106 65
74 101 61
77 104 63
78 106 65
81 108 66
79 106 66
75 103 62
76 104 63
76 102 65
90 117 85
83 108 75
89 115 86
95 119 93
97 122 98
93 116 98
108 129 115
105 127 109
119 140 131
141 159 162
122 141 138
127 146 140
117 138 128
120 141 128
119 140 132
108 130 117
99 122 99
110 132 119
94 120 91
89 113 84
85 112 74
75 102 62
77 104 62
81 109 68
79 106 65
73 99 60
120 140 133
170 189 203
169 186 197
164 181 191
161 178 187
164 180 189
159 176 187
158 174 182
170 187 199
161 179 192
167 185 197
171 187 199
176 192 207
164 181 194
166 184 195
162 179 190
163 181 193
133 153 150
80 108 66
79 107 65
74 101 61
80 108 67
78 105 64
73 101 61
76 104 64
81 109 67
75 102 62
81 109 67
81 109 67
78 106 64
78 106 65
74 102 61
76 103 63
114 135 125
163 180 191
163 180 189
158 175 183
170 188 201
171 189 204
167 185 197
169 187 201
159 178 188
163 181 193
168 185 198
175 193 208
170 189 202
163 181 190
166 183 196
156 174 183
124 145 138
163 182 193
165 183 193
170 187 199
167 185 197
169 187 199
163 180 192
174 192 207
169 187 200
170 188 202
169 187 199
163 182 194
163 181 194
168 185 198
138 157 156
89 116 85
120 141 128
132 153 148
146 165 168
174 190 203
78 107 66
77 104 63
78 106 65
82 111 68
79 107 65
87 115 76
156 173 180
165 183 191
177 195 213
172 190 204
169 188 201
167 184 198
173 190 206
168 184 194
127 148 141
91 117 85
83 110 69
78 106 65
77 105 64
83 112 70
78 105 64
121 141 131
134 153 151
164 180 192
159 176 186
82 109 67
79 106 65
77 105 65
77 105 65
79 106 65
79 107 66
75 102 62
77 104 64
79 106 65
77 103 62
85 113 70
84 109 74
125 145 137
154 173 179
169 187 200
166 182 193
173 190 203
159 177 185
168 184 194
145 164 167
75 102 63
81 109 67
78 105 64
82 111 69
77 105 64
78 106 65
80 108 66
77 104 64
82 110 68
81 109 68
80 108 67
78 106 66
75 102 62
80 108 66
77 105 64
79 106 65
74 101 60
76 104 63
73 99 61
82 110 71
165 183 195
135 155 152
119 141 130
76 102 69
75 102 62
80 107 65
77 105 64
77 105 64
76 104 64
74 101 62
73 100 61
75 101 61
72 98 60
81 109 67
74 101 61
78 105 63
79 107 66
77 104 64
76 103 63
77 104 64
96 121 95
168 185 199
155 172 181
159 176 184
167 184 197
165 183 193
164 180 191
168 185 198
160 176 186
168 185 199
164 181 191
159 177 186
163 180 190
164 182 193
164 180 186
179 194 209
161 179 187
153 171 180
147 164 167
135 154 149
82 107 73
83 110 71
156 173 181
161 178 186
164 181 194
172 188 201
162 179 188
162 179 188
156 173 180
162 179 191
169 186 198
167 183 197
163 179 190
162 178 189
163 179 187
157 175 182
156 174 182
157 175 185
175 191 203
165 181 190
156 172 179
154 172 180
164 181 192
123 142 136
76 103 63
74 101 61
77 103 63
73 100 60
73 99 60
81 108 66
78 106 65
75 102 62
78 105 64
74 100 60
73 99 60
75 101 60
76 103 64
74 100 61
74 100 60
76 102 62
77 104 63
75 102 62
75 101 62
72 98 59
78 105 64
155 174 183
169 185 198
162 179 188
159 176 185
156 174 180
118 137 130
102 124 104
75 100 62
77 104 63
79 105 64
77 104 63
80 107 65
76 103 62
74 101 61
77 103 62
77 104 62
76 103 61
74 100 60
74 100 60
76 103 63
73 101 62
114 134 122
165 183 195
165 182 190
161 178 190
160 176 184
156 173 177
161 179 188
160 178 190
160 177 187
148 166 171
161 178 187
163 179 190
164 181 193
160 177 185
162 178 185
164 180 191
166 183 195
156 174 182
164 180 192
165 182 191
157 174 183
165 181 192
87 109 84
80 108 68
74 100 60
79 106 64
76 102 62
77 104 64
75 101 61
79 106 64
78 106 65
74 101 60
78 105 64
75 101 61
76 104 63
75 101 61
75 101 61
78 106 64
80 108 67
74 100 61
77 104 63
78 105 65
77 104 64
134 152 151
156 173 182
162 179 188
164 181 195
166 182 192
153 171 182
151 168 176
153 169 177
160 177 187
169 186 198
169 185 196
164 181 192
170 186 202
167 184 195
168 183 192
163 181 192
165 182 194
158 175 185
160 177 188
157 175 185
168 184 197
104 126 107
80 108 66
77 103 63
79 106 64
73 100 60
76 103 63
76 103 63
74 100 61
74 102 62
89 115 86
98 122 96
111 133 118
114 136 118
123 142 136
128 148 145
138 158 162
129 148 144
147 164 166
143 162 167
163 181 193
161 177 188
85 112 75
77 103 63
76 102 63
80 107 65
77 105 65
76 103 62
75 101 60
74 100 60
77 105 63
74 100 60
78 105 64
78 105 65
78 105 65
77 104 64
73 99 60
73 99 59
68 93 55
77 104 64
72 98 59
99 125 100
159 176 185
156 174 183
164 182 196
162 180 191
172 189 204
163 180 190
165 180 188
167 184 193
159 176 187
170 186 196
163 180 190
163 180 192
165 183 196
161 179 188
153 171 178
171 188 202
170 187 200
158 176 185
165 181 192
110 131 116
78 106 64
80 108 67
72 98 58
80 107 65
78 106 64
76 103 62
81 108 66
73 100 59
78 106 65
79 107 66
75 101 62
76 103 63
78 106 65
82 110 68
80 107 66
75 102 62
78 105 64
78 104 69
163 181 194
164 182 193
157 174 182
164 183 196
155 173 183
160 177 188
160 177 188
167 183 194
164 182 191
163 179 187
163 180 191
159 176 185
164 182 193
159 177 184
153 170 175
149 168 172
139 158 160
137 156 151
128 148 145
136 155 153
139 158 158
130 149 148
156 175 182
163 180 191
165 183 193
173 190 204
165 182 194
169 186 198
169 186 198
167 183 193
165 183 197
162 179 190
173 190 205
159 176 186
166 184 197
104 128 108
78 105 64
74 102 61
79 106 66
80 108 67
79 107 65
80 109 67
78 106 65
80 107 66
77 104 63
79 108 67
76 103 62
74 102 61
82 110 69
81 109 67
79 107 65
124 145 142
161 178 188
171 188 202
171 189 206
160 177 186
170 187 198
172 189 202
158 176 184
167 184 196
157 174 185
164 183 195
163 180 189
150 169 172
98 122 101
81 109 71
93 118 87
161 179 191
170 188 200
170 186 197
168 187 202
174 191 205
165 183 193
179 196 211
167 184 196
176 193 207
178 194 207
175 192 207
166 184 198
163 181 193
173 191 205
105 129 108
82 110 67
78 106 65
79 107 65
86 114 78
78 106 65
81 109 68
80 109 67
81 109 67
81 110 68
87 114 81
164 183 193
174 192 206
172 189 200
163 179 190
168 187 199
149 168 173
116 136 124
86 113 77
78 106 65
77 106 65
78 106 65
80 108 67
78 106 65
83 111 69
80 108 67
82 111 70
82 110 67
81 106 72
120 142 131
104 126 107
82 108 73
83 111 69
78 106 65
81 109 67
78 105 64
79 106 65
80 108 66
77 104 64
106 129 111
138 157 157
172 189 205
167 184 198
174 191 203
168 186 199
164 181 193
170 188 202
166 184 196
166 183 194
151 169 174
80 107 66
72 99 59
83 111 67
79 107 66
79 107 66
78 105 65
77 106 65
76 103 63
80 108 67
77 105 64
76 104 63
83 112 69
74 100 60
77 104 64
76 103 64
81 110 68
73 99 60
85 112 74
99 123 100
142 161 162
91 116 88
78 105 64
76 103 63
80 107 66
81 109 68
78 105 64
78 104 63
76 103 62
77 104 64
78 106 65
76 103 63
78 105 65
80 108 67
76 104 63
81 109 68
76 104 64
78 106 65
76 104 64
78 106 65
77 104 64
84 111 76
155 173 182
165 181 189
158 176 185
151 168 174
174 191 205
175 191 201
158 175 184
166 183 193
171 187 201
159 175 183
166 184 197
165 182 191
155 173 180
156 173 182
148 165 168
113 135 121
79 104 70
74 102 62
77 104 63
70 96 57
77 104 64
155 172 177
170 187 202
168 184 195
162 179 188
157 175 184
153 171 178
159 177 185
166 182 194
154 170 175
169 186 199
171 187 201
157 174 184
150 167 172
164 180 188
166 181 192
163 181 193
160 176 185
160 176 188
158 175 182
158 175 183
155 172 182
148 166 172
76 103 62
78 105 64
77 104 63
79 105 64
78 106 65
74 100 59
75 102 62
76 103 63
75 102 61
76 102 62
81 109 68
82 110 67
73 99 59
75 102 62
80 108 66
78 105 64
75 102 62
71 98 58
73 99 59
78 105 65
96 117 96
129 149 146
114 135 123
86 111 81
73 99 60
75 103 62
80 107 65
76 103 62
77 104 64
74 100 60
83 111 69
70 96 56
77 104 62
81 108 67
73 100 60
78 107 66
75 101 62
74 100 61
76 102 62
77 104 62
77 103 63
73 98 58
79 105 69
166 181 190
153 170 179
161 178 188
160 178 188
162 179 187
171 187 200
161 178 189
164 182 196
174 190 202
151 168 175
151 170 177
167 183 195
157 174 182
164 181 192
163 179 190
161 178 187
157 174 182
160 177 188
159 176 186
158 175 181
166 183 194
110 129 118
71 96 57
74 100 59
76 103 63
79 108 66
72 98 59
76 103 63
73 99 60
76 102 62
76 104 63
79 106 65
77 104 64
80 108 66
75 102 61
76 103 63
75 102 62
75 102 62
75 102 62
78 105 64
76 103 63
76 102 63
110 131 115
148 165 173
175 192 206
166 182 193
160 177 187
159 176 185
157 172 178
149 166 172
157 174 183
163 179 191
160 176 189
162 179 185
153 170 176
167 184 195
166 181 190
164 179 189
171 188 200
167 183 193
164 180 191
152 169 178
158 175 184
141 158 160
114 136 122
104 126 106
137 157 158
141 159 160
128 147 146
138 156 159
153 170 176
155 172 180
173 188 202
163 179 189
158 175 183
160 178 190
156 173 179
158 176 186
164 181 193
168 184 193
163 179 188
161 178 189
159 175 185
158 175 183
104 125 111
78 106 65
75 102 61
78 105 64
72 97 58
77 104 63
75 102 61
82 110 68
79 107 65
74 100 61
76 103 63
75 102 62
79 106 66
76 103 63
76 103 62
77 105 64
79 106 66
68 93 56
74 101 61
80 107 65
144 162 164
159 176 187
165 183 193
164 180 191
166 182 192
163 180 190
156 173 182
169 186 200
171 189 203
169 186 200
174 191 206
165 182 192
157 174 182
161 178 187
172 188 201
169 184 196
159 177 188
167 182 194
161 178 188
145 162 166
80 107 66
76 103 62
72 99 59
78 105 65
80 107 66
78 106 65
78 106 65
79 107 66
76 103 62
74 101 61
74 100 61
72 99 59
76 103 62
78 105 64
79 107 66
77 104 63
77 105 63
77 105 65
125 145 137
162 179 191
161 180 190
161 180 190
162 180 192
167 184 195
160 177 188
165 183 193
168 184 195
168 185 199
168 186 199
167 184 198
172 188 201
172 189 202
162 179 190
167 184 196
155 175 185
166 184 198
145 164 167
79 107 66
78 106 64
76 104 63
76 102 62
76 103 63
77 103 65
83 109 76
98 122 98
105 127 111
118 138 126
131 150 146
131 149 143
135 153 149
150 167 168
162 179 190
167 183 192
154 173 179
90 116 82
76 103 63
79 106 65
82 110 67
75 103 62
74 102 63
81 110 68
77 105 64
80 109 67
71 97 60
76 104 65
78 106 66
78 106 66
81 108 66
79 107 66
75 102 62
154 172 178
164 181 191
171 189 203
163 181 191
165 183 194
170 187 200
163 180 189
167 184 197
154 173 178
130 150 146
87 115 79
77 105 64
76 103 63
82 111 69
76 104 64
127 147 141
167 185 196
164 180 191
173 191 206
172 189 203
177 194 208
172 189 202
165 184 196
168 185 198
167 185 197
177 196 214
169 187 201
167 184 197
164 183 193
155 175 185
94 119 88
81 110 68
79 107 66
86 116 73
81 110 67
79 107 66
78 106 64
79 107 66
77 104 64
96 120 95
170 188 202
168 187 200
171 188 201
145 163 165
115 138 127
83 111 72
81 109 68
79 107 66
80 109 67
83 112 71
82 111 69
80 108 66
85 113 70
78 106 64
83 112 70
75 102 61
85 114 71
75 102 62
84 109 76
172 189 202
165 184 197
136 155 151
118 139 130
83 111 71
76 104 63
84 110 76
115 137 125
158 176 184
170 187 198
165 182 194
174 192 207
173 190 205
166 184 195
169 186 198
163 181 190
165 182 194
158 175 184
171 188 200
160 178 186
77 104 63
81 109 67
80 108 66
82 111 69
80 107 65
76 103 63
82 110 69
78 106 65
78 106 65
80 107 65
80 108 67
79 107 65
78 106 65
79 107 66
78 105 64
99 123 102
134 152 152
167 184 196
160 177 187
165 182 194
90 115 83
81 109 67
80 108 67
77 104 62
80 109 67
73 100 60
76 103 63
78 107 66
74 101 61
78 105 64
73 100 60
77 104 63
74 101 61
78 106 64
74 101 61
79 107 65
79 106 64
82 110 69
75 102 63
77 103 62
82 110 70
153 171 179
166 184 196
157 175 184
166 181 191
161 177 188
161 178 189
166 182 194
161 178 187
153 170 178
161 179 190
152 169 173
130 149 144
107 130 112
76 103 65
77 103 63
78 105 64
75 102 62
76 104 64
77 105 65
76 104 63
78 106 64
140 159 162
172 187 199
173 192 207
149 167 171
170 186 195
164 181 190
169 187 201
165 182 192
164 181 193
169 185 199
163 180 191
166 182 193
163 180 189
153 171 178
164 181 194
166 183 195
165 182 193
165 182 193
163 181 193
169 185 197
163 180 190
156 173 180
76 104 64
75 100 60
77 104 63
76 103 63
76 103 63
76 103 63
76 104 64
74 101 62
80 108 66
78 105 64
79 106 65
78 105 64
81 109 66
79 107 66
77 103 63
78 105 67
99 121 101
106 127 112
149 167 171
155 171 177
168 185 195
134 152 151
78 105 65
79 106 64
79 107 66
75 101 61
76 103 63
77 105 64
78 105 65
76 103 63
76 104 63
75 102 62
78 105 65
76 103 62
77 104 63
77 104 64
77 104 63
76 104 63
76 104 63
77 105 65
77 104 63
77 104 63
77 104 63
147 164 169
160 178 186
161 178 187
162 179 189
164 181 191
160 177 186
166 183 194
162 180 191
168 186 198
166 184 197
165 182 192
155 172 177
159 176 186
170 187 201
163 180 191
149 166 174
164 181 191
164 181 190
154 171 177
163 181 193
163 178 187
144 161 166
75 102 62
77 105 65
78 105 64
78 106 65
77 105 65
79 107 65
75 101 61
74 101 60
77 104 63
81 109 67
77 104 62
76 103 63
75 101 62
77 104 64
80 108 67
79 106 66
76 103 63
74 101 60
77 104 64
76 103 63
79 105 66
156 173 182
161 178 189
167 184 196
158 175 185
165 181 191
162 179 191
162 178 188
154 172 180
169 186 196
155 173 182
151 169 176
145 163 165
139 158 159
135 154 149
123 143 138
108 130 117
93 115 91
87 112 81
75 101 61
73 100 60
76 104 64
151 169 174
161 178 185
163 179 190
169 185 195
168 184 197
164 181 194
163 179 191
160 178 189
155 173 183
152 170 176
161 178 187
168 186 199
166 183 194
156 173 178
156 173 179
162 179 189
163 180 192
164 180 189
170 187 199
160 177 185
144 162 166
75 101 61
82 109 67
78 105 64
71 96 57
80 108 66
74 100 60
78 105 64
78 106 65
78 105 64
78 105 65
80 108 66
78 105 64
71 97 58
74 102 62
76 102 61
76 102 61
78 105 64
76 103 62
74 101 61
102 124 105
154 171 176
163 179 187
161 177 187
169 186 198
166 182 193
162 179 190
165 184 196
170 187 199
163 180 189
166 183 195
174 191 204
163 181 191
160 177 185
166 182 195
160 178 187
168 185 195
149 167 172
161 178 186
173 190 204
101 124 105
82 110 68
78 106 65
81 109 67
80 107 65
73 99 61
79 106 65
74 101 61
79 107 66
75 101 61
76 103 63
75 102 62
78 107 66
74 101 61
75 102 62
80 108 66
81 109 68
83 112 69
80 107 69
152 169 175
167 183 195
168 184 197
163 179 192
165 181 194
166 183 196
163 181 194
164 182 194
172 189 201
167 184 194
164 182 193
171 187 198
170 187 201
165 182 193
168 185 196
175 192 206
158 175 183
170 187 199
104 127 108
76 103 64
78 106 65
76 103 63
78 106 65
77 104 62
77 105 65
79 107 65
79 107 66
77 105 65
81 109 66
82 111 68
79 108 66
80 108 67
79 107 67
84 111 76
90 115 86
120 142 134
135 155 153
135 154 150
129 150 144
103 127 109
102 126 104
82 109 69
79 107 66
76 103 63
80 108 66
77 105 64
80 108 66
82 111 68
74 101 60
81 109 67
83 111 68
91 118 85
161 179 191
168 185 195
173 191 206
160 178 188
154 173 178
125 146 137
92 117 89
80 107 65
81 109 66
80 108 67
82 110 68
82 110 68
81 108 67
80 109 67
80 108 67
140 161 161
163 181 192
176 193 208
166 184 198
177 194 209
166 184 197
167 185 198
178 196 214
169 187 200
173 191 206
167 184 197
164 182 192
163 181 189
164 182 192
151 170 176
87 114 81
81 109 68
81 109 67
80 107 65
80 108 66
78 105 64
78 107 66
83 112 70
102 125 104
166 183 195
136 155 153
101 125 101
79 106 65
84 112 69
80 108 66
80 108 67
79 107 66
77 105 63
80 108 68
79 108 68
80 108 66
81 109 68
80 107 66
82 111 70
80 109 67
81 109 67
81 110 68
87 112 81
169 187 199
169 186 196
167 183 195
155 172 179
156 174 182
93 118 91
132 152 150
168 185 197
168 184 194
170 189 203
170 188 201
175 191 204
177 195 211
167 185 198
162 181 191
178 196 213
173 190 204
168 185 195
163 182 195
142 160 163
77 105 64
80 108 66
78 107 66
78 106 64
80 108 66
74 102 62
79 107 66
74 101 60
81 109 67
82 109 67
80 108 66
77 104 63
85 111 76
129 149 146
161 178 187
164 182 193
168 185 194
165 182 195
160 178 187
164 181 192
99 123 100
78 105 64
75 101 60
76 104 63
76 104 64
81 109 67
82 109 67
78 105 64
81 109 67
80 109 68
76 103 62
78 105 64
82 110 68
77 105 65
80 107 65
75 102 61
82 110 68
80 108 67
78 106 65
78 106 66
79 107 66
165 182 194
162 179 188
161 178 189
173 191 207
160 178 189
160 177 187
161 178 186
151 170 176
129 148 147
98 120 99
78 105 64
76 103 63
77 104 63
74 102 63
79 107 66
77 104 63
80 108 66
78 105 65
77 104 63
78 105 64
79 107 65
139 158 155
164 182 194
163 181 191
164 180 190
170 186 197
160 175 185
170 187 200
164 181 193
163 180 191
171 190 208
154 172 177
162 179 189
170 187 199
163 180 188
161 178 188
162 179 188
155 173 181
163 179 189
164 180 190
162 177 187
155 172 181
168 186 199
85 111 80
78 106 65
80 107 66
77 104 63
82 111 68
76 104 64
76 103 63
76 103 62
75 102 61
80 107 66
80 107 65
79 104 69
105 128 111
116 138 129
142 160 162
163 180 190
159 176 186
161 178 189
160 177 184
162 178 189
163 180 193
148 166 172
76 103 63
78 105 63
75 102 62
79 106 66
76 103 63
78 105 64
75 102 62
77 104 64
77 104 63
73 99 59
74 100 60
71 97 58
76 104 62
80 108 67
77 104 64
75 102 62
77 104 64
73 100 61
75 102 62
75 102 62
78 105 65
121 141 131
159 176 187
157 176 186
151 168 174
158 176 188
161 178 189
155 172 182
153 170 176
164 181 192
150 167 171
165 183 193
154 172 178
158 176 186
157 175 185
160 178 188
164 181 190
157 175 185
170 187 201
163 180 192
166 184 196
167 184 198
159 176 186
84 108 76
74 101 61
76 103 62
77 104 64
77 104 64
78 105 64
75 102 61
74 101 60
79 107 66
74 101 61
76 103 63
76 103 63
78 105 64
77 104 63
76 103 63
76 103 62
77 105 65
76 103 64
81 109 68
78 105 64
71 97 59
137 155 154
164 181 190
165 182 193
144 162 165
143 162 161
134 153 150
114 135 123
104 126 110
86 111 76
73 99 60
76 103 62
79 107 65
77 105 64
74 101 61
77 104 64
73 99 60
80 108 66
75 102 62
80 107 66
76 103 62
77 104 64
121 140 133
161 178 187
177 193 207
154 172 180
150 169 175
163 181 193
173 189 203
160 178 190
153 170 176
167 183 193
167 183 196
163 180 189
161 178 187
162 179 187
160 177 185
155 171 181
160 177 186
157 174 183
164 181 189
167 183 195
166 183 194
90 114 88
77 104 62
76 103 62
77 104 64
78 105 64
78 106 65
76 103 62
77 105 64
78 106 65
73 100 61
73 100 60
74 101 60
76 102 62
75 102 62
75 102 62
77 105 64
76 102 62
77 104 63
81 109 68
73 99 61
141 159 161
156 173 180
159 176 185
170 188 203
174 190 204
159 176 183
166 183 193
165 183 194
162 179 191
163 181 193
168 186 198
163 180 189
153 171 178
161 178 192
158 175 185
162 180 190
164 181 191
159 176 185
166 185 197
154 173 182
75 101 61
78 105 64
75 102 62
73 99 60
75 102 61
76 102 62
81 108 67
76 104 63
78 105 64
76 103 63
75 103 63
75 102 62
78 105 64
76 103 63
74 100 60
75 102 62
74 101 61
76 103 62
95 117 101
166 183 195
172 189 204
152 169 173
161 178 189
170 187 198
164 180 191
163 180 190
165 181 191
166 183 194
164 181 191
166 184 197
159 176 187
169 185 193
164 181 192
166 183 195
168 185 196
165 182 195
159 175 181
82 109 68
76 103 61
76 103 63
80 108 67
79 106 65
76 103 63
75 102 61
79 107 66
82 110 68
79 107 66
79 108 66
76 103 63
77 105 65
82 111 68
79 107 65
79 107 65
80 108 69
148 166 172
165 183 196
167 184 196
164 182 193
170 186 198
161 178 187
153 172 182
154 172 177
138 157 158
122 143 134
123 143 129
103 125 104
86 113 78
81 109 68
83 111 68
83 111 68
135 155 156
150 168 171
114 135 124
82 110 70
82 110 68
80 108 66
81 109 68
79 106 65
78 105 65
78 105 64
78 105 64
78 106 64
78 105 64
82 111 68
77 104 64
88 114 78
154 172 179
167 184 195
175 191 207
162 181 191
165 183 195
163 181 195
164 182 196
162 179 187
169 186 195
166 183 197
178 195 212
174 192 206
171 189 204
159 179 189
134 156 155
82 110 71
79 106 65
81 110 68
81 110 68
83 112 70
82 111 69
88 116 83
124 145 137
100 123 97
80 107 66
78 106 65
80 109 67
80 108 67
82 111 69
74 101 60
78 106 65
80 109 68
76 103 62
79 107 65
84 111 68
80 109 67
81 109 67
83 112 70
80 108 67
79 107 66
75 103 62
113 136 121
175 192 206
160 177 188
163 180 192
121 142 132
85 112 77
80 109 67
77 105 64
81 109 71
107 131 111
137 155 153
168 187 199
180 196 210
170 187 197
162 180 192
170 189 203
174 190 202
163 181 193
170 187 200
159 176 186
152 171 177
82 110 68
79 107 66
79 107 65
82 110 68
77 105 64
79 107 66
82 110 68
81 109 67
78 105 64
88 116 82
116 136 126
144 163 163
171 188 202
156 173 182
161 178 187
169 186 198
167 185 196
164 182 196
168 184 196
168 185 198
100 124 103
76 103 64
79 106 65
79 107 67
80 107 65
77 105 65
79 107 65
78 106 65
77 105 64
78 105 64
81 108 66
82 111 69
79 106 65
77 104 62
81 109 68
80 108 67
79 106 66
77 104 63
81 109 67
78 105 64
76 103 63
142 160 164
161 178 189
170 186 198
157 174 179
159 176 185
119 140 130
87 113 85
77 104 64
78 106 65
79 107 66
76 104 64
79 107 66
77 104 64
73 101 61
81 109 67
72 99 59
79 106 65
76 103 62
71 98 59
76 103 62
79 106 65
117 138 126
163 180 192
154 171 176
168 185 195
163 180 191
170 187 201
157 174 183
163 179 189
174 190 204
156 174 182
167 183 195
163 180 188
165 182 194
166 183 195
171 188 204
166 183 193
169 185 195
160 177 184
160 176 187
166 183 195
160 178 188
160 177 187
120 141 130
78 105 64
79 107 66
80 108 66
75 102 62
73 100 60
77 105 65
77 103 63
87 111 86
129 148 144
141 161 164
163 180 190
164 183 195
170 186 198
161 179 191
171 188 201
160 178 189
161 178 187
175 192 207
164 182 194
168 185 198
160 176 185
82 107 75
77 104 64
79 107 66
77 104 64
77 104 63
77 105 64
78 104 63
79 107 66
78 106 65
80 109 66
78 106 65
79 106 65
76 103 62
78 106 65
77 103 62
80 106 65
77 105 64
80 107 66
76 103 62
75 102 62
77 104 63
108 130 115
165 181 193
167 184 196
157 173 180
166 183 194
164 183 195
166 182 193
170 186 197
166 181 191
174 191 206
159 176 186
168 184 196
155 172 181
168 186 198
159 175 183
158 175 185
158 175 183
165 182 192
161 179 191
161 178 189
162 179 188
169 185 197
118 138 132
77 105 63
75 101 61
79 106 64
76 102 62
74 101 62
78 105 65
73 100 60
78 105 65
71 97 58
76 103 62
78 105 65
75 102 61
72 98 59
73 100 60
87 113 79
99 122 102
110 132 118
119 139 131
136 155 159
148 166 168
153 171 179
80 108 69
76 103 63
73 99 60
79 106 65
79 107 66
78 106 65
76 103 62
78 105 65
78 105 65
76 103 63
76 103 63
73 100 61
77 104 63
80 109 66
77 104 64
80 107 66
75 101 61
74 101 60
77 103 63
77 104 64
94 117 95
157 174 184
161 178 189
168 184 194
161 177 187
159 177 189
173 189 203
164 181 190
165 183 196
153 171 180
163 179 191
173 189 201
157 174 182
169 186 197
158 175 186
166 183 192
153 170 177
163 180 192
169 187 198
159 176 185
158 174 178
140 160 160
77 104 63
75 102 61
75 103 63
79 106 65
74 100 59
78 106 65
79 106 66
79 107 65
75 102 62
77 102 61
80 107 66
78 105 64
72 98 59
77 104 63
80 108 65
75 102 62
73 100 60
76 103 62
78 106 65
105 126 108
167 184 195
168 185 194
151 168 171
156 174 185
176 193 207
163 180 189
160 177 187
162 179 187
159 176 187
164 180 190
169 186 199
170 187 201
171 188 203
173 190 203
168 185 196
170 187 198
165 182 192
162 180 188
165 182 194
103 123 111
80 108 66
81 109 67
76 102 62
78 106 64
76 102 61
79 106 64
81 109 67
74 101 62
75 102 62
76 102 62
77 104 64
75 101 61
80 107 66
77 104 63
80 109 67
78 105 64
78 106 65
79 106 65
142 160 162
166 183 197
173 190 203
172 190 202
160 177 186
170 187 202
156 173 182
170 187 199
170 187 198
163 181 193
167 184 195
157 174 182
168 185 197
166 183 193
163 180 189
165 182 193
171 189 201
161 179 188
115 136 127
75 102 62
78 106 65
78 106 65
76 103 63
80 108 66
79 107 65
75 103 63
77 104 63
79 108 67
75 102 63
79 107 66
77 104 64
72 99 60
81 110 68
80 108 66
79 106 64
109 132 122
165 181 192
164 181 189
162 181 194
169 186 200
167 184 195
168 185 199
171 189 204
159 177 189
168 186 199
164 182 196
159 176 184
166 184 195
151 169 172
112 134 121
108 131 112
133 153 148
98 122 98
92 117 87
78 106 66
81 108 66
80 108 67
83 112 69
76 104 64
80 109 67
80 109 67
81 108 66
80 108 66
79 108 66
82 112 69
78 107 66
79 108 67
108 132 112
160 178 189
167 184 196
167 185 199
168 185 197
172 190 205
167 185 197
176 194 209
174 192 206
170 188 204
168 185 197
176 193 210
170 187 202
171 188 202
162 179 186
123 144 136
81 110 68
83 112 70
83 111 69
98 123 97
130 151 146
168 186 199
134 154 153
78 107 65
77 105 64
80 108 67
76 104 63
78 105 63
82 110 68
75 102 62
76 104 63
79 107 66
83 112 70
82 110 68
81 109 68
83 112 70
80 108 67
78 105 64
81 109 67
82 111 70
80 108 67
111 132 116
145 165 168
95 120 90
85 113 70
77 104 63
78 106 65
82 110 69
79 107 66
81 109 67
74 101 61
81 109 68
81 109 68
94 121 89
114 136 123
141 160 161
162 181 190
170 186 197
167 185 197
170 188 202
168 186 199
152 171 175
82 109 67
76 105 64
74 100 60
78 105 65
80 108 66
76 103 62
80 108 67
91 116 88
133 152 153
161 177 186
162 180 192
162 179 186
172 190 205
163 180 190
170 187 199
172 189 201
167 185 195
164 182 192
171 188 200
163 180 190
113 136 120
81 109 67
80 107 66
75 103 62
79 107 66
79 106 65
79 106 65
78 106 65
79 106 65
77 105 64
80 108 66
74 101 62
72 99 60
79 107 66
77 105 64
76 104 63
82 110 67
79 106 65
80 108 66
77 104 63
77 104 63
139 158 160
160 177 184
120 140 132
104 126 107
75 102 61
80 108 66
80 109 67
76 102 61
77 105 64
75 102 62
81 108 66
78 105 64
77 106 64
77 104 63
76 104 63
74 102 62
76 103 62
79 107 66
76 103 64
82 110 67
78 106 64
106 128 114
168 185 196
163 179 188
166 184 196
157 174 184
164 182 193
174 190 203
172 189 200
165 181 193
173 190 205
163 181 192
171 188 201
165 182 193
171 187 196
169 186 198
159 176 185
165 181 193
158 176 187
166 182 191
165 181 189
157 175 185
164 182 191
129 149 142
76 103 62
76 103 62
71 97 57
100 123 104
124 145 138
142 161 162
145 163 166
165 181 191
160 178 189
162 180 191
159 177 187
165 181 192
161 178 187
165 183 194
157 175 184
162 180 190
166 183 194
180 196 212
167 184 196
170 186 201
158 174 181
106 130 111
77 105 65
75 102 62
74 101 61
76 104 64
70 96 57
75 102 63
82 110 67
77 104 63
78 106 65
76 103 62
73 99 59
76 102 62
78 105 64
79 107 67
76 102 62
79 107 65
76 102 62
77 105 64
78 105 64
75 102 62
77 104 66
166 183 192
164 181 195
161 178 187
163 179 190
165 181 191
165 182 193
164 181 193
164 181 194
166 182 194
157 175 184
167 185 198
161 178 189
163 180 194
173 190 202
161 177 186
159 176 184
168 185 196
160 177 187
161 178 187
166 183 197
169 187 203
140 158 156
79 107 66
75 102 63
79 106 66
78 105 64
76 104 63
74 101 61
82 110 68
83 108 75
90 115 88
102 125 107
122 144 131
126 146 142
138 157 157
158 176 183
164 180 193
162 179 190
171 187 202
156 172 177
164 181 191
161 178 188
161 179 189
104 128 107
76 103 63
79 107 66
78 105 64
81 109 67
73 100 61
75 101 61
76 102 62
73 100 60
80 108 66
77 105 64
80 107 66
79 107 65
74 100 61
82 110 67
75 102 62
74 100 61
79 107 66
73 100 61
69 96 58
77 103 63
141 160 162
176 192 205
168 185 197
161 178 189
160 177 189
177 194 208
158 174 179
167 183 193
165 183 194
158 175 185
164 181 191
170 185 196
169 185 198
167 183 193
174 190 203
162 179 190
167 184 194
163 179 190
154 171 181
167 183 194
153 171 177
84 109 80
80 108 67
75 102 61
76 102 62
75 102 62
78 106 64
79 107 65
81 108 67
75 100 60
79 107 65
77 103 62
72 99 59
78 105 63
74 101 61
75 102 62
79 106 66
77 104 63
72 99 59
77 104 63
78 105 65
150 169 176
156 174 181
164 179 187
172 189 202
169 185 196
167 185 198
161 177 183
165 182 194
155 173 182
168 185 197
156 173 179
165 182 195
167 183 194
162 181 191
164 181 191
159 176 186
163 181 194
164 181 191
170 187 202
166 184 196
79 107 65
77 105 64
78 105 64
77 104 64
79 107 66
75 103 62
79 107 65
81 108 66
79 106 66
76 104 63
77 104 64
77 105 63
78 105 65
76 104 64
80 108 66
76 103 63
80 107 66
80 108 67
103 126 105
164 182 195
173 190 203
168 184 196
164 183 196
166 183 196
168 187 201
172 189 202
165 182 192
167 183 192
165 183 194
167 186 200
170 188 201
164 183 196
173 189 202
169 188 200
176 193 207
161 179 188
155 173 182
92 117 87
79 106 65
79 107 66
71 97 57
81 108 67
76 104 63
78 105 64
80 108 67
76 103 63
79 107 65
73 101 61
79 107 66
80 108 66
79 106 65
77 105 64
78 105 65
80 108 66
136 157 157
156 173 180
164 183 193
167 185 196
165 183 195
172 188 201
159 178 185
160 178 186
155 172 182
144 164 164
117 139 127
89 114 86
77 104 63
80 108 67
77 105 64
78 105 64
91 117 84
160 179 189
161 180 194
153 171 177
130 150 149
125 146 141
117 140 127
106 129 109
80 108 69
75 104 63
81 110 68
77 105 64
75 102 62
83 112 70
78 106 66
77 104 63
132 151 144
164 181 194
174 193 208
173 190 201
167 185 198
161 180 190
167 184 197
174 191 202
171 189 201
166 183 193
169 188 203
170 187 200
173 191 206
169 186 199
170 188 200
89 114 83
93 119 87
141 161 161
165 183 195
177 195 212
172 189 200
135 156 150
82 111 69
79 107 66
78 106 64
80 108 66
77 105 65
82 110 69
79 107 65
81 109 67
81 110 68
80 108 66
80 107 65
77 105 64
82 110 68
80 108 66
84 113 70
81 109 67
99 123 94
132 153 149
147 166 170
79 107 65
78 106 65
77 104 64
79 108 66
80 108 66
80 108 66
78 105 64
79 106 64
76 105 64
78 106 65
78 106 65
80 108 67
85 113 70
80 109 68
77 104 66
112 134 118
138 157 153
151 168 173
163 181 191
150 170 176
77 105 64
83 112 69
80 108 66
76 103 63
86 111 81
134 155 150
152 169 176
163 181 192
170 188 200
161 179 187
175 192 206
162 180 191
173 189 204
167 183 192
166 183 195
178 195 211
160 178 189
159 176 186
173 190 204
173 190 204
110 133 116
78 106 65
79 107 65
81 108 67
81 108 66
77 104 63
76 104 63
82 110 68
84 113 69
82 110 69
79 107 67
76 104 64
79 106 65
78 105 64
80 108 67
81 108 67
78 105 63
76 103 63
77 105 65
106 128 111
138 157 155
115 136 122
73 99 59
80 107 66
76 102 61
76 103 61
81 109 66
79 107 67
79 108 66
79 107 66
75 101 62
77 105 64
80 108 67
74 101 60
80 108 66
74 101 61
80 108 66
78 106 65
79 107 66
77 105 64
81 109 67
77 103 63
91 116 86
164 181 190
167 183 193
160 178 190
162 180 191
167 185 197
162 180 192
160 176 186
152 170 175
157 175 184
160 178 187
162 180 192
160 176 184
166 182 193
159 176 183
162 178 186
157 174 182
168 185 196
157 174 184
170 186 197
171 188 201
163 182 192
139 158 158
118 140 129
134 154 151
162 178 185
164 181 191
161 179 186
164 182 194
168 184 195
160 178 189
167 183 192
173 190 204
157 175 187
167 184 196
164 181 192
164 181 195
166 183 192
155 171 179
162 181 190
161 180 193
171 188 199
164 181 192
162 179 188
132 151 146
79 107 66
74 101 61
78 106 63
75 103 63
76 104 64
78 106 65
77 103 62
77 105 64
77 104 63
76 104 64
80 108 66
75 103 62
75 102 62
74 100 60
77 104 64
75 102 62
77 104 64
80 107 67
81 108 66
76 103 63
74 101 61
139 159 159
167 184 197
159 175 185
159 177 185
164 181 190
163 182 195
166 183 193
153 169 176
164 180 191
164 182 194
166 182 192
168 186 201
171 187 201
158 176 185
171 189 204
164 180 191
167 182 190
163 180 190
171 187 198
159 176 185
160 178 188
166 183 192
92 117 86
78 104 66
97 121 97
113 134 121
131 151 145
140 158 157
152 169 176
157 175 185
157 176 187
169 186 199
157 175 183
153 170 173
165 182 191
156 173 182
166 182 194
157 174 182
162 179 188
167 183 195
157 175 186
167 183 194
161 177 187
131 150 144
79 107 66
72 99 60
80 109 68
74 101 61
79 107 66
81 109 67
74 100 60
77 104 63
78 106 65
75 101 61
75 101 62
77 105 65
75 103 63
77 104 64
76 103 62
75 102 61
81 110 68
74 101 60
77 105 64
79 107 65
110 130 116
163 180 191
164 180 189
159 176 186
155 172 182
162 179 191
166 184 192
160 176 184
157 174 183
160 178 189
162 179 190
157 175 183
153 170 177
162 179 188
159 175 185
166 184 197
171 188 200
164 180 189
163 180 192
163 180 192
169 185 197
126 145 141
78 105 64
80 107 66
79 107 65
80 107 66
76 103 62
78 105 65
80 107 66
78 106 64
71 98 58
80 108 66
79 107 65
75 102 62
79 106 65
75 101 61
76 104 63
75 102 62
77 104 63
78 105 64
82 110 68
108 129 115
166 183 193
159 176 188
158 175 184
163 180 190
159 177 185
165 182 193
166 185 198
165 182 193
164 180 192
164 180 188
164 182 193
174 189 202
156 174 184
166 184 197
167 182 192
165 183 195
168 184 194
163 181 192
173 190 201
126 147 140
77 105 64
77 104 64
76 103 63
77 104 64
73 100 61
75 102 61
80 108 67
75 101 61
79 108 66
73 100 61
80 108 66
76 103 62
77 105 64
80 109 67
78 106 65
79 106 65
77 104 63
78 107 65
137 156 154
167 185 196
168 187 201
171 187 199
160 179 188
166 184 197
164 182 193
172 189 202
165 183 195
169 187 201
164 181 192
164 182 193
162 180 190
165 182 192
170 187 198
168 185 199
167 185 196
175 193 209
143 163 164
79 106 65
78 106 65
76 103 63
81 110 68
76 104 61
82 111 68
77 105 66
76 104 65
78 106 66
80 108 67
78 106 65
77 104 63
81 109 68
76 104 63
78 105 65
80 108 67
87 115 81
158 176 186
169 187 201
167 184 199
167 184 196
152 170 173
124 145 137
97 122 98
77 105 64
82 111 69
78 107 65
78 106 64
78 106 64
77 105 64
75 103 62
76 104 63
79 107 66
125 146 138
171 188 201
169 186 199
171 189 202
160 178 187
167 185 197
170 187 201
165 183 195
156 175 183
137 155 152
132 152 150
114 137 120
88 114 83
83 112 69
79 106 65
82 110 71
155 175 183
168 185 197
165 182 195
171 190 205
173 190 205
167 184 196
177 195 213
166 184 196
167 186 201
164 182 194
173 190 206
172 190 205
167 185 199
174 191 204
155 173 179
164 182 191
168 186 199
175 192 206
168 186 196
174 191 204
129 151 141
78 107 65
79 108 66
84 113 71
81 110 68
79 108 67
76 103 63
78 106 64
80 109 67
79 108 66
77 105 64
79 107 66
81 109 67
81 109 68
78 107 67
104 129 107
133 153 150
162 180 189
172 188 199
140 159 160
78 106 65
77 105 64
79 107 65
81 109 67
81 109 67
78 106 65
79 107 66
77 105 65
76 103 63
76 104 63
78 106 65
79 107 66
79 108 67
79 107 67
77 104 63
77 104 63
78 105 64
80 108 67
84 111 74
122 143 131
137 156 153
115 135 123
105 128 110
135 155 153
167 185 197
173 190 203
162 180 189
167 185 198
167 184 195
167 185 197
174 191 207
167 183 196
170 189 202
169 186 198
168 186 202
170 188 204
178 195 214
163 181 191
177 193 208
159 175 186
123 144 138
75 102 61
78 105 64
77 104 64
79 107 65
78 107 65
80 108 66
81 110 68
79 107 66
73 101 61
79 107 65
76 104 63
80 107 66
78 106 64
80 109 67
79 106 65
98 121 98
133 152 148
159 176 185
162 179 189
171 188 200
135 153 152
78 106 64
74 101 62
82 109 67
75 102 63
79 106 65
75 102 62
83 111 69
81 109 67
82 110 68
81 109 68
76 103 63
82 110 67
78 105 65
80 108 67
78 105 64
77 105 64
78 106 65
77 106 65
73 100 61
78 106 64
75 102 62
163 181 190
165 183 194
165 182 192
168 185 197
170 187 200
157 174 179
167 184 194
164 182 191
161 177 188
165 182 195
165 181 191
171 188 201
163 180 190
164 181 192
167 183 195
174 190 203
163 180 191
158 176 186
144 164 167
117 139 128
98 123 93
92 117 91
167 183 194
160 177 187
166 183 193
163 181 191
153 171 179
167 183 193
162 179 189
173 190 204
161 177 186
164 182 194
167 185 198
163 180 191
160 179 190
156 174 180
160 178 187
166 183 195
162 179 189
164 182 195
164 182 194
161 179 189
168 185 199
129 148 147
80 108 67
75 102 62
76 104 63
75 101 61
76 104 63
74 101 62
76 104 63
76 103 63
77 104 62
76 103 63
75 102 61
78 106 64
76 102 62
80 107 65
79 107 66
78 106 65
81 110 69
78 105 64
80 108 67
75 102 62
76 103 62
110 130 118
163 180 191
169 185 195
168 186 201
158 176 183
170 188 201
168 187 201
163 181 192
174 192 206
168 184 198
165 183 194
164 182 191
159 176 187
175 192 207
168 185 195
162 179 189
162 179 192
162 180 190
155 173 178
150 168 175
136 155 151
110 133 118
143 161 162
160 178 187
163 179 188
172 188 198
169 186 200
167 185 198
172 189 202
157 174 177
164 181 193
160 176 188
170 187 200
166 183 192
160 177 185
165 182 193
158 176 185
165 183 196
159 176 184
164 181 191
161 178 188
159 176 185
167 185 196
159 177 186
78 104 66
79 106 65
78 105 64
79 107 65
78 106 65
75 102 62
80 107 66
77 104 64
79 106 64
76 102 62
77 104 63
78 106 66
72 99 60
76 104 64
77 104 63
79 107 65
77 105 64
80 108 67
78 105 63
78 105 64
83 109 75
162 178 187
161 178 189
158 175 186
167 184 193
161 178 188
158 176 183
162 180 190
169 186 198
163 180 188
160 178 187
152 171 180
156 173 181
170 186 199
165 182 191
158 176 187
167 185 198
155 172 181
165 182 193
172 187 199
163 180 188
158 176 184
79 105 70
78 105 64
79 107 65
79 107 65
77 104 63
77 104 63
76 102 61
76 103 63
80 108 67
81 108 67
79 107 65
75 102 62
74 101 61
76 102 62
75 102 62
79 106 65
77 104 64
74 102 61
80 108 67
79 108 66
144 164 167
167 184 196
160 177 185
167 185 198
161 180 190
161 179 191
168 185 197
169 185 198
163 181 192
161 178 188
173 190 205
173 190 204
161 178 190
174 189 201
162 179 188
171 188 199
166 183 193
162 180 191
162 179 188
156 175 180
81 108 69
76 103 62
79 106 64
79 106 65
78 105 64
80 108 67
79 107 65
81 109 67
78 105 64
81 109 67
79 106 64
76 103 63
77 105 64
75 102 62
81 108 66
79 107 66
81 109 67
79 107 66
93 117 88
163 181 191
166 183 192
167 184 197
168 186 198
169 186 199
164 181 191
178 195 210
169 185 195
165 182 191
165 182 194
161 179 190
172 190 205
169 188 202
171 188 200
158 176 187
170 188 203
168 185 197
169 187 200
107 130 110
78 107 66
79 107 65
77 104 63
77 105 63
80 109 67
79 107 65
80 108 67
80 109 67
79 106 64
75 102 62
79 108 66
78 106 66
80 109 67
79 107 66
80 108 66
89 116 84
138 157 157
134 154 153
101 126 105
81 109 70
80 108 66
72 99 60
80 108 67
81 109 67
80 109 66
76 103 63
77 104 63
78 106 65
82 110 68
78 105 64
80 108 67
78 105 64
78 105 64
144 162 165
176 193 208
166 184 195
168 185 200
168 185 199
164 181 193
178 195 211
169 186 197
167 184 195
168 185 196
170 187 200
168 185 198
157 175 185
141 160 161
135 155 155
131 152 146
170 189 202
168 186 200
169 188 201
168 186 198
178 197 215
175 191 206
171 188 202
161 180 193
163 181 190
169 187 200
171 190 203
165 182 195
173 191 205
172 189 203
178 195 212
164 183 194
167 186 198
173 192 207
176 194 210
112 136 117
80 109 68
82 110 68
81 109 68
77 105 65
83 112 70
81 109 67
84 112 69
79 107 66
81 109 68
81 109 68
80 109 67
83 110 70
124 145 134
154 173 180
177 193 208
179 196 211
169 188 201
181 198 215
134 155 152
80 108 66
84 111 69
80 107 66
77 104 63
81 109 67
78 106 65
85 113 70
82 110 68
79 107 65
82 110 69
80 108 67
83 112 69
79 107 66
79 107 65
79 108 66
80 108 68
77 105 64
79 106 64
80 108 67
113 136 123
132 151 149
103 128 109
82 110 71
101 126 101
129 149 145
149 168 170
154 172 178
168 186 199
172 188 202
167 183 195
167 185 197
162 179 190
174 190 204
167 185 199
163 179 187
167 184 194
168 184 195
173 190 203
167 184 198
174 189 203
111 132 120
74 101 61
77 105 64
79 107 67
77 104 64
78 106 64
79 107 66
77 105 64
84 112 70
77 105 65
78 106 65
79 106 64
78 107 65
102 125 104
127 147 144
159 176 184
171 187 200
164 182 196
163 181 192
175 193 206
174 192 206
139 159 160
79 108 67
81 109 67
79 107 66
79 108 66
77 104 64
80 108 65
80 108 66
76 103 62
76 104 63
75 102 63
77 104 63
79 107 66
79 107 66
79 106 65
78 106 64
81 109 67
80 108 66
79 106 66
79 107 65
76 103 62
81 109 67
150 169 173
164 180 189
173 189 201
156 173 182
163 180 190
177 194 210
163 180 189
159 176 188
169 185 199
169 186 198
174 190 205
169 187 201
160 178 186
171 190 206
163 181 189
123 144 137
110 132 118
77 103 62
76 104 63
79 107 65
82 110 67
82 107 74
166 184 195
167 183 194
158 176 185
168 185 196
171 187 197
169 187 200
170 187 200
164 182 193
171 188 202
162 179 188
155 173 183
169 186 198
169 186 200
152 169 177
162 180 190
166 183 194
161 178 187
159 176 186
164 182 194
164 181 195
155 173 183
160 177 186
79 105 68
76 103 62
79 106 65
75 102 62
76 103 62
76 103 63
76 103 62
78 106 65
73 100 61
76 103 62
77 104 64
78 105 65
77 104 64
76 103 63
76 104 64
79 107 66
77 104 63
75 102 62
80 107 65
78 105 64
82 110 68
100 124 102
167 186 199
164 181 191
161 178 188
159 176 185
156 172 178
170 187 198
168 184 199
166 184 197
164 181 192
156 175 186
165 183 195
156 174 180
146 164 170
138 156 156
124 144 138
97 121 99
94 119 92
77 104 63
72 99 59
77 105 65
74 101 61
111 134 117
154 172 180
167 185 196
165 182 193
171 188 199
162 179 187
162 179 192
175 191 207
160 179 188
152 170 179
159 176 184
162 179 190
161 178 187
146 164 168
168 184 195
163 181 195
167 185 198
156 173 181
173 188 201
166 183 195
165 181 191
164 181 193
112 137 119
74 100 60
77 105 65
80 108 66
73 100 61
77 104 63
76 103 63
75 101 61
78 105 65
73 100 60
79 106 64
76 103 62
81 109 68
76 103 63
79 107 65
73 100 60
76 103 63
79 107 66
81 109 68
76 102 62
79 108 66
129 149 142
171 188 201
174 191 205
170 186 198
169 187 199
156 173 182
163 179 188
170 188 200
167 184 197
157 175 185
167 184 197
171 189 203
171 186 199
165 182 192
162 179 189
167 185 196
170 186 197
164 182 192
161 179 190
171 187 198
162 178 188
119 139 130
79 107 66
80 108 67
75 102 61
76 103 64
78 106 65
78 106 65
76 102 61
78 105 63
73 99 59
81 109 67
75 102 62
75 102 62
78 105 64
71 98 58
75 102 63
76 104 63
75 101 61
80 109 67
75 101 61
116 137 125
167 185 195
170 187 199
164 182 195
166 182 191
162 178 186
164 181 189
165 182 194
172 189 206
162 180 189
166 183 193
161 178 187
172 189 204
165 182 194
165 182 192
168 187 198
165 182 194
168 186 198
174 191 204
165 182 195
126 145 138
78 106 66
75 102 62
80 107 65
79 107 65
81 109 67
83 112 69
76 103 63
83 111 68
77 105 64
78 105 64
76 104 62
77 104 63
78 105 64
79 107 66
79 106 65
78 106 65
78 106 64
79 107 64
143 162 164
168 186 198
165 183 193
161 178 187
164 181 192
165 181 191
169 186 197
167 185 198
167 185 197
173 191 206
158 176 185
164 181 194
164 182 193
161 180 192
165 184 196
170 187 198
164 181 192
171 186 199
157 174 181
82 111 69
81 109 67
79 107 67
79 107 66
80 108 66
79 107 65
76 104 63
80 108 66
78 105 65
81 109 68
79 107 65
101 125 103
111 133 119
133 154 149
156 175 181
160 178 189
180 197 214
115 136 124
80 108 66
84 113 70
81 109 67
77 105 64
81 109 67
81 109 67
81 110 69
77 105 63
79 108 66
83 111 69
80 109 67
80 108 67
79 107 66
83 112 69
76 104 64
106 131 108
165 183 195
163 181 192
174 191 205
168 186 199
176 191 207
165 182 194
167 185 199
169 187 201
167 185 197
166 184 197
174 191 204
170 187 201
169 187 199
165 183 196
174 192 206
133 152 146
90 115 87
113 134 118
124 145 136
137 156 155
161 179 189
169 187 197
163 181 191
172 189 204
167 185 200
166 184 197
177 195 211
170 188 202
165 183 195
170 188 200
165 183 196
170 187 199
172 189 203
167 185 196
101 126 104
82 111 68
80 108 67
82 111 69
75 102 62
79 107 66
81 109 67
80 109 67
81 109 67
82 111 69
89 115 81
130 150 143
155 174 183
176 194 210
171 189 203
168 185 195
176 192 207
170 188 202
167 185 199
136 156 154
83 111 69
80 108 67
78 105 64
81 110 68
78 106 66
79 107 66
80 109 67
81 109 67
83 111 68
83 112 69
82 110 68
75 102 61
78 107 65
81 109 67
81 109 67
80 108 67
81 109 68
104 127 103
139 159 162
141 160 160
80 108 67
83 112 70
81 109 67
81 109 67
82 111 69
78 107 66
82 111 69
87 113 79
119 140 130
135 155 151
156 174 181
167 186 199
175 192 209
173 190 202
172 189 201
172 189 201
169 185 197
172 186 195
162 179 190
173 191 204
131 151 147
83 111 69
75 102 62
79 108 66
76 104 64
78 106 65
78 106 65
80 107 65
79 106 65
79 106 65
85 112 77
128 149 141
155 174 182
164 181 195
170 186 197
170 187 200
164 181 193
165 182 193
167 184 195
173 190 204
161 178 187
150 167 171
80 107 66
78 106 65
79 107 67
80 108 67
77 104 62
82 110 67
85 114 71
82 110 68
79 106 65
76 104 63
80 107 65
78 105 64
80 108 66
79 106 66
77 104 64
81 108 67
83 111 68
82 111 69
82 110 68
75 102 61
82 110 69
151 168 174
166 183 194
160 178 190
158 177 186
168 185 195
169 187 200
165 181 190
165 183 194
155 172 181
173 189 202
166 183 196
141 160 162
116 137 127
95 118 98
78 105 65
78 105 64
78 105 64
79 107 67
77 104 63
79 107 66
78 105 64
76 104 64
143 163 165
168 185 194
166 183 194
173 191 207
163 181 192
168 187 202
168 184 194
167 184 197
163 180 191
165 182 194
168 185 196
162 179 189
168 186 200
169 187 199
171 188 201
165 183 196
166 182 194
169 187 201
177 194 209
160 177 187
168 185 197
169 186 199
107 129 112
77 104 64
78 106 65
83 111 68
76 103 62
73 99 60
76 104 63
81 109 67
76 102 62
79 107 65
80 107 66
77 105 64
77 105 64
79 106 65
76 103 63
76 103 63
77 104 63
76 103 63
77 104 63
79 107 66
78 105 64
76 102 62
156 174 181
161 179 190
160 178 190
157 174 181
167 183 195
158 176 185
151 170 178
131 150 148
126 146 140
123 143 134
93 115 93
80 105 73
74 101 61
76 103 63
79 107 65
73 99 60
73 99 60
85 113 70
75 103 62
78 106 65
75 102 62
85 110 78
163 181 191
156 173 180
167 185 197
168 184 195
165 184 195
166 183 195
169 186 200
168 184 196
163 180 190
157 173 180
170 188 199
165 183 196
162 179 190
167 185 198
171 188 200
169 186 198
176 192 207
169 186 200
158 176 187
159 177 188
160 178 189
149 167 172
77 104 64
83 112 69
79 107 66
79 106 66
77 104 63
76 104 63
79 107 66
75 102 62
76 103 62
77 105 64
79 107 66
77 105 64
77 105 64
80 107 65
78 106 65
80 108 66
79 107 65
80 107 65
76 104 64
77 105 64
87 113 82
156 174 182
166 184 196
164 181 194
165 181 191
165 182 191
165 183 197
167 184 196
164 183 194
170 188 201
169 187 203
167 185 197
166 182 191
164 181 192
156 172 181
157 174 180
165 183 195
168 186 200
166 183 194
164 182 193
169 185 196
149 168 174
73 100 60
77 103 63
78 105 64
78 106 65
77 105 64
73 100 60
76 103 62
79 106 66
80 109 67
78 106 65
79 106 65
77 104 63
79 107 65
76 103 62
79 107 66
76 103 62
78 105 63
76 104 62
77 105 65
81 109 67
157 175 183
174 190 205
167 186 201
166 184 194
167 184 194
162 179 188
155 173 183
170 186 197
168 185 199
165 183 194
158 176 184
165 182 194
169 187 200
158 177 187
161 179 191
170 188 202
175 192 206
178 194 209
167 184 194
163 181 191
79 107 67
79 107 65
78 105 64
77 105 64
75 102 61
80 108 67
75 103 62
76 103 62
77 105 64
78 105 65
76 103 63
79 107 66
80 107 65
75 102 62
79 107 66
76 104 63
80 107 65
76 104 63
81 107 70
154 171 176
170 186 198
164 183 195
166 184 196
167 184 193
165 182 192
161 179 189
172 189 202
164 181 191
174 191 206
168 185 198
176 193 207
166 183 193
159 176 187
155 173 183
167 185 196
171 188 202
168 186 200
125 145 139
75 103 62
80 108 66
80 108 67
83 111 69
78 105 64
79 106 70
115 137 124
117 137 124
144 164 169
159 178 188
170 187 199
159 177 187
168 186 201
170 188 203
175 191 206
162 178 189
155 173 182
73 100 60
85 113 70
82 110 68
80 108 66
76 103 62
79 107 66
82 110 69
80 108 66
80 107 66
76 103 63
79 107 66
82 110 68
76 103 63
80 109 68
78 106 65
81 110 68
114 135 121
169 187 199
168 186 199
159 177 189
165 183 195
171 188 202
170 187 203
179 197 214
166 183 194
164 181 192
169 188 201
164 182 190
167 186 199
174 193 208
165 183 193
168 187 201
109 132 113
75 102 62
83 112 70
77 104 64
79 107 65
97 122 97
121 143 133
133 154 154
159 178 186
162 180 192
175 193 206
177 195 211
180 198 215
173 190 204
169 187 200
169 187 198
170 187 199
170 187 199
91 117 87
79 108 67
82 110 68
83 112 70
84 114 71
82 111 69
82 110 68
78 106 66
90 115 87
131 152 142
166 184 195
170 188 200
176 192 205
161 179 189
174 191 205
167 186 199
172 188 200
167 184 196
170 188 202
132 153 147
80 108 66
80 108 66
80 108 66
80 108 67
78 106 65
84 113 70
83 111 68
81 110 68
75 103 62
81 110 68
83 111 69
82 110 68
74 102 62
81 110 69
85 113 75
119 142 131
151 170 177
156 174 184
171 188 200
159 177 187
83 111 68
80 108 66
77 104 63
81 109 67
79 106 64
80 108 67
82 110 68
81 110 69
78 105 64
78 105 64
80 108 67
83 111 74
96 119 96
122 143 134
139 158 160
166 184 194
160 178 186
169 187 200
170 188 202
164 182 193
139 159 158
81 110 69
77 104 63
80 108 67
77 104 63
76 103 62
79 106 65
88 114 81
118 139 130
147 166 169
159 178 190
173 190 204
163 180 190
169 186 198
171 188 200
169 185 196
164 181 192
172 190 204
170 188 201
172 189 202
175 191 203
150 168 176
78 105 64
75 103 63
78 106 64
82 110 68
81 109 67
79 107 66
78 106 66
77 105 63
77 105 63
80 108 66
78 105 65
83 111 69
80 108 67
76 104 64
81 110 67
79 106 65
74 102 62
81 108 67
77 104 63
77 104 63
78 105 64
140 158 157
172 191 204
161 179 189
170 187 199
171 188 201
167 184 196
155 173 182
156 173 183
130 149 141
102 124 106
85 112 73
79 106 65
80 108 67
79 106 66
79 106 65
72 99 58
80 107 66
78 106 65
79 106 64
75 102 62
77 105 64
79 107 66
139 159 159
167 184 195
168 184 194
168 185 197
166 184 194
174 191 204
171 189 199
164 181 193
164 183 194
170 186 200
173 190 205
162 179 189
167 184 196
174 192 205
171 188 200
166 183 192
172 190 204
167 184 196
164 182 196
164 180 193
161 179 188
159 176 183
113 134 124
80 109 68
77 104 63
78 106 65
78 105 64
76 103 63
77 104 63
76 104 64
74 101 60
77 104 63
78 105 64
80 107 66
79 107 65
74 100 60
79 106 65
78 106 65
80 108 66
75 102 61
79 107 66
78 106 64
75 102 62
77 105 64
142 161 161
167 184 195
140 159 161
127 147 144
125 145 135
95 121 92
80 106 70
78 105 64
74 101 61
78 105 65
74 101 61
77 104 63
75 102 62
79 107 66
72 98 59
78 106 65
77 105 64
79 107 66
76 103 63
78 106 65
80 108 67
77 104 64
139 158 158
158 176 185
163 180 193
168 186 200
166 184 195
167 185 199
166 184 199
164 181 194
167 185 197
166 183 193
169 185 195
170 187 199
164 182 193
172 189 202
163 180 189
155 171 179
167 184 194
162 179 191
166 183 195
159 175 183
157 172 179
157 175 182
82 109 73
77 104 63
80 108 67
73 99 60
83 112 69
77 105 65
78 106 65
75 101 61
81 109 67
75 102 62
80 107 66
75 102 63
81 109 67
78 106 65
76 104 63
74 101 61
75 102 61
76 102 62
78 106 65
74 100 60
76 102 61
145 164 168
170 187 197
166 183 193
166 183 197
159 177 187
164 182 194
167 183 194
165 181 194
162 180 192
164 181 192
167 186 201
165 182 193
165 182 196
172 189 203
163 181 191
164 181 190
164 181 194
166 182 191
162 178 187
156 174 180
165 182 194
97 121 95
80 108 66
77 104 63
77 104 63
80 108 67
79 107 67
78 106 65
76 103 63
79 107 66
77 104 63
76 103 62
75 101 61
76 102 62
78 106 64
76 103 62
72 98 59
80 107 66
81 108 67
78 105 64
77 104 63
111 132 120
163 181 191
166 183 196
163 179 191
169 186 199
168 187 201
171 188 201
165 183 192
163 181 190
168 186 201
171 188 203
166 183 196
171 187 199
168 186 200
162 181 195
168 184 196
164 181 191
170 188 203
165 182 195
165 182 192
120 141 134
79 107 65
81 109 67
78 106 65
79 107 66
80 108 67
75 102 62
77 105 64
76 104 63
79 107 66
79 107 66
78 106 65
75 103 61
77 104 63
83 112 70
80 108 66
76 104 63
77 103 63
81 109 67
128 148 144
168 185 198
160 177 187
162 180 191
169 187 199
162 180 192
174 191 204
172 188 200
159 175 185
172 188 198
172 190 205
168 185 198
172 189 203
170 187 198
163 181 189
164 181 191
172 189 202
163 181 192
158 176 186
84 111 74
92 117 87
118 139 129
138 158 160
153 171 175
164 181 193
174 191 204
169 186 199
174 192 205
163 181 192
165 183 194
167 184 195
168 185 197
166 184 194
171 189 201
165 184 198
164 182 193
136 156 152
77 105 64
81 110 68
81 110 68
75 103 63
82 110 69
79 107 65
77 104 64
79 107 66
77 105 65
81 109 68
81 109 67
78 106 65
81 109 67
76 104 64
80 108 67
82 110 68
163 180 189
180 196 211
166 183 197
176 193 208
167 184 193
167 185 200
174 192 208
169 187 199
169 187 199
162 180 192
169 187 199
180 197 212
171 190 204
171 188 199
173 191 204
163 179 188
88 114 83
84 112 69
78 106 65
79 107 66
76 104 64
80 109 68
77 105 64
80 108 66
81 108 68
98 123 101
117 138 125
149 168 169
175 192 209
173 190 201
167 185 199
169 185 196
170 189 202
81 109 66
79 108 67
83 113 71
80 108 66
77 105 65
82 111 68
102 127 100
134 155 153
176 193 209
175 192 207
173 190 203
167 185 196
172 190 203
162 180 192
180 196 212
170 189 202
171 189 207
170 188 205
170 188 200
134 155 154
82 111 69
80 108 67
80 108 67
82 111 69
84 113 70
81 109 67
77 105 64
80 108 66
80 109 66
77 105 64
76 103 63
81 109 68
97 122 96
141 161 161
167 185 194
173 190 203
168 185 198
168 186 199
169 184 194
139 158 157
81 109 67
81 110 67
80 108 67
84 112 70
84 113 71
86 116 72
81 109 67
79 107 66
80 108 67
80 109 67
82 110 68
73 101 61
78 106 64
80 108 66
82 111 69
78 105 65
87 111 80
112 134 123
138 157 157
145 164 165
128 148 141
83 110 77
81 109 67
77 104 63
83 111 72
109 132 115
146 165 171
171 189 204
174 192 207
167 184 198
172 188 201
173 192 207
176 193 207
165 182 194
165 183 194
172 189 200
178 195 210
163 181 193
167 184 195
158 175 185
170 187 198
163 180 190
81 109 68
81 110 68
78 106 65
79 106 65
73 100 59
80 107 65
75 102 61
81 108 66
75 102 63
77 104 64
81 109 66
81 109 67
75 103 63
81 109 67
81 108 66
76 103 63
78 106 64
76 103 63
78 106 65
81 109 67
74 102 61
125 147 137
172 188 200
171 189 205
170 188 203
146 165 168
120 140 130
90 116 84
77 104 63
79 107 66
78 105 63
79 107 66
78 106 64
75 103 62
76 103 62
74 101 61
80 107 66
79 107 65
79 107 66
76 104 63
75 101 61
80 107 66
78 106 64
126 146 137
165 181 190
163 180 189
161 179 189
167 184 194
163 181 192
160 177 185
166 184 198
165 181 193
163 181 194
161 179 191
174 190 203
174 191 205
162 180 190
165 183 195
166 182 194
158 177 185
171 188 203
165 181 193
166 184 198
169 187 199
167 185 197
133 152 148
79 106 65
79 107 65
75 102 62
81 110 67
77 105 64
77 105 64
76 102 62
79 106 65
75 102 62
80 108 66
77 105 64
78 105 64
76 103 63
77 104 63
78 105 64
78 105 64
77 105 64
81 108 72
107 130 116
117 137 129
148 166 170
142 161 165
80 108 66
78 106 65
80 108 66
77 105 64
76 103 62
80 107 65
79 106 66
79 107 65
79 107 66
75 102 61
78 104 63
79 108 67
76 103 63
78 106 64
77 105 64
78 106 66
77 104 64
78 105 65
77 104 64
79 108 66
73 100 61
119 140 129
165 182 194
170 188 201
159 176 184
168 185 198
163 181 193
154 172 179
158 175 182
168 184 195
156 175 184
170 187 201
159 177 185
167 185 198
168 186 196
165 182 194
170 187 200
154 172 183
163 178 188
169 186 198
163 181 191
170 188 201
160 177 184
116 137 124
77 104 64
79 107 65
83 112 68
72 99 59
79 105 64
77 104 64
75 102 62
76 104 63
78 106 64
72 97 58
81 108 66
79 106 65
75 103 62
79 106 66
78 105 64
75 103 62
76 103 63
78 105 64
77 104 64
77 104 64
113 136 122
167 183 195
167 184 197
164 181 189
160 178 187
160 177 186
161 178 189
164 182 193
161 177 185
167 185 200
163 181 188
168 184 199
175 192 209
166 182 194
168 184 195
169 189 202
166 182 190
161 178 187
169 187 199
168 184 195
159 177 186
145 163 168
75 102 62
75 103 63
79 107 65
77 105 63
77 104 63
79 107 67
79 107 65
76 104 63
78 106 65
79 107 66
79 106 65
79 107 66
82 111 68
83 112 69
81 108 67
80 108 67
80 108 66
76 104 64
74 100 60
91 116 88
162 179 188
171 188 204
172 189 203
177 193 207
171 190 204
165 183 196
173 191 206
170 187 200
165 182 195
167 183 192
162 180 192
166 185 196
167 184 196
171 189 202
163 180 190
170 189 202
163 181 190
162 179 192
159 177 187
155 172 178
90 115 84
81 110 68
80 107 66
81 110 68
81 109 67
75 102 63
79 107 65
80 108 66
77 105 65
81 110 68
78 106 66
78 106 64
80 108 67
79 107 66
77 105 65
77 105 64
79 106 66
78 106 65
81 108 70
157 175 183
172 190 204
169 186 198
167 184 196
162 180 190
168 185 196
162 180 188
158 176 186
173 190 203
173 191 206
166 184 198
164 181 191
171 189 201
166 182 193
157 176 185
144 161 164
128 148 146
112 135 123
133 153 152
161 179 186
167 185 198
179 196 209
164 183 197
171 189 203
164 182 193
170 187 198
172 189 201
165 182 194
174 191 205
163 180 190
163 182 194
167 185 197
161 178 185
169 188 202
166 184 199
168 186 199
100 124 105
74 101 61
79 107 66
79 107 64
80 108 67
77 105 64
79 107 65
78 106 65
77 105 64
77 104 64
82 110 69
77 105 64
79 107 67
83 112 70
83 112 69
82 110 69
91 116 86
179 195 210
166 184 194
175 191 205
163 181 192
166 184 198
178 194 208
171 188 201
180 197 212
164 183 195
175 193 210
174 191 205
167 184 196
172 190 205
168 187 199
169 185 197
140 161 164
84 113 71
83 111 69
80 108 67
77 105 64
80 108 67
77 106 65
81 109 68
80 108 67
83 111 67
82 111 69
82 112 70
173 190 204
167 184 196
175 192 206
178 195 211
160 179 188
81 110 69
79 107 66
81 109 68
87 116 72
105 127 108
154 171 177
169 187 202
170 188 201
166 185 199
173 190 201
172 190 203
161 179 188
168 186 198
166 183 196
159 177 185
166 182 194
162 180 189
170 188 201
173 191 206
130 150 144
80 107 65
82 110 68
80 108 66
85 113 70
82 110 68
76 104 64
79 107 66
80 108 67
84 113 70
81 109 68
123 144 135
150 169 174
173 191 205
171 188 200
170 187 199
178 196 210
173 191 204
169 186 198
174 191 207
143 162 164
82 110 67
77 104 63
79 107 66
83 111 69
83 112 69
81 110 68
78 105 64
83 111 68
80 109 67
81 109 67
78 106 65
80 108 67
77 104 64
79 106 64
80 108 67
76 103 63
78 106 66
78 106 66
81 110 68
83 112 70
130 150 143
168 185 197
142 160 160
97 121 97
131 151 147
144 162 161
162 180 193
171 189 200
163 181 193
174 192 208
177 194 208
178 195 210
165 183 194
173 190 201
166 183 194
168 185 198
166 184 195
165 182 193
161 178 189
171 189 204
168 185 199
161 180 190
83 110 73
81 110 68
78 105 65
73 100 60
75 103 63
81 109 66
75 102 62
79 107 66
78 105 64
75 102 62
81 109 68
79 107 65
78 107 65
83 111 68
83 112 70
82 110 68
77 105 64
79 106 65
79 106 64
76 102 61
78 105 64
108 132 114
134 153 153
123 141 134
89 114 86
77 105 64
80 108 66
80 109 67
81 109 67
78 106 65
77 105 63
74 101 60
81 109 67
76 103 63
77 105 64
77 105 65
82 110 68
77 105 64
76 102 62
80 108 67
80 108 66
75 102 61
78 106 65
111 133 117
174 190 205
161 178 189
163 180 192
166 184 197
163 180 190
166 184 198
158 176 184
160 179 188
159 178 188
168 186 200
165 183 192
172 189 203
163 179 189
161 179 190
168 185 197
171 186 199
165 182 193
175 193 206
176 193 206
161 179 191
160 177 188
158 176 187
77 104 64
75 102 62
78 106 65
81 108 67
79 106 65
75 102 61
81 109 68
74 101 61
74 101 61
78 105 64
78 106 65
74 101 61
81 108 72
99 122 102
118 140 125
142 161 160
164 182 196
162 179 189
162 177 186
164 181 192
173 189 204
155 172 180
84 111 74
79 106 65
78 105 64
80 108 66
76 104 64
73 100 61
76 103 63
78 105 64
77 105 65
77 104 63
77 104 64
82 111 69
75 102 61
79 108 67
77 104 63
83 112 69
80 109 67
76 103 62
78 105 64
78 106 64
73 100 60
79 105 72
166 183 193
165 183 196
164 181 192
163 181 191
168 185 197
164 181 191
167 184 194
163 179 189
162 179 187
162 179 189
167 182 192
166 184 196
162 180 191
158 175 180
169 186 199
163 181 193
175 191 203
169 186 200
165 182 194
170 187 199
165 182 195
144 163 166
78 106 65
79 106 64
80 107 65
72 99 60
78 105 64
78 106 66
80 108 67
73 100 61
74 101 61
77 104 63
77 105 65
78 105 65
78 106 66
83 111 69
77 104 64
78 105 64
79 107 66
77 105 63
80 108 66
76 103 63
79 105 67
163 181 192
166 183 195
163 181 191
164 181 192
151 169 178
162 178 189
173 189 201
160 178 188
172 190 203
171 188 201
165 183 196
170 188 203
159 177 186
168 184 196
173 190 205
165 183 192
166 184 195
161 179 189
165 181 192
157 175 184
162 179 190
90 115 86
82 110 68
74 100 61
84 112 69
83 112 69
76 103 64
79 107 66
76 103 62
79 107 66
79 107 65
80 108 66
73 100 60
77 104 64
79 107 66
78 106 65
81 110 68
74 101 62
81 109 66
76 104 62
78 106 65
132 152 145
169 187 200
173 191 207
164 180 191
167 185 195
173 191 203
175 192 207
169 186 200
156 174 185
156 174 180
178 194 209
171 188 201
163 179 191
163 181 191
169 186 198
167 184 198
169 186 199
175 192 207
171 187 200
159 176 184
120 139 132
78 106 65
75 103 63
79 107 66
80 109 67
81 109 68
77 104 64
78 107 65
80 108 67
77 103 63
82 110 69
80 108 66
80 109 68
78 106 65
78 106 65
77 104 64
78 106 65
80 108 67
80 107 66
114 136 122
161 180 189
166 183 197
171 187 198
167 184 195
175 190 202
165 182 194
180 196 210
160 176 187
142 161 162
136 156 152
126 146 137
103 126 108
81 108 69
79 106 65
78 106 65
77 105 65
77 105 64
84 111 77
157 175 182
170 186 198
173 192 207
170 189 202
168 184 195
168 187 204
167 185 197
173 190 201
168 184 195
180 196 213
168 186 200
168 185 197
176 194 207
159 177 188
160 178 188
175 193 209
173 191 207
154 172 179
82 111 68
80 108 66
81 110 68
80 108 67
78 106 65
80 108 66
79 108 67
80 109 67
79 107 66
78 106 64
79 107 66
78 105 66
80 108 66
80 108 67
80 109 67
79 107 66
127 148 143
176 193 207
172 190 205
171 189 204
174 193 209
168 187 198
165 183 194
170 188 200
169 186 197
171 189 203
170 186 198
173 192 210
168 186 200
177 193 206
166 183 193
174 191 205
114 136 123
79 106 66
78 107 66
77 105 64
81 110 69
79 107 66
79 107 67
83 112 70
77 105 64
81 110 68
79 107 66
171 189 203
181 198 216
172 190 206
180 197 213
154 173 179
81 109 67
82 110 68
114 137 122
155 174 183
178 195 212
176 193 210
173 191 204
167 185 196
175 192 208
172 189 202
172 190 205
173 191 204
173 191 204
172 189 202
167 185 199
171 189 204
169 187 201
181 197 214
169 186 197
115 138 125
81 110 68
81 109 67
78 106 63
82 111 69
79 107 66
84 113 70
79 108 67
90 116 82
134 153 147
163 181 191
172 190 204
171 190 204
173 189 202
170 188 201
164 181 191
169 186 199
167 185 198
170 187 200
179 196 209
148 166 172
85 115 72
82 110 69
83 111 69
82 110 68
82 111 69
80 109 67
75 101 61
79 106 64
79 107 66
79 108 67
79 107 66
84 112 69
80 108 66
77 105 64
78 106 64
80 108 68
83 111 69
81 109 67
83 112 69
99 123 102
130 150 146
101 126 99
80 107 66
78 106 65
78 106 65
79 106 66
74 101 62
82 108 74
106 130 111
130 150 147
140 159 161
149 168 172
156 174 182
173 190 202
170 187 200
165 181 189
164 181 192
167 185 197
168 185 197
163 181 191
168 186 200
171 187 201
85 110 78
81 109 67
78 106 65
82 110 68
76 102 62
80 108 66
82 110 68
81 108 66
77 104 63
81 109 67
81 109 67
79 106 65
80 108 66
79 107 66
77 105 65
78 106 65
79 107 66
77 104 64
96 120 95
130 150 146
157 176 183
171 187 195
80 108 67
78 106 65
79 107 65
76 103 62
78 105 64
80 107 66
81 109 67
76 104 64
80 108 66
81 109 67
78 106 64
78 106 65
76 102 61
81 109 68
77 104 62
76 103 63
80 109 67
75 102 61
77 104 64
80 109 67
83 112 69
82 107 73
170 188 200
169 186 198
169 186 200
169 186 199
170 187 198
162 180 190
169 187 200
170 187 197
158 176 186
168 185 198
169 186 198
165 183 195
163 180 191
153 171 179
165 182 194
169 185 196
166 184 195
168 186 196
175 191 206
166 182 195
168 185 198
167 183 195
97 122 100
76 103 62
81 109 67
79 107 65
82 110 69
84 112 70
77 104 64
78 105 64
95 121 91
110 132 118
137 155 154
144 164 166
152 170 178
165 183 195
157 176 185
173 190 206
167 184 195
166 183 194
172 188 202
157 175 187
162 179 189
171 188 202
105 127 108
78 106 65
78 106 65
80 108 67
76 102 63
79 107 65
77 105 64
76 103 62
79 107 65
79 106 65
75 101 60
80 107 66
79 106 65
77 105 64
80 107 66
76 103 63
81 109 67
80 108 66
78 106 65
73 100 60
74 101 61
78 105 64
148 167 175
167 184 198
167 184 195
170 187 199
170 187 198
163 180 191
166 183 196
164 182 194
157 175 181
173 190 207
169 186 200
164 183 197
163 180 190
159 177 185
166 184 195
166 181 192
164 180 189
163 180 191
166 184 197
161 177 185
163 181 188
166 183 197
89 115 80
81 109 67
78 107 65
83 111 69
76 103 62
73 100 60
76 103 62
76 104 63
78 106 66
80 108 66
80 108 67
76 104 63
78 105 64
82 110 68
80 108 66
80 108 65
74 101 61
76 103 63
73 100 61
76 103 64
75 103 62
130 149 146
164 181 193
167 185 197
171 189 204
162 180 191
163 180 190
165 182 192
167 184 196
164 182 193
169 186 199
164 182 193
172 189 203
170 188 200
162 180 192
168 185 197
161 179 190
162 179 189
170 187 200
166 185 200
155 173 183
151 169 175
136 155 154
80 108 67
78 106 65
78 105 64
81 110 68
73 99 60
79 107 66
74 102 61
81 109 66
77 105 64
75 102 62
76 104 63
79 106 64
79 107 66
80 108 67
86 112 76
83 111 75
92 114 89
100 123 101
90 114 88
106 128 113
154 171 176
154 172 180
148 167 171
148 167 171
122 142 131
149 167 173
131 151 149
131 152 149
124 144 136
129 150 146
138 158 155
122 144 136
127 148 143
129 150 144
123 145 136
128 149 143
127 148 143
125 145 136
123 143 134
115 136 123
134 155 151
143 162 163
139 159 158
140 160 158
137 156 155
127 147 143
139 160 159
136 155 150
129 149 142
121 142 131
138 158 160
118 139 126
128 148 145
116 139 127
122 142 134
112 134 119
104 129 109
122 144 134
101 126 100
148 167 171
165 183 195
150 168 175
149 167 171
129 149 143
106 130 111
89 115 84
82 110 68
79 107 65
77 105 64
79 107 66
77 105 64
80 108 67
79 107 65
78 106 65
84 112 69
78 106 65
83 111 69
136 156 152
174 192 205
171 189 205
174 192 209
168 185 196
175 191 206
167 184 198
167 185 194
157 174 184
179 197 213
166 184 197
167 185 197
171 189 203
165 183 193
176 192 206
165 182 192
176 194 212
178 195 212
110 133 118
84 112 70
78 106 65
78 105 64
78 107 66
81 108 67
78 106 65
79 106 64
81 109 67
79 107 65
80 109 68
82 110 67
77 105 65
84 113 71
80 108 66
78 106 65
84 112 75
166 184 194
176 193 207
169 187 201
174 192 210
175 192 208
173 190 203
160 178 188
174 191 205
175 192 207
170 188 203
177 194 211
170 187 200
174 193 209
172 190 203
165 183 194
171 188 201
86 112 77
81 109 67
82 111 69
79 107 65
80 109 66
80 109 66
79 108 66
80 109 68
86 116 72
82 109 67
175 193 207
175 193 207
165 184 196
174 192 208
141 158 159
119 141 133
168 186 197
172 190 202
176 193 209
176 195 210
172 188 200
179 197 214
171 189 204
168 186 200
173 190 204
180 196 211
168 186 200
161 178 188
176 194 208
162 180 190
175 192 205
171 188 200
170 188 201
170 187 202
115 136 123
81 109 67
81 109 67
81 110 68
79 107 66
81 110 68
91 116 86
152 171 177
166 185 199
170 188 200
171 188 202
171 188 202
174 192 209
171 189 203
173 191 205
163 180 191
165 182 194
173 191 201
176 194 209
171 189 205
158 176 186
84 113 70
77 105 64
80 108 67
81 110 68
81 109 67
81 108 67
76 103 62
80 108 66
80 109 67
77 105 65
82 110 68
79 106 65
77 105 64
80 108 67
83 112 69
80 108 67
83 111 71
126 146 143
143 162 166
161 178 187
147 163 165
83 111 69
80 108 66
78 105 64
75 102 62
82 110 68
78 104 64
79 107 65
81 109 68
83 111 69
82 110 68
77 105 65
77 105 65
95 120 93
107 130 111
128 150 143
136 156 158
154 172 176
157 175 183
167 186 200
172 189 203
175 192 205
113 136 120
79 107 66
78 105 64
81 109 67
78 106 65
81 110 69
75 103 62
78 106 65
78 106 65
76 103 64
78 106 65
78 105 64
77 105 64
77 104 63
78 106 65
114 136 120
131 150 150
155 173 179
172 190 205
167 184 194
168 186 197
159 177 185
95 120 93
80 108 66
72 98 58
78 106 65
79 107 66
78 106 65
82 110 67
82 110 68
77 105 64
77 104 64
77 105 65
81 108 66
79 107 66
83 111 68
75 102 60
77 106 65
82 110 68
77 104 63
83 110 68
82 110 67
80 108 67
80 109 67
156 174 180
167 185 197
166 182 195
157 174 183
172 188 202
159 178 187
167 184 198
166 183 193
170 186 198
159 176 187
163 181 192
166 183 193
165 183 193
164 182 192
167 184 195
164 182 193
160 177 188
170 188 200
160 177 188
166 183 194
164 181 192
162 179 189
125 145 138
75 102 62
77 105 64
77 104 66
92 118 88
118 139 127
135 153 152
152 170 177
170 187 199
173 190 204
173 190 205
162 180 190
169 187 200
163 180 190
163 180 189
165 182 191
169 187 200
170 187 199
175 192 207
165 182 191
172 189 204
174 192 207
136 155 153
83 110 68
80 107 66
80 108 67
76 103 62
75 102 62
81 110 68
80 108 67
78 106 65
80 107 66
81 109 68
78 106 66
77 105 63
77 104 64
75 102 62
75 103 63
78 106 65
81 109 67
78 105 64
75 103 63
82 110 68
74 102 62
136 155 154
163 181 192
164 183 194
173 191 205
170 187 202
171 189 206
175 192 206
162 179 190
169 186 198
164 182 195
169 186 200
168 184 195
161 178 189
168 184 193
166 183 194
167 183 193
169 186 200
160 177 183
170 187 200
169 186 200
168 184 195
167 185 197
113 135 122
80 108 66
79 106 65
77 105 65
80 108 65
80 108 68
79 107 66
77 105 64
79 108 66
77 105 64
80 108 66
78 106 65
79 107 65
79 107 66
76 104 64
77 104 64
75 102 62
77 104 63
81 109 68
76 104 63
76 103 63
102 125 106
156 174 181
163 180 191
169 187 199
162 179 187
172 189 204
162 180 191
172 189 201
164 182 195
161 179 187
164 180 192
171 189 204
168 184 196
164 182 194
169 185 195
165 182 192
165 181 192
170 187 199
166 182 194
160 177 188
162 180 190
156 175 181
99 122 101
111 133 118
122 143 130
120 142 134
133 152 149
136 155 155
142 162 161
138 157 156
145 163 164
150 169 174
159 176 182
158 175 181
152 170 176
167 184 195
170 186 197
172 190 203
164 180 191
165 183 193
170 187 201
164 183 195
113 136 122
79 107 66
78 105 64
79 107 66
81 109 67
77 104 63
81 110 68
81 110 68
78 106 65
79 108 67
78 106 65
82 111 68
78 106 64
75 101 61
76 103 63
81 110 68
74 101 60
82 110 69
74 100 60
82 110 68
140 160 160
164 182 196
171 187 201
165 183 193
164 182 196
164 182 193
167 184 194
182 199 219
168 186 200
165 183 195
167 185 196
171 188 202
170 188 200
163 181 193
167 185 196
150 169 172
138 157 155
127 147 141
118 140 127
113 135 124
165 184 195
178 196 212
165 182 194
163 181 191
171 186 199
172 188 203
155 173 178
158 175 183
162 180 189
148 165 166
136 155 157
141 160 159
138 157 155
124 145 137
120 141 133
121 142 130
109 131 115
109 132 117
152 170 176
170 188 203
167 185 198
171 187 197
159 177 185
174 191 205
164 182 195
168 186 198
173 190 202
164 182 195
158 176 183
169 186 200
166 185 195
163 182 194
168 186 200
176 193 207
179 196 211
153 170 176
83 110 73
77 104 63
85 114 71
82 111 69
82 111 70
82 110 68
81 109 67
80 108 66
78 106 65
82 111 69
76 104 63
82 111 69
73 101 61
81 110 68
79 107 65
83 111 68
106 129 110
170 188 202
173 191 208
170 188 200
176 195 213
175 193 206
167 185 198
159 178 188
171 190 203
170 187 198
178 195 211
180 197 213
173 191 207
176 194 209
164 183 195
166 184 196
153 172 181
79 108 67
81 109 67
76 104 64
83 111 68
83 112 69
79 107 65
80 108 66
79 107 66
87 116 73
174 191 205
170 188 202
166 185 199
135 156 156
133 153 151
175 193 208
173 191 205
171 188 201
176 193 208
177 194 209
171 188 200
170 187 202
171 190 207
174 190 204
175 191 205
175 192 206
172 190 204
166 183 195
172 190 206
169 187 200
172 189 201
166 183 195
177 194 207
162 180 190
105 129 106
87 116 72
85 114 72
80 109 67
117 138 122
152 172 181
173 191 204
177 195 211
171 189 206
173 190 202
166 184 195
170 188 202
166 184 196
165 184 197
170 188 202
179 196 213
173 190 205
170 188 202
161 178 186
172 189 203
144 163 167
82 110 68
80 108 67
80 109 67
81 110 67
81 110 68
78 106 66
80 109 67
83 111 69
82 111 69
83 111 69
84 112 68
80 108 67
79 108 66
82 110 67
104 128 105
144 164 166
167 184 196
170 188 201
173 191 205
164 182 194
162 179 185
76 103 63
80 107 66
80 108 67
81 110 68
80 107 66
78 107 67
80 108 67
82 110 67
77 105 65
81 109 66
77 105 64
80 108 67
78 106 65
76 103 63
77 105 65
81 109 67
79 107 66
79 107 65
79 106 71
97 120 101
119 138 126
136 156 153
124 145 135
107 131 109
83 109 74
78 106 68
80 108 66
75 103 62
82 111 68
76 104 64
78 106 65
77 104 63
79 107 65
119 140 130
145 164 167
163 179 187
174 192 208
158 175 185
172 190 204
162 180 191
164 180 191
167 184 195
160 178 188
104 128 109
78 106 65
80 108 67
81 109 67
79 106 65
78 105 64
73 99 61
78 105 64
81 109 67
77 104 63
76 104 63
73 100 60
83 113 71
78 105 65
78 105 64
76 103 62
72 99 60
80 108 66
77 105 64
76 103 62
83 111 69
77 104 64
144 164 166
172 190 204
167 184 195
173 191 204
175 192 205
162 179 188
167 185 197
172 189 203
169 187 198
167 184 198
173 190 205
175 192 204
162 179 190
162 180 190
164 181 191
164 181 189
163 180 190
163 180 190
167 184 196
173 190 202
170 187 201
168 185 197
126 145 141
127 148 142
149 169 176
156 174 180
168 184 198
171 188 198
164 179 189
166 182 191
166 183 192
171 187 200
159 176 183
166 184 194
167 185 197
175 192 206
170 188 201
157 174 183
162 180 190
171 189 204
168 185 196
168 186 201
168 185 199
167 185 198
136 155 154
79 107 66
76 103 62
77 104 63
81 109 67
73 99 60
77 105 64
81 109 68
82 109 67
76 104 63
81 109 67
81 108 66
79 106 66
80 108 66
79 106 65
74 101 61
78 106 65
81 109 67
79 108 66
78 107 65
79 107 65
75 102 61
106 129 111
171 188 200
166 183 196
162 179 188
158 177 188
173 190 203
170 186 197
159 177 187
159 176 184
171 188 200
162 179 193
165 181 192
163 180 193
165 183 194
162 179 189
170 187 199
162 179 191
159 176 186
167 185 198
170 187 200
169 185 196
170 188 200
149 168 173
78 105 64
78 105 64
74 102 62
79 107 65
81 109 68
79 106 65
78 106 65
80 108 67
75 102 62
78 106 65
80 107 65
81 110 69
76 103 63
76 103 63
81 109 68
80 108 66
79 107 66
81 109 67
77 103 64
78 105 64
77 104 62
155 173 179
168 185 199
169 185 199
167 185 195
168 187 199
170 186 198
162 179 190
167 184 196
160 178 187
154 172 180
144 163 164
138 158 157
136 157 154
130 150 146
118 140 127
103 127 106
100 122 104
85 111 81
78 104 67
85 112 77
79 106 65
144 162 164
170 187 201
166 183 193
159 177 188
175 190 206
169 187 200
165 182 193
169 188 202
166 184 196
163 180 191
169 185 196
163 181 191
159 177 186
175 192 206
158 175 181
171 188 201
165 182 192
171 190 204
162 182 194
170 187 197
157 174 185
84 110 76
78 106 65
82 110 68
77 105 64
80 108 67
80 108 67
80 107 65
79 107 65
81 109 68
80 109 67
82 110 67
78 107 66
83 112 69
77 104 64
81 109 67
76 104 64
78 105 65
79 107 65
81 109 67
95 121 90
167 185 197
177 194 210
164 180 187
168 185 198
163 181 193
160 179 187
153 171 177
153 172 179
139 158 160
135 155 152
112 135 121
99 122 97
88 113 82
79 107 65
78 105 65
83 112 69
77 106 65
79 107 65
78 105 64
158 176 183
176 192 206
156 173 181
175 192 206
172 189 202
170 188 201
164 182 193
173 190 203
166 184 198
175 192 208
167 184 195
165 182 195
165 184 195
167 184 195
162 180 191
171 189 202
170 186 197
171 189 204
154 172 177
82 108 72
79 107 65
98 123 97
106 130 109
122 142 131
116 139 128
128 149 143
129 150 144
138 159 157
148 167 172
160 178 187
167 185 196
170 188 202
171 189 202
167 184 194
165 183 195
174 192 206
143 162 163
81 110 68
85 114 72
78 105 65
78 106 65
84 113 70
79 106 65
80 108 67
78 107 65
82 111 68
81 110 68
83 111 68
79 107 65
81 110 68
82 110 69
82 111 68
80 109 67
134 154 150
167 184 195
167 184 197
173 191 204
169 186 199
168 186 197
168 187 200
161 180 192
168 186 201
170 188 201
169 187 201
175 192 207
167 185 197
168 187 201
168 187 200
168 186 200
121 143 133
83 111 68
81 110 68
81 111 69
80 108 67
83 112 70
82 111 69
83 112 69
84 112 69
175 192 206
138 157 157
102 127 98
77 106 65
145 165 166
176 193 209
165 185 199
168 186 197
174 190 201
172 188 202
164 182 194
166 184 197
177 194 210
172 189 202
179 194 206
174 191 206
172 191 206
177 195 211
179 197 215
170 188 201
168 185 198
167 186 201
171 190 203
168 185 200
105 129 107
93 121 92
122 143 133
164 182 193
165 183 194
165 183 195
177 195 213
166 184 198
160 179 189
173 189 202
164 182 196
174 191 204
164 180 189
173 190 203
164 182 192
173 190 204
168 185 195
169 185 198
173 192 207
171 189 204
151 170 173
80 109 67
82 110 68
79 107 67
79 107 66
81 109 68
82 110 67
80 108 66
77 104 64
85 114 71
84 112 69
81 109 68
91 115 89
129 151 143
164 182 191
172 189 201
172 188 200
184 201 218
161 178 188
166 185 197
173 190 206
159 178 188
80 108 67
78 106 64
79 107 66
83 111 70
77 104 63
81 110 67
80 108 67
77 106 65
79 107 65
80 107 66
79 107 66
81 110 69
84 114 71
79 106 65
82 110 68
77 104 63
79 108 67
79 107 66
79 108 66
82 111 69
78 106 66
135 155 153
174 191 204
170 187 198
165 182 195
158 177 185
155 173 180
144 163 165
134 154 152
120 142 131
85 110 80
120 140 132
155 173 180
167 185 198
170 187 199
175 192 205
164 182 193
166 183 195
177 195 210
175 192 208
163 179 189
167 185 199
171 186 194
114 137 121
79 107 65
82 110 68
78 106 64
81 110 68
76 104 64
80 107 66
80 108 67
82 111 68
78 106 65
75 102 62
80 108 66
75 103 62
77 105 64
80 108 67
79 107 66
78 105 65
77 103 63
77 104 64
76 103 63
76 104 64
79 106 65
130 149 145
171 188 202
174 192 206
169 187 199
165 182 194
165 182 193
172 189 201
171 188 200
166 183 194
165 183 194
161 178 190
163 180 191
179 197 213
168 185 196
168 186 196
163 180 194
163 182 193
154 171 179
151 169 173
120 141 128
105 127 111
87 112 84
103 126 108
160 178 189
165 182 192
167 184 198
162 180 192
171 187 199
157 176 186
166 183 195
172 190 203
169 187 201
157 174 182
170 187 199
163 180 193
171 189 202
163 181 191
165 184 195
164 182 192
164 182 194
160 179 189
173 191 205
170 187 200
162 179 190
160 179 190
93 120 89
79 107 66
79 106 66
78 105 64
80 108 66
81 109 67
78 105 64
78 107 66
85 113 70
77 104 64
78 106 66
80 108 66
78 106 66
73 101 61
77 105 64
81 109 66
78 106 66
83 111 68
78 106 65
81 109 67
78 106 65
83 110 73
159 177 186
167 183 195
171 188 202
162 180 191
158 177 189
164 180 189
157 175 183
168 185 195
170 187 200
173 188 201
168 186 199
173 191 204
170 188 204
156 173 181
164 182 192
162 179 188
169 186 201
167 184 194
172 189 205
172 188 198
172 189 203
163 181 192
87 112 84
75 103 63
80 107 66
79 108 66
82 110 68
78 105 64
77 105 63
81 109 68
81 109 68
78 106 64
79 107 65
74 101 62
78 105 64
78 105 64
82 110 67
76 104 64
80 107 66
80 107 65
85 111 73
90 117 87
103 125 108
129 149 145
132 152 147
125 145 138
123 143 136
99 123 102
93 116 93
89 114 87
88 114 78
80 107 68
78 106 65
77 104 64
77 104 63
79 106 65
72 99 59
82 109 67
79 107 64
77 105 65
76 104 63
79 106 65
79 107 65
77 104 64
103 123 105
154 171 178
169 186 200
152 170 180
159 177 187
173 190 204
170 187 200
170 188 202
170 187 199
168 186 201
171 189 203
159 177 188
166 183 195
170 188 200
170 188 202
168 185 197
168 185 197
166 183 196
157 174 183
166 182 192
169 186 198
117 139 131
80 107 66
75 102 62
78 106 65
75 103 63
77 105 64
79 107 66
79 106 65
73 99 59
82 110 68
79 106 65
80 108 67
83 111 68
80 108 67
85 114 71
76 104 63
76 104 64
78 106 65
89 116 82
99 124 99
138 156 157
138 159 158
115 137 128
111 134 120
105 128 106
87 113 83
77 104 64
80 109 66
80 108 66
82 110 68
82 110 68
84 114 71
76 103 63
82 110 68
82 110 68
76 103 64
80 108 67
81 108 66
79 107 66
105 128 110
167 185 198
166 183 191
178 195 210
173 189 201
177 195 212
162 179 191
170 187 199
165 183 196
181 199 217
165 182 192
167 184 197
175 193 207
178 194 210
178 197 214
170 187 198
172 189 202
163 181 190
175 191 205
114 136 121
81 109 68
78 106 65
79 108 67
78 106 65
81 109 67
81 110 68
83 112 70
78 105 65
82 111 69
83 112 70
79 107 66
85 112 74
91 117 89
109 130 115
121 142 134
127 148 141
147 164 164
104 128 106
98 123 101
94 121 92
80 108 67
77 104 63
80 108 66
78 107 65
81 110 67
78 106 65
85 114 71
78 106 65
80 108 64
80 109 67
82 111 69
79 107 66
78 106 64
87 114 78
164 183 194
168 185 196
175 193 207
172 191 208
173 192 205
168 187 200
173 191 207
172 189 201
176 194 210
179 195 210
176 193 208
169 187 201
174 192 210
170 186 197
172 190 204
180 197 213
90 116 81
78 106 65
80 108 66
83 112 70
82 110 68
82 111 70
80 108 67
81 110 68
102 127 100
84 113 70
84 114 72
77 104 64
134 155 151
180 197 215
179 196 211
175 193 210
174 192 207
177 195 211
168 186 199
177 194 208
168 186 199
170 188 201
168 186 197
165 184 195
171 189 201
168 187 198
164 182 190
171 190 204
168 185 195
162 181 194
178 194 209
166 185 195
139 158 157
172 190 203
173 190 204
170 188 201
163 182 196
172 190 205
181 198 214
169 187 199
173 192 208
169 185 196
168 186 199
174 190 205
170 188 203
174 191 206
169 187 201
170 188 201
172 190 205
173 191 208
168 186 199
168 186 198
145 164 168
76 103 63
78 106 65
81 110 68
80 108 67
81 108 67
83 111 69
84 112 70
80 108 66
82 110 68
100 124 104
153 171 177
176 194 209
167 186 198
177 195 212
173 190 202
170 187 196
163 182 192
172 191 205
166 184 197
171 188 202
162 180 189
78 106 65
79 107 66
79 107 65
82 111 68
81 109 67
78 106 65
82 111 70
81 110 69
82 111 69
77 105 64
82 111 68
77 105 64
77 104 62
80 108 66
78 106 64
78 106 65
80 108 66
81 109 68
77 104 63
81 109 67
81 110 68
129 150 144
176 194 212
176 194 208
163 180 192
173 190 203
169 186 197
150 168 171
112 134 119
93 118 89
79 107 66
81 109 68
80 108 69
89 114 86
106 129 111
121 141 131
126 145 140
129 150 145
148 166 170
152 171 178
171 188 200
173 189 202
178 196 212
144 164 164
81 110 68
82 110 68
76 103 62
78 107 65
80 108 65
80 109 67
80 108 66
81 109 67
76 102 61
75 103 64
79 107 66
79 107 66
77 105 64
74 101 61
81 109 67
81 109 68
76 104 64
79 106 65
81 110 68
75 101 61
79 106 65
116 138 124
176 193 207
163 181 191
166 182 191
174 190 203
174 192 207
168 186 199
173 190 204
168 185 196
160 176 187
162 179 189
166 182 194
174 190 202
163 180 190
155 173 177
139 157 155
116 137 126
81 108 72
80 107 66
82 111 69
78 106 65
77 105 65
88 115 79
172 189 202
164 182 192
172 189 203
162 180 192
161 178 189
163 181 193
168 184 195
165 183 194
161 179 189
172 190 204
172 189 206
167 185 198
162 179 188
162 181 193
167 184 195
165 183 195
163 181 193
161 178 188
173 192 207
171 188 199
162 180 192
160 177 185
119 140 129
82 111 69
76 103 63
82 110 67
80 108 66
77 105 64
79 107 66
75 102 62
79 106 64
78 106 65
79 107 67
77 105 64
77 105 64
79 106 64
81 109 68
75 102 62
77 104 63
79 106 65
82 110 69
76 104 63
82 110 68
79 107 66
144 162 163
165 181 192
167 185 199
165 181 193
154 173 182
169 186 199
171 190 204
174 192 208
164 181 188
167 185 197
159 177 186
164 182 192
163 180 191
167 184 194
160 177 186
153 172 180
169 186 196
169 186 196
174 191 202
166 184 196
169 186 199
167 185 199
136 155 150
73 100 59
81 109 66
82 112 70
77 104 64
78 106 64
78 106 66
79 106 64
81 110 68
80 108 65
89 114 86
97 122 96
103 126 104
122 143 133
126 145 137
133 151 150
151 170 177
155 173 182
164 182 189
175 193 207
172 190 206
166 184 195
98 123 94
77 105 64
77 104 64
77 104 63
80 108 66
78 105 64
76 104 63
83 111 68
78 106 65
77 105 64
77 104 64
76 104 63
82 111 68
74 101 62
80 108 67
76 104 64
77 104 64
77 104 64
82 109 67
82 110 68
80 106 67
157 175 183
176 193 206
174 192 203
165 184 195
167 185 198
169 187 202
166 184 197
169 186 197
173 191 206
167 184 196
167 184 197
164 182 192
171 187 199
167 185 198
161 179 187
171 187 198
169 186 200
170 187 200
166 184 198
158 175 182
155 173 180
83 109 76
75 102 62
78 105 65
82 109 67
80 108 66
83 112 69
82 110 68
77 104 64
82 110 71
83 111 74
104 127 105
117 139 124
133 154 151
141 161 161
147 166 168
157 176 184
167 183 190
170 187 199
178 196 212
171 189 202
84 113 73
81 109 67
78 106 66
78 105 65
81 108 66
78 106 65
79 107 65
82 111 69
78 106 65
80 107 66
79 107 66
75 103 63
82 110 68
80 108 67
75 101 61
78 106 64
78 105 64
84 113 70
80 109 68
149 168 174
170 188 200
160 178 189
174 191 205
170 186 196
176 192 206
177 194 210
162 180 187
172 189 202
170 188 200
163 182 194
172 189 202
170 187 199
165 183 197
164 182 192
167 185 198
169 187 200
164 182 193
163 180 188
86 112 76
82 111 68
81 109 67
80 108 66
80 106 66
79 107 66
81 109 67
82 110 69
81 109 67
79 107 67
79 106 65
79 108 66
83 112 70
81 110 69
78 106 65
77 104 63
78 107 65
111 134 118
169 186 198
169 187 201
160 178 187
156 175 184
148 168 171
146 167 168
126 147 139
118 141 129
107 130 113
87 113 80
81 110 68
82 110 67
83 111 69
81 109 66
82 111 68
84 113 70
106 131 110
168 185 199
172 189 201
183 200 218
170 189 204
173 191 206
172 189 202
170 188 204
175 192 208
169 188 203
173 191 205
175 192 207
170 189 202
178 196 213
170 188 201
170 187 197
154 172 177
81 109 67
81 110 68
83 112 70
84 113 71
78 106 65
80 108 66
78 106 64
79 106 64
81 110 68
80 108 66
79 107 66
152 171 174
167 185 199
176 195 211
170 189 204
169 187 201
179 196 212
181 197 213
173 191 206
166 184 194
172 190 205
175 192 206
176 194 211
167 185 198
180 197 213
171 190 204
173 192 208
181 197 213
158 176 184
121 143 137
83 111 72
159 178 189
176 195 213
167 185 198
169 187 199
164 181 191
174 192 207
180 197 214
167 184 195
166 183 194
171 187 200
170 188 199
171 188 200
173 191 205
176 193 208
165 183 194
164 182 193
163 181 192
176 194 208
171 189 201
174 192 206
146 165 171
79 108 67
82 111 69
79 108 67
76 104 64
78 107 65
83 112 69
93 118 89
136 155 150
163 182 194
173 190 202
179 194 209
166 184 194
171 190 204
171 189 202
180 197 215
180 198 214
166 184 196
164 182 194
158 176 185
167 185 199
161 180 193
77 105 64
83 111 69
80 107 65
82 110 69
76 104 64
80 108 66
78 107 65
79 107 66
81 109 67
79 106 65
82 110 68
78 105 64
81 110 68
83 111 69
79 106 65
76 104 63
78 105 65
84 113 70
82 110 67
78 106 65
78 106 65
125 146 140
172 188 201
166 184 196
148 166 171
120 141 133
84 109 82
83 112 69
78 105 64
80 108 66
76 103 63
83 111 69
81 110 69
83 111 68
79 108 66
80 109 67
78 107 65
77 104 64
82 110 68
80 108 67
82 110 68
79 107 66
100 124 101
116 137 123
134 154 155
136 156 153
123 145 137
114 137 122
99 124 101
99 123 101
88 115 80
85 113 73
76 104 64
80 108 68
81 109 67
79 107 65
80 108 66
79 106 64
80 107 66
81 110 69
82 110 68
80 109 67
76 104 63
80 108 66
76 103 63
101 126 102
163 180 188
167 185 198
170 187 199
171 189 201
158 177 186
168 184 196
166 183 196
163 182 190
164 181 192
164 180 191
131 152 149
117 138 127
90 115 85
80 107 69
80 108 66
75 102 63
78 106 65
78 105 65
78 106 64
80 108 67
79 106 66
77 105 64
149 166 173
166 184 198
165 182 191
176 194 211
172 188 199
162 180 190
173 191 205
172 189 202
173 190 204
165 180 189
166 183 192
169 186 200
166 183 194
170 189 203
172 190 204
170 187 200
173 191 207
175 192 207
162 181 192
177 195 211
163 181 195
176 192 207
141 158 157
82 111 68
78 106 66
79 108 67
78 105 64
83 111 68
78 106 64
82 110 68
72 99 60
79 107 66
79 106 65
77 105 64
77 104 64
78 106 66
79 107 65
75 103 63
83 112 70
75 103 63
81 109 67
84 112 69
80 108 66
82 111 69
114 136 120
168 186 200
165 183 194
173 191 207
167 184 197
163 181 190
166 183 193
172 188 200
172 190 202
170 188 202
173 190 204
169 186 199
172 190 204
170 188 200
161 179 191
171 188 203
165 182 193
173 191 207
168 186 199
175 190 203
158 176 184
167 184 196
155 173 179
78 106 65
82 110 70
94 117 95
99 122 104
115 137 122
133 153 149
149 169 172
139 159 159
163 181 191
168 187 202
152 170 177
154 173 180
166 183 193
163 180 192
164 182 195
169 186 197
162 178 189
168 184 195
165 183 194
171 189 202
170 189 205
122 142 130
79 107 65
79 106 64
84 112 68
80 108 67
76 104 63
76 104 64
82 110 68
77 106 65
79 107 65
76 103 63
76 103 64
81 109 66
75 102 62
81 109 67
82 111 68
77 105 65
79 106 64
82 110 68
78 106 64
78 106 65
126 147 139
169 186 198
161 179 190
159 175 184
166 183 193
175 192 207
173 190 202
171 188 201
173 191 201
165 182 194
158 176 186
160 178 185
171 189 205
167 184 195
173 190 204
163 181 191
173 190 202
160 177 187
169 186 197
164 181 190
164 182 191
116 138 124
97 121 96
111 132 118
140 159 160
133 152 152
136 155 155
158 176 185
165 184 196
166 184 195
170 186 198
170 187 200
174 191 205
171 188 200
171 189 203
171 188 200
168 185 196
164 181 191
166 183 195
163 181 195
167 183 195
122 143 141
74 101 62
74 100 61
78 105 65
81 109 68
79 107 65
77 106 65
80 108 66
78 105 64
82 110 67
77 105 64
81 109 67
81 109 67
76 103 62
81 110 68
78 105 65
79 107 66
80 108 66
83 112 69
102 125 106
167 185 199
168 187 201
169 187 201
171 190 207
170 189 205
171 188 201
171 190 206
166 183 194
165 182 193
163 181 190
166 183 195
168 184 195
174 191 206
173 190 204
165 182 192
166 184 196
174 192 205
178 195 209
128 150 147
81 109 68
82 111 69
83 112 69
77 105 65
79 108 66
80 109 67
80 108 66
76 105 64
83 112 69
80 108 67
80 108 66
79 108 65
80 109 67
80 108 66
80 108 66
77 105 65
79 107 65
148 166 168
171 190 204
173 191 207
169 187 198
175 193 210
174 192 207
169 187 200
172 188 199
166 185 197
172 189 202
166 185 198
157 176 185
145 165 168
137 157 154
124 144 138
104 130 106
97 123 90
149 168 171
158 176 187
171 189 204
166 185 197
163 182 192
174 191 207
168 186 200
177 193 208
171 189 202
173 191 205
171 189 203
165 184 197
169 187 201
174 191 207
182 200 219
173 191 206
133 153 149
77 105 64
79 107 65
85 115 72
81 110 69
82 110 68
83 112 70
83 113 70
82 111 69
79 107 66
85 115 72
160 178 187
178 195 210
172 190 203
169 187 201
169 188 204
170 188 203
165 182 192
168 186 199
175 193 209
170 188 199
177 194 209
173 190 204
168 185 196
174 191 207
176 193 208
161 177 182
113 136 119
83 112 70
78 106 65
82 110 68
171 189 203
175 192 207
173 190 204
175 192 205
170 187 198
173 190 204
172 189 203
175 193 208
176 193 207
177 193 207
167 184 196
178 197 214
172 189 204
164 181 193
168 185 199
170 187 202
181 198 215
179 196 211
176 194 211
173 191 204
156 175 182
75 103 62
82 110 68
78 106 64
81 109 68
108 129 115
157 176 183
159 177 185
174 192 206
167 185 199
169 186 199
173 190 201
176 194 209
166 183 195
166 184 198
170 187 199
165 183 193
167 184 195
167 185 199
170 188 201
169 187 199
164 181 192
84 112 72
81 110 69
82 110 68
78 106 65
83 111 68
77 105 64
82 111 69
80 108 65
79 107 65
80 109 67
77 105 64
78 106 65
85 113 70
80 109 67
79 106 64
81 110 69
81 109 67
76 103 62
82 111 69
79 107 66
82 108 72
124 145 136
128 149 144
93 118 94
81 109 68
83 112 70
80 108 66
80 109 68
78 106 64
79 107 66
81 109 68
79 107 66
81 109 67
83 111 69
85 114 72
80 109 67
82 111 68
81 110 68
81 110 68
82 111 69
78 105 64
80 108 67
79 107 65
110 132 119
172 190 204
170 186 200
169 187 197
179 195 212
171 189 202
176 192 206
170 188 202
165 182 194
159 176 185
152 170 174
147 166 168
140 159 156
135 155 151
118 140 129
101 126 104
97 122 93
105 129 109
83 110 73
81 109 67
85 114 73
79 107 66
82 109 73
170 186 199
168 185 198
155 172 178
164 182 193
177 194 207
170 185 196
149 168 168
113 136 122
97 122 98
77 104 63
78 107 66
81 109 67
78 105 64
78 105 65
79 106 65
81 109 67
82 111 68
78 106 65
76 103 63
76 103 62
83 111 69
78 106 64
133 153 149
168 185 197
163 182 195
168 187 202
171 188 201
168 185 196
170 188 203
174 190 203
156 173 181
176 193 209
171 187 199
166 183 194
175 193 208
169 186 200
172 188 201
167 185 198
165 184 196
174 191 204
169 185 195
162 179 189
165 182 194
172 189 204
157 174 180
80 108 66
78 107 65
73 101 61
79 108 67
77 105 64
75 102 61
79 107 66
72 99 60
76 104 63
78 107 66
80 108 67
77 104 63
82 109 67
76 103 63
82 110 68
81 109 67
75 103 63
77 105 65
77 105 64
78 105 64
79 107 65
78 103 68
166 183 195
170 186 196
168 186 199
163 181 191
170 186 196
167 184 191
170 187 199
175 192 208
163 180 191
172 189 204
166 183 194
166 183 192
168 185 197
166 185 197
167 184 193
165 182 194
160 179 191
154 173 178
153 171 176
136 156 157
129 148 144
110 131 117
145 164 168
165 183 196
170 187 201
172 190 204
164 180 188
169 186 197
160 178 189
163 181 192
168 186 199
171 188 202
163 180 189
172 189 202
163 181 191
167 184 198
166 185 198
160 179 187
168 185 197
169 186 199
167 185 197
162 179 189
177 193 208
157 175 182
77 104 64
77 104 64
73 100 61
76 104 63
77 104 64
81 109 66
77 105 65
84 113 71
78 106 65
80 107 66
81 109 68
83 111 69
77 105 65
76 104 64
79 107 66
81 109 67
82 111 69
77 105 63
78 106 65
81 110 68
88 115 82
161 179 190
170 186 198
169 186 198
166 183 195
175 193 207
166 183 195
171 189 204
172 188 201
161 180 190
162 180 190
150 169 175
133 152 151
141 161 159
131 151 149
118 140 125
117 139 125
99 122 103
100 124 101
86 113 78
80 108 67
119 141 132
170 187 202
162 180 192
173 191 207
175 192 207
178 196 211
159 177 188
175 193 207
165 183 196
174 191 206
167 184 194
163 179 189
170 188 202
162 179 188
167 184 197
171 189 204
173 190 203
165 183 193
176 193 206
164 183 194
160 178 187
84 112 71
77 105 64
80 108 67
75 102 62
79 107 66
80 108 68
76 103 62
72 99 59
81 110 68
82 111 69
84 113 71
79 106 64
79 107 67
80 108 66
80 108 67
80 108 67
78 107 66
80 108 67
74 101 61
154 174 178
167 183 194
175 192 204
162 180 192
161 180 194
164 183 194
168 185 199
166 182 193
168 185 196
172 189 203
170 187 199
170 187 198
172 190 204
168 186 201
169 186 200
179 195 210
176 193 207
171 189 201
160 177 188
87 114 79
72 99 60
77 105 64
83 112 69
80 108 66
80 108 66
82 110 67
84 114 71
82 111 68
82 110 68
80 109 68
82 110 68
79 108 66
82 110 68
79 107 66
79 107 66
81 109 68
96 121 96
177 194 207
180 198 215
176 194 209
160 178 186
175 192 207
170 188 201
163 181 191
175 192 206
170 188 200
173 191 206
178 195 210
174 192 206
180 198 215
171 189 205
168 185 197
163 182 193
168 186 199
118 141 129
138 158 156
144 164 163
145 165 170
162 181 191
168 186 198
180 197 213
174 192 209
176 194 212
174 191 205
165 184 197
172 191 208
172 189 202
181 198 213
173 190 204
166 185 195
94 120 91
84 113 71
80 109 67
84 113 70
81 110 68
79 107 65
83 112 70
78 106 64
83 112 70
75 103 63
166 184 196
169 187 200
173 191 206
174 191 206
174 192 207
165 183 194
178 196 214
165 183 195
178 195 211
176 193 210
173 190 204
174 192 207
170 188 202
144 163 168
90 117 83
82 111 69
82 110 68
80 108 67
84 113 70
76 103 62
169 187 201
171 188 200
175 192 208
171 189 204
175 193 205
175 193 210
168 187 200
174 191 203
173 189 200
179 197 214
168 186 198
169 186 199
167 185 195
174 192 207
165 184 197
166 184 195
171 189 203
173 190 201
168 186 198
175 193 209
154 174 184
81 109 67
99 125 100
136 157 153
172 188 200
168 185 198
172 189 203
178 196 213
173 190 203
177 194 210
176 193 208
171 189 202
166 184 196
163 181 190
172 189 201
177 194 209
171 189 204
177 193 208
164 182 196
168 185 200
169 187 200
173 191 207
102 128 101
79 107 67
81 109 68
81 110 69
79 107 67
81 110 68
82 110 68
77 105 65
83 112 70
82 110 68
82 111 69
82 110 68
82 111 68
77 105 64
81 109 67
82 111 68
81 110 69
81 107 68
107 132 114
144 164 165
171 187 199
157 176 186
77 105 64
82 111 68
77 105 65
81 110 68
81 109 67
83 111 68
82 110 68
79 108 66
78 106 66
82 111 69
81 109 67
77 106 65
76 103 62
81 110 68
83 112 70
78 105 64
78 105 63
77 105 65
81 109 67
85 114 71
80 109 67
84 110 78
162 180 191
164 181 192
170 187 200
167 184 195
182 198 214
162 180 192
170 188 202
163 181 193
163 180 192
163 181 192
174 191 204
170 187 199
174 192 206
172 188 202
170 187 200
168 186 199
165 183 193
169 186 200
160 179 188
152 170 176
152 172 178
157 175 182
141 161 160
122 143 134
154 172 176
157 175 183
125 145 136
116 140 127
103 126 106
101 124 102
85 111 76
86 112 79
80 108 66
81 109 67
80 109 67
77 105 64
77 105 64
78 105 65
79 107 66
82 111 69
76 103 63
81 110 68
78 106 65
81 108 67
119 141 130
169 187 199
166 184 196
171 190 204
172 189 200
170 187 202
169 186 200
166 185 197
159 176 186
163 180 189
158 176 185
184 200 215
168 186 196
176 193 210
164 181 191
174 192 209
173 190 203
165 182 193
162 180 190
164 182 193
173 190 203
161 179 188
165 181 191
83 111 74
79 107 65
80 108 66
80 109 67
83 111 68
76 104 65
78 106 65
80 109 67
80 108 67
77 105 64
74 102 62
81 108 66
79 107 66
82 110 68
82 111 68
80 108 67
78 107 66
76 104 63
81 109 67
84 113 70
77 105 64
77 105 64
142 162 164
162 181 191
172 189 201
168 184 196
165 182 192
167 183 193
162 180 190
161 179 190
159 178 188
171 187 199
173 191 204
149 169 173
134 155 154
130 150 144
111 133 119
98 122 97
89 115 81
80 107 66
76 104 64
80 108 66
80 108 67
78 106 65
136 155 154
171 188 201
172 187 197
168 183 193
170 187 200
167 183 193
170 187 198
164 181 194
157 174 183
162 179 186
167 184 198
160 178 188
169 186 198
165 183 195
166 183 196
172 190 203
173 189 200
166 184 196
167 184 195
164 182 194
173 191 207
166 183 192
99 122 102
78 106 65
82 111 69
81 109 68
79 107 66
77 104 65
78 106 65
78 106 65
80 108 66
79 106 65
80 109 67
81 110 67
80 107 66
79 108 66
89 115 81
89 115 81
81 108 72
94 117 91
109 132 115
115 137 123
112 133 120
143 161 162
130 150 151
137 158 154
112 133 119
104 128 110
97 121 95
88 112 88
85 112 75
87 114 79
80 109 67
75 102 62
78 106 65
74 102 61
81 110 68
80 108 67
80 108 67
80 107 65
81 109 68
77 106 65
75 102 62
82 109 67
157 175 181
167 184 196
172 187 198
161 179 188
170 187 202
161 179 188
160 178 188
169 186 200
176 194 212
164 181 191
176 194 209
166 184 198
172 189 204
175 192 208
171 189 205
166 184 195
170 187 203
177 194 209
168 186 199
175 191 206
124 144 140
78 106 65
74 101 62
78 106 65
78 106 64
80 107 66
77 104 63
79 106 65
78 106 65
78 107 66
77 105 64
80 109 68
75 102 62
79 107 66
80 109 68
80 109 67
81 110 67
79 108 66
77 105 65
94 118 88
161 178 187
160 178 186
169 185 198
173 190 204
175 194 209
168 186 200
173 191 205
175 193 210
170 189 204
171 188 200
170 187 202
174 192 204
175 193 209
164 183 197
167 184 196
178 194 207
174 191 204
169 187 200
148 168 170
79 106 65
81 110 68
80 107 65
78 107 67
78 106 64
80 108 67
80 108 67
76 103 63
83 111 68
76 104 63
76 103 62
81 110 68
82 110 68
80 109 67
80 109 67
80 108 67
81 110 68
127 148 141
177 194 211
166 185 198
161 181 196
177 194 209
174 192 206
175 193 208
170 188 201
162 179 190
173 191 206
173 190 201
173 190 203
166 184 194
170 188 204
169 187 199
173 192 208
174 192 208
142 161 161
83 112 69
77 105 64
81 110 69
81 110 68
84 112 72
107 131 108
118 141 126
136 157 155
156 175 183
171 189 201
178 195 209
171 189 204
180 199 216
172 190 206
173 192 208
154 174 182
80 108 67
80 108 66
83 111 69
86 115 72
79 107 66
85 114 71
85 114 71
80 109 67
91 118 81
172 191 204
174 192 207
171 189 204
168 185 197
181 199 216
174 192 206
178 197 215
171 189 203
175 192 206
166 183 194
164 181 187
133 153 144
91 117 87
81 110 69
82 111 69
79 107 66
81 109 67
80 109 66
79 107 65
86 114 77
172 189 201
175 193 209
176 193 208
178 195 211
174 192 208
173 190 205
169 186 197
174 191 205
173 191 204
170 188 203
176 195 212
170 187 200
168 187 201
168 185 198
170 189 203
172 189 202
179 196 211
180 198 216
175 191 204
172 189 202
152 171 175
137 158 160
162 180 190
166 184 196
171 189 204
171 188 200
169 187 201
171 189 203
162 181 193
161 179 188
170 188 201
171 189 202
169 186 199
174 192 206
176 194 210
179 196 212
171 187 199
170 186 196
178 196 212
178 196 213
170 188 202
170 189 202
86 113 80
80 108 67
82 110 67
77 105 65
81 109 67
77 105 66
81 110 67
79 108 67
81 109 68
83 112 69
82 110 69
81 110 67
82 111 69
80 109 67
81 110 68
96 121 95
142 161 164
170 187 199
168 186 200
174 190 202
172 190 205
162 179 192
83 111 69
84 112 70
85 114 71
75 103 63
83 113 71
78 106 65
81 109 68
79 107 66
79 107 66
84 112 70
83 111 69
77 105 64
81 109 68
77 105 64
81 109 67
80 108 66
74 101 60
79 108 66
79 107 66
83 112 70
78 107 66
81 110 68
170 186 196
172 190 203
171 188 203
171 188 199
171 188 200
165 181 194
173 192 207
177 194 209
169 187 200
175 192 206
170 188 201
174 192 206
177 194 209
177 193 206
161 179 188
167 184 196
167 184 197
173 190 203
171 188 202
171 188 202
158 177 186
140 159 156
139 159 156
162 180 191
157 174 185
173 189 203
166 183 194
178 195 211
170 187 200
173 190 204
162 180 190
170 187 202
163 182 193
148 167 172
160 178 188
146 164 165
148 166 168
142 160 160
133 152 148
126 146 136
132 149 145
128 149 142
120 140 132
107 130 113
102 125 110
166 183 194
159 177 187
162 180 190
164 182 192
159 178 187
173 191 205
162 181 192
155 172 177
166 185 198
169 185 197
172 188 200
169 186 200
168 184 194
169 187 203
166 184 194
168 185 197
164 181 194
163 180 189
176 193 208
163 180 191
168 185 198
169 187 199
116 138 126
74 101 61
80 109 67
79 106 65
81 109 67
81 109 67
81 109 67
74 101 62
81 109 68
79 108 67
75 102 62
79 107 65
80 109 67
79 107 65
78 106 65
81 109 68
80 107 66
80 107 65
79 108 66
74 102 61
79 107 66
76 103 63
120 141 132
171 188 202
174 190 203
165 182 193
163 181 191
156 174 180
152 171 175
126 146 140
115 137 126
97 122 94
83 110 74
78 107 66
83 111 69
76 104 63
79 107 65
77 105 65
81 109 67
77 105 65
74 101 61
82 110 68
79 107 65
80 108 67
99 124 101
164 182 195
170 188 200
173 190 204
167 184 197
163 181 190
164 182 194
172 190 203
178 195 209
159 175 183
167 185 199
171 188 202
167 185 200
171 188 200
173 190 204
170 189 204
166 182 192
179 197 213
171 189 203
167 185 199
157 176 185
160 179 189
141 160 161
100 124 105
101 125 105
108 130 114
119 142 128
134 153 146
117 139 129
128 148 144
137 157 156
145 164 169
149 168 172
141 160 163
148 168 173
161 178 186
163 180 191
160 178 185
163 180 188
171 189 203
170 188 201
175 191 205
171 187 200
156 173 181
83 110 73
77 104 63
79 107 65
77 105 63
75 102 62
79 106 65
79 107 65
82 110 68
80 108 66
81 110 69
81 110 68
79 108 67
79 107 67
78 106 64
78 106 65
80 108 66
79 107 65
78 106 65
82 110 67
76 104 63
115 137 124
166 184 197
157 176 187
171 189 201
175 193 209
163 181 189
158 175 184
171 187 200
172 189 203
172 189 202
166 183 193
175 191 206
173 189 203
169 186 198
165 183 194
172 189 202
171 187 200
167 186 197
167 185 198
162 180 186
155 172 180
79 106 67
77 104 64
81 109 67
77 105 65
80 109 67
80 108 66
76 105 64
83 111 69
82 110 68
76 104 64
81 110 68
78 106 65
80 108 66
84 112 70
74 102 62
85 114 71
76 103 62
81 110 69
79 108 66
142 161 160
167 186 200
175 192 208
164 182 195
172 190 203
163 181 190
168 187 201
173 191 206
166 184 195
175 193 208
179 196 213
167 186 198
171 189 204
166 184 195
165 184 198
168 185 199
173 190 200
168 187 203
167 184 196
113 137 119
77 105 64
83 112 69
85 113 70
79 107 66
77 106 66
82 111 69
79 107 66
83 112 69
80 108 67
81 110 68
81 110 69
79 107 67
79 108 67
80 108 67
78 107 66
80 108 67
83 112 72
149 169 177
171 189 203
174 193 210
171 187 199
171 189 203
178 196 213
174 191 206
182 200 217
167 184 197
172 190 204
165 183 194
168 186 198
172 189 201
170 189 203
173 190 203
176 195 211
172 190 205
100 124 103
85 114 71
82 111 69
82 111 69
81 110 69
82 111 69
79 108 66
80 109 67
79 107 65
80 109 67
93 118 90
114 137 125
129 151 145
149 169 174
157 176 184
175 193 208
119 142 130
82 111 69
84 113 71
77 106 65
82 110 68
84 113 71
84 112 70
80 108 67
105 129 110
178 196 212
167 185 196
172 190 202
173 190 201
169 187 198
178 196 214
172 190 205
168 185 199
166 185 197
132 153 151
90 118 81
79 107 65
79 107 66
83 112 69
80 108 67
84 113 71
80 109 68
84 113 70
82 111 69
88 114 81
165 184 198
170 187 201
177 195 211
173 191 204
178 194 208
163 181 195
173 190 203
178 195 210
171 188 201
171 189 203
173 189 203
182 200 217
173 191 205
169 188 202
174 192 206
170 186 199
176 193 206
174 193 208
133 153 147
98 122 96
118 140 127
170 189 202
175 193 208
177 194 207
168 186 199
168 186 198
170 187 197
173 192 207
177 193 206
177 195 212
172 190 206
165 183 195
171 189 202
175 192 206
170 188 201
172 189 203
176 193 209
175 192 207
172 190 203
176 192 208
168 186 199
168 185 197
93 116 93
82 111 68
82 111 69
77 105 65
82 110 67
81 109 66
80 108 66
81 110 68
82 111 68
78 105 64
82 110 69
82 111 69
100 125 98
134 153 149
163 180 189
163 181 193
179 197 213
172 191 205
160 177 188
172 190 205
170 188 202
166 184 195
79 106 68
81 109 67
78 107 65
83 112 70
81 110 68
81 109 67
77 104 63
81 109 67
83 112 69
80 108 66
79 108 67
76 104 64
84 113 71
80 108 67
86 115 71
78 106 65
79 107 66
81 110 68
80 109 67
81 109 66
81 108 66
77 105 64
145 164 166
174 192 205
172 190 204
166 184 196
174 191 204
171 189 202
170 188 202
168 185 201
174 192 208
168 185 196
168 185 197
169 187 200
167 185 196
167 185 196
169 185 196
174 190 203
152 169 174
141 159 160
107 129 113
89 115 80
80 108 67
83 112 69
122 145 132
172 189 205
167 185 198
162 180 194
159 177 187
167 184 193
167 185 196
174 191 206
179 196 213
164 183 196
167 184 197
170 187 199
170 186 198
175 192 206
173 190 204
175 192 206
171 189 203
166 184 195
168 185 195
166 183 196
155 172 182
174 191 206
163 181 192
97 123 92
81 110 68
79 106 65
84 111 74
85 111 79
86 113 78
93 120 91
102 126 99
100 125 98
103 126 105
96 120 95
96 120 102
105 128 108
130 150 145
119 140 130
118 140 128
130 150 146
132 151 146
136 157 152
126 146 142
127 148 145
145 164 166
122 144 135
115 137 127
116 138 126
107 129 111
118 140 128
113 134 119
105 128 105
112 133 119
97 120 98
98 121 100
95 120 92
97 122 96
98 123 98
103 126 105
90 115 89
94 118 93
94 119 94
98 122 97
88 113 85
89 114 86
93 119 89
81 107 74
107 130 112
147 165 166
127 146 139
99 123 99
103 128 103
100 125 103
93 119 94
108 131 111
102 125 107
107 129 112
102 125 104
105 128 108
100 123 99
98 122 99
100 125 103
111 133 120
96 119 99
107 130 110
113 136 122
106 129 109
120 140 128
112 134 121
131 151 143
142 162 163
149 167 174
130 151 143
143 162 163
131 150 149
132 153 152
134 154 150
124 143 138
120 141 131
110 132 118
117 139 124
116 138 126
104 126 107
91 115 90
102 125 107
100 125 103
93 118 90
85 111 81
86 114 77
81 108 69
79 106 67
93 118 91
158 176 184
172 189 204
170 188 200
169 186 199
173 191 204
166 184 198
172 190 206
170 187 202
163 180 190
179 196 212
173 189 201
174 191 205
172 189 203
175 191 204
172 190 203
164 182 193
170 187 201
165 182 194
172 189 202
171 188 203
166 183 196
108 130 114
80 109 67
79 107 67
82 110 68
76 103 63
83 112 69
81 110 68
83 112 69
79 107 65
78 105 64
78 105 64
78 105 64
81 109 67
81 110 68
80 109 68
77 105 64
79 108 67
75 103 63
81 110 68
79 107 66
83 111 74
157 175 183
171 188 199
173 191 204
175 192 206
157 176 185
170 188 200
168 184 197
172 188 198
168 185 196
172 190 205
162 179 190
158 177 184
170 189 203
169 188 205
174 192 205
171 189 205
178 194 210
157 175 185
170 187 201
166 184 196
106 129 111
78 105 64
81 110 68
80 109 66
79 107 65
81 109 68
79 108 66
79 107 65
77 105 65
80 108 66
83 111 69
79 107 65
83 112 69
77 106 65
82 110 68
79 107 66
79 108 67
81 109 68
80 109 67
96 122 94
171 189 201
172 190 204
170 187 199
169 186 198
176 193 206
178 194 207
167 184 197
164 183 196
164 183 194
167 185 196
169 187 200
167 185 196
167 184 195
177 193 210
174 191 206
174 192 207
170 187 201
176 194 209
144 163 165
80 109 67
79 107 65
82 110 68
81 109 68
79 107 65
82 110 69
80 109 67
80 108 66
80 108 66
83 112 70
78 106 65
79 107 67
84 113 71
82 111 68
76 103 63
82 111 69
75 103 63
100 123 106
177 193 210
173 190 204
171 190 204
165 183 193
173 190 204
170 189 206
177 193 207
176 193 210
171 188 201
169 188 203
175 190 204
181 199 218
168 187 199
166 184 196
161 180 193
170 188 200
154 173 180
86 114 73
80 107 66
79 108 66
76 104 63
81 109 67
80 108 67
83 112 69
79 106 65
78 107 66
80 110 68
83 111 69
82 111 68
80 107 65
80 108 67
84 113 73
112 136 118
123 143 134
126 148 139
109 132 118
89 117 81
79 107 66
81 111 69
85 113 70
101 126 105
175 194 211
174 191 208
173 191 205
174 191 207
169 187 201
178 195 214
164 182 193
109 132 115
84 113 73
84 113 71
83 112 69
81 111 69
82 110 69
83 112 71
79 108 66
80 109 68
81 109 67
80 108 67
78 107 66
95 120 95
171 187 199
172 192 208
176 194 210
174 192 207
172 191 207
168 185 199
175 193 210
175 192 206
170 189 202
178 195 211
162 181 193
180 197 211
171 189 204
171 189 202
171 188 200
162 181 191
124 146 134
88 115 79
81 109 68
84 113 71
113 135 121
175 193 207
173 191 205
171 188 201
177 196 214
177 195 210
170 188 202
173 191 205
171 188 201
171 188 201
174 191 206
175 193 209
165 183 195
175 192 205
174 191 205
172 189 202
160 178 186
170 188 202
166 184 195
172 190 204
164 182 193
170 187 199
109 131 114
84 113 70
81 109 68
77 105 64
78 106 65
83 113 70
80 108 67
80 109 67
79 108 67
89 115 83
113 135 123
153 171 177
171 190 205
177 194 208
168 184 193
166 183 194
173 191 207
172 190 203
175 192 207
170 189 203
169 186 199
165 182 195
91 116 86
82 110 68
76 103 62
82 111 69
79 107 66
83 113 70
80 108 66
79 108 66
87 116 72
80 109 67
77 104 63
80 109 68
83 111 68
79 107 65
80 108 66
81 109 67
78 105 64
77 106 64
78 106 66
81 108 66
79 107 66
80 108 65
150 168 173
166 183 194
170 188 203
173 191 206
175 193 208
172 189 202
171 188 200
165 182 192
170 187 199
165 182 193
164 181 193
162 180 190
170 187 200
157 176 183
127 149 143
104 127 109
85 112 74
79 107 66
79 107 66
81 108 66
80 108 66
81 110 68
105 129 111
167 185 198
176 193 208
165 181 192
175 191 205
165 181 191
170 187 199
167 184 195
167 186 199
171 188 202
176 193 207
166 184 199
171 189 203
166 183 192
176 194 209
170 188 202
163 181 191
170 187 202
172 190 203
170 188 203
164 181 191
168 185 197
167 184 196
114 135 125
76 103 62
80 108 66
73 100 60
80 108 66
76 103 63
78 105 65
77 105 64
81 109 68
82 110 68
81 109 68
74 101 61
81 110 67
82 112 70
80 109 67
76 103 63
80 108 67
80 107 66
82 110 69
80 108 66
80 108 66
73 100 60
93 116 90
165 183 195
171 187 199
173 191 205
171 188 203
173 189 202
172 191 206
163 181 191
169 186 198
166 184 195
178 194 208
170 188 202
158 176 186
161 179 189
168 185 196
159 178 188
151 169 178
139 159 161
131 151 142
118 139 126
87 113 83
83 112 70
81 109 67
155 173 180
166 184 194
163 182 193
164 183 195
167 184 195
158 175 184
168 185 197
177 193 209
165 183 194
167 184 197
167 185 198
162 181 196
176 194 207
170 186 197
174 191 202
173 191 206
160 178 188
161 179 187
166 185 200
155 173 181
174 191 203
162 180 190
126 147 138
75 102 63
77 105 64
79 107 66
79 107 66
79 108 67
77 106 64
81 109 67
81 111 69
79 107 67
79 107 66
79 108 66
77 104 63
80 109 66
77 104 64
79 107 65
80 108 67
78 106 64
79 107 65
82 110 68
79 107 64
81 110 68
146 165 167
167 184 194
168 186 201
169 186 201
172 189 204
162 180 193
167 185 198
169 186 201
173 191 206
166 185 195
173 191 203
164 182 196
171 189 201
173 190 202
170 188 202
172 189 203
181 197 211
176 192 204
162 180 190
166 185 197
172 189 204
147 166 170
78 106 65
82 111 69
82 111 70
82 111 69
78 107 65
78 105 64
79 107 66
80 109 68
76 105 64
77 106 65
78 106 65
79 106 65
75 102 62
78 105 64
74 102 62
80 108 66
77 105 64
79 106 65
77 105 63
79 107 65
124 144 139
165 182 194
172 189 201
170 187 199
162 180 190
169 188 199
165 184 198
166 184 196
166 184 197
177 194 210
173 190 203
174 191 204
173 189 200
179 196 212
164 182 196
172 189 202
171 189 203
169 187 201
174 192 206
171 188 202
160 177 186
79 107 65
80 108 66
79 107 66
79 107 65
80 107 66
78 105 64
84 113 70
81 109 67
78 106 64
81 109 67
77 104 62
77 105 64
82 111 69
79 107 65
81 110 68
77 105 65
80 109 67
79 107 67
83 111 69
136 157 154
168 186 198
168 186 199
179 196 211
174 191 206
172 189 202
171 188 202
175 191 203
165 183 196
171 188 199
161 179 188
175 192 207
175 192 208
177 193 206
177 195 212
174 191 206
170 188 200
169 186 200
174 191 206
114 137 124
78 106 65
79 107 66
81 109 68
85 114 72
83 111 69
80 108 67
80 108 67
83 111 68
79 107 66
82 111 69
81 109 67
80 109 67
79 107 66
82 110 68
82 110 68
77 104 63
82 110 69
141 160 163
173 191 207
174 191 205
174 191 205
176 192 205
171 189 202
166 184 193
169 185 197
168 187 202
174 192 207
168 186 201
169 188 201
176 193 209
173 190 204
181 199 216
174 193 208
174 191 205
137 157 154
82 110 68
79 107 65
83 112 69
80 108 66
83 111 69
79 108 67
83 112 69
77 105 63
79 107 66
79 107 66
83 113 71
84 113 70
85 114 71
81 110 68
82 111 69
112 137 118
174 191 203
174 192 208
172 189 201
80 108 66
83 111 69
83 113 70
120 142 134
171 190 203
175 193 207
175 193 211
172 191 209
160 180 190
112 134 116
80 108 67
81 109 67
78 106 65
79 107 66
81 110 68
81 110 68
81 109 68
82 110 68
79 107 65
85 115 72
82 111 69
81 109 67
85 114 72
102 127 105
171 188 201
172 189 202
170 187 200
179 196 213
171 189 204
163 180 193
178 195 209
178 195 211
166 183 195
166 184 195
172 191 204
169 186 200
166 185 197
131 151 147
116 139 125
79 108 67
83 112 70
80 108 67
82 112 70
81 109 67
111 135 119
171 189 201
163 181 192
177 195 211
170 188 203
172 190 204
177 194 210
169 188 201
170 187 200
174 192 207
169 186 198
173 190 203
169 187 199
159 177 187
174 192 206
171 187 199
172 189 201
175 193 208
166 183 195
166 184 195
176 195 211
175 192 207
112 135 118
78 106 65
80 109 68
77 105 65
81 110 69
78 106 65
82 110 70
124 146 136
153 172 180
170 188 199
177 194 211
163 181 191
173 190 204
170 189 204
175 192 205
172 191 205
171 189 203
163 182 194
175 191 204
169 187 199
170 187 200
169 188 201
105 130 105
81 108 67
83 112 69
80 108 67
79 107 66
79 105 63
80 108 67
81 110 68
78 106 65
81 108 67
84 113 70
79 108 66
77 105 64
80 109 67
79 107 66
83 111 68
76 104 64
80 108 66
74 101 61
79 107 66
76 104 62
77 105 64
129 149 146
170 187 200
173 191 205
177 195 212
164 182 193
170 187 200
165 182 193
171 188 200
166 185 199
167 186 199
153 170 175
113 135 123
90 117 83
79 107 68
83 112 70
79 107 66
80 109 67
80 108 67
78 106 65
78 106 64
80 108 67
80 109 66
86 113 75
163 181 194
167 184 197
165 184 197
173 190 205
175 193 211
163 181 190
179 196 212
171 189 204
171 188 201
171 187 198
172 189 202
170 189 202
167 185 198
166 184 197
173 191 205
161 178 190
181 198 214
167 184 196
172 189 203
173 191 205
169 186 199
170 187 202
136 155 154
81 109 67
76 104 64
81 109 67
80 108 66
81 110 69
78 106 65
81 108 67
78 107 65
82 110 68
79 108 67
80 109 67
76 103 63
79 108 66
81 109 67
78 107 66
77 105 63
80 108 66
81 109 68
80 107 66
78 106 65
79 107 66
81 109 66
162 180 189
168 186 200
169 187 199
158 176 185
168 186 197
170 186 198
168 185 197
164 181 193
167 184 196
164 182 194
152 170 176
131 151 150
129 150 144
109 133 114
92 119 85
81 109 68
80 109 67
81 109 68
82 111 69
78 105 64
77 104 64
78 105 65
115 138 123
168 185 196
167 185 199
173 189 199
173 190 204
164 181 193
165 182 191
167 183 194
179 196 211
168 185 198
170 187 203
173 189 202
174 192 207
163 179 187
163 181 192
177 194 208
170 187 199
178 196 211
176 193 206
175 192 206
172 189 203
162 179 189
158 176 183
80 109 66
80 108 67
75 102 62
80 108 66
81 110 68
78 106 65
76 104 64
80 108 67
80 109 68
76 102 62
79 107 66
79 107 66
80 109 67
79 107 66
79 107 66
78 106 65
79 107 66
77 105 64
82 110 68
82 110 69
77 104 63
111 133 122
171 188 201
165 183 195
161 179 191
168 184 197
165 183 193
163 180 189
164 181 192
169 186 198
163 181 191
178 195 211
168 185 198
178 195 211
174 191 207
172 190 203
160 178 190
166 183 192
162 178 188
166 183 196
166 183 196
170 189 202
169 186 195
89 116 82
81 109 67
78 106 64
74 102 62
78 106 64
79 107 65
80 108 67
79 108 67
72 99 60
85 114 71
81 109 67
78 106 64
74 101 61
79 107 67
79 106 65
83 111 69
76 104 63
84 113 70
75 102 62
82 110 68
83 110 73
164 182 193
170 188 203
162 181 191
163 180 190
173 190 204
172 189 203
167 185 197
170 187 200
170 187 201
175 191 203
176 193 207
165 183 195
172 189 204
163 181 193
162 180 191
172 190 205
170 188 200
179 196 213
163 181 191
172 190 205
115 138 126
79 106 65
79 108 67
80 108 67
81 108 66
81 109 68
79 106 65
80 107 66
80 107 65
79 108 66
75 101 61
81 109 69
81 110 69
81 110 68
79 106 66
77 104 63
80 109 67
79 107 65
80 108 66
94 119 93
170 187 198
180 196 211
171 189 202
164 183 195
171 190 205
166 184 196
173 190 203
166 183 192
170 189 202
178 195 210
168 185 196
171 188 199
169 187 201
173 192 206
179 197 212
170 187 199
168 186 202
170 187 199
162 180 191
85 113 75
80 109 68
80 109 68
84 113 70
82 111 69
80 109 67
74 101 61
86 115 71
82 111 68
80 108 67
76 104 63
79 107 65
81 110 69
81 110 69
80 107 66
84 111 69
80 109 68
96 122 94
169 188 203
177 194 208
176 195 210
173 190 202
165 183 193
172 190 204
169 187 202
173 191 207
174 192 206
168 187 201
172 190 205
174 192 205
178 196 211
173 190 204
181 199 216
179 195 209
176 194 211
102 128 104
82 111 70
82 111 69
81 109 68
84 113 71
80 109 67
77 105 64
82 112 71
84 113 71
83 112 69
84 113 70
83 112 69
82 111 69
81 109 67
83 111 69
79 108 66
147 167 172
175 194 211
177 195 210
84 114 71
85 115 72
87 117 74
124 147 137
177 194 210
177 195 208
153 173 181
109 133 112
85 114 72
82 111 69
83 112 69
84 113 70
81 110 68
83 113 71
83 112 69
82 111 70
80 108 66
82 110 69
85 114 71
82 110 68
82 112 70
81 109 68
81 110 68
105 129 105
170 189 200
171 188 203
170 188 202
175 192 207
169 186 200
178 196 212
168 186 197
166 185 196
183 199 215
177 194 209
162 180 190
132 154 151
100 125 100
80 109 68
79 107 66
80 108 67
83 112 70
83 112 69
81 109 68
81 109 68
109 133 114
173 192 208
180 198 212
173 191 207
175 192 206
175 191 204
170 187 201
171 189 203
164 181 191
173 191 207
171 189 204
176 193 209
167 185 199
177 194 209
175 193 208
167 185 198
166 185 197
170 188 200
176 194 207
169 186 197
175 192 206
162 181 190
121 142 130
81 110 69
77 104 64
85 113 72
112 135 121
143 161 161
167 185 198
177 195 212
174 191 205
172 190 203
170 188 203
172 190 205
173 190 204
174 191 205
169 187 202
172 190 204
176 194 208
165 183 196
179 196 213
171 189 203
170 188 202
173 191 207
108 131 113
83 112 69
78 106 66
80 108 67
85 115 72
80 108 66
82 111 69
78 107 67
81 110 68
75 103 63
85 113 70
77 105 64
76 104 64
81 110 68
79 107 66
81 109 68
80 109 67
82 110 68
80 107 65
78 106 65
82 111 69
81 110 69
127 149 143
165 181 192
173 191 206
177 195 211
165 182 192
169 186 200
164 182 192
144 164 165
106 129 110
90 114 85
83 111 69
81 109 67
79 107 65
77 105 64
78 106 64
78 106 65
79 107 66
78 105 64
77 104 64
82 111 69
84 113 71
76 103 63
79 107 66
150 167 173
170 188 202
173 190 201
169 187 202
163 180 191
170 188 202
170 187 202
170 187 197
166 184 195
168 186 197
173 191 207
174 192 205
168 186 198
170 187 197
179 196 213
159 179 188
174 191 208
159 176 186
178 195 212
172 188 198
167 184 195
171 188 203
144 164 167
80 108 66
80 108 66
78 106 65
82 110 68
81 110 69
79 108 67
76 104 62
76 103 63
78 107 65
80 107 66
79 107 66
79 106 65
79 106 65
78 106 65
77 105 64
83 111 69
79 108 67
79 107 65
81 110 68
79 107 66
80 107 66
78 106 65
145 165 166
170 187 198
172 190 204
163 180 191
173 188 199
153 172 175
134 153 149
117 138 126
93 117 90
88 115 79
82 110 68
78 106 64
76 102 61
81 109 68
78 107 65
81 110 67
82 110 68
79 107 66
81 109 68
82 111 69
75 102 62
82 110 68
97 121 95
163 180 193
170 188 202
167 185 198
166 185 195
167 184 194
170 188 202
170 187 202
172 189 202
164 182 194
158 174 180
169 187 199
172 189 202
170 187 199
168 185 193
168 187 201
166 182 194
163 181 194
163 182 193
171 188 204
170 187 199
163 180 192
165 183 198
102 127 105
82 111 69
80 108 68
78 106 66
78 107 66
79 107 66
80 109 68
84 114 71
78 106 66
79 108 67
74 100 60
83 111 69
83 112 70
82 111 68
80 108 67
80 109 68
86 115 71
84 113 71
80 107 66
82 110 68
78 105 65
88 115 78
165 184 195
170 187 198
169 186 194
165 184 195
170 187 198
174 191 205
168 185 196
181 198 217
169 186 198
172 190 204
160 178 189
169 186 196
174 192 207
180 197 213
179 198 216
171 188 202
170 188 203
175 192 206
165 182 192
171 189 201
164 182 192
134 155 151
76 104 64
82 111 69
83 112 70
81 109 67
78 106 65
84 113 71
76 103 63
79 106 65
78 106 64
76 104 63
80 109 68
75 102 61
80 108 66
84 113 70
77 105 65
81 109 67
78 105 65
77 104 63
80 109 67
81 109 66
132 152 149
171 188 203
168 186 198
175 192 208
168 186 200
175 193 208
170 188 199
169 187 199
176 193 207
166 185 197
173 190 201
169 187 201
170 189 204
178 195 212
176 193 204
164 182 194
171 189 203
173 190 203
178 195 210
169 186 200
156 175 181
85 113 72
83 111 68
81 109 68
82 111 69
82 111 69
79 108 67
79 107 66
80 108 67
83 111 69
86 115 72
84 113 71
82 111 69
79 107 66
82 111 69
80 109 67
81 110 68
77 105 64
78 107 65
81 109 68
139 159 158
169 186 200
171 187 200
177 194 207
172 190 203
171 188 200
171 190 205
168 186 198
176 194 210
173 191 206
175 192 207
173 192 208
165 182 194
174 192 206
167 184 193
176 193 208
168 186 199
169 186 197
176 194 210
119 141 129
83 111 69
80 108 67
82 111 69
82 111 70
80 109 67
81 110 68
81 110 68
80 109 67
80 108 67
84 113 70
77 105 64
81 109 67
79 106 65
80 107 66
80 108 68
82 111 69
79 108 67
132 153 152
175 193 207
178 194 208
171 189 202
171 189 202
175 192 207
171 188 201
173 192 205
177 195 210
177 194 209
168 185 198
168 188 201
175 193 207
168 187 203
178 196 212
173 191 205
171 189 202
146 167 170
80 108 67
81 109 67
82 112 71
84 113 71
84 114 72
88 117 73
77 105 64
80 109 68
79 107 66
82 111 69
80 109 68
84 113 70
81 110 68
82 111 68
80 109 68
93 120 90
170 188 200
179 196 213
84 113 71
80 109 67
86 116 72
141 162 162
159 176 183
102 126 104
84 113 70
79 107 66
81 110 68
83 112 69
77 104 63
84 113 70
81 109 67
82 111 69
81 110 68
82 110 68
82 111 69
82 111 70
83 112 70
84 112 70
79 107 66
84 112 70
83 112 69
117 140 126
178 197 214
166 183 194
174 192 208
172 190 205
177 193 207
177 195 210
170 187 199
174 192 208
161 179 189
122 144 137
85 113 76
75 103 62
79 108 66
79 107 66
79 108 67
84 113 70
78 105 64
77 106 64
79 107 65
84 113 71
119 141 129
171 188 202
170 188 201
169 186 200
169 186 196
174 191 206
174 191 207
174 193 209
181 198 214
175 192 205
171 189 202
170 187 198
174 192 206
172 189 202
175 192 206
163 181 194
183 199 217
183 200 218
179 196 210
170 188 203
170 187 202
174 191 207
122 143 133
87 113 80
129 150 144
161 179 190
163 181 190
169 187 198
164 182 191
166 184 194
167 185 196
169 187 198
168 186 200
173 191 207
173 192 208
166 185 194
164 182 193
168 185 197
171 189 203
175 192 206
173 190 205
167 185 199
178 195 212
177 194 209
122 145 138
79 107 66
80 109 67
83 112 69
77 104 64
78 105 64
79 107 65
77 105 65
82 110 67
79 107 66
81 110 69
80 108 66
82 110 68
82 111 69
81 109 67
79 106 65
81 109 67
81 109 67
77 105 65
79 107 67
77 104 63
77 106 66
108 132 114
174 190 204
161 179 189
149 168 173
132 153 151
101 126 104
78 106 65
84 113 71
83 112 69
82 110 68
80 108 67
84 113 70
81 108 66
78 106 65
79 107 66
80 108 67
74 101 61
78 106 64
82 111 68
78 105 65
81 109 68
80 109 68
81 109 68
139 158 157
173 190 204
165 182 195
166 184 193
176 192 206
177 194 210
160 178 189
169 186 197
177 194 209
171 188 201
167 185 199
180 197 212
176 193 206
172 188 200
172 190 204
161 178 187
176 194 210
171 189 205
170 187 201
174 192 206
167 184 196
178 195 210
173 190 205
85 112 74
80 110 68
81 109 68
79 107 66
81 109 67
80 108 67
78 106 65
76 104 64
82 111 68
81 110 69
82 111 68
83 112 69
80 108 67
80 108 66
79 107 66
81 109 68
80 109 67
80 108 67
78 107 65
79 108 66
79 107 66
92 117 85
131 150 148
130 150 147
120 141 133
100 123 102
75 102 62
76 104 63
79 108 66
78 106 65
78 105 64
80 107 65
73 100 61
79 107 66
75 103 62
81 110 68
79 107 66
79 107 66
81 109 67
76 103 62
78 107 66
79 106 65
77 104 63
80 109 67
82 110 70
148 167 170
173 189 200
167 185 197
164 182 191
167 185 198
163 181 191
171 189 201
168 186 197
167 185 195
166 186 196
173 190 204
173 190 205
172 189 204
169 187 198
176 193 210
171 188 199
168 185 195
172 189 201
174 192 207
174 192 208
162 179 188
171 189 201
122 144 134
80 108 66
77 105 64
80 109 67
81 109 67
77 105 64
80 108 66
80 109 67
82 111 68
76 104 63
79 107 65
78 106 65
80 108 67
77 105 65
79 107 66
78 106 65
74 101 61
79 107 66
79 107 66
76 103 63
81 109 68
81 109 66
147 166 169
171 189 204
164 181 193
166 183 194
166 183 193
174 192 206
170 187 199
169 187 200
173 190 205
172 190 207
170 187 200
168 186 198
174 192 208
174 191 205
171 188 203
168 187 199
172 191 205
163 180 191
164 182 192
173 190 204
174 192 206
160 178 186
78 106 65
79 107 66
76 103 63
82 110 68
80 107 67
79 107 66
80 108 65
83 111 68
79 106 64
77 105 65
77 105 65
82 110 66
81 109 67
82 110 69
82 111 68
81 109 68
79 108 66
81 110 68
83 112 69
80 107 65
92 118 87
164 181 190
172 190 203
173 190 205
169 187 198
175 193 207
168 186 199
167 184 199
172 189 201
168 186 198
175 193 210
169 188 202
175 193 209
165 183 196
173 190 203
174 193 210
176 194 209
182 199 217
173 192 208
164 182 195
177 194 209
110 134 114
81 109 67
78 105 64
80 108 66
82 110 67
78 107 66
84 113 70
79 107 65
83 112 70
81 110 68
83 112 70
84 112 70
81 109 67
82 110 68
81 110 67
83 111 69
79 107 65
82 110 68
82 111 68
95 120 92
167 183 195
174 190 204
166 185 200
181 198 215
162 179 191
170 188 203
173 191 208
168 186 196
171 188 202
175 193 209
172 189 203
171 189 205
169 186 196
168 187 200
177 196 214
179 196 213
174 191 207
180 197 214
162 180 191
88 115 79
82 112 70
84 114 71
79 108 67
80 109 67
77 105 64
82 110 68
80 108 67
82 110 68
82 110 68
82 111 69
81 110 68
81 110 67
79 106 65
84 113 70
80 109 68
86 115 71
86 114 76
163 181 192
178 195 212
165 183 195
178 195 211
167 186 200
177 194 212
171 188 199
172 190 204
167 185 196
173 192 207
178 196 214
174 191 206
176 193 209
180 198 214
172 189 203
175 193 206
170 189 205
116 140 126
78 106 66
78 106 64
82 110 69
79 108 67
77 106 64
80 109 67
84 113 71
82 110 68
76 104 63
86 114 71
83 112 70
84 114 72
84 113 71
82 111 69
84 113 70
120 142 132
175 192 203
81 110 68
84 111 76
122 144 135
115 138 121
83 112 70
81 110 67
83 112 70
83 112 69
82 110 67
82 111 69
82 111 70
87 116 73
80 108 67
82 111 69
82 111 69
83 113 70
85 114 70
82 110 68
84 113 70
80 109 68
79 108 67
80 109 68
85 114 71
110 134 114
170 188 201
185 202 221
171 190 205
171 189 203
176 194 208
171 190 203
144 164 168
112 135 119
80 109 67
83 113 70
82 111 70
84 114 72
81 109 67
77 105 65
83 112 69
84 113 70
82 111 69
77 106 65
80 109 67
85 114 71
110 133 117
173 191 206
173 192 205
170 188 201
169 188 201
177 195 211
168 186 200
178 195 210
168 185 196
177 194 209
174 191 202
170 188 201
174 192 204
173 191 208
174 192 209
176 194 209
172 189 201
175 191 203
166 186 200
182 199 215
174 192 209
156 174 181
135 156 157
175 192 209
173 190 202
175 192 205
164 182 193
171 188 199
178 195 212
172 189 201
170 187 200
168 186 200
170 188 203
168 185 196
170 188 200
175 194 211
171 188 200
168 186 197
176 194 211
170 188 202
173 191 204
167 186 201
173 191 201
172 190 203
130 151 146
79 107 65
80 108 67
85 114 71
79 107 66
81 110 68
79 107 66
81 110 68
79 107 66
80 108 66
81 110 68
81 110 68
79 108 66
78 105 64
83 111 68
78 106 65
79 107 67
82 111 69
82 111 69
83 111 68
80 109 67
85 113 73
121 142 131
139 159 156
102 125 105
81 109 67
81 110 68
79 107 66
77 105 65
79 107 65
81 110 68
84 112 69
81 109 68
78 106 65
80 108 66
80 108 67
80 108 67
78 106 65
77 105 65
78 106 66
79 107 66
77 105 65
80 109 67
77 104 64
80 108 67
131 151 145
165 183 194
169 187 199
169 187 200
175 192 207
172 188 202
164 182 193
168 186 200
163 181 191
161 178 188
163 182 195
170 188 202
181 197 213
163 182 195
174 192 207
169 186 198
174 192 205
172 188 200
169 187 198
165 183 197
173 191 204
165 183 195
170 188 201
106 129 110
84 113 69
81 110 68
79 107 66
81 110 68
78 105 64
78 105 64
82 110 68
83 112 70
80 109 68
77 103 63
82 110 68
77 104 64
77 105 63
82 111 69
79 108 66
84 112 74
93 118 89
109 132 115
138 157 155
153 172 177
162 180 191
155 173 182
80 108 69
75 102 62
79 107 66
80 109 67
79 107 65
80 108 66
73 100 61
84 112 70
79 107 65
80 107 65
83 112 69
78 106 65
75 102 62
80 108 66
85 114 71
80 108 67
78 105 64
82 111 69
79 107 66
83 111 69
79 107 66
79 107 65
138 159 161
176 192 208
171 188 201
167 186 199
166 183 196
168 186 200
163 180 190
164 181 190
175 194 209
165 184 199
158 176 183
167 184 195
165 183 195
170 187 201
166 183 193
177 193 208
166 182 194
170 187 201
167 184 196
167 184 196
159 176 186
167 185 197
166 185 196
81 109 67
78 106 65
81 109 67
81 109 67
79 107 67
83 111 69
77 105 64
79 108 66
78 106 65
83 112 69
79 107 66
80 109 67
80 107 66
84 113 71
77 105 65
79 106 64
81 110 69
82 111 69
79 107 65
80 107 65
82 110 69
102 127 104
175 191 205
169 187 200
169 186 200
173 190 204
178 195 212
167 185 198
165 182 194
168 186 200
171 189 202
162 180 190
166 184 197
167 185 198
170 187 201
176 192 204
167 185 196
161 180 191
165 182 192
161 179 189
167 184 195
171 189 205
170 187 200
112 134 121
83 112 69
77 105 64
80 108 67
82 110 68
80 108 66
80 109 68
79 107 66
80 107 66
78 106 65
79 107 66
79 107 66
76 103 64
80 108 66
79 107 67
80 108 67
82 110 68
80 108 66
82 111 69
76 103 64
78 106 64
144 163 167
177 194 207
162 181 194
169 187 202
172 189 202
174 192 206
169 186 198
165 183 195
172 190 204
175 192 206
166 183 191
159 178 188
169 186 199
175 192 205
173 191 208
176 194 209
176 193 207
166 183 195
169 186 199
168 185 197
157 175 181
83 112 70
78 106 65
85 113 71
81 109 67
83 111 70
82 111 68
84 113 70
78 107 66
83 112 69
80 109 67
83 113 71
80 109 67
77 105 65
83 111 69
82 111 69
81 109 67
79 108 66
83 112 69
78 106 65
131 150 144
168 185 198
168 186 200
162 181 191
174 192 205
172 191 207
170 188 201
169 187 202
175 192 205
166 185 198
172 190 203
175 193 207
173 190 205
165 184 195
159 176 185
171 189 202
169 187 199
177 193 208
170 188 200
135 155 156
78 106 65
79 106 65
81 109 67
77 104 64
81 109 67
81 110 69
79 107 65
83 111 69
84 113 70
81 109 66
81 110 68
79 107 66
82 111 68
83 111 69
79 108 67
80 109 67
83 113 70
122 145 131
172 191 205
176 193 208
164 184 197
169 188 203
176 195 212
167 186 198
169 188 201
173 191 206
177 196 211
170 188 203
166 185 197
175 193 206
176 193 208
166 184 199
172 190 204
175 193 208
167 184 194
89 116 82
84 113 71
82 112 70
80 109 68
81 111 69
84 113 71
82 110 68
81 110 68
84 113 70
85 114 71
82 111 69
83 113 71
83 111 69
79 107 65
79 107 66
80 109 68
161 179 187
