P3
400 225
255
215 232 255
215 232 255
215 232 255
215 232 255
215 232 255
215 232 255
215 232 255
215 232 255
215 232 255
215 232 255
215 232 255
215 232 255
215 232 255
215 232 255
215 232 255
215 232 255
215 232 255
215 232 255
215 232 255
215 232 255
215 232 255
215 232 255
215 232 255
215 232 255
215 232 255
215 232 255
215 232 255
215 232 255
215 232 255
215 232 255
215 232 255
215 232 255
215 232 255
215 232 255
215 232 255
215 232 255
215 232 255
215 232 255
215 232 255
215 232 255
215 232 255
215 232 255
215 232 255
215 232 255
215 232 255
215 232 255
215 232 255
215 232 255
215 232 255
215 232 255
215 232 255
215 232 255
215 232 255
215 232 255
215 232 255
215 232 255
215 232 255
215 232 255
215 232 255
215 232 255
215 232 255
215 232 255
215 232 255
215 232 255
215 232 255
215 232 255
215 232 255
215 232 255
215 232 255
215 232 255
215 232 255
215 232 255
215 232 255
215 232 255
215 232 255
215 232 255
215 232 255
215 232 255
215 232 255
215 232 255
215 232 255
215 232 255
215 232 255
215 232 255
215 232 255
215 232 255
215 232 255
215 232 255
215 232 255
215 232 255
215 232 255
215 232 255
215 232 255
215 232 255
215 232 255
215 232 255
215 232 255
215 232 255
215 232 255
215 232 255
215 232 255
215 232 255
215 232 255
215 232 255
215 232 255
215 232 255
215 232 255
215 232 255
215 232 255
215 232 255
215 232 255
215 232 255
215 232 255
215 232 255
215 232 255
215 232 255
215 232 255
215 232 255
215 232 255
215 232 255
215 232 255
215 232 255
215 232 255
215 232 255
215 232 255
215 232 255
215 232 255
215 232 255
215 232 255
215 232 255
215 232 255
215 232 255
215 232 255
215 232 255
215 232 255
215 232 255
215 232 255
215 232 255
215 232 255
215 232 255
215 232 255
215 232 255
215 232 255
215 232 255
215 232 255
215 232 255
215 232 255
215 232 255
215 232 255
215 232 255
215 232 255
215 232 255
215 232 255
215 232 255
215 232 255
215 232 255
215 232 255
215 232 255
215 232 255
215 232 255
215 232 255
215 232 255
215 232 255
215 232 255
215 232 255
215 232 255
215 232 255
215 232 255
215 232 255
215 232 255
215 232 255
215 232 255
215 232 255
215 232 255
215 232 255
215 232 255
215 232 255
215 232 255
215 232 255
215 232 255
215 232 255
215 232 255
215 232 255
215 232 255
215 232 255
215 232 255
215 232 255
215 232 255
215 232 255
215 232 255
215 232 255
215 232 255
215 232 255
215 232 255
215 232 255
215 232 255
215 232 255
215 232 255
215 232 255
215 232 255
215 232 255
215 232 255
215 232 255
215 232 255
215 232 255
215 232 255
215 232 255
215 232 255
215 232 255
215 232 255
215 232 255
215 232 255
215 232 255
215 232 255
215 232 255
215 232 255
215 232 255
215 232 255
215 232 255
215 232 255
215 232 255
215 232 255
215 232 255
215 232 255
215 232 255
215 232 255
215 232 255
215 232 255
215 232 255
215 232 255
215 232 255
215 232 255
215 232 255
215 232 255
215 232 255
215 232 255
215 232 255
215 232 255
215 232 255
215 232 255
215 232 255
215 232 255
215 232 255
215 232 255
215 232 255
215 232 255
215 232 255
215 232 255
215 232 255
215 232 255
215 232 255
215 232 255
215 232 255
215 232 255
215 232 255
215 232 255
215 232 255
215 232 255
215 232 255
215 232 255
215 232 255
215 232 255
215 232 255
215 232 255
215 232 255
215 232 255
215 232 255
215 232 255
215 232 255
215 232 255
215 232 255
215 232 255
215 232 255
215 232 255
215 232 255
215 232 255
215 232 255
215 232 255
215 232 255
215 232 255
215 232 255
215 232 255
215 232 255
215 232 255
215 232 255
215 232 255
215 232 255
215 232 255
215 232 255
215 232 255
215 232 255
215 232 255
215 232 255
215 232 255
215 232 255
215 232 255
215 232 255
215 232 255
215 232 255
215 232 255
215 232 255
215 232 255
215 232 255
215 232 255
215 232 255
215 232 255
215 232 255
215 232 255
215 232 255
215 232 255
215 232 255
215 232 255
215 232 255
215 232 255
215 232 255
215 232 255
215 232 255
215 232 255
215 232 255
215 232 255
215 232 255
215 232 255
215 232 255
215 232 255
215 232 255
215 232 255
215 232 255
215 232 255
215 232 255
215 232 255
215 232 255
215 232 255
215 232 255
215 232 255
215 232 255
215 232 255
215 232 255
215 232 255
215 232 255
215 232 255
215 232 255
215 232 255
215 232 255
215 232 255
215 232 255
215 232 255
215 232 255
215 232 255
215 232 255
215 232 255
215 232 255
215 232 255
215 232 255
215 232 255
215 232 255
215 232 255
215 232 255
215 232 255
215 232 255
215 232 255
215 232 255
215 232 255
215 232 255
215 232 255
215 232 255
215 232 255
215 232 255
215 232 255
215 232 255
215 232 255
215 232 255
215 232 255
215 232 255
215 232 255
215 232 255
215 232 255
215 232 255
215 232 255
215 232 255
215 232 255
215 232 255
215 232 255
215 232 255
215 232 255
215 232 255
215 232 255
215 232 255
215 232 255
215 232 255
215 232 255
215 232 255
215 232 255
215 232 255
215 232 255
215 232 255
215 232 255
215 232 255
215 232 255
215 232 255
215 232 255
215 232 255
215 232 255
215 232 255
215 232 255
215 232 255
215 232 255
215 232 255
215 232 255
215 232 255
215 232 255
215 232 255
215 232 255
215 232 255
215 232 255
215 232 255
215 232 255
215 232 255
215 232 255
215 232 255
215 232 255
215 232 255
215 232 255
215 232 255
215 232 255
215 232 255
215 232 255
215 232 255
215 232 255
215 232 255
215 232 255
215 232 255
215 232 255
215 232 255
215 232 255
215 232 255
215 232 255
215 232 255
215 232 255
215 232 255
215 232 255
215 232 255
215 232 255
215 232 255
215 232 255
215 232 255
215 232 255
215 232 255
215 232 255
215 232 255
215 232 255
215 232 255
215 232 255
215 232 255
215 232 255
215 232 255
215 232 255
215 232 255
215 232 255
215 232 255
215 232 255
215 232 255
215 232 255
215 232 255
215 232 255
215 232 255
215 232 255
215 232 255
215 232 255
215 232 255
215 232 255
215 232 255
215 232 255
215 232 255
215 232 255
215 232 255
215 232 255
215 232 255
215 232 255
215 232 255
215 232 255
215 232 255
215 232 255
215 232 255
215 232 255
215 232 255
215 232 255
215 232 255
215 232 255
215 232 255
215 232 255
215 232 255
215 232 255
215 232 255
215 232 255
215 232 255
215 232 255
215 232 255
215 232 255
215 232 255
215 232 255
215 232 255
215 232 255
215 232 255
215 232 255
215 232 255
215 232 255
215 232 255
215 232 255
215 232 255
215 232 255
215 232 255
215 232 255
215 232 255
215 232 255
215 232 255
215 232 255
215 232 255
215 232 255
215 232 255
215 232 255
215 232 255
215 232 255
215 232 255
215 232 255
215 232 255
215 232 255
215 232 255
215 232 255
215 232 255
215 232 255
215 232 255
215 232 255
215 232 255
215 232 255
215 232 255
215 232 255
215 232 255
215 232 255
215 232 255
215 232 255
215 232 255
215 232 255
215 232 255
215 232 255
215 232 255
215 232 255
215 232 255
215 232 255
215 232 255
215 232 255
215 232 255
215 232 255
215 232 255
215 232 255
215 232 255
215 232 255
215 232 255
215 232 255
215 232 255
215 232 255
215 232 255
215 232 255
215 232 255
215 232 255
215 232 255
215 232 255
215 232 255
215 232 255
215 232 255
215 232 255
215 232 255
215 232 255
215 232 255
215 232 255
215 232 255
215 232 255
215 232 255
215 232 255
215 232 255
215 232 255
215 232 255
215 232 255
215 232 255
215 232 255
215 232 255
215 232 255
215 232 255
215 232 255
215 232 255
215 232 255
215 232 255
215 232 255
215 232 255
215 232 255
215 232 255
215 232 255
215 232 255
215 232 255
215 232 255
215 232 255
215 232 255
215 232 255
215 232 255
215 232 255
215 232 255
215 232 255
215 232 255
215 232 255
215 232 255
215 232 255
215 232 255
215 232 255
215 232 255
215 232 255
215 232 255
215 232 255
215 232 255
215 232 255
215 232 255
215 232 255
215 232 255
215 232 255
215 232 255
215 232 255
215 232 255
215 232 255
215 232 255
215 232 255
215 232 255
215 232 255
215 232 255
215 232 255
215 232 255
215 232 255
215 232 255
215 232 255
215 232 255
215 232 255
215 232 255
215 232 255
215 232 255
215 232 255
215 232 255
215 232 255
215 232 255
215 232 255
215 232 255
215 232 255
215 232 255
215 232 255
215 232 255
215 232 255
215 232 255
215 232 255
215 232 255
215 232 255
215 232 255
215 232 255
215 232 255
215 232 255
215 232 255
215 232 255
215 232 255
215 232 255
215 232 255
215 232 255
215 232 255
215 232 255
215 232 255
215 232 255
215 232 255
215 232 255
215 232 255
215 232 255
215 232 255
215 232 255
215 232 255
215 232 255
215 232 255
215 232 255
215 232 255
215 232 255
215 232 255
215 232 255
215 232 255
215 232 255
215 232 255
215 232 255
215 232 255
215 232 255
215 232 255
215 232 255
215 232 255
215 232 255
215 232 255
215 232 255
215 232 255
215 232 255
215 232 255
215 232 255
215 232 255
215 232 255
215 232 255
215 232 255
215 232 255
215 232 255
215 232 255
215 232 255
215 232 255
215 232 255
215 232 255
215 232 255
215 232 255
215 232 255
215 232 255
215 232 255
215 232 255
215 232 255
215 232 255
215 232 255
215 232 255
215 232 255
215 232 255
215 232 255
215 232 255
215 232 255
215 232 255
215 232 255
215 232 255
215 232 255
215 232 255
215 232 255
215 232 255
215 232 255
215 232 255
215 232 255
215 232 255
215 232 255
215 232 255
215 232 255
215 232 255
215 232 255
215 232 255
215 232 255
215 232 255
215 232 255
215 232 255
215 232 255
215 232 255
215 232 255
215 232 255
215 232 255
215 232 255
215 232 255
215 232 255
215 232 255
215 232 255
215 232 255
215 232 255
215 232 255
215 232 255
215 232 255
215 232 255
215 232 255
215 232 255
215 232 255
215 232 255
215 232 255
215 232 255
215 232 255
215 232 255
215 232 255
215 232 255
215 232 255
215 232 255
215 232 255
215 232 255
215 232 255
215 232 255
215 232 255
215 232 255
215 232 255
215 232 255
215 232 255
215 232 255
215 232 255
215 232 255
215 232 255
215 232 255
215 232 255
215 232 255
215 232 255
215 232 255
215 232 255
215 232 255
215 232 255
215 232 255
215 232 255
215 232 255
215 232 255
215 232 255
215 232 255
215 232 255
215 232 255
215 232 255
215 232 255
215 232 255
215 232 255
215 232 255
215 232 255
215 232 255
215 232 255
215 232 255
215 232 255
215 232 255
215 232 255
215 232 255
215 232 255
215 232 255
215 232 255
215 232 255
215 232 255
215 232 255
215 232 255
215 232 255
215 232 255
215 232 255
215 232 255
215 232 255
215 232 255
215 232 255
215 232 255
215 232 255
215 232 255
215 232 255
215 232 255
215 232 255
215 232 255
215 232 255
215 232 255
215 232 255
215 232 255
215 232 255
215 232 255
215 232 255
215 232 255
215 232 255
215 232 255
215 232 255
215 232 255
215 232 255
215 232 255
215 232 255
215 232 255
215 232 255
215 232 255
215 232 255
215 232 255
215 232 255
215 232 255
215 232 255
215 232 255
215 232 255
215 232 255
215 232 255
215 232 255
215 232 255
215 232 255
215 232 255
215 232 255
215 232 255
215 232 255
215 232 255
215 232 255
215 232 255
215 232 255
215 232 255
215 232 255
215 232 255
215 232 255
215 232 255
215 232 255
215 232 255
215 232 255
215 232 255
215 232 255
215 232 255
215 232 255
215 232 255
215 232 255
215 232 255
215 232 255
215 232 255
215 232 255
215 232 255
215 232 255
215 232 255
215 232 255
215 232 255
215 232 255
215 232 255
215 232 255
215 232 255
215 232 255
215 232 255
215 232 255
215 232 255
215 232 255
215 232 255
215 232 255
215 232 255
215 232 255
215 232 255
215 232 255
215 232 255
215 232 255
215 232 255
215 232 255
215 232 255
215 232 255
215 232 255
215 232 255
215 232 255
215 232 255
215 232 255
215 232 255
215 232 255
215 232 255
215 232 255
215 232 255
215 232 255
215 232 255
215 232 255
215 232 255
215 232 255
215 232 255
215 232 255
215 232 255
215 232 255
215 232 255
215 232 255
215 232 255
215 232 255
215 232 255
215 232 255
215 232 255
215 232 255
215 232 255
215 232 255
215 232 255
215 232 255
215 232 255
215 232 255
215 232 255
215 232 255
215 232 255
215 232 255
215 232 255
215 232 255
215 232 255
215 232 255
215 232 255
215 232 255
215 232 255
215 232 255
215 232 255
215 232 255
215 232 255
215 232 255
215 232 255
215 232 255
215 232 255
215 232 255
215 232 255
215 232 255
215 232 255
215 232 255
215 232 255
215 232 255
215 232 255
215 232 255
215 232 255
215 232 255
215 232 255
215 232 255
215 232 255
215 232 255
215 232 255
215 232 255
215 232 255
215 232 255
215 232 255
215 232 255
215 232 255
215 232 255
215 232 255
215 232 255
215 232 255
215 232 255
215 232 255
215 232 255
215 232 255
215 232 255
215 232 255
215 232 255
215 232 255
215 232 255
215 232 255
215 232 255
215 232 255
215 232 255
215 232 255
215 232 255
215 232 255
215 232 255
215 232 255
215 232 255
215 232 255
215 232 255
215 232 255
215 232 255
215 232 255
215 232 255
215 232 255
215 232 255
215 232 255
215 232 255
215 232 255
215 232 255
215 232 255
215 232 255
215 232 255
215 232 255
215 232 255
215 232 255
215 232 255
215 232 255
215 232 255
215 232 255
215 232 255
215 232 255
215 232 255
215 232 255
215 232 255
215 232 255
215 232 255
215 232 255
215 232 255
215 232 255
215 232 255
215 232 255
215 232 255
215 232 255
215 232 255
215 232 255
215 232 255
215 232 255
215 232 255
215 232 255
215 232 255
215 232 255
215 232 255
215 232 255
215 232 255
215 232 255
215 232 255
215 232 255
215 232 255
215 232 255
215 232 255
215 232 255
215 232 255
215 232 255
215 232 255
215 232 255
215 232 255
215 232 255
215 232 255
215 232 255
215 232 255
215 232 255
215 232 255
215 232 255
215 232 255
215 232 255
215 232 255
215 232 255
215 232 255
215 232 255
215 232 255
215 232 255
215 232 255
215 232 255
215 232 255
215 232 255
215 232 255
215 232 255
215 232 255
215 232 255
215 232 255
215 232 255
215 232 255
215 232 255
215 232 255
215 232 255
215 232 255
215 232 255
215 232 255
215 232 255
215 232 255
215 232 255
215 232 255
215 232 255
215 232 255
215 232 255
215 232 255
215 232 255
215 232 255
215 232 255
215 232 255
215 232 255
215 232 255
215 232 255
215 232 255
215 232 255
215 232 255
215 232 255
215 232 255
215 232 255
215 232 255
215 232 255
215 232 255
215 232 255
215 232 255
215 232 255
215 232 255
215 232 255
215 232 255
215 232 255
215 232 255
215 232 255
215 232 255
215 232 255
215 232 255
215 232 255
215 232 255
215 232 255
215 232 255
215 232 255
215 232 255
215 232 255
215 232 255
215 232 255
215 232 255
215 232 255
215 232 255
215 232 255
215 232 255
215 232 255
215 232 255
215 232 255
215 232 255
215 232 255
215 232 255
215 232 255
215 232 255
215 232 255
215 232 255
215 232 255
215 232 255
215 232 255
215 232 255
215 232 255
215 232 255
215 232 255
215 232 255
215 232 255
215 232 255
215 232 255
215 232 255
215 232 255
215 232 255
215 232 255
215 232 255
215 232 255
215 232 255
215 232 255
215 232 255
215 232 255
215 232 255
215 232 255
215 232 255
215 232 255
215 232 255
215 232 255
215 232 255
215 232 255
215 232 255
215 232 255
215 232 255
215 232 255
215 232 255
215 232 255
215 232 255
215 232 255
215 232 255
215 232 255
215 232 255
215 232 255
215 232 255
215 232 255
215 232 255
215 232 255
215 232 255
215 232 255
215 232 255
215 232 255
215 232 255
215 232 255
215 232 255
215 232 255
215 232 255
215 232 255
215 232 255
215 232 255
215 232 255
215 232 255
215 232 255
215 232 255
215 232 255
215 232 255
215 232 255
215 232 255
215 232 255
215 232 255
215 232 255
215 232 255
215 232 255
215 232 255
215 232 255
215 232 255
215 232 255
215 232 255
215 232 255
215 232 255
215 232 255
215 232 255
215 232 255
215 232 255
215 232 255
215 232 255
215 232 255
215 232 255
215 232 255
215 232 255
215 232 255
215 232 255
215 232 255
215 232 255
215 232 255
215 232 255
215 232 255
215 232 255
215 232 255
215 232 255
215 232 255
215 232 255
215 232 255
215 232 255
215 232 255
215 232 255
215 232 255
215 232 255
215 232 255
215 232 255
215 232 255
215 232 255
215 232 255
215 232 255
215 232 255
215 232 255
215 232 255
215 232 255
215 232 255
215 232 255
215 232 255
215 232 255
215 232 255
215 232 255
215 232 255
215 232 255
215 232 255
215 232 255
215 232 255
215 232 255
215 232 255
215 232 255
215 232 255
215 232 255
215 232 255
215 232 255
215 232 255
215 232 255
215 232 255
215 232 255
215 232 255
215 232 255
215 232 255
215 232 255
215 232 255
215 232 255
215 232 255
215 232 255
215 232 255
215 232 255
215 232 255
215 232 255
215 232 255
215 232 255
215 232 255
215 232 255
215 232 255
215 232 255
215 232 255
215 232 255
215 232 255
215 232 255
215 232 255
215 232 255
215 232 255
215 232 255
215 232 255
215 232 255
215 232 255
215 232 255
215 232 255
215 232 255
215 232 255
215 232 255
215 232 255
215 232 255
215 232 255
215 232 255
215 232 255
215 232 255
215 232 255
215 232 255
215 232 255
215 232 255
215 232 255
215 232 255
215 232 255
215 232 255
215 232 255
215 232 255
215 232 255
215 232 255
215 232 255
215 232 255
215 232 255
215 232 255
215 232 255
215 232 255
215 232 255
215 232 255
215 232 255
215 232 255
215 232 255
215 232 255
215 232 255
215 232 255
215 232 255
215 232 255
215 232 255
215 232 255
215 232 255
215 232 255
215 232 255
215 232 255
215 232 255
215 232 255
215 232 255
215 232 255
215 232 255
215 232 255
215 232 255
215 232 255
215 232 255
215 232 255
215 232 255
215 232 255
215 232 255
215 232 255
215 232 255
215 232 255
215 232 255
215 232 255
215 232 255
215 232 255
215 232 255
215 232 255
215 232 255
215 232 255
215 232 255
215 232 255
215 232 255
215 232 255
215 232 255
215 232 255
215 232 255
215 232 255
215 232 255
215 232 255
215 232 255
215 232 255
215 232 255
215 232 255
215 232 255
215 232 255
215 232 255
215 232 255
215 232 255
215 232 255
215 232 255
215 232 255
215 232 255
215 232 255
215 232 255
215 232 255
215 232 255
215 232 255
215 232 255
215 232 255
215 232 255
215 232 255
215 232 255
215 232 255
215 232 255
215 232 255
215 232 255
215 232 255
215 232 255
215 232 255
215 232 255
215 232 255
215 232 255
215 232 255
215 232 255
215 232 255
215 232 255
215 232 255
215 232 255
215 232 255
215 232 255
215 232 255
215 232 255
215 232 255
215 232 255
215 232 255
215 232 255
215 232 255
215 232 255
215 232 255
215 232 255
215 232 255
215 232 255
215 232 255
215 232 255
215 232 255
215 232 255
215 232 255
215 232 255
215 232 255
215 232 255
215 232 255
215 232 255
215 232 255
215 232 255
215 232 255
215 232 255
215 232 255
215 232 255
215 232 255
215 232 255
215 232 255
215 232 255
215 232 255
215 232 255
215 232 255
215 232 255
215 232 255
215 232 255
215 232 255
215 232 255
215 232 255
215 232 255
215 232 255
215 232 255
215 232 255
215 232 255
215 232 255
215 232 255
215 232 255
215 232 255
215 232 255
215 232 255
215 232 255
215 232 255
215 232 255
215 232 255
215 232 255
215 232 255
215 232 255
215 232 255
215 232 255
215 232 255
215 232 255
215 232 255
215 232 255
215 232 255
215 232 255
215 232 255
215 232 255
215 232 255
215 232 255
215 232 255
215 232 255
215 232 255
215 232 255
215 232 255
215 232 255
215 232 255
215 232 255
215 232 255
215 232 255
215 232 255
215 232 255
215 232 255
215 232 255
215 232 255
215 232 255
215 232 255
215 232 255
215 232 255
215 232 255
215 232 255
215 232 255
215 232 255
215 232 255
215 232 255
215 232 255
215 232 255
215 232 255
215 232 255
215 232 255
215 232 255
215 232 255
215 232 255
215 232 255
215 232 255
215 232 255
215 232 255
215 232 255
215 232 255
215 232 255
215 232 255
215 232 255
215 232 255
215 232 255
215 232 255
215 232 255
215 232 255
215 232 255
215 232 255
215 232 255
215 232 255
215 232 255
215 232 255
215 232 255
215 232 255
215 232 255
215 232 255
215 232 255
215 232 255
215 232 255
215 232 255
215 232 255
215 232 255
215 232 255
215 232 255
215 232 255
215 232 255
215 232 255
215 232 255
215 232 255
215 232 255
215 232 255
215 232 255
215 232 255
215 232 255
215 232 255
215 232 255
215 232 255
215 232 255
215 232 255
215 232 255
215 232 255
215 232 255
215 232 255
215 232 255
215 232 255
215 232 255
215 232 255
215 232 255
215 232 255
215 232 255
215 232 255
215 232 255
215 232 255
215 232 255
215 232 255
215 232 255
215 232 255
215 232 255
215 232 255
215 232 255
215 232 255
215 232 255
215 232 255
215 232 255
215 232 255
215 232 255
215 232 255
215 232 255
215 232 255
215 232 255
215 232 255
215 232 255
215 232 255
215 232 255
215 232 255
215 232 255
215 232 255
215 232 255
215 232 255
215 232 255
215 232 255
215 232 255
215 232 255
215 232 255
215 232 255
215 232 255
215 232 255
215 232 255
215 232 255
215 232 255
215 232 255
215 232 255
215 232 255
215 232 255
215 232 255
215 232 255
215 232 255
215 232 255
215 232 255
215 232 255
215 232 255
215 232 255
215 232 255
215 232 255
215 232 255
215 232 255
215 232 255
215 232 255
215 232 255
215 232 255
215 232 255
215 232 255
215 232 255
215 232 255
215 232 255
215 232 255
215 232 255
215 232 255
215 232 255
215 232 255
215 232 255
215 232 255
215 232 255
215 232 255
215 232 255
215 232 255
215 232 255
215 232 255
215 232 255
215 232 255
215 232 255
215 232 255
215 232 255
215 232 255
215 232 255
215 232 255
215 232 255
215 232 255
215 232 255
215 232 255
215 232 255
215 232 255
215 232 255
215 232 255
215 232 255
215 232 255
215 232 255
215 232 255
215 232 255
215 232 255
215 232 255
215 232 255
215 232 255
215 232 255
215 232 255
215 232 255
215 232 255
215 232 255
215 232 255
215 232 255
215 232 255
215 232 255
215 232 255
215 232 255
215 232 255
215 232 255
215 232 255
215 232 255
215 232 255
215 232 255
215 232 255
215 232 255
215 232 255
215 232 255
215 232 255
215 232 255
215 232 255
215 232 255
215 232 255
215 232 255
215 232 255
215 232 255
215 232 255
215 232 255
215 232 255
215 232 255
215 232 255
215 232 255
215 232 255
215 232 255
215 232 255
215 232 255
215 232 255
215 232 255
215 232 255
215 232 255
215 232 255
215 232 255
215 232 255
215 232 255
215 232 255
215 232 255
215 232 255
215 232 255
215 232 255
215 232 255
215 232 255
215 232 255
215 232 255
215 232 255
215 232 255
215 232 255
215 232 255
215 232 255
215 232 255
215 232 255
215 232 255
215 232 255
215 232 255
215 232 255
215 232 255
215 232 255
215 232 255
215 232 255
215 232 255
214 232 255
215 232 255
212 230 255
212 230 254
206 224 247
207 225 250
204 223 248
208 227 252
206 224 249
203 222 247
194 212 234
203 221 245
206 224 248
209 227 252
209 227 252
209 226 250
213 230 254
215 232 255
215 232 255
215 232 255
215 232 255
215 232 255
215 232 255
215 232 255
215 232 255
215 232 255
215 232 255
215 232 255
215 232 255
215 232 255
215 232 255
215 232 255
215 232 255
215 232 255
215 232 255
215 232 255
215 232 255
215 232 255
215 232 255
215 232 255
215 232 255
215 232 255
215 232 255
215 232 255
215 232 255
215 232 255
215 232 255
215 232 255
215 232 255
215 232 255
215 232 255
215 232 255
215 232 255
215 232 255
215 232 255
215 232 255
215 232 255
215 232 255
215 232 255
215 232 255
215 232 255
215 232 255
215 232 255
215 232 255
215 232 255
215 232 255
215 232 255
215 232 255
215 232 255
215 232 255
215 232 255
215 232 255
215 232 255
215 232 255
215 232 255
215 232 255
215 232 255
215 232 255
215 232 255
215 232 255
215 232 255
215 232 255
215 232 255
215 232 255
215 232 255
215 232 255
215 232 255
215 232 255
215 232 255
215 232 255
215 232 255
215 232 255
215 232 255
215 232 255
215 232 255
215 232 255
215 232 255
215 232 255
215 232 255
215 232 255
215 232 255
215 232 255
215 232 255
215 232 255
215 232 255
215 232 255
215 232 255
215 232 255
215 232 255
215 232 255
215 232 255
215 232 255
215 232 255
215 232 255
215 232 255
215 232 255
215 232 255
215 232 255
215 232 255
215 232 255
215 232 255
215 232 255
215 232 255
215 232 255
215 232 255
215 232 255
215 232 255
215 232 255
215 232 255
215 232 255
215 232 255
215 232 255
215 232 255
215 232 255
215 232 255
215 232 255
215 232 255
215 232 255
215 232 255
215 232 255
215 232 255
215 232 255
215 232 255
215 232 255
215 232 255
215 232 255
215 232 255
215 232 255
215 232 255
215 232 255
215 232 255
215 232 255
215 232 255
215 232 255
215 232 255
215 232 255
215 232 255
215 232 255
215 232 255
215 232 255
215 232 255
215 232 255
215 232 255
215 232 255
215 232 255
215 232 255
215 232 255
215 232 255
215 232 255
215 232 255
215 232 255
215 232 255
215 232 255
215 232 255
215 232 255
215 232 255
215 232 255
215 232 255
215 232 255
215 232 255
215 232 255
215 232 255
215 232 255
215 232 255
215 232 255
215 232 255
215 232 255
215 232 255
215 232 255
215 232 255
215 232 255
215 232 255
215 232 255
215 232 255
215 232 255
215 232 255
215 232 255
215 232 255
215 232 255
215 232 255
215 232 255
215 232 255
215 232 255
215 232 255
215 232 255
215 232 255
215 232 255
215 232 255
215 232 255
215 232 255
215 232 255
215 232 255
215 232 255
215 232 255
215 232 255
215 232 255
215 232 255
215 232 255
215 232 255
215 232 255
215 232 255
215 232 255
215 232 255
215 232 255
215 232 255
215 232 255
215 232 255
215 232 255
215 232 255
215 232 255
215 232 255
215 232 255
215 232 255
215 232 255
215 232 255
215 232 255
215 232 255
215 232 255
215 232 255
215 232 255
215 232 255
215 232 255
215 232 255
215 232 255
215 232 255
215 232 255
215 232 255
215 232 255
215 232 255
215 232 255
215 232 255
215 232 255
215 232 255
215 232 255
215 232 255
215 232 255
215 232 255
215 232 255
215 232 255
215 232 255
215 232 255
215 232 255
215 232 255
215 232 255
215 232 255
215 232 255
215 232 255
215 232 255
215 232 255
215 232 255
215 232 255
215 232 255
215 232 255
215 232 255
215 232 255
215 232 255
215 232 255
215 232 255
215 232 255
215 232 255
215 232 255
215 232 255
215 232 255
215 232 255
215 232 255
215 232 255
215 232 255
215 232 255
215 232 255
215 232 255
215 232 255
215 232 255
215 232 255
215 232 255
215 232 255
215 232 255
215 232 255
215 232 255
215 232 255
215 232 255
215 232 255
215 232 255
215 232 255
215 232 255
215 232 255
215 232 255
215 232 255
215 232 255
215 232 255
215 232 255
215 232 255
215 232 255
215 232 255
215 232 255
215 232 255
215 232 255
215 232 255
215 232 255
215 232 255
215 232 255
215 232 255
215 232 255
215 232 255
215 232 255
215 232 255
215 232 255
215 232 255
215 232 255
215 232 255
215 232 255
215 232 255
215 232 255
215 232 255
215 232 255
215 232 255
215 232 255
215 232 255
215 232 255
215 232 255
215 232 255
215 232 255
215 232 255
215 232 255
215 232 255
215 232 255
215 232 255
215 232 255
215 232 255
215 232 255
215 232 255
215 232 255
215 232 255
215 232 255
215 232 255
215 232 255
215 232 255
215 232 255
215 232 255
215 232 255
215 232 255
215 232 255
215 232 255
215 232 255
215 232 255
215 232 255
215 232 255
215 232 255
215 232 255
215 232 255
215 232 255
215 232 255
215 232 255
215 232 255
215 232 255
215 232 255
215 232 255
215 232 255
215 232 255
215 232 255
215 232 255
215 232 255
215 232 255
215 232 255
215 232 255
215 232 255
215 232 255
215 232 255
215 232 255
215 232 255
215 232 255
215 232 255
215 232 255
213 231 255
208 227 252
204 224 249
201 220 245
193 213 240
186 205 228
179 199 222
171 191 210
178 200 227
190 214 245
174 197 224
164 183 198
157 174 187
155 176 209
161 182 210
159 179 207
156 178 214
170 192 218
175 194 207
140 158 189
143 159 181
162 180 203
110 126 166
90 109 159
95 114 163
88 109 164
95 115 168
133 151 195
135 152 193
147 163 202
172 190 222
189 208 237
207 225 251
212 230 255
215 232 255
215 232 255
215 232 255
215 232 255
215 232 255
215 232 255
215 232 255
215 232 255
215 232 255
215 232 255
215 232 255
215 232 255
215 232 255
215 232 255
215 232 255
215 232 255
215 232 255
215 232 255
215 232 255
215 232 255
215 232 255
215 232 255
215 232 255
215 232 255
215 232 255
215 232 255
215 232 255
215 232 255
215 232 255
215 232 255
215 232 255
215 232 255
215 232 255
215 232 255
215 232 255
215 232 255
215 232 255
215 232 255
215 232 255
215 232 255
215 232 255
215 232 255
215 232 255
215 232 255
215 232 255
215 232 255
215 232 255
215 232 255
215 232 255
215 232 255
215 232 255
215 232 255
215 232 255
215 232 255
215 232 255
215 232 255
215 232 255
215 232 255
215 232 255
215 232 255
215 232 255
215 232 255
215 232 255
215 232 255
215 232 255
215 232 255
215 232 255
215 232 255
215 232 255
215 232 255
215 232 255
215 232 255
215 232 255
215 232 255
215 232 255
215 232 255
215 232 255
215 232 255
215 232 255
215 232 255
215 232 255
215 232 255
215 232 255
215 232 255
215 232 255
215 232 255
215 232 255
215 232 255
215 232 255
215 232 255
215 232 255
215 232 255
215 232 255
215 232 255
215 232 255
215 232 255
215 232 255
215 232 255
215 232 255
215 232 255
215 232 255
215 232 255
215 232 255
215 232 255
215 232 255
215 232 255
215 232 255
215 232 255
215 232 255
215 232 255
215 232 255
215 232 255
215 232 255
215 232 255
215 232 255
215 232 255
215 232 255
215 232 255
215 232 255
215 232 255
215 232 255
215 232 255
215 232 255
215 232 255
215 232 255
215 232 255
215 232 255
215 232 255
215 232 255
215 232 255
215 232 255
215 232 255
215 232 255
215 232 255
215 232 255
215 232 255
215 232 255
215 232 255
215 232 255
215 232 255
215 232 255
215 232 255
215 232 255
215 232 255
215 232 255
215 232 255
215 232 255
215 232 255
215 232 255
215 232 255
215 232 255
215 232 255
215 232 255
215 232 255
215 232 255
215 232 255
215 232 255
215 232 255
215 232 255
215 232 255
215 232 255
215 232 255
215 232 255
215 232 255
215 232 255
215 232 255
215 232 255
215 232 255
215 232 255
215 232 255
215 232 255
215 232 255
215 232 255
215 232 255
215 232 255
215 232 255
215 232 255
215 232 255
215 232 255
215 232 255
215 232 255
215 232 255
215 232 255
215 232 255
215 232 255
215 232 255
215 232 255
215 232 255
215 232 255
215 232 255
215 232 255
215 232 255
215 232 255
215 232 255
215 232 255
215 232 255
215 232 255
215 232 255
215 232 255
215 232 255
215 232 255
215 232 255
215 232 255
215 232 255
215 232 255
215 232 255
215 232 255
215 232 255
215 232 255
215 232 255
215 232 255
215 232 255
215 232 255
215 232 255
215 232 255
215 232 255
215 232 255
215 232 255
215 232 255
215 232 255
215 232 255
215 232 255
215 232 255
215 232 255
215 232 255
215 232 255
215 232 255
215 232 255
215 232 255
215 232 255
215 232 255
215 232 255
215 232 255
215 232 255
215 232 255
215 232 255
215 232 255
215 232 255
215 232 255
215 232 255
215 232 255
215 232 255
215 232 255
215 232 255
215 232 255
215 232 255
215 232 255
215 232 255
215 232 255
215 232 255
215 232 255
215 232 255
215 232 255
215 232 255
215 232 255
215 232 255
215 232 255
215 232 255
215 232 255
215 232 255
215 232 255
215 232 255
215 232 255
215 232 255
215 232 255
215 232 255
215 232 255
215 232 255
215 232 255
215 232 255
215 232 255
215 232 255
215 232 255
215 232 255
215 232 255
215 232 255
215 232 255
215 232 255
215 232 255
215 232 255
215 232 255
215 232 255
215 232 255
215 232 255
215 232 255
215 232 255
215 232 255
215 232 255
215 232 255
215 232 255
215 232 255
215 232 255
215 232 255
215 232 255
215 232 255
215 232 255
215 232 255
215 232 255
215 232 255
215 232 255
215 232 255
215 232 255
215 232 255
215 232 255
215 232 255
215 232 255
215 232 255
215 232 255
215 232 255
215 232 255
215 232 255
215 232 255
215 232 255
215 232 255
215 232 255
215 232 255
215 232 255
215 232 255
215 232 255
215 232 255
215 232 255
215 232 255
215 232 255
215 232 255
215 232 255
215 232 255
215 232 255
215 232 255
215 232 255
215 232 255
215 232 255
215 232 255
215 232 255
215 232 255
215 232 255
215 232 255
215 232 255
215 232 255
215 232 255
215 232 255
215 232 255
215 232 255
215 232 255
215 232 255
215 232 255
215 232 255
215 232 255
215 232 255
215 232 255
215 232 255
215 232 255
215 232 255
215 232 255
215 232 255
215 232 255
215 232 255
215 232 255
215 232 255
215 232 255
215 232 255
214 232 255
212 230 255
203 223 251
179 197 221
172 189 208
144 160 182
127 139 152
124 136 136
129 140 132
134 144 135
134 144 131
127 139 122
128 143 133
124 136 112
133 153 169
171 197 230
173 198 231
155 174 189
125 143 176
112 122 131
115 127 123
101 114 140
128 146 181
159 179 206
125 139 165
145 161 177
125 136 141
127 137 139
124 136 137
113 125 142
119 132 153
129 145 167
122 136 149
136 154 178
120 139 177
103 123 171
65 88 151
34 64 141
18 59 142
72 99 162
108 134 185
159 181 217
193 212 239
203 224 251
212 231 255
215 232 255
215 232 255
215 232 255
215 232 255
215 232 255
215 232 255
215 232 255
215 232 255
215 232 255
215 232 255
215 232 255
215 232 255
215 232 255
215 232 255
215 232 255
215 232 255
215 232 255
215 232 255
215 232 255
215 232 255
215 232 255
215 232 255
215 232 255
215 232 255
215 232 255
215 232 255
215 232 255
215 232 255
215 232 255
215 232 255
215 232 255
215 232 255
215 232 255
215 232 255
215 232 255
215 232 255
215 232 255
215 232 255
215 232 255
215 232 255
215 232 255
215 232 255
215 232 255
215 232 255
215 232 255
215 232 255
215 232 255
215 232 255
215 232 255
215 232 255
215 232 255
215 232 255
215 232 255
215 232 255
215 232 255
215 232 255
215 232 255
215 232 255
215 232 255
215 232 255
215 232 255
215 232 255
215 232 255
215 232 255
215 232 255
215 232 255
215 232 255
215 232 255
215 232 255
215 232 255
215 232 255
215 232 255
215 232 255
215 232 255
215 232 255
215 232 255
215 232 255
215 232 255
215 232 255
215 232 255
215 232 255
215 232 255
215 232 255
215 232 255
215 232 255
215 232 255
215 232 255
215 232 255
215 232 255
215 232 255
215 232 255
215 232 255
215 232 255
215 232 255
215 232 255
215 232 255
215 232 255
215 232 255
215 232 255
215 232 255
215 232 255
215 232 255
215 232 255
215 232 255
215 232 255
215 232 255
215 232 255
215 232 255
215 232 255
215 232 255
215 232 255
215 232 255
215 232 255
215 232 255
215 232 255
215 232 255
215 232 255
215 232 255
215 232 255
215 232 255
215 232 255
215 232 255
215 232 255
215 232 255
215 232 255
215 232 255
215 232 255
215 232 255
215 232 255
215 232 255
215 232 255
215 232 255
215 232 255
215 232 255
215 232 255
215 232 255
215 232 255
215 232 255
215 232 255
215 232 255
215 232 255
215 232 255
215 232 255
215 232 255
215 232 255
215 232 255
215 232 255
215 232 255
215 232 255
215 232 255
215 232 255
215 232 255
215 232 255
215 232 255
215 232 255
215 232 255
215 232 255
215 232 255
215 232 255
215 232 255
215 232 255
215 232 255
215 232 255
215 232 255
215 232 255
215 232 255
215 232 255
215 232 255
215 232 255
215 232 255
215 232 255
215 232 255
215 232 255
215 232 255
215 232 255
215 232 255
215 232 255
215 232 255
215 232 255
215 232 255
215 232 255
215 232 255
215 232 255
215 232 255
215 232 255
215 232 255
215 232 255
215 232 255
215 232 255
215 232 255
215 232 255
215 232 255
215 232 255
215 232 255
215 232 255
215 232 255
215 232 255
215 232 255
215 232 255
215 232 255
215 232 255
215 232 255
215 232 255
215 232 255
215 232 255
215 232 255
215 232 255
215 232 255
215 232 255
215 232 255
215 232 255
215 232 255
215 232 255
215 232 255
215 232 255
215 232 255
215 232 255
215 232 255
215 232 255
215 232 255
215 232 255
215 232 255
215 232 255
215 232 255
215 232 255
215 232 255
215 232 255
215 232 255
215 232 255
215 232 255
215 232 255
215 232 255
215 232 255
215 232 255
215 232 255
215 232 255
215 232 255
215 232 255
215 232 255
215 232 255
215 232 255
215 232 255
215 232 255
215 232 255
215 232 255
215 232 255
215 232 255
215 232 255
215 232 255
215 232 255
215 232 255
215 232 255
215 232 255
215 232 255
215 232 255
215 232 255
215 232 255
215 232 255
215 232 255
215 232 255
215 232 255
215 232 255
215 232 255
215 232 255
215 232 255
215 232 255
215 232 255
215 232 255
215 232 255
215 232 255
215 232 255
215 232 255
215 232 255
215 232 255
215 232 255
215 232 255
215 232 255
215 232 255
215 232 255
215 232 255
215 232 255
215 232 255
215 232 255
215 232 255
215 232 255
215 232 255
215 232 255
215 232 255
215 232 255
215 232 255
215 232 255
215 232 255
215 232 255
215 232 255
215 232 255
215 232 255
215 232 255
215 232 255
215 232 255
215 232 255
215 232 255
215 232 255
215 232 255
215 232 255
215 232 255
215 232 255
215 232 255
215 232 255
215 232 255
215 232 255
215 232 255
215 232 255
215 232 255
215 232 255
215 232 255
215 232 255
215 232 255
215 232 255
215 232 255
215 232 255
215 232 255
215 232 255
215 232 255
215 232 255
215 232 255
215 232 255
215 232 255
215 232 255
215 232 255
215 232 255
215 232 255
215 232 255
215 232 255
215 232 255
215 232 255
215 232 255
215 232 255
215 232 255
215 232 255
215 232 255
215 232 255
215 232 255
215 232 255
215 232 255
215 232 255
215 232 255
215 232 255
215 232 255
215 232 255
215 232 255
215 232 255
215 232 255
201 219 246
182 201 232
145 164 197
136 156 191
133 151 181
107 122 155
89 100 135
79 91 129
92 103 129
85 96 128
107 118 119
96 108 115
90 109 128
99 114 111
97 115 114
94 116 120
89 115 128
87 114 132
88 115 138
94 119 132
109 124 117
95 110 121
99 109 115
114 123 116
117 126 119
119 130 128
118 127 121
125 137 152
127 143 162
118 131 136
117 129 130
110 120 121
64 78 132
72 89 150
82 104 162
80 95 136
102 114 118
85 100 126
89 104 133
127 139 142
135 151 167
99 116 156
72 99 160
21 69 147
15 71 150
21 77 152
51 85 150
104 130 178
155 176 207
180 202 231
203 225 254
210 229 255
214 231 255
215 232 255
215 232 255
215 232 255
215 232 255
215 232 255
215 232 255
215 232 255
215 232 255
215 232 255
215 232 255
215 232 255
215 232 255
215 232 255
215 232 255
215 232 255
215 232 255
215 232 255
215 232 255
215 232 255
215 232 255
215 232 255
215 232 255
215 232 255
215 232 255
215 232 255
215 232 255
215 232 255
215 232 255
215 232 255
215 232 255
215 232 255
215 232 255
215 232 255
215 232 255
215 232 255
215 232 255
215 232 255
215 232 255
215 232 255
215 232 255
215 232 255
215 232 255
215 232 255
215 232 255
215 232 255
215 232 255
215 232 255
215 232 255
215 232 255
215 232 255
215 232 255
215 232 255
215 232 255
215 232 255
215 232 255
215 232 255
215 232 255
215 232 255
215 232 255
215 232 255
215 232 255
215 232 255
215 232 255
215 232 255
215 232 255
215 232 255
215 232 255
215 232 255
215 232 255
215 232 255
215 232 255
215 232 255
215 232 255
215 232 255
215 232 255
215 232 255
215 232 255
215 232 255
215 232 255
215 232 255
215 232 255
215 232 255
215 232 255
215 232 255
215 232 255
215 232 255
215 232 255
215 232 255
215 232 255
215 232 255
215 232 255
215 232 255
215 232 255
215 232 255
215 232 255
215 232 255
215 232 255
215 232 255
215 232 255
215 232 255
215 232 255
215 232 255
215 232 255
215 232 255
215 232 255
215 232 255
215 232 255
215 232 255
215 232 255
215 232 255
215 232 255
215 232 255
215 232 255
215 232 255
215 232 255
215 232 255
215 232 255
215 232 255
215 232 255
215 232 255
215 232 255
215 232 255
215 232 255
215 232 255
215 232 255
215 232 255
215 232 255
215 232 255
215 232 255
215 232 255
215 232 255
215 232 255
215 232 255
215 232 255
215 232 255
215 232 255
215 232 255
215 232 255
215 232 255
215 232 255
215 232 255
215 232 255
215 232 255
215 232 255
215 232 255
215 232 255
215 232 255
215 232 255
215 232 255
215 232 255
215 232 255
215 232 255
215 232 255
215 232 255
215 232 255
215 232 255
215 232 255
215 232 255
215 232 255
215 232 255
215 232 255
215 232 255
215 232 255
215 232 255
215 232 255
215 232 255
215 232 255
215 232 255
215 232 255
215 232 255
215 232 255
215 232 255
215 232 255
215 232 255
215 232 255
215 232 255
215 232 255
215 232 255
215 232 255
215 232 255
215 232 255
215 232 255
215 232 255
215 232 255
215 232 255
215 232 255
215 232 255
215 232 255
215 232 255
215 232 255
215 232 255
215 232 255
215 232 255
215 232 255
215 232 255
215 232 255
215 232 255
215 232 255
215 232 255
215 232 255
215 232 255
215 232 255
215 232 255
215 232 255
215 232 255
215 232 255
215 232 255
215 232 255
215 232 255
215 232 255
215 232 255
215 232 255
215 232 255
215 232 255
215 232 255
215 232 255
215 232 255
215 232 255
215 232 255
215 232 255
215 232 255
215 232 255
215 232 255
215 232 255
215 232 255
215 232 255
215 232 255
215 232 255
215 232 255
215 232 255
215 232 255
215 232 255
215 232 255
215 232 255
215 232 255
215 232 255
215 232 255
215 232 255
215 232 255
215 232 255
215 232 255
215 232 255
215 232 255
215 232 255
215 232 255
215 232 255
215 232 255
215 232 255
215 232 255
215 232 255
215 232 255
215 232 255
215 232 255
215 232 255
215 232 255
215 232 255
215 232 255
215 232 255
215 232 255
215 232 255
215 232 255
215 232 255
215 232 255
215 232 255
215 232 255
215 232 255
215 232 255
215 232 255
215 232 255
215 232 255
215 232 255
215 232 255
215 232 255
215 232 255
215 232 255
215 232 255
215 232 255
215 232 255
215 232 255
215 232 255
215 232 255
215 232 255
215 232 255
215 232 255
215 232 255
215 232 255
215 232 255
215 232 255
215 232 255
215 232 255
215 232 255
215 232 255
215 232 255
215 232 255
215 232 255
215 232 255
215 232 255
215 232 255
215 232 255
215 232 255
215 232 255
215 232 255
215 232 255
215 232 255
215 232 255
215 232 255
215 232 255
215 232 255
215 232 255
215 232 255
215 232 255
215 232 255
215 232 255
215 232 255
215 232 255
215 232 255
215 232 255
215 232 255
215 232 255
215 232 255
215 232 255
215 232 255
215 232 255
215 232 255
215 232 255
215 232 255
215 232 255
215 232 255
215 232 255
215 232 255
215 232 255
215 232 255
215 232 255
215 232 255
215 232 255
215 232 255
215 232 255
215 232 255
215 232 255
215 232 255
215 232 255
215 232 255
213 230 254
199 216 242
167 185 210
117 134 157
79 95 116
85 99 94
90 103 84
103 116 93
108 120 111
113 124 111
110 122 103
104 118 97
103 118 98
98 110 104
104 116 106
109 121 106
112 123 110
101 116 108
109 119 102
110 118 100
107 116 96
111 120 98
109 118 97
109 118 98
109 119 99
107 119 103
113 121 106
113 122 112
113 122 115
114 124 116
114 124 117
107 115 117
107 116 114
94 105 121
120 133 154
133 148 168
123 140 173
74 93 157
45 70 143
44 67 141
37 63 140
53 68 132
43 65 133
69 83 125
119 129 115
115 126 119
109 122 117
127 139 137
121 138 160
140 158 186
109 129 163
95 122 170
45 87 153
13 79 156
35 88 159
61 97 157
146 167 192
182 205 235
200 224 255
205 227 255
210 230 255
215 232 255
215 232 255
215 232 255
215 232 255
215 232 255
215 232 255
215 232 255
215 232 255
215 232 255
215 232 255
215 232 255
215 232 255
215 232 255
215 232 255
215 232 255
215 232 255
215 232 255
215 232 255
215 232 255
215 232 255
215 232 255
215 232 255
215 232 255
215 232 255
215 232 255
215 232 255
215 232 255
215 232 255
215 232 255
215 232 255
215 232 255
215 232 255
215 232 255
215 232 255
215 232 255
215 232 255
215 232 255
215 232 255
215 232 255
215 232 255
215 232 255
215 232 255
215 232 255
215 232 255
215 232 255
215 232 255
215 232 255
215 232 255
215 232 255
215 232 255
215 232 255
215 232 255
215 232 255
215 232 255
215 232 255
215 232 255
215 232 255
215 232 255
215 232 255
215 232 255
215 232 255
215 232 255
215 232 255
215 232 255
215 232 255
215 232 255
215 232 255
215 232 255
215 232 255
215 232 255
215 232 255
215 232 255
215 232 255
215 232 255
215 232 255
215 232 255
215 232 255
215 232 255
215 232 255
215 232 255
215 232 255
215 232 255
215 232 255
215 232 255
215 232 255
215 232 255
215 232 255
215 232 255
215 232 255
215 232 255
215 232 255
215 232 255
215 232 255
215 232 255
215 232 255
215 232 255
215 232 255
215 232 255
215 232 255
215 232 255
215 232 255
215 232 255
215 232 255
215 232 255
215 232 255
215 232 255
215 232 255
215 232 255
215 232 255
215 232 255
215 232 255
215 232 255
215 232 255
215 232 255
215 232 255
215 232 255
215 232 255
215 232 255
215 232 255
215 232 255
215 232 255
215 232 255
215 232 255
215 232 255
215 232 255
215 232 255
215 232 255
215 232 255
215 232 255
215 232 255
215 232 255
215 232 255
215 232 255
215 232 255
215 232 255
215 232 255
215 232 255
215 232 255
215 232 255
215 232 255
215 232 255
215 232 255
215 232 255
215 232 255
215 232 255
215 232 255
215 232 255
215 232 255
215 232 255
215 232 255
215 232 255
215 232 255
215 232 255
215 232 255
215 232 255
215 232 255
215 232 255
215 232 255
215 232 255
215 232 255
215 232 255
215 232 255
215 232 255
215 232 255
215 232 255
215 232 255
215 232 255
215 232 255
215 232 255
215 232 255
216 232 255
215 232 255
215 232 255
215 232 255
215 232 255
215 232 255
215 232 255
215 232 255
215 232 255
215 232 255
215 232 255
215 232 255
215 232 255
215 232 255
215 232 255
215 232 255
215 232 255
215 232 255
215 232 255
215 232 255
215 232 255
215 232 255
215 232 255
215 232 255
215 232 255
215 232 255
215 232 255
215 232 255
215 232 255
215 232 255
215 232 255
215 232 255
215 232 255
215 232 255
215 232 255
215 232 255
215 232 255
215 232 255
215 232 255
215 232 255
215 232 255
215 232 255
215 232 255
215 232 255
215 232 255
215 232 255
215 232 255
215 232 255
215 232 255
215 232 255
215 232 255
215 232 255
215 232 255
215 232 255
215 232 255
215 232 255
215 232 255
215 232 255
215 232 255
215 232 255
215 232 255
215 232 255
215 232 255
215 232 255
215 232 255
215 232 255
215 232 255
215 232 255
215 232 255
215 232 255
215 232 255
215 232 255
215 232 255
215 232 255
215 232 255
215 232 255
215 232 255
215 232 255
215 232 255
215 232 255
215 232 255
215 232 255
215 232 255
215 232 255
215 232 255
215 232 255
215 232 255
215 232 255
215 232 255
215 232 255
215 232 255
215 232 255
215 232 255
215 232 255
215 232 255
215 232 255
215 232 255
215 232 255
215 232 255
215 232 255
215 232 255
215 232 255
215 232 255
215 232 255
215 232 255
215 232 255
215 232 255
215 232 255
215 232 255
215 232 255
215 232 255
215 232 255
215 232 255
215 232 255
215 232 255
215 232 255
215 232 255
215 232 255
215 232 255
215 232 255
215 232 255
215 232 255
215 232 255
215 232 255
215 232 255
215 232 255
215 232 255
215 232 255
215 232 255
215 232 255
215 232 255
215 232 255
215 232 255
215 232 255
215 232 255
215 232 255
215 232 255
215 232 255
215 232 255
215 232 255
215 232 255
215 232 255
215 232 255
215 232 255
215 232 255
215 232 255
215 232 255
215 232 255
215 232 255
215 232 255
215 232 255
215 232 255
215 232 255
215 232 255
215 232 255
215 232 255
215 232 255
215 232 255
215 232 255
215 232 255
215 232 255
215 232 255
215 232 255
215 232 255
215 232 255
215 232 255
211 228 250
183 198 211
154 169 169
119 134 125
92 110 80
91 107 74
93 107 75
91 109 80
79 100 101
74 95 111
66 84 109
73 87 93
86 103 87
96 108 81
96 108 80
95 107 87
97 108 94
95 107 87
94 105 87
102 115 95
107 117 96
111 120 95
110 117 95
108 116 92
104 112 91
99 107 90
95 104 88
99 108 86
102 110 92
99 108 92
105 114 97
103 111 97
105 115 106
94 107 119
64 89 138
58 79 136
48 67 133
91 102 126
125 135 128
93 104 128
89 98 129
113 128 159
90 106 156
45 67 140
74 86 132
81 92 125
63 75 125
85 98 128
99 112 125
99 110 115
119 128 117
119 128 120
103 112 121
105 117 136
108 124 156
62 75 133
14 51 135
15 62 142
11 71 148
29 76 147
75 95 132
130 148 170
170 191 216
194 220 253
199 223 255
204 226 255
210 229 255
214 232 255
215 232 255
215 232 255
215 232 255
215 232 255
215 232 255
215 232 255
215 232 255
215 232 255
215 232 255
215 232 255
215 232 255
215 232 255
215 232 255
215 232 255
215 232 255
215 232 255
215 232 255
215 232 255
215 232 255
215 232 255
215 232 255
215 232 255
215 232 255
215 232 255
215 232 255
215 232 255
215 232 255
215 232 255
215 232 255
215 232 255
215 232 255
215 232 255
215 232 255
215 232 255
215 232 255
215 232 255
215 232 255
215 232 255
215 232 255
215 232 255
215 232 255
215 232 255
215 232 255
215 232 255
215 232 255
215 232 255
215 232 255
215 232 255
215 232 255
215 232 255
215 232 255
215 232 255
215 232 255
215 232 255
215 232 255
215 232 255
215 232 255
215 232 255
215 232 255
215 232 255
215 232 255
215 232 255
215 232 255
215 232 255
215 232 255
215 232 255
215 232 255
215 232 255
215 232 255
215 232 255
215 232 255
215 232 255
215 232 255
215 232 255
215 232 255
215 232 255
215 232 255
215 232 255
215 232 255
215 232 255
215 232 255
215 232 255
215 232 255
215 232 255
215 232 255
215 232 255
215 232 255
215 232 255
215 232 255
215 232 255
215 232 255
215 232 255
215 232 255
215 232 255
215 232 255
215 232 255
215 232 255
215 232 255
215 232 255
215 232 255
215 232 255
215 232 255
215 232 255
215 232 255
215 232 255
215 232 255
215 232 255
215 232 255
215 232 255
215 232 255
215 232 255
215 232 255
215 232 255
215 232 255
215 232 255
215 232 255
215 232 255
215 232 255
215 232 255
215 232 255
215 232 255
215 232 255
215 232 255
215 232 255
215 232 255
215 232 255
215 232 255
215 232 255
215 232 255
215 232 255
215 232 255
215 232 255
215 232 255
215 232 255
215 232 255
215 232 255
215 232 255
215 232 255
215 232 255
215 232 255
215 232 255
215 232 255
215 232 255
215 232 255
215 232 255
215 232 255
215 232 255
215 232 255
215 232 255
215 232 255
215 232 255
215 232 255
215 232 255
215 232 255
215 232 255
215 232 255
215 232 255
215 232 255
215 232 255
215 232 255
215 232 255
215 232 255
215 232 255
215 232 255
216 232 255
216 232 255
216 232 255
216 232 255
216 232 255
216 232 255
216 232 255
216 232 255
216 232 255
216 232 255
216 232 255
216 232 255
216 232 255
216 232 255
216 232 255
216 232 255
216 232 255
216 232 255
216 232 255
216 232 255
216 232 255
216 232 255
216 232 255
216 232 255
216 232 255
215 232 255
215 232 255
215 232 255
215 232 255
215 232 255
215 232 255
215 232 255
215 232 255
215 232 255
215 232 255
215 232 255
215 232 255
215 232 255
215 232 255
215 232 255
215 232 255
215 232 255
215 232 255
215 232 255
215 232 255
215 232 255
215 232 255
215 232 255
215 232 255
215 232 255
215 232 255
215 232 255
215 232 255
215 232 255
215 232 255
215 232 255
215 232 255
215 232 255
215 232 255
215 232 255
215 232 255
215 232 255
215 232 255
215 232 255
215 232 255
215 232 255
215 232 255
215 232 255
215 232 255
215 232 255
215 232 255
215 232 255
215 232 255
215 232 255
215 232 255
215 232 255
215 232 255
215 232 255
215 232 255
215 232 255
215 232 255
215 232 255
215 232 255
215 232 255
215 232 255
215 232 255
215 232 255
215 232 255
215 232 255
215 232 255
215 232 255
215 232 255
215 232 255
215 232 255
215 232 255
215 232 255
215 232 255
215 232 255
215 232 255
215 232 255
215 232 255
215 232 255
215 232 255
215 232 255
215 232 255
215 232 255
215 232 255
215 232 255
215 232 255
215 232 255
215 232 255
215 232 255
215 232 255
215 232 255
215 232 255
215 232 255
215 232 255
215 232 255
215 232 255
215 232 255
215 232 255
215 232 255
215 232 255
215 232 255
215 232 255
215 232 255
215 232 255
215 232 255
215 232 255
215 232 255
215 232 255
215 232 255
215 232 255
215 232 255
215 232 255
215 232 255
215 232 255
215 232 255
215 232 255
215 232 255
215 232 255
215 232 255
215 232 255
215 232 255
215 232 255
215 232 255
215 232 255
215 232 255
215 232 255
215 232 255
215 232 255
215 232 255
215 232 255
215 232 255
215 232 255
215 232 255
215 232 255
215 232 255
215 232 255
215 232 255
215 232 255
215 232 255
215 232 255
215 232 255
215 232 255
211 228 250
184 201 213
145 161 157
101 118 85
100 117 80
108 124 95
109 122 97
110 124 98
93 110 69
93 110 71
93 106 70
88 101 67
87 102 70
89 105 71
90 105 68
92 107 78
91 105 78
90 102 78
81 95 86
89 101 78
97 108 82
101 111 84
104 113 85
107 113 86
102 110 87
99 109 88
85 92 91
94 105 81
95 105 78
90 100 82
98 109 85
98 107 78
98 109 84
92 105 97
65 82 120
37 64 137
18 64 144
14 64 147
7 56 139
16 54 141
11 56 140
24 56 137
36 55 131
91 104 132
44 63 135
40 62 140
77 93 138
36 65 138
76 88 130
82 96 129
62 82 134
59 79 132
62 79 133
74 86 126
100 108 122
102 110 123
117 127 132
131 144 157
96 106 138
33 54 132
14 52 136
9 52 136
13 52 137
8 51 135
15 52 137
57 78 141
103 120 156
159 180 206
195 221 254
198 223 255
198 223 255
203 225 254
195 213 241
214 231 255
215 232 255
215 232 255
215 232 255
215 232 255
215 232 255
215 232 255
215 232 255
215 232 255
215 232 255
215 232 255
215 232 255
215 232 255
215 232 255
215 232 255
215 232 255
215 232 255
215 232 255
215 232 255
215 232 255
215 232 255
215 232 255
215 232 255
215 232 255
215 232 255
215 232 255
215 232 255
215 232 255
215 232 255
215 232 255
215 232 255
215 232 255
215 232 255
215 232 255
215 232 255
215 232 255
215 232 255
215 232 255
215 232 255
215 232 255
215 232 255
215 232 255
215 232 255
215 232 255
215 232 255
215 232 255
215 232 255
215 232 255
215 232 255
215 232 255
215 232 255
215 232 255
215 232 255
215 232 255
215 232 255
215 232 255
215 232 255
215 232 255
215 232 255
215 232 255
215 232 255
215 232 255
215 232 255
215 232 255
215 232 255
215 232 255
215 232 255
215 232 255
215 232 255
215 232 255
215 232 255
215 232 255
215 232 255
215 232 255
215 232 255
215 232 255
215 232 255
215 232 255
215 232 255
215 232 255
215 232 255
215 232 255
215 232 255
215 232 255
215 232 255
215 232 255
215 232 255
215 232 255
215 232 255
215 232 255
215 232 255
215 232 255
215 232 255
215 232 255
215 232 255
215 232 255
215 232 255
215 232 255
215 232 255
215 232 255
215 232 255
215 232 255
215 232 255
215 232 255
215 232 255
215 232 255
215 232 255
215 232 255
215 232 255
215 232 255
215 232 255
215 232 255
215 232 255
215 232 255
215 232 255
215 232 255
215 232 255
215 232 255
215 232 255
215 232 255
215 232 255
215 232 255
215 232 255
215 232 255
215 232 255
215 232 255
215 232 255
215 232 255
215 232 255
215 232 255
215 232 255
215 232 255
215 232 255
215 232 255
215 232 255
215 232 255
215 232 255
215 232 255
215 232 255
216 232 255
216 232 255
216 232 255
216 232 255
216 232 255
216 232 255
216 232 255
216 232 255
216 232 255
216 232 255
216 232 255
216 232 255
216 232 255
216 232 255
216 232 255
216 232 255
216 232 255
216 232 255
216 232 255
216 232 255
216 232 255
216 232 255
216 232 255
216 232 255
216 232 255
216 232 255
216 232 255
216 232 255
216 232 255
216 232 255
216 232 255
216 232 255
216 232 255
216 232 255
216 232 255
216 232 255
216 232 255
216 232 255
216 232 255
216 232 255
216 232 255
216 232 255
216 232 255
216 232 255
216 232 255
216 232 255
216 232 255
216 232 255
216 232 255
216 232 255
216 232 255
216 232 255
216 232 255
216 232 255
216 232 255
216 232 255
216 232 255
216 232 255
216 232 255
216 232 255
216 232 255
216 232 255
216 232 255
216 232 255
216 232 255
216 232 255
216 232 255
216 232 255
216 232 255
216 232 255
216 232 255
216 232 255
216 232 255
216 232 255
216 232 255
215 232 255
215 232 255
215 232 255
215 232 255
215 232 255
215 232 255
215 232 255
215 232 255
215 232 255
215 232 255
215 232 255
215 232 255
215 232 255
215 232 255
215 232 255
215 232 255
215 232 255
215 232 255
215 232 255
215 232 255
215 232 255
215 232 255
215 232 255
215 232 255
215 232 255
215 232 255
215 232 255
215 232 255
215 232 255
215 232 255
215 232 255
215 232 255
215 232 255
215 232 255
215 232 255
215 232 255
215 232 255
215 232 255
215 232 255
215 232 255
215 232 255
215 232 255
215 232 255
215 232 255
215 232 255
215 232 255
215 232 255
215 232 255
215 232 255
215 232 255
215 232 255
215 232 255
215 232 255
215 232 255
215 232 255
215 232 255
215 232 255
215 232 255
215 232 255
215 232 255
215 232 255
215 232 255
215 232 255
215 232 255
215 232 255
215 232 255
215 232 255
215 232 255
215 232 255
215 232 255
215 232 255
215 232 255
215 232 255
215 232 255
215 232 255
215 232 255
215 232 255
215 232 255
215 232 255
215 232 255
215 232 255
215 232 255
215 232 255
215 232 255
215 232 255
215 232 255
215 232 255
215 232 255
215 232 255
215 232 255
215 232 255
215 232 255
215 232 255
215 232 255
215 232 255
215 232 255
215 232 255
215 232 255
215 232 255
215 232 255
215 232 255
215 232 255
215 232 255
215 232 255
215 232 255
215 232 255
215 232 255
215 232 255
215 232 255
215 232 255
213 230 253
190 207 221
151 168 167
104 123 91
98 115 77
98 115 79
99 117 82
113 130 103
120 134 113
118 129 111
101 117 82
88 109 61
91 109 66
95 109 78
94 109 73
85 102 50
79 97 74
70 101 80
81 107 78
85 103 78
80 98 67
86 101 71
92 106 80
94 106 73
94 103 81
88 99 74
89 100 73
93 104 76
95 106 86
99 110 78
94 104 82
100 111 80
98 109 82
101 111 77
103 111 81
76 89 101
28 60 140
10 60 141
6 60 141
5 58 142
7 60 143
12 60 143
7 58 142
8 54 138
8 54 138
11 53 137
6 51 136
9 53 137
16 58 143
30 64 140
20 59 141
53 74 132
112 120 98
113 121 100
116 124 109
116 125 114
108 118 118
84 97 130
59 71 125
44 58 127
56 66 124
64 75 132
47 60 127
39 63 136
16 55 140
11 59 141
6 46 132
6 47 132
12 49 135
11 54 138
28 64 140
102 123 162
156 178 210
196 221 253
199 223 255
179 202 235
93 111 165
139 153 193
193 208 235
215 232 255
215 232 255
215 232 255
215 232 255
215 232 255
215 232 255
215 232 255
215 232 255
215 232 255
215 232 255
215 232 255
215 232 255
215 232 255
215 232 255
215 232 255
215 232 255
215 232 255
215 232 255
215 232 255
215 232 255
215 232 255
215 232 255
215 232 255
215 232 255
215 232 255
215 232 255
215 232 255
215 232 255
215 232 255
215 232 255
215 232 255
215 232 255
215 232 255
215 232 255
215 232 255
215 232 255
215 232 255
215 232 255
215 232 255
215 232 255
215 232 255
215 232 255
215 232 255
215 232 255
215 232 255
215 232 255
215 232 255
215 232 255
215 232 255
215 232 255
215 232 255
215 232 255
215 232 255
215 232 255
215 232 255
215 232 255
215 232 255
215 232 255
215 232 255
215 232 255
215 232 255
215 232 255
215 232 255
215 232 255
215 232 255
215 232 255
215 232 255
215 232 255
215 232 255
215 232 255
215 232 255
215 232 255
215 232 255
215 232 255
215 232 255
215 232 255
215 232 255
215 232 255
215 232 255
215 232 255
215 232 255
215 232 255
215 232 255
215 232 255
215 232 255
215 232 255
215 232 255
215 232 255
215 232 255
215 232 255
215 232 255
215 232 255
215 232 255
215 232 255
215 232 255
215 232 255
215 232 255
215 232 255
215 232 255
215 232 255
215 232 255
215 232 255
215 232 255
215 232 255
215 232 255
215 232 255
215 232 255
215 232 255
215 232 255
215 232 255
215 232 255
216 232 255
216 232 255
216 232 255
216 232 255
216 232 255
216 232 255
216 232 255
216 232 255
216 232 255
216 232 255
216 232 255
216 232 255
216 232 255
216 232 255
216 232 255
216 232 255
216 232 255
216 232 255
216 232 255
216 232 255
216 232 255
216 232 255
216 232 255
216 232 255
216 232 255
216 232 255
216 232 255
216 232 255
216 232 255
216 232 255
216 232 255
216 232 255
216 232 255
216 232 255
216 232 255
216 232 255
216 232 255
216 232 255
216 232 255
216 232 255
216 232 255
216 232 255
216 232 255
216 232 255
216 232 255
216 232 255
216 232 255
216 232 255
216 232 255
216 232 255
216 232 255
216 232 255
216 232 255
216 232 255
216 232 255
216 232 255
216 232 255
216 232 255
216 232 255
216 232 255
216 232 255
216 232 255
216 232 255
216 232 255
216 232 255
216 232 255
216 232 255
216 232 255
216 232 255
216 232 255
216 232 255
216 232 255
216 232 255
216 232 255
216 232 255
216 232 255
216 232 255
216 232 255
216 232 255
216 232 255
216 232 255
216 232 255
216 232 255
216 232 255
216 232 255
216 232 255
216 232 255
216 232 255
216 232 255
216 232 255
216 232 255
216 232 255
216 232 255
216 232 255
216 232 255
216 232 255
216 232 255
216 232 255
216 232 255
216 232 255
216 232 255
216 232 255
216 232 255
216 232 255
216 232 255
216 232 255
216 232 255
216 232 255
216 232 255
216 232 255
216 232 255
216 232 255
216 232 255
216 232 255
216 232 255
216 232 255
216 232 255
216 232 255
216 232 255
216 232 255
216 232 255
216 232 255
216 232 255
216 232 255
216 232 255
216 232 255
216 232 255
216 232 255
216 232 255
216 232 255
216 232 255
216 232 255
215 232 255
215 232 255
215 232 255
215 232 255
215 232 255
215 232 255
215 232 255
215 232 255
215 232 255
215 232 255
215 232 255
215 232 255
215 232 255
215 232 255
215 232 255
215 232 255
215 232 255
215 232 255
215 232 255
215 232 255
215 232 255
215 232 255
215 232 255
215 232 255
215 232 255
215 232 255
215 232 255
215 232 255
215 232 255
215 232 255
215 232 255
215 232 255
215 232 255
215 232 255
215 232 255
215 232 255
215 232 255
215 232 255
215 232 255
215 232 255
215 232 255
215 232 255
215 232 255
215 232 255
215 232 255
215 232 255
215 232 255
215 232 255
215 232 255
215 232 255
215 232 255
215 232 255
215 232 255
215 232 255
215 232 255
215 232 255
215 232 255
215 232 255
215 232 255
215 232 255
215 232 255
215 232 255
215 232 255
215 232 255
215 232 255
215 232 255
215 232 255
215 232 255
215 232 255
215 232 255
215 232 255
215 232 255
215 232 255
215 232 255
215 232 255
215 232 255
212 229 251
168 185 191
110 129 104
93 112 71
86 108 59
87 108 60
89 108 59
89 109 62
106 125 90
103 121 88
103 117 85
97 116 79
80 105 46
81 103 45
84 106 51
87 108 58
86 108 64
85 106 61
81 105 64
90 109 57
87 109 59
88 107 63
81 98 71
84 100 66
87 102 65
83 99 60
81 97 60
86 101 72
94 107 76
91 103 81
96 109 84
91 104 77
92 103 79
96 108 75
101 110 73
103 113 80
99 108 72
38 65 137
23 59 142
12 60 142
9 59 142
9 54 138
6 53 136
2 59 141
7 61 142
13 58 141
9 56 141
10 57 140
4 54 137
13 53 137
16 52 136
20 54 138
20 56 139
17 54 140
81 96 118
107 117 82
105 113 84
105 114 93
108 116 94
118 125 106
116 125 103
101 113 108
38 57 132
48 67 136
16 53 138
20 50 137
52 73 128
19 56 139
12 55 138
12 54 138
10 54 139
12 50 135
12 58 141
8 65 147
15 60 143
80 103 156
137 160 198
192 216 246
197 221 253
141 165 204
32 63 141
78 94 154
161 175 209
203 220 245
215 232 255
215 232 255
215 232 255
215 232 255
215 232 255
215 232 255
215 232 255
215 232 255
215 232 255
215 232 255
215 232 255
215 232 255
215 232 255
215 232 255
215 232 255
215 232 255
215 232 255
215 232 255
215 232 255
215 232 255
215 232 255
215 232 255
215 232 255
215 232 255
215 232 255
215 232 255
215 232 255
215 232 255
215 232 255
215 232 255
215 232 255
215 232 255
215 232 255
215 232 255
215 232 255
215 232 255
215 232 255
215 232 255
215 232 255
215 232 255
215 232 255
215 232 255
215 232 255
215 232 255
215 232 255
215 232 255
215 232 255
215 232 255
215 232 255
215 232 255
215 232 255
215 232 255
215 232 255
215 232 255
215 232 255
215 232 255
215 232 255
215 232 255
215 232 255
215 232 255
215 232 255
215 232 255
215 232 255
215 232 255
215 232 255
215 232 255
215 232 255
215 232 255
215 232 255
215 232 255
215 232 255
215 232 255
215 232 255
215 232 255
215 232 255
215 232 255
215 232 255
216 232 255
216 232 255
216 232 255
216 232 255
216 232 255
216 232 255
216 232 255
216 232 255
216 232 255
216 232 255
216 232 255
216 232 255
216 232 255
216 232 255
216 232 255
216 232 255
216 232 255
216 232 255
216 232 255
216 232 255
216 232 255
216 232 255
216 232 255
216 232 255
216 232 255
216 232 255
216 232 255
216 232 255
216 232 255
216 232 255
216 232 255
216 232 255
216 232 255
216 232 255
216 232 255
216 232 255
216 232 255
216 232 255
216 232 255
216 232 255
216 232 255
216 232 255
216 232 255
216 232 255
216 232 255
216 232 255
216 232 255
216 232 255
216 232 255
216 232 255
216 232 255
216 232 255
216 232 255
216 232 255
216 232 255
216 232 255
216 232 255
216 232 255
216 232 255
216 232 255
216 232 255
216 232 255
216 232 255
216 232 255
216 232 255
216 232 255
216 232 255
216 232 255
216 232 255
216 232 255
216 232 255
216 232 255
216 232 255
216 232 255
216 232 255
216 232 255
216 232 255
216 232 255
216 232 255
216 232 255
216 232 255
216 232 255
216 232 255
216 232 255
216 232 255
216 232 255
216 232 255
216 232 255
216 232 255
216 232 255
216 232 255
216 232 255
216 232 255
216 232 255
216 232 255
216 232 255
216 232 255
216 232 255
216 232 255
216 232 255
216 232 255
216 232 255
216 232 255
216 232 255
216 232 255
216 232 255
216 232 255
216 232 255
216 232 255
216 232 255
216 232 255
216 232 255
216 232 255
216 232 255
216 232 255
216 232 255
216 232 255
216 232 255
216 232 255
216 232 255
216 232 255
216 232 255
216 232 255
216 232 255
216 232 255
216 232 255
216 232 255
216 232 255
216 232 255
216 232 255
216 232 255
216 232 255
216 232 255
216 232 255
216 232 255
216 232 255
216 232 255
216 232 255
216 232 255
216 232 255
216 232 255
216 232 255
216 232 255
216 232 255
216 232 255
216 232 255
216 232 255
216 232 255
216 232 255
216 232 255
216 232 255
216 232 255
216 232 255
216 232 255
216 232 255
216 232 255
216 232 255
216 232 255
216 232 255
216 232 255
216 232 255
216 232 255
216 232 255
216 232 255
216 232 255
216 232 255
216 232 255
216 232 255
216 232 255
216 232 255
216 232 255
216 232 255
216 232 255
216 232 255
216 232 255
216 232 255
216 232 255
216 232 255
216 232 255
216 232 255
216 232 255
216 232 255
216 232 255
216 232 255
216 232 255
216 232 255
216 232 255
216 232 255
216 232 255
216 232 255
216 232 255
216 232 255
216 232 255
216 232 255
216 232 255
216 232 255
216 232 255
216 232 255
216 232 255
216 232 255
216 232 255
216 232 255
216 232 255
216 232 255
215 232 255
216 232 255
216 232 255
215 232 255
215 232 255
215 232 255
215 232 255
215 232 255
215 232 255
215 232 255
215 232 255
215 232 255
215 232 255
215 232 255
215 232 255
215 232 255
215 232 255
215 232 255
215 232 255
215 232 255
215 232 255
215 232 255
215 232 255
215 232 255
215 232 255
215 232 255
215 232 255
215 232 255
215 232 255
215 232 255
215 232 255
215 232 255
215 232 255
200 217 235
155 172 171
119 137 121
103 121 88
94 111 74
90 110 66
87 109 57
95 115 71
86 108 59
82 105 48
81 105 43
77 102 41
79 107 42
80 107 41
81 105 51
82 105 51
80 105 46
83 108 50
88 109 56
85 108 51
84 110 55
95 117 64
91 112 69
86 103 72
90 102 96
94 106 87
96 111 80
94 110 81
91 107 77
81 96 71
85 100 70
86 100 80
94 107 76
93 106 74
88 103 67
90 102 69
88 101 59
94 107 68
94 108 72
91 104 76
84 98 80
29 84 152
16 85 153
19 71 149
15 59 141
15 57 139
19 52 140
13 58 140
5 58 142
9 58 142
4 55 139
6 54 138
7 48 135
13 51 137
10 54 136
16 51 133
64 77 117
95 107 92
101 112 76
102 112 78
103 114 85
108 118 88
109 120 92
113 121 96
100 114 104
74 94 122
37 82 150
34 84 153
98 116 122
116 126 128
70 86 130
17 49 136
8 51 137
8 53 137
13 54 138
9 56 139
13 55 139
8 54 137
11 56 139
44 74 145
128 150 193
160 182 214
154 176 208
96 115 170
10 43 131
43 60 135
133 146 186
194 210 236
215 232 255
215 232 255
215 232 255
215 232 255
215 232 255
215 232 255
215 232 255
215 232 255
215 232 255
215 232 255
215 232 255
215 232 255
215 232 255
215 232 255
215 232 255
215 232 255
215 232 255
215 232 255
215 232 255
215 232 255
215 232 255
215 232 255
215 232 255
215 232 255
215 232 255
215 232 255
215 232 255
215 232 255
215 232 255
215 232 255
216 232 255
216 232 255
216 232 255
216 232 255
216 232 255
216 232 255
216 232 255
216 232 255
216 232 255
216 232 255
216 232 255
216 232 255
216 232 255
216 232 255
216 232 255
216 232 255
216 232 255
216 232 255
216 232 255
216 232 255
216 232 255
216 232 255
216 232 255
216 232 255
216 232 255
216 232 255
216 232 255
216 232 255
216 232 255
216 232 255
216 232 255
216 232 255
216 232 255
216 232 255
216 232 255
216 232 255
216 232 255
216 232 255
216 232 255
216 232 255
216 232 255
216 232 255
216 232 255
216 232 255
216 232 255
216 232 255
216 232 255
216 232 255
216 232 255
216 232 255
216 232 255
216 232 255
216 232 255
216 232 255
216 232 255
216 232 255
216 232 255
216 232 255
216 232 255
216 232 255
216 232 255
216 232 255
216 232 255
216 232 255
216 232 255
216 232 255
216 232 255
216 232 255
216 232 255
216 232 255
216 232 255
216 232 255
216 232 255
216 232 255
216 232 255
216 232 255
216 232 255
216 232 255
216 232 255
216 232 255
216 232 255
216 232 255
216 232 255
216 232 255
216 232 255
216 232 255
216 232 255
216 232 255
216 232 255
216 232 255
216 232 255
216 232 255
216 232 255
216 232 255
216 232 255
216 232 255
216 232 255
216 232 255
216 232 255
216 232 255
216 232 255
216 232 255
216 232 255
216 232 255
216 232 255
216 232 255
216 232 255
216 232 255
216 232 255
216 232 255
216 232 255
216 232 255
216 232 255
216 232 255
216 232 255
216 232 255
216 232 255
216 232 255
216 232 255
216 232 255
216 232 255
216 232 255
216 232 255
216 232 255
216 232 255
216 232 255
216 232 255
216 232 255
216 232 255
216 232 255
216 232 255
216 232 255
216 232 255
216 232 255
216 232 255
216 232 255
216 232 255
216 232 255
216 232 255
216 232 255
216 232 255
216 232 255
216 232 255
216 232 255
216 232 255
216 232 255
216 232 255
216 232 255
216 232 255
216 232 255
216 232 255
216 232 255
216 232 255
216 232 255
216 232 255
216 232 255
216 232 255
216 232 255
216 232 255
216 232 255
216 232 255
216 232 255
216 232 255
216 232 255
216 232 255
216 232 255
216 232 255
216 232 255
216 232 255
216 232 255
216 232 255
216 232 255
216 232 255
216 232 255
216 232 255
216 232 255
216 232 255
216 232 255
216 232 255
216 232 255
216 232 255
216 232 255
216 232 255
216 232 255
216 232 255
216 232 255
216 232 255
216 232 255
216 232 255
216 232 255
216 232 255
216 232 255
216 232 255
216 232 255
216 232 255
216 232 255
216 232 255
216 232 255
216 232 255
216 232 255
216 232 255
216 232 255
216 232 255
216 232 255
216 232 255
216 232 255
216 232 255
216 232 255
216 232 255
216 232 255
216 232 255
216 232 255
216 232 255
216 232 255
216 232 255
216 232 255
216 232 255
216 232 255
216 232 255
216 232 255
216 232 255
216 232 255
216 232 255
216 232 255
216 232 255
216 232 255
216 232 255
216 232 255
216 232 255
216 232 255
216 232 255
216 232 255
216 232 255
216 232 255
216 232 255
216 232 255
216 232 255
216 232 255
216 232 255
216 232 255
216 232 255
216 232 255
216 232 255
216 232 255
216 232 255
216 232 255
216 232 255
216 232 255
216 232 255
216 232 255
216 232 255
216 232 255
216 232 255
216 232 255
216 232 255
216 232 255
216 232 255
216 232 255
216 232 255
216 232 255
216 232 255
216 232 255
216 232 255
216 232 255
216 232 255
216 232 255
216 232 255
216 232 255
216 232 255
216 232 255
216 232 255
216 232 255
216 232 255
216 232 255
216 232 255
216 232 255
216 232 255
216 232 255
216 232 255
216 232 255
192 209 224
169 188 197
126 146 133
162 183 197
164 187 203
117 135 116
93 114 73
85 107 60
95 116 77
87 108 59
80 104 47
92 115 73
79 105 49
75 105 31
79 108 37
78 108 38
78 108 32
80 109 43
84 113 49
86 114 55
84 111 45
80 109 36
83 110 43
85 110 55
92 112 66
95 112 74
98 112 78
93 108 81
85 101 75
85 105 61
83 104 50
79 100 68
60 75 87
81 99 66
83 101 64
86 106 65
89 110 72
87 106 63
89 107 70
91 109 65
91 111 69
95 111 69
94 110 68
81 111 102
80 112 109
82 104 91
70 96 110
57 88 129
27 76 145
8 57 141
9 56 139
7 60 143
8 62 144
15 59 142
4 55 139
11 58 141
12 59 143
21 57 138
16 48 131
16 46 134
73 88 117
101 114 83
102 114 86
104 116 87
109 121 91
110 122 91
108 121 86
103 119 80
98 115 78
97 116 87
102 115 87
113 125 97
122 130 112
103 114 120
63 82 129
20 55 137
12 51 136
11 43 130
13 40 127
9 38 127
12 47 133
10 52 137
12 55 139
16 62 144
30 71 143
94 119 166
98 118 162
23 49 132
10 39 127
8 34 125
116 128 173
190 206 233
216 232 255
216 232 255
216 232 255
216 232 255
216 232 255
216 232 255
216 232 255
216 232 255
216 232 255
216 232 255
216 232 255
216 232 255
216 232 255
216 232 255
216 232 255
216 232 255
216 232 255
216 232 255
216 232 255
216 232 255
216 232 255
216 232 255
216 232 255
216 232 255
216 232 255
216 232 255
216 232 255
216 232 255
216 232 255
216 232 255
216 232 255
216 232 255
216 232 255
216 232 255
216 232 255
216 232 255
216 232 255
216 232 255
216 232 255
216 232 255
216 232 255
216 232 255
216 232 255
216 232 255
216 232 255
216 232 255
216 232 255
216 232 255
216 232 255
216 232 255
216 232 255
216 232 255
216 232 255
216 232 255
216 232 255
216 232 255
216 232 255
216 232 255
216 232 255
216 232 255
216 232 255
216 232 255
216 232 255
216 232 255
216 232 255
216 232 255
216 232 255
216 232 255
216 232 255
216 232 255
216 232 255
216 232 255
216 232 255
216 232 255
216 232 255
216 232 255
216 232 255
216 232 255
216 232 255
216 232 255
216 232 255
216 232 255
216 232 255
216 232 255
216 232 255
216 232 255
216 232 255
216 232 255
216 232 255
216 232 255
216 232 255
216 232 255
216 232 255
216 232 255
216 232 255
216 232 255
216 232 255
216 232 255
216 232 255
216 232 255
216 232 255
216 232 255
216 232 255
216 232 255
216 232 255
216 232 255
216 232 255
216 232 255
216 232 255
216 232 255
216 232 255
216 232 255
216 232 255
216 232 255
216 232 255
216 232 255
216 232 255
216 232 255
216 232 255
216 232 255
216 232 255
216 232 255
216 232 255
216 232 255
216 232 255
216 232 255
216 232 255
216 232 255
216 232 255
216 232 255
216 232 255
216 232 255
216 232 255
216 232 255
216 232 255
216 232 255
216 232 255
216 232 255
216 232 255
216 232 255
216 232 255
216 232 255
216 232 255
216 232 255
216 232 255
216 232 255
216 232 255
216 232 255
216 232 255
216 232 255
216 232 255
216 232 255
216 232 255
216 232 255
216 233 255
216 233 255
216 233 255
216 233 255
216 233 255
216 233 255
216 233 255
216 233 255
216 232 255
216 232 255
216 232 255
216 232 255
216 232 255
216 232 255
216 232 255
216 232 255
216 232 255
216 232 255
216 232 255
216 232 255
216 232 255
216 232 255
216 232 255
216 232 255
216 232 255
216 232 255
216 232 255
216 232 255
216 232 255
216 232 255
216 232 255
216 232 255
216 232 255
216 232 255
216 232 255
216 232 255
216 232 255
216 232 255
216 232 255
216 232 255
216 232 255
216 232 255
216 232 255
216 232 255
216 232 255
216 232 255
216 232 255
216 232 255
216 232 255
216 232 255
216 232 255
216 232 255
216 232 255
216 232 255
216 232 255
216 232 255
216 232 255
216 232 255
216 232 255
216 232 255
216 232 255
216 232 255
216 232 255
216 232 255
216 232 255
216 232 255
216 232 255
216 232 255
216 232 255
216 232 255
216 232 255
216 232 255
216 232 255
216 232 255
216 232 255
216 232 255
216 232 255
216 232 255
216 232 255
216 232 255
216 232 255
216 232 255
216 232 255
216 232 255
216 232 255
216 232 255
216 232 255
216 232 255
216 232 255
216 232 255
216 232 255
216 232 255
216 232 255
216 232 255
216 232 255
216 232 255
216 232 255
216 232 255
216 232 255
216 232 255
216 232 255
216 232 255
216 232 255
216 232 255
216 232 255
216 232 255
216 232 255
216 232 255
216 232 255
216 232 255
216 232 255
216 232 255
216 232 255
216 232 255
216 232 255
216 232 255
216 232 255
216 232 255
216 232 255
216 232 255
216 232 255
216 232 255
216 232 255
216 232 255
216 232 255
216 232 255
216 232 255
216 232 255
216 232 255
216 232 255
216 232 255
216 232 255
216 232 255
216 232 255
216 232 255
216 232 255
216 232 255
216 232 255
216 232 255
216 232 255
216 232 255
216 232 255
216 232 255
216 232 255
216 232 255
216 232 255
216 232 255
216 232 255
216 232 255
216 232 255
216 232 255
216 232 255
191 208 224
142 162 178
77 107 143
117 139 169
133 158 189
164 189 210
150 175 188
145 167 172
87 111 58
87 111 61
97 117 75
101 121 83
95 116 78
114 132 106
75 102 33
76 105 32
76 106 29
76 106 31
82 112 46
78 109 35
79 109 36
74 105 28
76 106 33
79 109 39
78 108 36
76 105 33
82 105 65
73 96 63
81 102 57
81 102 52
77 99 47
73 97 46
80 103 53
75 99 57
79 101 53
83 105 55
84 108 56
82 107 46
78 104 38
78 107 43
83 108 52
79 103 52
85 109 49
85 106 51
82 104 42
86 107 54
89 107 59
86 104 52
89 105 52
93 106 60
85 107 83
73 101 104
52 82 126
42 76 140
29 66 143
30 67 145
15 68 145
12 63 145
15 61 145
41 73 138
42 68 135
20 50 132
45 68 136
89 106 79
98 111 74
92 105 74
93 107 74
100 114 75
104 117 76
101 116 77
99 115 78
89 106 67
92 108 64
94 105 62
105 117 86
116 125 103
114 124 102
86 104 105
42 66 132
13 54 137
8 47 132
13 45 130
5 42 128
3 44 130
11 47 133
13 49 134
7 53 137
14 67 145
13 70 146
16 64 145
12 60 141
6 35 126
6 32 124
8 33 124
78 90 149
171 186 218
216 232 255
216 232 255
216 232 255
216 232 255
216 232 255
216 232 255
216 232 255
216 232 255
216 232 255
216 232 255
216 232 255
216 232 255
216 232 255
216 232 255
216 232 255
216 232 255
216 232 255
216 232 255
216 232 255
216 232 255
216 232 255
216 232 255
216 232 255
216 232 255
216 232 255
216 232 255
216 232 255
216 232 255
216 232 255
216 232 255
216 232 255
216 232 255
216 232 255
216 232 255
216 232 255
216 232 255
216 232 255
216 232 255
216 232 255
216 232 255
216 232 255
216 232 255
216 232 255
216 232 255
216 232 255
216 232 255
216 232 255
216 232 255
216 232 255
216 232 255
216 232 255
216 232 255
216 232 255
216 232 255
216 232 255
216 232 255
216 232 255
216 232 255
216 232 255
216 232 255
216 232 255
216 232 255
216 232 255
216 232 255
216 232 255
216 232 255
216 232 255
216 232 255
216 232 255
216 232 255
216 232 255
216 232 255
216 232 255
216 232 255
216 232 255
216 232 255
216 232 255
216 232 255
216 232 255
216 232 255
216 232 255
216 232 255
216 232 255
216 232 255
216 232 255
216 232 255
216 232 255
216 232 255
216 232 255
216 232 255
216 232 255
216 232 255
216 232 255
216 232 255
216 232 255
216 232 255
216 232 255
216 232 255
216 232 255
216 232 255
216 232 255
216 232 255
216 232 255
216 232 255
216 232 255
216 232 255
216 232 255
216 232 255
216 232 255
216 232 255
216 232 255
216 232 255
216 232 255
216 232 255
216 232 255
216 232 255
216 232 255
216 232 255
216 232 255
216 232 255
216 232 255
216 232 255
216 232 255
216 232 255
216 232 255
216 232 255
216 232 255
216 232 255
216 232 255
216 232 255
216 232 255
216 232 255
216 232 255
216 232 255
216 232 255
216 232 255
216 232 255
216 232 255
216 232 255
216 232 255
216 232 255
216 232 255
216 232 255
216 233 255
216 233 255
216 233 255
216 233 255
216 233 255
216 233 255
216 233 255
216 233 255
216 233 255
216 233 255
216 233 255
216 233 255
216 233 255
216 233 255
216 233 255
216 233 255
216 233 255
216 233 255
216 233 255
216 233 255
216 233 255
216 233 255
216 233 255
216 233 255
216 233 255
216 233 255
216 233 255
216 233 255
216 233 255
216 233 255
216 233 255
216 233 255
216 233 255
216 233 255
216 233 255
216 233 255
216 233 255
216 233 255
216 233 255
216 233 255
216 233 255
216 233 255
216 233 255
216 233 255
216 232 255
216 232 255
216 232 255
216 232 255
216 232 255
216 232 255
216 232 255
216 232 255
216 232 255
216 232 255
216 232 255
216 232 255
216 232 255
216 232 255
216 232 255
216 232 255
216 232 255
216 232 255
216 232 255
216 232 255
216 232 255
216 232 255
216 232 255
216 232 255
216 232 255
216 232 255
216 232 255
216 232 255
216 232 255
216 232 255
216 232 255
216 232 255
216 232 255
216 232 255
216 232 255
216 232 255
216 232 255
216 232 255
216 232 255
216 232 255
216 232 255
216 232 255
216 232 255
216 232 255
216 232 255
216 232 255
216 232 255
216 232 255
216 232 255
216 232 255
216 232 255
216 232 255
216 232 255
216 232 255
216 232 255
216 232 255
216 232 255
216 232 255
216 232 255
216 232 255
216 232 255
216 232 255
216 232 255
216 232 255
216 232 255
216 232 255
216 232 255
216 232 255
216 232 255
216 232 255
216 232 255
216 232 255
216 232 255
216 232 255
216 232 255
216 232 255
216 232 255
216 232 255
216 232 255
216 232 255
216 232 255
216 232 255
216 232 255
216 232 255
216 232 255
216 232 255
216 232 255
216 232 255
216 232 255
216 232 255
216 232 255
216 232 255
216 232 255
216 232 255
216 232 255
216 232 255
216 232 255
216 232 255
216 232 255
216 232 255
216 232 255
216 232 255
216 232 255
216 232 255
216 232 255
216 232 255
216 232 255
216 232 255
216 232 255
216 232 255
216 232 255
216 232 255
216 232 255
216 232 255
215 232 254
187 205 223
116 137 169
58 82 138
13 46 130
13 42 129
18 47 133
83 106 132
66 96 107
146 171 186
139 160 160
109 133 106
102 126 90
99 119 83
85 107 64
82 107 61
77 103 46
81 112 47
93 123 65
94 123 66
96 125 72
96 125 76
77 106 41
79 107 51
79 109 33
80 110 41
77 106 40
77 106 39
80 108 53
77 104 48
72 99 51
74 101 50
77 104 42
67 90 60
72 97 53
68 93 42
70 95 46
74 99 49
81 103 46
83 108 46
79 106 33
78 107 38
78 102 52
76 102 54
72 96 42
69 94 54
71 97 48
75 101 48
76 103 44
80 104 42
81 103 43
85 103 55
85 101 42
88 102 57
87 99 56
89 104 62
89 105 64
89 106 68
92 106 84
85 106 92
44 99 156
17 75 156
8 84 155
52 82 130
77 93 101
89 106 80
96 111 67
94 107 65
93 108 66
93 108 66
88 101 65
89 103 67
90 105 58
92 107 63
97 111 68
94 110 71
91 104 62
88 104 61
100 115 71
100 112 77
106 117 86
87 106 96
62 88 118
29 68 137
16 51 135
8 45 131
11 41 128
10 43 131
6 44 132
7 46 132
8 53 137
8 50 135
15 48 134
13 58 139
15 43 132
8 31 123
6 32 124
3 32 124
8 32 124
94 107 160
184 200 228
215 231 255
216 232 255
216 232 255
216 232 255
216 232 255
216 232 255
216 232 255
216 232 255
216 232 255
216 232 255
216 232 255
216 232 255
216 232 255
216 232 255
216 232 255
216 232 255
216 232 255
216 232 255
216 232 255
216 232 255
216 232 255
216 232 255
216 232 255
216 232 255
216 232 255
216 232 255
216 232 255
216 232 255
216 232 255
216 232 255
216 232 255
216 232 255
216 232 255
216 232 255
216 232 255
216 232 255
216 232 255
216 232 255
216 232 255
216 232 255
216 232 255
216 232 255
216 232 255
216 232 255
216 232 255
216 232 255
216 232 255
216 232 255
216 232 255
216 232 255
216 232 255
216 232 255
216 232 255
216 232 255
216 232 255
216 232 255
216 232 255
216 232 255
216 232 255
216 232 255
216 232 255
216 232 255
216 232 255
216 232 255
216 232 255
216 232 255
216 232 255
216 232 255
216 232 255
216 232 255
216 232 255
216 232 255
216 232 255
216 232 255
216 232 255
216 232 255
216 232 255
216 232 255
216 232 255
216 232 255
216 232 255
216 232 255
216 232 255
216 232 255
216 232 255
216 232 255
216 232 255
216 232 255
216 232 255
216 232 255
216 232 255
216 232 255
216 232 255
216 232 255
216 232 255
216 232 255
216 232 255
216 232 255
216 232 255
216 232 255
216 232 255
216 232 255
216 232 255
216 232 255
216 232 255
216 232 255
216 232 255
216 232 255
216 232 255
216 232 255
216 232 255
216 232 255
216 232 255
216 232 255
216 232 255
216 232 255
216 233 255
216 233 255
216 233 255
216 233 255
216 233 255
216 233 255
216 233 255
216 233 255
216 233 255
216 233 255
216 233 255
216 233 255
216 233 255
216 233 255
216 233 255
216 233 255
216 233 255
216 233 255
216 233 255
216 233 255
216 233 255
216 233 255
216 233 255
216 233 255
216 233 255
216 233 255
216 233 255
216 233 255
216 233 255
216 233 255
216 233 255
216 233 255
216 233 255
216 233 255
216 233 255
216 233 255
216 233 255
216 233 255
216 233 255
216 233 255
216 233 255
216 233 255
216 233 255
216 233 255
216 233 255
216 233 255
216 233 255
216 233 255
216 233 255
216 233 255
216 233 255
216 233 255
216 233 255
216 233 255
216 233 255
216 233 255
216 233 255
216 233 255
216 233 255
216 233 255
216 233 255
216 233 255
216 233 255
216 233 255
216 233 255
216 233 255
216 233 255
216 233 255
216 233 255
216 233 255
216 233 255
216 233 255
216 233 255
216 233 255
216 233 255
216 233 255
216 233 255
216 233 255
216 233 255
216 233 255
216 233 255
216 233 255
216 233 255
216 233 255
216 233 255
216 233 255
216 233 255
216 233 255
216 233 255
216 233 255
216 233 255
216 233 255
216 233 255
216 233 255
216 233 255
216 233 255
216 233 255
216 232 255
216 233 255
216 232 255
216 232 255
216 232 255
216 232 255
216 232 255
216 232 255
216 232 255
216 232 255
216 232 255
216 232 255
216 232 255
216 232 255
216 232 255
216 232 255
216 232 255
216 232 255
216 232 255
216 232 255
216 232 255
216 232 255
216 232 255
216 232 255
216 232 255
216 232 255
216 232 255
216 232 255
216 232 255
216 232 255
216 232 255
216 232 255
216 232 255
216 232 255
216 232 255
216 232 255
216 232 255
216 232 255
216 232 255
216 232 255
216 232 255
216 232 255
216 232 255
216 232 255
216 232 255
216 232 255
216 232 255
216 232 255
216 232 255
216 232 255
216 232 255
216 232 255
216 232 255
216 232 255
216 232 255
216 232 255
216 232 255
216 232 255
216 232 255
216 232 255
216 232 255
216 232 255
216 232 255
216 232 255
216 232 255
216 232 255
216 232 255
216 232 255
216 232 255
216 232 255
216 232 255
216 232 255
216 232 255
216 232 255
216 232 255
216 232 255
216 232 255
216 232 255
216 232 255
216 232 255
216 232 255
216 232 255
216 232 255
216 232 255
216 232 255
186 203 219
96 118 153
27 62 135
7 42 129
8 40 128
7 43 129
11 45 133
36 62 123
60 92 101
77 112 101
147 174 182
117 145 130
85 113 74
78 103 63
74 99 47
71 98 33
74 102 44
71 100 35
75 103 29
86 115 58
83 114 48
84 113 45
81 109 52
85 112 57
94 122 75
97 124 76
93 122 74
94 122 76
90 116 64
90 117 66
86 114 58
81 110 47
70 98 48
76 103 55
85 111 58
85 111 54
88 113 56
84 111 52
86 113 59
82 114 66
80 114 64
69 111 65
76 110 63
84 106 47
82 104 57
76 99 45
67 92 51
76 103 49
77 104 44
78 104 41
77 102 43
76 100 51
75 100 50
81 103 43
82 103 53
86 102 49
87 102 50
86 102 52
89 107 54
90 104 56
83 101 39
57 113 132
29 101 165
25 108 171
40 110 163
83 109 95
93 109 80
82 98 75
79 97 64
80 98 73
90 106 63
88 104 64
82 99 53
82 99 50
85 102 56
86 99 70
85 98 59
87 101 43
93 106 66
80 96 53
86 101 55
90 102 70
104 117 79
98 114 79
88 104 79
67 95 108
50 80 129
36 61 129
13 42 128
8 39 128
9 45 131
8 46 133
7 49 134
4 45 132
8 41 129
9 43 130
15 37 125
15 34 124
7 33 125
6 34 125
9 35 125
7 38 128
96 110 162
184 200 228
216 232 255
216 232 255
216 232 255
216 232 255
216 232 255
216 232 255
216 232 255
216 232 255
216 232 255
216 232 255
216 232 255
216 232 255
216 232 255
216 232 255
216 232 255
216 232 255
216 232 255
216 232 255
216 232 255
216 232 255
216 232 255
216 232 255
216 232 255
216 232 255
216 232 255
216 232 255
216 232 255
216 232 255
216 232 255
216 232 255
216 232 255
216 232 255
216 232 255
216 232 255
216 232 255
216 232 255
216 232 255
216 232 255
216 232 255
216 232 255
216 232 255
216 232 255
216 232 255
216 232 255
216 232 255
216 232 255
216 232 255
216 232 255
216 232 255
216 232 255
216 232 255
216 232 255
216 232 255
216 232 255
216 232 255
216 232 255
216 232 255
216 232 255
216 232 255
216 232 255
216 232 255
216 232 255
216 232 255
216 232 255
216 232 255
216 232 255
216 232 255
216 232 255
216 232 255
216 232 255
216 232 255
216 232 255
216 232 255
216 232 255
216 232 255
216 232 255
216 232 255
216 232 255
216 232 255
216 232 255
216 232 255
216 232 255
216 232 255
216 233 255
216 233 255
216 233 255
216 233 255
216 233 255
216 233 255
216 233 255
216 233 255
216 233 255
216 233 255
216 233 255
216 233 255
216 233 255
216 233 255
216 233 255
216 233 255
216 233 255
216 233 255
216 233 255
216 233 255
216 233 255
216 233 255
216 233 255
216 233 255
216 233 255
216 233 255
216 233 255
216 233 255
216 233 255
216 233 255
216 233 255
216 233 255
216 233 255
216 233 255
216 233 255
216 233 255
216 233 255
216 233 255
216 233 255
216 233 255
216 233 255
216 233 255
216 233 255
216 233 255
216 233 255
216 233 255
216 233 255
216 233 255
216 233 255
216 233 255
216 233 255
216 233 255
216 233 255
216 233 255
216 233 255
216 233 255
216 233 255
216 233 255
216 233 255
216 233 255
216 233 255
216 233 255
216 233 255
216 233 255
216 233 255
216 233 255
216 233 255
216 233 255
216 233 255
216 233 255
216 233 255
216 233 255
216 233 255
216 233 255
216 233 255
216 233 255
216 233 255
216 233 255
216 233 255
216 233 255
216 233 255
216 233 255
216 233 255
216 233 255
216 233 255
216 233 255
216 233 255
216 233 255
216 233 255
216 233 255
216 233 255
216 233 255
216 233 255
216 233 255
216 233 255
216 233 255
216 233 255
216 233 255
216 233 255
216 233 255
216 233 255
216 233 255
216 233 255
216 233 255
216 233 255
216 233 255
216 233 255
216 233 255
216 233 255
216 233 255
216 233 255
216 233 255
216 233 255
216 233 255
216 233 255
216 233 255
216 233 255
216 233 255
216 233 255
216 233 255
216 233 255
216 233 255
216 233 255
216 233 255
216 233 255
216 233 255
216 233 255
216 233 255
216 233 255
216 233 255
216 233 255
216 233 255
216 233 255
216 233 255
216 233 255
216 233 255
216 233 255
216 233 255
216 233 255
216 233 255
216 233 255
216 233 255
216 233 255
216 233 255
216 233 255
216 233 255
216 233 255
216 233 255
216 233 255
216 233 255
216 233 255
216 233 255
216 233 255
216 233 255
216 233 255
216 233 255
216 233 255
216 233 255
216 233 255
216 233 255
216 233 255
216 233 255
216 233 255
216 233 255
216 233 255
216 233 255
216 232 255
216 232 255
216 233 255
216 232 255
216 232 255
216 232 255
216 232 255
216 232 255
216 232 255
216 232 255
216 232 255
216 232 255
216 232 255
216 232 255
216 232 255
216 232 255
216 232 255
216 232 255
216 232 255
216 232 255
216 232 255
216 232 255
216 232 255
216 232 255
216 232 255
216 232 255
216 232 255
216 232 255
216 232 255
216 232 255
216 232 255
216 232 255
216 232 255
216 232 255
216 232 255
216 232 255
216 232 255
216 232 255
216 232 255
216 232 255
216 232 255
216 232 255
216 232 255
216 232 255
216 232 255
200 217 239
136 154 176
32 58 123
9 36 126
5 33 125
6 35 125
11 37 127
10 41 129
7 43 131
43 76 101
50 82 97
95 125 109
105 133 111
84 111 66
69 96 38
69 94 47
70 96 33
69 100 34
73 103 43
93 117 82
88 110 69
78 103 47
74 102 34
79 108 37
92 120 70
100 128 83
104 133 90
105 134 92
107 134 95
115 139 104
116 137 104
111 134 99
109 132 96
111 133 99
114 135 98
112 135 102
110 135 99
100 125 81
86 114 54
87 113 48
85 113 59
68 109 65
80 105 53
62 110 58
78 106 61
83 106 50
87 109 50
83 104 50
82 104 48
79 102 42
76 101 34
76 101 42
71 96 45
75 99 50
73 99 39
74 100 50
69 95 38
74 98 40
81 101 41
83 100 40
86 104 44
86 104 47
86 104 39
81 114 86
69 131 141
47 129 172
34 128 180
40 117 166
88 116 86
96 111 67
83 102 59
86 104 54
85 105 49
90 108 52
87 105 53
85 104 48
86 103 51
82 99 50
89 105 53
83 100 45
84 100 48
88 105 51
82 99 61
74 89 67
77 94 62
84 104 47
82 103 50
84 105 51
77 114 93
74 104 97
51 86 117
17 60 139
11 43 129
6 35 125
6 39 127
4 44 130
0 45 130
7 45 131
6 45 132
7 44 130
8 39 127
7 33 125
4 37 126
6 37 126
7 36 126
10 40 128
122 136 179
199 215 241
216 232 255
216 232 255
216 232 255
216 232 255
216 232 255
216 232 255
216 232 255
216 232 255
216 232 255
216 232 255
216 232 255
216 232 255
216 232 255
216 232 255
216 232 255
216 232 255
216 232 255
216 232 255
216 232 255
216 232 255
216 232 255
216 232 255
216 232 255
216 232 255
216 232 255
216 232 255
216 232 255
216 232 255
216 232 255
216 232 255
216 232 255
216 232 255
216 232 255
216 232 255
216 232 255
216 232 255
216 232 255
216 232 255
216 232 255
216 232 255
216 232 255
216 232 255
216 232 255
216 233 255
216 233 255
216 233 255
216 233 255
216 233 255
216 233 255
216 233 255
216 233 255
216 233 255
216 233 255
216 233 255
216 233 255
216 233 255
216 233 255
216 233 255
216 233 255
216 233 255
216 233 255
216 233 255
216 233 255
216 233 255
216 233 255
216 233 255
216 233 255
216 233 255
216 233 255
216 233 255
216 233 255
216 233 255
216 233 255
216 233 255
216 233 255
216 233 255
216 233 255
216 233 255
216 233 255
216 233 255
216 233 255
216 233 255
216 233 255
216 233 255
216 233 255
216 233 255
216 233 255
216 233 255
216 233 255
216 233 255
216 233 255
216 233 255
216 233 255
216 233 255
216 233 255
216 233 255
216 233 255
216 233 255
216 233 255
216 233 255
216 233 255
216 233 255
216 233 255
216 233 255
216 233 255
216 233 255
216 233 255
216 233 255
216 233 255
216 233 255
216 233 255
216 233 255
216 233 255
216 233 255
216 233 255
216 233 255
216 233 255
216 233 255
216 233 255
216 233 255
216 233 255
216 233 255
216 233 255
216 233 255
216 233 255
216 233 255
216 233 255
216 233 255
216 233 255
216 233 255
216 233 255
216 233 255
216 233 255
216 233 255
216 233 255
216 233 255
216 233 255
216 233 255
216 233 255
216 233 255
216 233 255
216 233 255
216 233 255
216 233 255
216 233 255
216 233 255
216 233 255
216 233 255
216 233 255
216 233 255
216 233 255
216 233 255
216 233 255
216 233 255
216 233 255
216 233 255
216 233 255
216 233 255
216 233 255
216 233 255
216 233 255
216 233 255
216 233 255
216 233 255
216 233 255
216 233 255
216 233 255
216 233 255
216 233 255
216 233 255
216 233 255
216 233 255
216 233 255
216 233 255
216 233 255
216 233 255
216 233 255
216 233 255
216 233 255
216 233 255
216 233 255
216 233 255
216 233 255
216 233 255
216 233 255
216 233 255
216 233 255
216 233 255
216 233 255
216 233 255
216 233 255
216 233 255
216 233 255
216 233 255
216 233 255
216 233 255
216 233 255
216 233 255
216 233 255
216 233 255
216 233 255
216 233 255
216 233 255
216 233 255
216 233 255
216 233 255
216 233 255
216 233 255
216 233 255
216 233 255
216 233 255
216 233 255
216 233 255
216 233 255
216 233 255
216 233 255
216 233 255
216 233 255
216 233 255
216 233 255
216 233 255
216 233 255
216 233 255
216 233 255
216 233 255
216 233 255
216 233 255
216 233 255
216 233 255
216 233 255
216 233 255
216 233 255
216 233 255
216 233 255
216 233 255
216 233 255
216 233 255
216 233 255
216 233 255
216 233 255
216 233 255
216 233 255
216 233 255
216 233 255
216 233 255
216 233 255
216 233 255
216 233 255
216 233 255
216 233 255
216 233 255
216 233 255
216 233 255
216 233 255
216 233 255
216 233 255
216 233 255
216 233 255
216 233 255
216 233 255
216 233 255
216 233 255
216 233 255
216 233 255
216 233 255
216 233 255
216 233 255
216 233 255
216 233 255
216 233 255
216 233 255
216 233 255
216 233 255
216 233 255
216 233 255
216 233 255
216 233 255
216 233 255
216 233 255
216 233 255
216 233 255
216 233 255
216 233 255
216 233 255
216 233 255
216 233 255
216 233 255
216 233 255
216 233 255
216 233 255
211 228 251
147 165 196
54 77 127
5 31 124
11 30 123
11 30 122
6 32 124
6 37 126
5 41 128
14 44 125
36 67 118
27 63 131
66 96 108
117 144 134
99 121 101
71 93 47
72 95 34
72 99 32
72 101 36
70 99 36
103 127 101
104 124 95
115 132 108
111 127 106
78 99 43
78 108 41
97 127 74
102 133 84
111 136 96
119 140 111
123 141 114
132 147 126
135 149 127
132 145 122
128 142 121
135 147 123
132 147 119
121 142 111
117 139 106
107 131 92
101 128 84
92 120 65
90 120 64
81 117 60
81 114 47
83 115 51
90 115 57
81 103 53
86 109 52
75 98 45
72 96 40
68 96 42
71 96 46
66 92 33
67 93 35
70 96 35
70 98 24
69 96 30
70 97 34
74 101 41
77 103 39
81 102 30
84 105 43
87 107 40
86 103 53
86 106 42
87 115 73
82 110 103
40 149 188
48 132 167
78 119 100
91 109 66
85 106 52
88 107 57
82 102 44
82 102 46
85 105 46
85 104 53
87 106 50
89 107 51
90 109 59
88 107 51
87 105 44
85 103 51
78 97 45
77 96 44
78 96 44
82 102 49
81 103 46
74 98 38
67 101 57
74 100 55
73 99 33
77 103 52
64 94 94
23 53 132
11 37 127
10 38 126
9 43 131
6 41 128
0 44 129
6 44 131
6 42 128
7 39 127
8 40 128
6 41 128
7 40 129
8 39 128
5 41 128
23 50 132
143 159 197
209 226 250
216 233 255
216 233 255
216 233 255
216 233 255
216 233 255
216 233 255
216 233 255
216 233 255
216 233 255
216 233 255
216 233 255
216 233 255
216 233 255
216 233 255
216 233 255
216 233 255
216 233 255
216 233 255
216 233 255
216 233 255
216 233 255
216 233 255
216 233 255
216 233 255
216 233 255
216 233 255
216 233 255
216 233 255
216 233 255
216 233 255
216 233 255
216 233 255
216 233 255
216 233 255
216 233 255
216 233 255
216 233 255
216 233 255
216 233 255
216 233 255
216 233 255
216 233 255
216 233 255
216 233 255
216 233 255
216 233 255
216 233 255
216 233 255
216 233 255
216 233 255
216 233 255
216 233 255
216 233 255
216 233 255
216 233 255
216 233 255
216 233 255
216 233 255
216 233 255
216 233 255
216 233 255
216 233 255
216 233 255
216 233 255
216 233 255
216 233 255
216 233 255
216 233 255
216 233 255
216 233 255
216 233 255
216 233 255
216 233 255
216 233 255
216 233 255
216 233 255
216 233 255
216 233 255
216 233 255
216 233 255
216 233 255
216 233 255
216 233 255
216 233 255
216 233 255
216 233 255
216 233 255
216 233 255
216 233 255
216 233 255
216 233 255
216 233 255
216 233 255
216 233 255
216 233 255
216 233 255
216 233 255
216 233 255
216 233 255
216 233 255
216 233 255
216 233 255
216 233 255
216 233 255
216 233 255
216 233 255
216 233 255
216 233 255
216 233 255
216 233 255
216 233 255
216 233 255
216 233 255
216 233 255
216 233 255
216 233 255
216 233 255
216 233 255
216 233 255
216 233 255
216 233 255
216 233 255
216 233 255
216 233 255
216 233 255
216 233 255
216 233 255
216 233 255
216 233 255
216 233 255
216 233 255
216 233 255
216 233 255
216 233 255
216 233 255
216 233 255
216 233 255
216 233 255
216 233 255
216 233 255
216 233 255
216 233 255
216 233 255
216 233 255
216 233 255
216 233 255
216 233 255
216 233 255
216 233 255
216 233 255
216 233 255
216 233 255
216 233 255
216 233 255
216 233 255
216 233 255
216 233 255
216 233 255
216 233 255
216 233 255
216 233 255
216 233 255
216 233 255
216 233 255
216 233 255
216 233 255
216 233 255
216 233 255
216 233 255
216 233 255
216 233 255
216 233 255
216 233 255
216 233 255
216 233 255
216 233 255
216 233 255
216 233 255
216 233 255
216 233 255
216 233 255
216 233 255
216 233 255
216 233 255
216 233 255
216 233 255
216 233 255
216 233 255
216 233 255
216 233 255
216 233 255
216 233 255
216 233 255
216 233 255
216 233 255
216 233 255
216 233 255
216 233 255
216 233 255
216 233 255
216 233 255
216 233 255
216 233 255
216 233 255
216 233 255
216 233 255
216 233 255
216 233 255
216 233 255
216 233 255
216 233 255
216 233 255
216 233 255
216 233 255
216 233 255
216 233 255
216 233 255
216 233 255
216 233 255
216 233 255
216 233 255
216 233 255
216 233 255
216 233 255
216 233 255
216 233 255
216 233 255
216 233 255
216 233 255
216 233 255
216 233 255
216 233 255
216 233 255
216 233 255
216 233 255
216 233 255
216 233 255
216 233 255
216 233 255
216 233 255
216 233 255
216 233 255
216 233 255
216 233 255
216 233 255
216 233 255
216 233 255
216 233 255
216 233 255
216 233 255
216 233 255
216 233 255
216 233 255
216 233 255
216 233 255
216 233 255
216 233 255
216 233 255
216 233 255
216 233 255
216 233 255
216 233 255
216 233 255
216 233 255
216 233 255
216 233 255
216 233 255
216 233 255
216 233 255
216 233 255
216 233 255
216 233 255
216 233 255
216 233 255
216 233 255
216 233 255
216 233 255
216 233 255
216 233 255
216 233 255
216 233 255
216 233 255
216 233 255
216 233 255
216 233 255
216 233 255
215 232 255
181 198 225
79 96 151
7 33 125
8 32 124
9 28 122
9 29 122
8 35 125
12 38 127
5 39 128
10 38 128
39 69 112
30 65 127
29 56 119
72 100 85
122 148 141
98 119 95
89 106 57
93 112 66
86 108 50
74 102 36
71 99 35
85 111 65
104 128 99
118 137 120
131 145 133
105 120 94
93 118 65
110 137 95
126 143 116
138 148 128
142 150 137
146 153 140
148 156 144
149 157 139
142 153 135
134 148 132
132 147 126
127 143 120
121 140 116
116 137 104
113 137 101
107 135 95
101 133 87
98 125 69
96 127 74
91 125 74
91 121 71
98 127 70
91 114 59
89 112 56
81 103 37
80 103 37
77 100 55
74 97 53
70 95 46
67 93 47
64 88 48
67 92 34
70 96 46
73 99 42
73 100 41
77 105 39
76 104 18
79 105 40
80 105 37
85 106 41
86 109 42
86 110 43
80 106 48
86 111 60
88 108 64
89 108 55
85 108 43
80 100 41
78 101 51
80 102 41
81 102 40
75 96 60
67 88 57
75 98 44
83 106 50
79 100 40
85 104 50
72 93 45
73 94 38
77 100 35
78 100 40
81 103 47
84 105 48
77 99 38
78 101 39
72 98 28
74 99 43
76 103 38
75 100 41
80 107 48
69 96 85
21 51 131
8 42 128
12 43 130
5 38 127
0 39 127
10 46 132
10 48 134
9 44 129
6 40 127
4 41 128
3 42 128
9 45 131
8 46 131
5 43 129
9 46 132
69 88 152
181 197 227
216 233 255
216 233 255
216 233 255
216 233 255
216 233 255
216 233 255
216 233 255
216 233 255
216 233 255
216 233 255
216 233 255
216 233 255
216 233 255
216 233 255
216 233 255
216 233 255
216 233 255
216 233 255
216 233 255
216 233 255
216 233 255
216 233 255
216 233 255
216 233 255
216 233 255
216 233 255
216 233 255
216 233 255
216 233 255
216 233 255
216 233 255
216 233 255
216 233 255
216 233 255
216 233 255
216 233 255
216 233 255
216 233 255
216 233 255
216 233 255
216 233 255
216 233 255
216 233 255
216 233 255
216 233 255
216 233 255
216 233 255
216 233 255
216 233 255
216 233 255
216 233 255
216 233 255
216 233 255
216 233 255
216 233 255
216 233 255
216 233 255
216 233 255
216 233 255
216 233 255
216 233 255
216 233 255
216 233 255
216 233 255
216 233 255
216 233 255
216 233 255
216 233 255
216 233 255
216 233 255
216 233 255
216 233 255
216 233 255
216 233 255
216 233 255
216 233 255
216 233 255
216 233 255
216 233 255
216 233 255
216 233 255
216 233 255
216 233 255
216 233 255
216 233 255
216 233 255
216 233 255
216 233 255
216 233 255
216 233 255
216 233 255
216 233 255
216 233 255
216 233 255
216 233 255
216 233 255
216 233 255
216 233 255
216 233 255
216 233 255
216 233 255
216 233 255
216 233 255
216 233 255
216 233 255
216 233 255
216 233 255
216 233 255
216 233 255
216 233 255
216 233 255
216 233 255
216 233 255
216 233 255
216 233 255
216 233 255
216 233 255
216 233 255
216 233 255
216 233 255
216 233 255
216 233 255
216 233 255
216 233 255
216 233 255
216 233 255
216 233 255
216 233 255
216 233 255
216 233 255
216 233 255
216 233 255
216 233 255
216 233 255
216 233 255
216 233 255
216 233 255
216 233 255
216 233 255
216 233 255
216 233 255
216 233 255
216 233 255
216 233 255
216 233 255
216 233 255
216 233 255
216 233 255
216 233 255
216 233 255
216 233 255
216 233 255
216 233 255
216 233 255
216 233 255
216 233 255
216 233 255
216 233 255
216 233 255
216 233 255
216 233 255
216 233 255
216 233 255
216 233 255
216 233 255
216 233 255
216 233 255
216 233 255
216 233 255
216 233 255
216 233 255
216 233 255
216 233 255
216 233 255
216 233 255
216 233 255
216 233 255
216 233 255
216 233 255
216 233 255
216 233 255
216 233 255
216 233 255
216 233 255
216 233 255
216 233 255
216 233 255
216 233 255
216 233 255
216 233 255
216 233 255
216 233 255
216 233 255
216 233 255
216 233 255
216 233 255
216 233 255
216 233 255
216 233 255
216 233 255
216 233 255
216 233 255
216 233 255
216 233 255
216 233 255
216 233 255
216 233 255
216 233 255
216 233 255
216 233 255
216 233 255
216 233 255
216 233 255
216 233 255
216 233 255
216 233 255
216 233 255
216 233 255
216 233 255
216 233 255
216 233 255
216 233 255
216 233 255
216 233 255
216 233 255
216 233 255
216 233 255
216 233 255
216 233 255
216 233 255
216 233 255
216 233 255
216 233 255
216 233 255
216 233 255
216 233 255
216 233 255
216 233 255
216 233 255
216 233 255
216 233 255
216 233 255
216 233 255
216 233 255
216 233 255
216 233 255
216 233 255
216 233 255
216 233 255
216 233 255
216 233 255
216 233 255
216 233 255
216 233 255
216 233 255
216 233 255
216 233 255
216 233 255
216 233 255
216 233 255
216 233 255
216 233 255
216 233 255
216 233 255
216 233 255
216 233 255
216 233 255
216 233 255
216 233 255
216 233 255
216 233 255
216 233 255
216 233 255
216 233 255
216 233 255
216 233 255
216 233 255
216 233 255
216 233 255
216 233 255
216 233 255
216 233 255
216 233 255
216 233 255
203 220 245
123 137 180
9 38 127
8 32 124
7 31 124
8 30 123
4 33 125
8 34 125
9 36 126
8 36 125
11 37 126
12 40 129
28 57 121
10 41 128
31 58 121
81 110 89
140 165 167
130 150 144
104 121 96
92 108 66
91 110 64
80 103 53
75 103 44
79 108 59
97 122 89
108 130 105
96 114 76
104 121 90
111 131 96
136 147 125
142 151 133
143 152 138
149 155 144
148 156 145
143 152 139
144 155 140
135 149 133
138 149 128
130 146 120
119 140 104
114 138 97
111 137 99
104 131 85
104 133 83
102 133 85
106 137 87
102 133 81
100 131 83
99 132 80
105 135 80
96 123 62
89 115 54
79 102 50
76 100 57
77 103 37
79 102 52
76 101 36
76 101 41
74 97 37
77 103 30
62 84 83
56 78 81
76 104 34
81 108 35
78 105 42
77 104 38
78 108 31
74 105 16
78 107 25
79 107 27
78 107 32
77 103 31
83 107 43
86 110 41
83 108 36
80 108 34
80 106 44
83 108 42
77 104 41
77 102 44
82 103 51
81 106 37
79 105 40
76 101 48
73 96 31
78 100 41
69 92 48
70 94 41
68 98 44
68 98 48
71 98 55
71 99 43
73 99 37
69 94 37
73 100 40
71 96 28
73 97 51
56 81 97
58 78 112
60 83 105
20 55 132
17 55 138
10 51 136
13 45 130
12 40 127
9 46 132
6 50 135
10 45 131
9 46 131
9 47 132
3 43 130
9 47 133
14 55 137
6 44 131
9 45 131
10 50 135
110 128 177
207 224 248
216 233 255
216 233 255
216 233 255
216 233 255
216 233 255
216 233 255
216 233 255
216 233 255
216 233 255
216 233 255
216 233 255
216 233 255
216 233 255
216 233 255
216 233 255
216 233 255
216 233 255
216 233 255
216 233 255
216 233 255
216 233 255
216 233 255
216 233 255
216 233 255
216 233 255
216 233 255
216 233 255
216 233 255
216 233 255
216 233 255
216 233 255
216 233 255
216 233 255
216 233 255
216 233 255
216 233 255
216 233 255
216 233 255
216 233 255
216 233 255
216 233 255
216 233 255
216 233 255
216 233 255
216 233 255
216 233 255
216 233 255
216 233 255
216 233 255
216 233 255
216 233 255
216 233 255
216 233 255
216 233 255
216 233 255
216 233 255
216 233 255
216 233 255
216 233 255
216 233 255
216 233 255
216 233 255
216 233 255
216 233 255
216 233 255
216 233 255
216 233 255
216 233 255
216 233 255
216 233 255
216 233 255
216 233 255
216 233 255
216 233 255
216 233 255
216 233 255
216 233 255
216 233 255
216 233 255
216 233 255
216 233 255
216 233 255
216 233 255
216 233 255
216 233 255
216 233 255
216 233 255
216 233 255
216 233 255
216 233 255
216 233 255
216 233 255
216 233 255
216 233 255
216 233 255
216 233 255
216 233 255
216 233 255
216 233 255
216 233 255
216 233 255
216 233 255
216 233 255
216 233 255
216 233 255
216 233 255
216 233 255
216 233 255
216 233 255
216 233 255
216 233 255
216 233 255
216 233 255
216 233 255
216 233 255
216 233 255
216 233 255
216 233 255
216 233 255
216 233 255
216 233 255
216 233 255
216 233 255
216 233 255
216 233 255
216 233 255
216 233 255
216 233 255
216 233 255
216 233 255
216 233 255
216 233 255
216 233 255
216 233 255
216 233 255
216 233 255
216 233 255
216 233 255
216 233 255
216 233 255
216 233 255
216 233 255
216 233 255
216 233 255
216 233 255
216 233 255
216 233 255
216 233 255
216 233 255
216 233 255
216 233 255
216 233 255
216 233 255
216 233 255
216 233 255
216 233 255
216 233 255
216 233 255
216 233 255
216 233 255
216 233 255
216 233 255
216 233 255
216 233 255
216 233 255
216 233 255
216 233 255
216 233 255
216 233 255
216 233 255
216 233 255
216 233 255
216 233 255
216 233 255
216 233 255
216 233 255
216 233 255
216 233 255
216 233 255
216 233 255
216 233 255
216 233 255
216 233 255
216 233 255
216 233 255
216 233 255
216 233 255
216 233 255
216 233 255
216 233 255
216 233 255
216 233 255
216 233 255
216 233 255
216 233 255
216 233 255
216 233 255
216 233 255
216 233 255
216 233 255
216 233 255
216 233 255
216 233 255
216 233 255
216 233 255
216 233 255
216 233 255
216 233 255
216 233 255
216 233 255
216 233 255
216 233 255
216 233 255
216 233 255
216 233 255
216 233 255
216 233 255
216 233 255
216 233 255
216 233 255
216 233 255
216 233 255
216 233 255
216 233 255
216 233 255
216 233 255
216 233 255
216 233 255
216 233 255
216 233 255
216 233 255
216 233 255
216 233 255
216 233 255
216 233 255
216 233 255
216 233 255
216 233 255
216 233 255
216 233 255
216 233 255
216 233 255
216 233 255
216 233 255
216 233 255
216 233 255
216 233 255
216 233 255
216 233 255
216 233 255
216 233 255
216 233 255
216 233 255
216 233 255
216 233 255
216 233 255
216 233 255
216 233 255
216 233 255
216 233 255
216 233 255
216 233 255
216 233 255
216 233 255
216 233 255
216 233 255
216 233 255
216 233 255
216 233 255
216 233 255
216 233 255
216 233 255
216 233 255
216 233 255
216 233 255
216 233 255
216 233 255
216 233 255
216 233 255
216 233 255
216 233 255
167 182 214
45 61 135
9 34 124
8 30 123
1 30 123
0 31 124
0 33 125
8 36 126
9 37 126
5 33 125
5 35 122
8 36 125
14 35 125
11 36 126
37 61 120
48 78 95
66 97 74
92 117 105
138 162 162
127 148 140
94 114 79
93 110 66
88 108 65
77 104 45
79 105 49
85 108 68
97 115 81
97 115 72
102 118 79
131 145 121
140 152 132
149 157 141
149 156 144
146 152 136
144 152 138
148 155 142
143 152 137
138 149 133
131 144 124
129 143 119
124 141 114
118 139 103
112 135 98
107 134 91
109 138 96
105 134 91
104 132 82
107 136 90
104 135 91
105 135 92
102 130 85
97 124 75
90 116 65
78 101 74
85 113 50
73 100 51
80 106 47
76 101 38
78 102 46
77 102 41
78 107 47
80 114 49
69 101 74
63 90 84
70 98 86
79 108 48
78 106 33
79 106 44
82 112 42
82 112 38
81 110 33
82 111 34
85 113 40
85 111 39
87 115 46
82 111 35
85 115 37
82 110 43
83 109 36
79 105 42
76 101 48
80 107 44
77 108 34
77 109 34
77 108 28
73 101 43
70 101 50
81 106 51
66 100 58
54 99 100
28 82 154
20 76 151
30 77 147
46 85 120
50 78 103
51 73 109
54 72 107
54 75 109
17 44 133
26 50 124
73 102 68
38 67 118
18 58 142
10 52 136
9 52 136
8 45 132
6 38 127
8 47 132
12 55 138
8 46 133
12 50 134
8 45 131
13 49 133
10 53 137
7 56 140
8 49 133
10 53 136
10 55 139
48 75 147
156 171 207
216 233 255
216 233 255
216 233 255
216 233 255
216 233 255
216 233 255
216 233 255
216 233 255
216 233 255
216 233 255
216 233 255
216 233 255
216 233 255
216 233 255
216 233 255
216 233 255
216 233 255
216 233 255
216 233 255
216 233 255
216 233 255
216 233 255
216 233 255
216 233 255
216 233 255
216 233 255
216 233 255
216 233 255
216 233 255
216 233 255
216 233 255
216 233 255
216 233 255
216 233 255
216 233 255
216 233 255
216 233 255
216 233 255
216 233 255
216 233 255
216 233 255
216 233 255
216 233 255
216 233 255
216 233 255
216 233 255
216 233 255
216 233 255
216 233 255
216 233 255
216 233 255
216 233 255
216 233 255
216 233 255
216 233 255
216 233 255
216 233 255
216 233 255
216 233 255
216 233 255
216 233 255
216 233 255
216 233 255
216 233 255
216 233 255
216 233 255
216 233 255
216 233 255
216 233 255
216 233 255
216 233 255
216 233 255
216 233 255
216 233 255
216 233 255
216 233 255
216 233 255
216 233 255
216 233 255
216 233 255
216 233 255
216 233 255
216 233 255
216 233 255
216 233 255
216 233 255
216 233 255
216 233 255
216 233 255
216 233 255
216 233 255
216 233 255
216 233 255
216 233 255
216 233 255
216 233 255
216 233 255
216 233 255
216 233 255
216 233 255
216 233 255
216 233 255
216 233 255
216 233 255
216 233 255
216 233 255
216 233 255
216 233 255
216 233 255
216 233 255
216 233 255
216 233 255
216 233 255
216 233 255
216 233 255
216 233 255
216 233 255
216 233 255
216 233 255
216 233 255
216 233 255
216 233 255
216 233 255
216 233 255
216 233 255
216 233 255
216 233 255
216 233 255
216 233 255
216 233 255
216 233 255
216 233 255
216 233 255
216 233 255
216 233 255
216 233 255
216 233 255
216 233 255
216 233 255
216 233 255
216 233 255
216 233 255
216 233 255
216 233 255
216 233 255
216 233 255
216 233 255
216 233 255
216 233 255
216 233 255
216 233 255
216 233 255
216 233 255
216 233 255
216 233 255
216 233 255
216 233 255
216 233 255
216 233 255
216 233 255
216 233 255
216 233 255
216 233 255
216 233 255
216 233 255
216 233 255
216 233 255
216 233 255
216 233 255
216 233 255
216 233 255
216 233 255
216 233 255
216 233 255
216 233 255
216 233 255
216 233 255
216 233 255
216 233 255
216 233 255
216 233 255
216 233 255
216 233 255
216 233 255
216 233 255
216 233 255
216 233 255
216 233 255
216 233 255
216 233 255
216 233 255
216 233 255
216 233 255
216 233 255
216 233 255
216 233 255
216 233 255
216 233 255
216 233 255
216 233 255
216 233 255
216 233 255
216 233 255
216 233 255
216 233 255
216 233 255
216 233 255
216 233 255
216 233 255
216 233 255
216 233 255
216 233 255
216 233 255
216 233 255
216 233 255
216 233 255
216 233 255
216 233 255
216 233 255
216 233 255
216 233 255
216 233 255
216 233 255
216 233 255
216 233 255
216 233 255
216 233 255
216 233 255
216 233 255
216 233 255
216 233 255
216 233 255
216 233 255
216 233 255
216 233 255
216 233 255
216 233 255
216 233 255
216 233 255
216 233 255
216 233 255
216 233 255
216 233 255
216 233 255
216 233 255
216 233 255
216 233 255
216 233 255
216 233 255
216 233 255
216 233 255
216 233 255
216 233 255
216 233 255
216 233 255
216 233 255
216 233 255
216 233 255
216 233 255
216 233 255
216 233 255
216 233 255
216 233 255
216 233 255
216 233 255
216 233 255
216 233 255
216 233 255
216 233 255
216 233 255
216 233 255
216 233 255
216 233 255
216 233 255
216 233 255
216 233 255
216 233 255
216 233 255
205 222 246
104 117 166
7 31 123
11 30 122
11 29 122
5 30 123
0 31 124
1 32 125
6 37 126
4 36 125
5 31 123
6 30 125
7 34 125
5 31 124
8 31 125
9 34 125
41 69 102
67 98 58
57 97 63
38 85 111
75 116 94
92 118 84
74 102 35
88 105 59
93 111 69
84 108 51
78 106 43
82 108 55
86 108 44
88 111 52
98 121 81
132 144 123
154 161 147
156 164 152
157 166 155
147 156 142
142 152 138
143 152 138
138 148 135
131 145 128
130 144 123
124 140 113
124 140 112
123 141 110
116 138 102
107 136 91
108 137 88
108 135 86
109 135 92
102 129 86
103 133 91
106 134 97
105 132 93
103 130 83
90 118 66
80 107 68
83 115 41
85 115 47
83 111 49
75 103 35
77 105 39
74 103 56
74 104 87
33 60 128
11 47 136
9 50 133
16 47 136
52 81 105
70 98 79
77 107 51
75 105 26
78 107 32
78 108 25
80 110 27
82 112 33
85 114 39
85 115 35
84 113 37
86 115 38
78 109 27
78 107 33
74 103 30
73 99 39
75 103 37
78 108 26
79 109 42
77 103 69
83 112 39
78 107 35
72 114 85
49 124 154
57 107 125
63 107 95
73 107 67
70 106 74
49 89 118
44 76 125
56 82 109
34 63 123
11 41 130
6 43 130
18 46 132
72 100 83
69 98 59
56 86 98
31 62 121
26 54 124
7 44 131
2 44 130
7 41 128
11 47 132
9 56 138
9 54 138
9 54 138
16 50 134
6 46 133
10 53 137
7 59 142
12 58 141
11 55 140
12 59 142
7 50 135
97 112 164
197 213 239
216 233 255
216 233 255
216 233 255
216 233 255
216 233 255
216 233 255
216 233 255
216 233 255
216 233 255
216 233 255
216 233 255
216 233 255
216 233 255
216 233 255
216 233 255
216 233 255
216 233 255
216 233 255
216 233 255
216 233 255
216 233 255
216 233 255
216 233 255
216 233 255
216 233 255
216 233 255
216 233 255
216 233 255
216 233 255
216 233 255
216 233 255
216 233 255
216 233 255
216 233 255
216 233 255
216 233 255
216 233 255
216 233 255
216 233 255
216 233 255
216 233 255
216 233 255
216 233 255
216 233 255
216 233 255
216 233 255
216 233 255
216 233 255
216 233 255
216 233 255
216 233 255
216 233 255
216 233 255
216 233 255
216 233 255
216 233 255
216 233 255
216 233 255
216 233 255
216 233 255
216 233 255
216 233 255
216 233 255
216 233 255
216 233 255
216 233 255
216 233 255
216 233 255
216 233 255
216 233 255
216 233 255
216 233 255
216 233 255
216 233 255
216 233 255
216 233 255
216 233 255
216 233 255
216 233 255
216 233 255
216 233 255
216 233 255
216 233 255
216 233 255
216 233 255
216 233 255
216 233 255
216 233 255
216 233 255
216 233 255
216 233 255
216 233 255
216 233 255
216 233 255
216 233 255
216 233 255
216 233 255
216 233 255
216 233 255
216 233 255
216 233 255
216 233 255
216 233 255
216 233 255
216 233 255
216 233 255
216 233 255
216 233 255
216 233 255
216 233 255
216 233 255
216 233 255
216 233 255
216 233 255
216 233 255
216 233 255
216 233 255
216 233 255
216 233 255
216 233 255
216 233 255
216 233 255
216 233 255
216 233 255
216 233 255
216 233 255
216 233 255
216 233 255
216 233 255
216 233 255
216 233 255
216 233 255
216 233 255
216 233 255
216 233 255
216 233 255
216 233 255
216 233 255
216 233 255
216 233 255
216 233 255
216 233 255
216 233 255
216 233 255
216 233 255
216 233 255
216 233 255
216 233 255
216 233 255
216 233 255
216 233 255
216 233 255
216 233 255
216 233 255
216 233 255
216 233 255
216 233 255
216 233 255
216 233 255
216 233 255
216 233 255
216 233 255
216 233 255
216 233 255
216 233 255
216 233 255
216 233 255
216 233 255
216 233 255
216 233 255
216 233 255
216 233 255
216 233 255
216 233 255
216 233 255
216 233 255
216 233 255
216 233 255
216 233 255
216 233 255
216 233 255
216 233 255
216 233 255
216 233 255
216 233 255
216 233 255
216 233 255
216 233 255
216 233 255
216 233 255
216 233 255
216 233 255
216 233 255
216 233 255
216 233 255
216 233 255
216 233 255
216 233 255
216 233 255
216 233 255
216 233 255
216 233 255
216 233 255
216 233 255
216 233 255
216 233 255
216 233 255
216 233 255
216 233 255
216 233 255
216 233 255
216 233 255
216 233 255
216 233 255
216 233 255
216 233 255
216 233 255
216 233 255
216 233 255
216 233 255
216 233 255
216 233 255
216 233 255
216 233 255
216 233 255
216 233 255
216 233 255
216 233 255
216 233 255
216 233 255
216 233 255
216 233 255
216 233 255
216 233 255
216 233 255
216 233 255
216 233 255
216 233 255
216 233 255
216 233 255
216 233 255
216 233 255
216 233 255
216 233 255
216 233 255
216 233 255
216 233 255
216 233 255
216 233 255
216 233 255
216 233 255
216 233 255
216 233 255
216 233 255
216 233 255
216 233 255
216 233 255
216 233 255
216 233 255
216 233 255
216 233 255
216 233 255
216 233 255
216 233 255
216 233 255
216 233 255
216 233 255
216 233 255
216 233 255
216 233 255
216 233 255
216 233 255
216 233 255
216 233 255
216 233 255
169 184 215
44 57 133
9 29 122
9 28 121
11 29 121
13 30 122
2 32 124
0 33 124
5 33 125
8 35 125
3 33 124
4 33 124
5 36 125
9 33 124
11 32 124
11 39 128
11 41 126
13 55 141
44 86 116
54 96 71
39 96 131
73 122 102
87 115 67
94 113 81
119 130 110
99 115 77
93 115 72
79 105 49
80 106 48
97 117 68
95 115 74
92 110 66
132 145 123
154 161 147
156 163 147
150 158 144
139 148 127
137 146 128
140 150 136
139 151 136
138 150 135
136 148 127
128 144 120
128 145 117
124 141 110
113 134 100
111 134 98
108 134 94
110 135 87
106 134 84
105 134 84
105 135 87
101 132 96
103 134 87
98 129 76
90 120 61
81 112 47
82 114 50
89 119 50
89 115 51
76 109 75
55 89 121
26 57 136
30 58 137
52 86 131
47 89 112
29 56 141
20 47 135
11 52 137
12 51 140
57 93 108
79 111 32
76 106 31
72 103 25
77 106 38
78 107 29
73 104 46
82 115 35
78 110 45
73 106 26
73 105 34
69 102 30
71 104 23
77 109 27
74 105 19
80 110 43
74 105 33
71 107 35
72 102 17
76 110 60
72 128 117
77 122 84
76 115 48
79 113 21
77 117 56
64 121 110
54 101 114
22 66 148
12 58 139
20 61 145
11 56 141
11 55 135
21 52 133
67 95 95
84 110 49
86 108 55
83 109 48
80 106 61
44 68 112
18 47 131
8 47 132
13 46 131
12 56 139
13 67 148
13 63 145
13 64 143
13 53 138
10 49 134
11 49 134
8 57 139
5 57 140
9 56 139
4 52 136
10 47 132
49 68 140
172 187 218
216 233 255
216 233 255
216 233 255
216 233 255
216 233 255
216 233 255
216 233 255
216 233 255
216 233 255
216 233 255
216 233 255
216 233 255
216 233 255
216 233 255
216 233 255
216 233 255
216 233 255
216 233 255
216 233 255
216 233 255
216 233 255
216 233 255
216 233 255
216 233 255
216 233 255
216 233 255
216 233 255
216 233 255
216 233 255
216 233 255
216 233 255
216 233 255
216 233 255
216 233 255
216 233 255
216 233 255
216 233 255
216 233 255
216 233 255
216 233 255
216 233 255
216 233 255
216 233 255
216 233 255
216 233 255
216 233 255
216 233 255
216 233 255
216 233 255
216 233 255
216 233 255
216 233 255
216 233 255
216 233 255
216 233 255
216 233 255
216 233 255
216 233 255
216 233 255
216 233 255
216 233 255
216 233 255
216 233 255
216 233 255
216 233 255
216 233 255
216 233 255
216 233 255
216 233 255
216 233 255
216 233 255
216 233 255
216 233 255
216 233 255
216 233 255
216 233 255
216 233 255
216 233 255
216 233 255
216 233 255
216 233 255
216 233 255
216 233 255
216 233 255
216 233 255
216 233 255
216 233 255
216 233 255
216 233 255
216 233 255
216 233 255
216 233 255
216 233 255
216 233 255
216 233 255
216 233 255
216 233 255
216 233 255
216 233 255
216 233 255
216 233 255
216 233 255
216 233 255
216 233 255
216 233 255
216 233 255
216 233 255
216 233 255
216 233 255
216 233 255
216 233 255
216 233 255
216 233 255
216 233 255
216 233 255
216 233 255
216 233 255
216 233 255
216 233 255
216 233 255
216 233 255
216 233 255
216 233 255
216 233 255
216 233 255
216 233 255
216 233 255
216 233 255
216 233 255
216 233 255
216 233 255
216 233 255
216 233 255
216 233 255
216 233 255
216 233 255
216 233 255
216 233 255
216 233 255
216 233 255
216 233 255
216 233 255
216 233 255
216 233 255
216 233 255
216 233 255
216 233 255
216 233 255
216 233 255
216 233 255
216 233 255
216 233 255
216 233 255
216 233 255
216 233 255
216 233 255
216 233 255
216 233 255
216 233 255
216 233 255
216 233 255
216 233 255
216 233 255
216 233 255
216 233 255
216 233 255
216 233 255
216 233 255
216 233 255
216 233 255
216 233 255
216 233 255
216 233 255
216 233 255
216 233 255
216 233 255
216 233 255
216 233 255
216 233 255
216 233 255
216 233 255
216 233 255
216 233 255
216 233 255
216 233 255
216 233 255
216 233 255
216 233 255
216 233 255
216 233 255
216 233 255
216 233 255
216 233 255
216 233 255
216 233 255
216 233 255
216 233 255
216 233 255
216 233 255
216 233 255
216 233 255
216 233 255
216 233 255
216 233 255
216 233 255
216 233 255
216 233 255
216 233 255
216 233 255
216 233 255
216 233 255
216 233 255
216 233 255
216 233 255
216 233 255
216 233 255
216 233 255
216 233 255
216 233 255
216 233 255
216 233 255
216 233 255
216 233 255
216 233 255
216 233 255
216 233 255
216 233 255
216 233 255
216 233 255
216 233 255
216 233 255
216 233 255
216 233 255
216 233 255
216 233 255
216 233 255
216 233 255
216 233 255
216 233 255
216 233 255
216 233 255
216 233 255
216 233 255
216 233 255
216 233 255
216 233 255
216 233 255
216 233 255
216 233 255
216 233 255
216 233 255
216 233 255
216 233 255
216 233 255
216 233 255
216 233 255
216 233 255
216 233 255
216 233 255
216 233 255
216 233 255
216 233 255
216 233 255
216 233 255
216 233 255
216 233 255
216 233 255
216 233 255
216 233 255
216 233 255
216 233 255
216 233 255
214 230 254
130 142 183
12 31 123
8 31 122
6 29 121
2 31 123
7 32 124
6 35 125
1 35 125
6 33 125
2 32 124
4 34 125
2 34 125
5 37 126
9 35 125
10 29 122
13 42 132
11 45 130
12 42 130
20 55 134
42 87 120
58 95 71
71 106 106
75 109 58
98 116 80
137 146 131
141 151 138
132 144 125
110 129 94
79 107 38
81 107 32
97 115 67
101 120 82
100 117 77
121 134 109
126 137 115
118 129 99
137 149 130
132 144 124
145 155 143
149 159 147
155 164 154
149 160 150
141 152 138
138 151 133
131 144 121
118 136 105
116 136 98
120 139 103
117 139 105
112 136 96
107 134 90
108 136 91
106 134 84
105 133 89
102 131 86
95 125 72
103 130 86
94 121 72
86 115 55
88 119 57
87 118 44
82 118 84
79 121 49
77 114 82
79 114 56
80 116 49
82 114 53
75 110 66
60 93 95
75 105 74
74 107 72
71 110 109
81 122 71
70 110 82
69 105 69
74 107 56
80 112 40
78 111 32
73 104 57
78 111 33
75 110 27
75 109 30
74 109 22
77 112 30
79 113 38
78 112 32
78 111 35
77 110 19
85 116 38
84 117 51
86 125 85
75 123 85
81 114 38
82 120 34
86 121 48
79 115 43
79 110 45
78 114 73
41 90 149
27 61 129
8 52 138
19 54 133
17 53 137
13 50 135
52 83 111
78 105 93
76 97 91
84 106 80
86 109 62
85 111 61
51 77 111
17 50 132
4 53 137
8 50 135
9 58 139
1 64 144
7 59 142
10 58 142
11 63 143
8 47 132
4 42 129
11 49 135
11 49 135
8 48 133
12 48 133
5 42 130
3 45 131
131 146 187
212 228 252
216 233 255
216 233 255
216 233 255
216 233 255
216 233 255
216 233 255
216 233 255
216 233 255
216 233 255
216 233 255
216 233 255
216 233 255
216 233 255
216 233 255
216 233 255
216 233 255
216 233 255
216 233 255
216 233 255
216 233 255
216 233 255
216 233 255
216 233 255
216 233 255
216 233 255
216 233 255
216 233 255
216 233 255
216 233 255
216 233 255
216 233 255
216 233 255
216 233 255
216 233 255
216 233 255
216 233 255
216 233 255
216 233 255
216 233 255
216 233 255
216 233 255
216 233 255
216 233 255
216 233 255
216 233 255
216 233 255
216 233 255
216 233 255
216 233 255
216 233 255
216 233 255
216 233 255
216 233 255
216 233 255
216 233 255
216 233 255
216 233 255
216 233 255
216 233 255
216 233 255
216 233 255
216 233 255
216 233 255
216 233 255
216 233 255
216 233 255
216 233 255
216 233 255
216 233 255
216 233 255
216 233 255
216 233 255
216 233 255
216 233 255
216 233 255
216 233 255
216 233 255
216 233 255
216 233 255
216 233 255
216 233 255
216 233 255
216 233 255
216 233 255
216 233 255
216 233 255
216 233 255
216 233 255
216 233 255
216 233 255
216 233 255
216 233 255
216 233 255
216 233 255
216 233 255
216 233 255
216 233 255
216 233 255
216 233 255
216 233 255
216 233 255
216 233 255
216 233 255
216 233 255
216 233 255
216 233 255
216 233 255
216 233 255
216 233 255
216 233 255
216 233 255
216 233 255
216 233 255
216 233 255
216 233 255
216 233 255
216 233 255
216 233 255
216 233 255
216 233 255
216 233 255
216 233 255
216 233 255
216 233 255
216 233 255
216 233 255
216 233 255
216 233 255
216 233 255
216 233 255
216 233 255
216 233 255
216 233 255
216 233 255
216 233 255
216 233 255
216 233 255
216 233 255
216 233 255
216 233 255
216 233 255
216 233 255
216 233 255
216 233 255
216 233 255
216 233 255
216 233 255
216 233 255
216 233 255
216 233 255
216 233 255
216 233 255
216 233 255
216 233 255
216 233 255
216 233 255
216 233 255
216 233 255
216 233 255
216 233 255
216 233 255
216 233 255
216 233 255
216 233 255
216 233 255
216 233 255
216 233 255
216 233 255
216 233 255
216 233 255
216 233 255
216 233 255
216 233 255
216 233 255
216 233 255
216 233 255
216 233 255
216 233 255
216 233 255
216 233 255
216 233 255
216 233 255
216 233 255
216 233 255
216 233 255
216 233 255
216 233 255
216 233 255
216 233 255
216 233 255
216 233 255
216 233 255
216 233 255
216 233 255
216 233 255
216 233 255
216 233 255
216 233 255
216 233 255
216 233 255
216 233 255
216 233 255
216 233 255
216 233 255
216 233 255
216 233 255
216 233 255
216 233 255
216 233 255
216 233 255
216 233 255
216 233 255
216 233 255
216 233 255
216 233 255
216 233 255
216 233 255
216 233 255
216 233 255
216 233 255
216 233 255
216 233 255
216 233 255
216 233 255
216 233 255
216 233 255
216 233 255
216 233 255
216 233 255
216 233 255
216 233 255
216 233 255
216 233 255
216 233 255
216 233 255
216 233 255
216 233 255
216 233 255
216 233 255
216 233 255
216 233 255
216 233 255
216 233 255
216 233 255
216 233 255
216 233 255
216 233 255
216 233 255
216 233 255
216 233 255
216 233 255
216 233 255
216 233 255
216 233 255
216 233 255
216 233 255
216 233 255
216 233 255
216 233 255
216 233 255
216 233 255
216 233 255
216 233 255
216 233 255
216 233 255
216 233 255
216 233 255
216 233 255
216 233 255
187 202 230
81 91 149
9 31 123
6 31 124
0 31 123
0 31 124
0 32 124
2 37 126
10 39 126
9 37 126
6 33 124
7 38 127
8 38 126
7 36 126
7 36 125
2 32 124
6 32 122
6 34 126
8 34 125
15 34 125
20 64 137
62 108 78
75 108 44
80 107 61
110 122 93
134 145 126
132 145 121
138 148 128
126 140 111
108 130 91
83 113 43
89 114 54
104 120 81
106 122 84
114 128 97
123 136 113
122 137 112
129 141 119
145 155 145
151 159 147
146 156 142
141 152 135
140 150 135
142 152 137
138 151 130
131 146 122
127 142 119
123 140 116
124 141 114
127 142 115
117 135 103
113 134 98
110 134 92
108 134 93
105 131 87
105 133 89
103 131 91
99 128 81
102 130 87
104 130 93
105 129 86
98 125 75
94 123 61
88 121 67
86 121 42
90 123 47
89 116 55
81 116 30
89 116 56
83 119 69
59 106 127
38 81 139
29 68 135
64 100 109
66 103 117
36 78 128
35 79 132
52 89 121
49 82 138
62 93 116
78 112 54
80 113 38
76 110 24
76 111 21
84 118 41
87 120 45
85 117 44
85 117 41
86 117 51
96 126 65
94 126 71
93 125 64
90 120 33
85 118 48
81 116 31
78 115 40
82 119 31
87 118 53
84 116 37
81 113 37
78 117 80
64 119 139
60 89 135
52 76 123
27 46 132
60 91 100
31 59 126
13 47 132
12 44 138
17 47 133
36 61 132
66 91 103
52 77 118
67 92 92
21 54 134
15 57 139
13 60 140
12 63 143
14 48 135
12 61 144
12 77 152
11 66 146
12 50 135
11 46 132
9 48 132
9 50 134
10 50 134
12 54 137
10 50 134
7 45 131
81 98 158
198 214 240
216 233 255
216 233 255
216 233 255
216 233 255
216 233 255
216 233 255
216 233 255
216 233 255
216 233 255
216 233 255
216 233 255
216 233 255
216 233 255
216 233 255
216 233 255
216 233 255
216 233 255
216 233 255
216 233 255
216 233 255
216 233 255
216 233 255
216 233 255
216 233 255
216 233 255
216 233 255
216 233 255
216 233 255
216 233 255
216 233 255
216 233 255
216 233 255
216 233 255
216 233 255
216 233 255
216 233 255
216 233 255
216 233 255
216 233 255
216 233 255
216 233 255
216 233 255
216 233 255
216 233 255
216 233 255
216 233 255
216 233 255
216 233 255
216 233 255
216 233 255
216 233 255
216 233 255
216 233 255
216 233 255
216 233 255
216 233 255
216 233 255
216 233 255
216 233 255
216 233 255
216 233 255
216 233 255
216 233 255
216 233 255
216 233 255
216 233 255
216 233 255
216 233 255
216 233 255
216 233 255
216 233 255
216 233 255
216 233 255
216 233 255
216 233 255
216 233 255
216 233 255
216 233 255
216 233 255
216 233 255
216 233 255
216 233 255
216 233 255
216 233 255
216 233 255
216 233 255
216 233 255
216 233 255
216 233 255
216 233 255
216 233 255
216 233 255
216 233 255
216 233 255
216 233 255
216 233 255
216 233 255
216 233 255
216 233 255
216 233 255
216 233 255
216 233 255
216 233 255
216 233 255
216 233 255
216 233 255
216 233 255
216 233 255
216 233 255
216 233 255
216 233 255
216 233 255
216 233 255
216 233 255
216 233 255
216 233 255
216 233 255
216 233 255
216 233 255
216 233 255
216 233 255
216 233 255
216 233 255
216 233 255
216 233 255
216 233 255
216 233 255
216 233 255
216 233 255
216 233 255
216 233 255
216 233 255
216 233 255
216 233 255
216 233 255
216 233 255
216 233 255
216 233 255
216 233 255
216 233 255
216 233 255
216 233 255
216 233 255
216 233 255
216 233 255
216 233 255
216 233 255
216 233 255
216 233 255
216 233 255
216 233 255
216 233 255
216 233 255
216 233 255
216 233 255
216 233 255
216 233 255
216 233 255
216 233 255
216 233 255
216 233 255
216 233 255
216 233 255
216 233 255
216 233 255
216 233 255
216 233 255
216 233 255
216 233 255
216 233 255
216 233 255
216 233 255
216 233 255
216 233 255
216 233 255
216 233 255
216 233 255
216 233 255
216 233 255
216 233 255
216 233 255
216 233 255
216 233 255
216 233 255
216 233 255
216 233 255
216 233 255
216 233 255
216 233 255
216 233 255
216 233 255
216 233 255
216 233 255
216 233 255
216 233 255
216 233 255
216 233 255
216 233 255
216 233 255
216 233 255
216 233 255
216 233 255
216 233 255
216 233 255
216 233 255
216 233 255
216 233 255
216 233 255
216 233 255
216 233 255
216 233 255
216 233 255
216 233 255
216 233 255
216 233 255
216 233 255
216 233 255
216 233 255
216 233 255
216 233 255
216 233 255
216 233 255
216 233 255
216 233 255
216 233 255
216 233 255
216 233 255
216 233 255
216 233 255
216 233 255
216 233 255
216 233 255
216 233 255
216 233 255
216 233 255
216 233 255
216 233 255
216 233 255
216 233 255
216 233 255
216 233 255
216 233 255
216 233 255
216 233 255
216 233 255
216 233 255
216 233 255
216 233 255
216 233 255
216 233 255
216 233 255
216 233 255
216 233 255
216 233 255
216 233 255
216 233 255
216 233 255
216 233 255
216 233 255
216 233 255
216 233 255
216 233 255
216 233 255
216 233 255
216 233 255
216 233 255
216 233 255
157 171 204
23 38 125
8 32 124
6 32 124
0 31 124
3 31 124
12 30 123
4 32 125
7 38 126
7 36 125
12 31 124
0 36 125
3 40 127
3 39 127
4 34 125
10 34 125
7 37 126
3 35 125
13 36 125
15 32 122
16 35 128
42 91 127
78 114 35
70 106 33
97 113 74
137 143 127
139 146 129
123 138 113
102 120 75
116 129 94
100 117 72
86 109 54
98 113 74
105 119 84
124 135 107
127 139 114
117 130 100
111 125 93
125 133 109
142 153 139
143 152 134
134 146 125
137 149 134
140 149 134
146 155 137
132 145 121
135 149 123
132 147 123
134 145 122
131 143 122
126 140 116
118 136 109
120 140 110
116 137 100
111 136 101
109 134 93
107 134 94
103 132 92
100 130 82
97 128 80
97 125 81
101 127 86
103 129 86
98 129 74
98 130 67
95 127 65
99 130 70
98 126 72
92 125 54
98 126 76
81 132 128
40 81 139
43 80 141
75 106 103
92 121 69
91 122 46
85 113 78
28 60 142
3 58 136
32 69 130
51 87 117
56 85 130
80 112 70
81 112 43
83 114 41
84 116 47
88 119 47
97 129 69
100 129 74
97 126 70
97 127 74
95 126 66
88 121 44
84 118 50
80 115 42
85 116 41
83 117 37
81 115 42
76 112 34
81 117 39
78 114 74
81 117 81
75 122 115
77 117 100
71 110 109
51 83 121
67 102 93
59 93 99
23 53 127
12 50 136
5 52 136
9 54 137
13 54 137
18 60 143
39 73 129
30 57 132
20 55 138
8 46 135
11 54 139
12 62 142
10 59 141
9 74 150
16 69 148
11 63 145
6 52 136
9 46 132
12 43 130
13 48 132
13 50 135
8 53 138
8 49 133
11 45 131
33 60 138
186 202 231
216 233 255
216 233 255
216 233 255
216 233 255
216 233 255
216 233 255
216 233 255
216 233 255
216 233 255
216 233 255
216 233 255
216 233 255
216 233 255
216 233 255
216 233 255
216 233 255
216 233 255
216 233 255
216 233 255
216 233 255
216 233 255
216 233 255
216 233 255
216 233 255
216 233 255
216 233 255
216 233 255
216 233 255
216 233 255
216 233 255
216 233 255
216 233 255
216 233 255
216 233 255
216 233 255
216 233 255
216 233 255
216 233 255
216 233 255
216 233 255
216 233 255
216 233 255
216 233 255
216 233 255
216 233 255
216 233 255
216 233 255
216 233 255
216 233 255
216 233 255
216 233 255
216 233 255
216 233 255
216 233 255
216 233 255
216 233 255
216 233 255
216 233 255
216 233 255
216 233 255
216 233 255
216 233 255
216 233 255
216 233 255
216 233 255
216 233 255
216 233 255
216 233 255
216 233 255
216 233 255
216 233 255
216 233 255
216 233 255
216 233 255
216 233 255
216 233 255
216 233 255
216 233 255
216 233 255
216 233 255
216 233 255
216 233 255
216 233 255
216 233 255
216 233 255
216 233 255
216 233 255
216 233 255
216 233 255
216 233 255
216 233 255
216 233 255
216 233 255
216 233 255
216 233 255
216 233 255
216 233 255
216 233 255
216 233 255
216 233 255
216 233 255
216 233 255
216 233 255
216 233 255
216 233 255
216 233 255
216 233 255
216 233 255
216 233 255
216 233 255
216 233 255
216 233 255
216 233 255
216 233 255
216 233 255
216 233 255
216 233 255
216 233 255
216 233 255
216 233 255
216 233 255
216 233 255
216 233 255
216 233 255
216 233 255
216 233 255
216 233 255
216 233 255
216 233 255
216 233 255
216 233 255
216 233 255
216 233 255
217 233 255
217 233 255
217 233 255
217 233 255
217 233 255
217 233 255
217 233 255
217 233 255
217 233 255
217 233 255
217 233 255
217 233 255
217 233 255
217 233 255
217 233 255
217 233 255
217 233 255
217 233 255
217 233 255
217 233 255
217 233 255
217 233 255
217 233 255
217 233 255
217 233 255
216 233 255
216 233 255
216 233 255
216 233 255
216 233 255
216 233 255
216 233 255
216 233 255
216 233 255
216 233 255
216 233 255
216 233 255
216 233 255
216 233 255
216 233 255
216 233 255
216 233 255
216 233 255
216 233 255
216 233 255
216 233 255
216 233 255
216 233 255
216 233 255
216 233 255
216 233 255
216 233 255
216 233 255
216 233 255
216 233 255
216 233 255
216 233 255
216 233 255
216 233 255
216 233 255
216 233 255
216 233 255
216 233 255
216 233 255
216 233 255
216 233 255
216 233 255
216 233 255
216 233 255
216 233 255
216 233 255
216 233 255
216 233 255
216 233 255
216 233 255
216 233 255
216 233 255
216 233 255
216 233 255
216 233 255
216 233 255
216 233 255
216 233 255
216 233 255
216 233 255
216 233 255
216 233 255
216 233 255
216 233 255
216 233 255
216 233 255
216 233 255
216 233 255
216 233 255
216 233 255
216 233 255
216 233 255
216 233 255
216 233 255
216 233 255
216 233 255
216 233 255
216 233 255
216 233 255
216 233 255
216 233 255
216 233 255
216 233 255
216 233 255
216 233 255
216 233 255
216 233 255
216 233 255
216 233 255
216 233 255
216 233 255
216 233 255
216 233 255
216 233 255
216 233 255
216 233 255
216 233 255
216 233 255
216 233 255
216 233 255
216 233 255
216 233 255
216 233 255
216 233 255
216 233 255
216 233 255
215 232 255
128 140 181
2 34 125
0 30 123
2 32 124
9 32 123
8 28 121
7 26 120
12 31 122
13 35 126
6 33 125
6 33 124
7 37 125
6 42 128
5 40 127
13 40 127
4 32 124
5 34 125
10 38 126
9 33 124
15 32 125
13 31 120
32 61 124
80 113 68
89 117 63
95 114 74
135 142 131
133 141 128
118 129 103
110 123 95
110 126 98
107 122 86
105 118 83
111 121 96
123 132 111
127 137 115
131 142 123
114 127 99
107 119 90
108 117 96
128 136 116
169 176 163
170 178 167
125 132 108
146 156 138
150 159 143
145 153 133
123 136 105
106 120 82
129 142 118
131 144 121
129 143 118
125 140 113
122 140 111
120 140 108
118 139 106
113 137 105
110 134 100
105 132 94
99 130 89
96 127 80
95 126 79
93 124 79
99 127 83
102 130 84
100 129 81
98 127 73
96 125 69
94 124 64
96 125 72
100 126 80
104 129 76
77 114 119
19 72 151
64 103 122
94 119 50
95 123 65
99 122 55
76 130 118
66 96 138
37 66 137
62 88 127
102 131 84
97 125 83
101 128 78
95 122 87
92 120 80
92 120 81
90 120 82
88 117 88
96 125 66
83 114 48
80 113 43
85 117 61
85 118 48
82 116 37
83 115 40
85 121 47
85 118 38
85 120 58
74 114 70
67 104 101
42 101 152
40 96 145
72 115 108
78 118 81
83 117 63
75 105 66
55 86 99
30 54 127
22 46 133
16 43 130
9 50 134
12 56 139
3 58 140
14 55 138
17 48 135
12 43 129
8 45 126
7 41 130
7 50 134
13 54 137
18 56 141
16 62 143
14 71 150
6 68 148
10 59 141
9 46 131
5 39 127
6 38 126
9 42 128
7 45 132
11 52 136
10 49 134
7 43 129
8 56 139
140 158 198
215 232 255
216 233 255
216 233 255
216 233 255
216 233 255
216 233 255
216 233 255
216 233 255
216 233 255
216 233 255
216 233 255
216 233 255
216 233 255
216 233 255
216 233 255
216 233 255
216 233 255
216 233 255
216 233 255
216 233 255
216 233 255
216 233 255
216 233 255
216 233 255
216 233 255
216 233 255
216 233 255
216 233 255
216 233 255
216 233 255
216 233 255
216 233 255
216 233 255
216 233 255
216 233 255
216 233 255
216 233 255
216 233 255
216 233 255
216 233 255
216 233 255
216 233 255
216 233 255
216 233 255
216 233 255
216 233 255
216 233 255
216 233 255
216 233 255
216 233 255
216 233 255
216 233 255
216 233 255
216 233 255
216 233 255
216 233 255
216 233 255
216 233 255
216 233 255
216 233 255
216 233 255
216 233 255
216 233 255
216 233 255
216 233 255
216 233 255
216 233 255
216 233 255
216 233 255
216 233 255
216 233 255
216 233 255
216 233 255
216 233 255
216 233 255
216 233 255
216 233 255
216 233 255
216 233 255
216 233 255
216 233 255
216 233 255
216 233 255
216 233 255
216 233 255
216 233 255
216 233 255
216 233 255
216 233 255
216 233 255
216 233 255
216 233 255
216 233 255
216 233 255
216 233 255
216 233 255
216 233 255
216 233 255
216 233 255
216 233 255
216 233 255
216 233 255
216 233 255
216 233 255
216 233 255
216 233 255
216 233 255
217 233 255
217 233 255
217 233 255
217 233 255
217 233 255
217 233 255
217 233 255
217 233 255
217 233 255
217 233 255
217 233 255
217 233 255
217 233 255
217 233 255
217 233 255
217 233 255
217 233 255
217 233 255
217 233 255
217 233 255
217 233 255
217 233 255
217 233 255
217 233 255
217 233 255
217 233 255
217 233 255
217 233 255
217 233 255
217 233 255
217 233 255
217 233 255
217 233 255
217 233 255
217 233 255
217 233 255
217 233 255
217 233 255
217 233 255
217 233 255
217 233 255
217 233 255
217 233 255
217 233 255
217 233 255
217 233 255
217 233 255
217 233 255
217 233 255
217 233 255
217 233 255
217 233 255
217 233 255
217 233 255
217 233 255
217 233 255
217 233 255
217 233 255
217 233 255
217 233 255
217 233 255
217 233 255
217 233 255
217 233 255
217 233 255
217 233 255
217 233 255
217 233 255
217 233 255
217 233 255
217 233 255
217 233 255
217 233 255
217 233 255
217 233 255
217 233 255
217 233 255
217 233 255
217 233 255
217 233 255
217 233 255
217 233 255
216 233 255
216 233 255
216 233 255
216 233 255
216 233 255
216 233 255
216 233 255
216 233 255
216 233 255
216 233 255
216 233 255
216 233 255
216 233 255
216 233 255
216 233 255
216 233 255
216 233 255
216 233 255
216 233 255
216 233 255
216 233 255
216 233 255
216 233 255
216 233 255
216 233 255
216 233 255
216 233 255
216 233 255
216 233 255
216 233 255
216 233 255
216 233 255
216 233 255
216 233 255
216 233 255
216 233 255
216 233 255
216 233 255
216 233 255
216 233 255
216 233 255
216 233 255
216 233 255
216 233 255
216 233 255
216 233 255
216 233 255
216 233 255
216 233 255
216 233 255
216 233 255
216 233 255
216 233 255
216 233 255
216 233 255
216 233 255
216 233 255
216 233 255
216 233 255
216 233 255
216 233 255
216 233 255
216 233 255
216 233 255
216 233 255
216 233 255
216 233 255
216 233 255
216 233 255
216 233 255
216 233 255
216 233 255
216 233 255
204 220 244
102 113 162
4 33 124
7 31 124
10 31 124
11 29 122
7 25 120
5 25 121
15 31 124
12 34 126
2 31 125
6 36 126
4 37 126
2 40 127
6 40 127
7 38 127
5 32 124
12 31 123
10 36 126
4 28 123
15 30 122
12 25 120
23 51 128
75 104 70
85 118 67
89 107 65
133 138 123
128 133 115
117 125 104
115 125 100
135 143 129
134 145 126
113 127 96
116 128 100
121 130 111
136 143 132
144 151 136
134 147 126
120 134 107
110 124 97
122 130 112
146 152 139
161 166 154
161 170 157
141 152 134
155 164 147
153 160 143
146 156 138
141 153 129
122 136 105
134 149 125
134 149 121
129 146 116
121 141 106
120 141 106
114 138 105
108 134 98
111 134 102
107 131 98
104 131 92
98 129 81
96 127 80
98 127 81
94 124 78
96 127 79
99 129 80
102 131 85
100 128 79
96 125 69
96 126 68
98 124 72
102 130 80
103 129 81
64 102 139
10 84 159
57 105 138
99 124 67
99 129 67
102 129 90
107 135 109
109 132 96
73 95 126
80 101 128
110 133 86
109 134 95
101 131 99
66 99 141
64 97 128
44 77 135
49 81 134
69 107 112
85 120 55
82 114 45
80 113 47
85 118 52
86 118 42
82 117 55
82 116 43
86 120 47
72 108 89
51 88 121
27 81 150
13 70 149
10 56 136
45 77 133
82 111 52
63 98 88
37 65 128
18 49 135
10 44 136
0 44 132
6 45 132
10 47 131
5 45 130
15 50 133
11 54 137
11 60 142
7 46 131
10 40 127
4 40 130
11 41 127
4 39 129
11 53 135
9 57 142
14 52 137
9 60 141
7 66 145
11 61 141
10 40 127
9 36 125
8 32 122
13 39 126
6 37 126
17 50 135
11 49 134
7 43 130
8 45 130
16 72 149
110 134 183
203 219 244
216 233 255
216 233 255
216 233 255
216 233 255
216 233 255
216 233 255
216 233 255
216 233 255
216 233 255
216 233 255
216 233 255
216 233 255
216 233 255
216 233 255
216 233 255
216 233 255
216 233 255
216 233 255
216 233 255
216 233 255
216 233 255
216 233 255
216 233 255
216 233 255
216 233 255
216 233 255
216 233 255
216 233 255
216 233 255
216 233 255
216 233 255
216 233 255
216 233 255
216 233 255
216 233 255
216 233 255
216 233 255
216 233 255
216 233 255
216 233 255
216 233 255
216 233 255
216 233 255
216 233 255
216 233 255
216 233 255
216 233 255
216 233 255
216 233 255
216 233 255
216 233 255
216 233 255
216 233 255
216 233 255
216 233 255
216 233 255
216 233 255
216 233 255
216 233 255
216 233 255
216 233 255
216 233 255
216 233 255
216 233 255
216 233 255
216 233 255
216 233 255
216 233 255
216 233 255
216 233 255
216 233 255
216 233 255
216 233 255
216 233 255
217 233 255
217 233 255
217 233 255
217 233 255
217 233 255
217 233 255
217 233 255
217 233 255
217 233 255
217 233 255
217 233 255
217 233 255
217 233 255
217 233 255
217 233 255
217 233 255
217 233 255
217 233 255
217 233 255
217 233 255
217 233 255
217 233 255
217 233 255
217 233 255
217 233 255
217 233 255
217 233 255
217 233 255
217 233 255
217 233 255
217 233 255
217 233 255
217 233 255
217 233 255
217 233 255
217 233 255
217 233 255
217 233 255
217 233 255
217 233 255
217 233 255
217 233 255
217 233 255
217 233 255
217 233 255
217 233 255
217 233 255
217 233 255
217 233 255
217 233 255
217 233 255
217 233 255
217 233 255
217 233 255
217 233 255
217 233 255
217 233 255
217 233 255
217 233 255
217 233 255
217 233 255
217 233 255
217 233 255
217 233 255
217 233 255
217 233 255
217 233 255
217 233 255
217 233 255
217 233 255
217 233 255
217 233 255
217 233 255
217 233 255
217 233 255
217 233 255
217 233 255
217 233 255
217 233 255
217 233 255
217 233 255
217 233 255
217 233 255
217 233 255
217 233 255
217 233 255
217 233 255
217 233 255
217 233 255
217 233 255
217 233 255
217 233 255
217 233 255
217 233 255
217 233 255
217 233 255
217 233 255
217 233 255
217 233 255
217 233 255
217 233 255
217 233 255
217 233 255
217 233 255
217 233 255
217 233 255
217 233 255
217 233 255
217 233 255
217 233 255
217 233 255
217 233 255
217 233 255
217 233 255
217 233 255
217 233 255
217 233 255
217 233 255
217 233 255
217 233 255
217 233 255
217 233 255
217 233 255
217 233 255
217 233 255
217 233 255
217 233 255
217 233 255
217 233 255
217 233 255
217 233 255
217 233 255
217 233 255
217 233 255
217 233 255
217 233 255
217 233 255
217 233 255
217 233 255
217 233 255
217 233 255
217 233 255
217 233 255
217 233 255
217 233 255
217 233 255
217 233 255
217 233 255
217 233 255
217 233 255
217 233 255
217 233 255
217 233 255
217 233 255
217 233 255
216 233 255
216 233 255
216 233 255
216 233 255
216 233 255
216 233 255
216 233 255
216 233 255
216 233 255
216 233 255
216 233 255
216 233 255
216 233 255
216 233 255
216 233 255
216 233 255
216 233 255
216 233 255
216 233 255
216 233 255
216 233 255
216 233 255
216 233 255
216 233 255
216 233 255
216 233 255
216 233 255
216 233 255
216 233 255
216 233 255
197 213 238
53 67 137
4 34 125
0 31 124
8 29 123
9 27 121
8 26 120
3 28 122
5 31 124
12 38 127
4 35 125
13 38 127
7 41 128
5 38 126
2 37 126
8 35 125
7 33 124
9 32 122
9 33 123
5 32 124
1 33 125
19 30 122
17 41 127
56 93 91
78 111 51
77 101 51
121 129 113
142 148 138
138 142 130
136 142 129
141 147 135
142 147 132
147 154 141
139 146 131
134 143 125
137 145 131
137 144 127
138 147 127
124 139 113
107 124 93
123 134 112
132 141 126
151 159 147
166 174 164
166 171 161
159 165 149
144 153 134
144 155 140
145 155 137
140 151 128
133 146 121
130 143 114
135 149 126
131 148 129
128 145 123
128 144 117
119 139 109
114 138 104
113 137 101
104 130 92
103 130 86
100 129 79
97 128 77
96 127 77
94 125 74
96 127 76
97 129 76
96 127 77
97 128 75
100 130 77
101 131 77
102 131 80
102 129 74
101 129 75
74 100 124
14 86 160
41 90 149
100 129 71
98 127 67
102 128 79
99 129 70
111 133 86
96 127 110
103 129 100
78 115 132
84 120 131
80 112 132
75 110 126
95 129 63
98 130 68
98 129 65
95 125 73
89 122 54
92 125 54
89 123 57
92 125 64
88 121 51
80 117 49
87 118 46
86 120 55
43 74 131
22 45 132
12 48 131
17 49 135
15 48 137
12 57 141
29 72 134
32 59 132
10 49 134
3 46 132
19 52 133
8 46 132
1 46 131
9 47 131
5 46 131
11 49 133
4 46 132
3 54 138
11 57 140
12 50 134
11 50 135
7 51 135
6 45 130
10 42 129
3 48 133
4 58 141
8 57 138
14 64 145
11 58 142
16 52 136
17 47 132
10 33 124
7 35 125
4 40 129
11 42 129
14 48 135
11 50 135
7 47 133
7 50 135
14 76 152
66 100 163
203 219 245
216 233 255
216 233 255
216 233 255
216 233 255
216 233 255
216 233 255
216 233 255
216 233 255
216 233 255
216 233 255
216 233 255
216 233 255
216 233 255
216 233 255
216 233 255
216 233 255
216 233 255
216 233 255
216 233 255
216 233 255
216 233 255
216 233 255
216 233 255
216 233 255
216 233 255
216 233 255
216 233 255
216 233 255
216 233 255
217 233 255
217 233 255
216 233 255
217 233 255
217 233 255
217 233 255
217 233 255
217 233 255
217 233 255
217 233 255
217 233 255
217 233 255
217 233 255
217 233 255
217 233 255
217 233 255
217 233 255
217 233 255
217 233 255
217 233 255
217 233 255
217 233 255
217 233 255
217 233 255
217 233 255
217 233 255
217 233 255
217 233 255
217 233 255
217 233 255
217 233 255
217 233 255
217 233 255
217 233 255
217 233 255
217 233 255
217 233 255
217 233 255
217 233 255
217 233 255
217 233 255
217 233 255
217 233 255
217 233 255
217 233 255
217 233 255
217 233 255
217 233 255
217 233 255
217 233 255
217 233 255
217 233 255
217 233 255
217 233 255
217 233 255
217 233 255
217 233 255
217 233 255
217 233 255
217 233 255
217 233 255
217 233 255
217 233 255
217 233 255
217 233 255
217 233 255
217 233 255
217 233 255
217 233 255
217 233 255
217 233 255
217 233 255
217 233 255
217 233 255
217 233 255
217 233 255
217 233 255
217 233 255
217 233 255
217 233 255
217 233 255
217 233 255
217 233 255
217 233 255
217 233 255
217 233 255
217 233 255
217 233 255
217 233 255
217 233 255
217 233 255
217 233 255
217 233 255
217 233 255
217 233 255
217 233 255
217 233 255
217 233 255
217 233 255
217 233 255
217 233 255
217 233 255
217 233 255
217 233 255
217 233 255
217 233 255
217 233 255
217 233 255
217 233 255
217 233 255
217 233 255
217 233 255
217 233 255
217 233 255
217 233 255
217 233 255
217 233 255
217 233 255
217 233 255
217 233 255
217 233 255
217 233 255
217 233 255
217 233 255
217 233 255
217 233 255
217 233 255
217 233 255
217 233 255
217 233 255
217 233 255
217 233 255
217 233 255
217 233 255
217 233 255
217 233 255
217 233 255
217 233 255
217 233 255
217 233 255
217 233 255
217 233 255
217 233 255
217 233 255
217 233 255
217 233 255
217 233 255
217 233 255
217 233 255
217 233 255
217 233 255
217 233 255
217 233 255
217 233 255
217 233 255
217 233 255
217 233 255
217 233 255
217 233 255
217 233 255
217 233 255
217 233 255
217 233 255
217 233 255
217 233 255
217 233 255
217 233 255
217 233 255
217 233 255
217 233 255
217 233 255
217 233 255
217 233 255
217 233 255
217 233 255
217 233 255
217 233 255
217 233 255
217 233 255
217 233 255
217 233 255
217 233 255
217 233 255
217 233 255
217 233 255
217 233 255
217 233 255
217 233 255
217 233 255
217 233 255
217 233 255
217 233 255
217 233 255
217 233 255
217 233 255
217 233 255
217 233 255
217 233 255
217 233 255
217 233 255
217 233 255
217 233 255
217 233 255
217 233 255
217 233 255
217 233 255
217 233 255
217 233 255
217 233 255
217 233 255
217 233 255
217 233 255
217 233 255
217 233 255
217 233 255
217 233 255
217 233 255
217 233 255
217 233 255
217 233 255
217 233 255
217 233 255
217 233 255
217 233 255
217 233 255
217 233 255
217 233 255
217 233 255
176 191 221
53 66 136
6 30 123
5 32 122
13 31 122
14 27 121
15 30 121
10 32 123
3 34 125
0 36 125
4 33 125
5 33 124
7 32 124
13 38 126
10 38 126
10 38 126
8 33 125
9 33 125
13 34 125
7 34 125
10 39 126
10 31 126
18 44 129
59 95 91
78 110 47
76 99 40
109 119 97
133 140 130
143 148 141
146 149 140
141 146 136
145 151 142
138 143 130
152 156 147
148 155 145
139 149 128
141 152 132
139 149 135
133 145 126
121 135 117
128 136 117
160 167 159
160 166 160
161 168 156
169 176 163
161 172 156
153 161 145
148 156 136
138 147 125
144 157 136
138 152 130
138 151 129
137 150 133
141 154 137
137 149 133
134 146 128
131 145 127
128 143 121
121 139 110
110 134 97
104 130 91
101 129 85
101 128 80
101 128 85
102 128 86
101 129 82
101 129 83
99 128 81
99 128 81
98 127 78
99 128 76
98 127 69
97 125 64
95 128 70
105 129 74
100 121 109
56 91 139
79 114 113
100 130 65
99 127 77
102 128 76
105 129 88
94 134 124
58 118 155
49 104 161
45 105 155
61 111 136
80 119 92
84 118 55
84 115 43
84 119 46
89 124 52
91 124 54
90 124 54
89 123 46
86 119 38
87 119 42
86 121 54
85 119 51
88 116 40
90 118 56
57 90 120
19 56 134
9 46 133
13 53 136
13 52 135
8 55 137
19 47 134
11 48 131
20 43 131
13 44 136
15 50 128
8 48 133
6 48 132
0 46 130
0 46 131
3 47 132
9 47 131
9 49 132
14 55 137
7 55 138
5 52 136
2 52 137
13 51 135
10 44 130
1 42 129
8 51 134
4 57 139
9 61 142
13 63 144
13 51 135
7 44 130
4 37 126
10 34 125
8 38 127
13 47 133
9 48 134
9 48 134
12 51 136
10 54 137
7 52 136
10 66 147
53 90 159
190 206 234
217 233 255
217 233 255
217 233 255
217 233 255
217 233 255
217 233 255
217 233 255
217 233 255
217 233 255
217 233 255
217 233 255
217 233 255
217 233 255
217 233 255
217 233 255
217 233 255
217 233 255
217 233 255
217 233 255
217 233 255
217 233 255
217 233 255
217 233 255
217 233 255
217 233 255
217 233 255
217 233 255
217 233 255
217 233 255
217 233 255
217 233 255
217 233 255
217 233 255
217 233 255
217 233 255
217 233 255
217 233 255
217 233 255
217 233 255
217 233 255
217 233 255
217 233 255
217 233 255
217 233 255
217 233 255
217 233 255
217 233 255
217 233 255
217 233 255
217 233 255
217 233 255
217 233 255
217 233 255
217 233 255
217 233 255
217 233 255
217 233 255
217 233 255
217 233 255
217 233 255
217 233 255
217 233 255
217 233 255
217 233 255
217 233 255
217 233 255
217 233 255
217 233 255
217 233 255
217 233 255
217 233 255
217 233 255
217 233 255
217 233 255
217 233 255
217 233 255
217 233 255
217 233 255
217 233 255
217 233 255
217 233 255
217 233 255
217 233 255
217 233 255
217 233 255
217 233 255
217 233 255
217 233 255
217 233 255
217 233 255
217 233 255
217 233 255
217 233 255
217 233 255
217 233 255
217 233 255
217 233 255
217 233 255
217 233 255
217 233 255
217 233 255
217 233 255
217 233 255
217 233 255
217 233 255
217 233 255
217 233 255
217 233 255
217 233 255
217 233 255
217 233 255
217 233 255
217 233 255
217 233 255
217 233 255
217 233 255
217 233 255
217 233 255
217 233 255
217 233 255
217 233 255
217 233 255
217 233 255
217 233 255
217 233 255
217 233 255
217 233 255
217 233 255
217 233 255
217 233 255
217 233 255
217 233 255
217 233 255
217 233 255
217 233 255
217 233 255
217 233 255
217 233 255
217 233 255
217 233 255
217 233 255
217 233 255
217 233 255
217 233 255
217 233 255
217 233 255
217 233 255
217 233 255
217 233 255
217 233 255
217 233 255
217 233 255
217 233 255
217 233 255
217 233 255
217 233 255
217 233 255
217 233 255
217 233 255
217 233 255
217 233 255
217 233 255
217 233 255
217 233 255
217 233 255
217 233 255
217 233 255
217 233 255
217 233 255
217 233 255
217 233 255
217 233 255
217 233 255
217 233 255
217 233 255
217 233 255
217 233 255
217 233 255
217 233 255
217 233 255
217 233 255
217 233 255
217 233 255
217 233 255
217 233 255
217 233 255
217 233 255
217 233 255
217 233 255
217 233 255
217 233 255
217 233 255
217 233 255
217 233 255
217 233 255
217 233 255
217 233 255
217 233 255
217 233 255
217 233 255
217 233 255
217 233 255
217 233 255
217 233 255
217 233 255
217 233 255
217 233 255
217 233 255
217 233 255
217 233 255
217 233 255
217 233 255
217 233 255
217 233 255
217 233 255
217 233 255
217 233 255
217 233 255
217 233 255
217 233 255
217 233 255
217 233 255
217 233 255
217 233 255
217 233 255
217 233 255
217 233 255
217 233 255
217 233 255
217 233 255
217 233 255
217 233 255
217 233 255
217 233 255
217 233 255
217 233 255
217 233 255
217 233 255
217 233 255
217 233 255
217 233 255
217 233 255
217 233 255
217 233 255
217 233 255
217 233 255
217 233 255
217 233 255
217 233 255
217 233 255
217 233 255
217 233 255
217 233 255
217 233 255
217 233 255
173 188 218
31 47 129
9 28 121
12 29 121
9 30 122
9 26 120
11 27 120
9 29 122
14 34 125
3 37 126
6 33 125
10 34 125
13 30 123
8 30 123
3 32 124
8 36 124
5 31 124
9 34 125
6 38 127
7 37 126
10 35 125
7 33 124
13 39 130
41 69 121
72 102 36
92 113 67
104 117 90
122 128 112
125 131 115
144 148 137
149 153 142
149 152 140
150 153 143
142 148 137
140 146 133
146 149 138
143 151 137
152 161 147
153 159 145
128 143 121
135 146 128
166 169 157
174 183 173
167 175 161
169 180 168
165 171 158
151 157 144
131 138 115
147 157 140
140 152 140
142 156 139
141 155 141
137 150 138
138 151 139
135 149 134
133 148 127
126 141 115
121 139 109
118 139 109
115 137 101
105 129 94
106 130 93
108 131 95
107 130 91
102 128 85
105 132 90
103 132 87
103 131 85
100 128 80
102 130 83
101 129 80
98 127 71
96 126 67
95 125 73
90 124 57
95 124 65
97 127 62
95 128 68
99 127 65
98 127 68
100 130 78
105 133 79
108 132 91
106 133 94
94 125 105
90 125 105
95 131 81
96 127 61
94 123 50
88 118 39
86 118 57
86 118 39
84 119 39
94 122 53
88 121 50
89 121 53
88 116 36
88 117 58
91 120 48
86 121 72
84 119 80
78 112 98
59 101 108
45 89 142
19 67 140
16 61 144
19 72 151
10 68 148
5 58 141
16 52 136
9 43 133
9 46 130
8 48 132
7 52 136
11 54 137
7 47 132
5 45 132
15 51 135
7 45 129
5 36 125
3 40 128
10 50 134
3 54 137
11 51 134
6 49 134
10 48 133
5 43 129
7 50 134
5 53 136
6 56 139
13 60 142
4 48 133
5 36 124
6 31 122
12 28 123
9 34 125
7 39 127
4 44 131
13 51 135
6 46 131
6 47 133
8 52 136
10 48 134
13 57 140
45 79 151
175 191 222
217 233 255
217 233 255
217 233 255
217 233 255
217 233 255
217 233 255
217 233 255
217 233 255
217 233 255
217 233 255
217 233 255
217 233 255
217 233 255
217 233 255
217 233 255
217 233 255
217 233 255
217 233 255
217 233 255
217 233 255
217 233 255
217 233 255
217 233 255
217 233 255
217 233 255
217 233 255
217 233 255
217 233 255
217 233 255
217 233 255
217 233 255
217 233 255
217 233 255
217 233 255
217 233 255
217 233 255
217 233 255
217 233 255
217 233 255
217 233 255
217 233 255
217 233 255
217 233 255
217 233 255
217 233 255
217 233 255
217 233 255
217 233 255
217 233 255
217 233 255
217 233 255
217 233 255
217 233 255
217 233 255
217 233 255
217 233 255
217 233 255
217 233 255
217 233 255
217 233 255
217 233 255
217 233 255
217 233 255
217 233 255
217 233 255
217 233 255
217 233 255
217 233 255
217 233 255
217 233 255
217 233 255
217 233 255
217 233 255
217 233 255
217 233 255
217 233 255
217 233 255
217 233 255
217 233 255
217 233 255
217 233 255
217 233 255
217 233 255
217 233 255
217 233 255
217 233 255
217 233 255
217 233 255
217 233 255
217 233 255
217 233 255
217 233 255
217 233 255
217 233 255
217 233 255
217 233 255
217 233 255
217 233 255
217 233 255
217 233 255
217 233 255
217 233 255
217 233 255
217 233 255
217 233 255
217 233 255
217 233 255
217 233 255
217 233 255
217 233 255
217 233 255
217 233 255
217 233 255
217 233 255
217 233 255
217 233 255
217 233 255
217 233 255
217 233 255
217 233 255
217 233 255
217 233 255
217 233 255
217 233 255
217 233 255
217 233 255
217 233 255
217 233 255
217 233 255
217 233 255
217 233 255
217 233 255
217 233 255
217 233 255
217 233 255
217 233 255
217 233 255
217 233 255
217 233 255
217 233 255
217 233 255
217 233 255
217 233 255
217 233 255
217 233 255
217 233 255
217 233 255
217 233 255
217 233 255
217 233 255
217 233 255
217 233 255
217 233 255
217 233 255
217 233 255
217 233 255
217 233 255
217 233 255
217 233 255
217 233 255
217 233 255
217 233 255
217 233 255
217 233 255
217 233 255
217 233 255
217 233 255
217 233 255
217 233 255
217 233 255
217 233 255
217 233 255
217 233 255
217 233 255
217 233 255
217 233 255
217 233 255
217 233 255
217 233 255
217 233 255
217 233 255
217 233 255
217 233 255
217 233 255
217 233 255
217 233 255
217 233 255
217 233 255
217 233 255
217 233 255
217 233 255
217 233 255
217 233 255
217 233 255
217 233 255
217 233 255
217 233 255
217 233 255
217 233 255
217 233 255
217 233 255
217 233 255
217 233 255
217 233 255
217 233 255
217 233 255
217 233 255
217 233 255
217 233 255
217 233 255
217 233 255
217 233 255
217 233 255
217 233 255
217 233 255
217 233 255
217 233 255
217 233 255
217 233 255
217 233 255
217 233 255
217 233 255
217 233 255
217 233 255
217 233 255
217 233 255
217 233 255
217 233 255
217 233 255
217 233 255
217 233 255
217 233 255
217 233 255
217 233 255
217 233 255
217 233 255
217 233 255
217 233 255
217 233 255
217 233 255
217 233 255
217 233 255
217 233 255
217 233 255
217 233 255
217 233 255
217 233 255
217 233 255
217 233 255
217 233 255
217 233 255
217 233 255
217 233 255
169 183 214
6 33 124
9 29 121
10 30 123
11 31 123
11 27 120
9 28 122
4 31 124
4 31 124
11 34 125
5 35 125
5 39 126
6 31 124
6 31 124
4 30 123
12 31 124
10 31 122
3 32 122
9 35 123
0 37 125
3 32 124
6 33 123
11 39 127
16 54 133
59 93 93
84 104 55
115 123 97
120 128 111
131 135 122
149 152 143
158 162 153
165 169 162
154 157 146
150 153 140
144 150 138
144 153 143
154 161 150
179 189 196
175 188 193
117 138 111
124 136 111
125 136 114
128 137 117
148 153 141
153 158 145
165 170 158
127 142 112
106 122 82
120 132 109
114 125 96
138 150 135
139 153 139
135 149 136
137 150 137
135 148 132
129 145 125
129 147 124
124 142 110
117 137 98
108 132 90
109 133 96
105 129 90
109 133 99
108 133 98
105 130 89
101 129 83
106 133 88
101 130 84
101 131 83
101 131 80
101 130 81
102 130 77
97 127 70
98 127 69
98 129 74
93 125 70
96 128 67
95 127 77
96 129 74
94 128 69
94 127 61
95 128 62
101 128 72
104 127 75
99 127 75
99 128 71
96 129 66
99 128 71
95 124 64
96 124 61
96 124 61
91 122 50
89 120 49
89 120 50
95 122 60
96 123 60
90 122 55
88 123 52
88 120 55
95 139 131
64 124 149
46 106 148
22 80 145
13 63 146
24 68 148
11 71 148
8 63 146
17 71 148
2 66 145
6 57 141
6 55 139
4 55 138
12 57 139
6 55 138
9 55 138
5 54 137
14 48 134
5 43 129
6 41 128
5 41 129
10 37 126
7 32 124
4 38 128
3 46 131
15 48 133
6 43 129
0 42 131
13 45 130
13 49 133
9 52 136
6 49 136
16 52 138
9 42 132
14 31 124
10 19 118
9 22 119
13 34 124
15 40 127
9 38 126
10 45 130
5 45 131
2 45 130
7 50 134
5 51 135
10 49 134
11 57 139
10 57 139
171 186 217
217 233 255
217 233 255
217 233 255
217 233 255
217 233 255
217 233 255
217 233 255
217 233 255
217 233 255
217 233 255
217 233 255
217 233 255
217 233 255
217 233 255
217 233 255
217 233 255
217 233 255
217 233 255
217 233 255
217 233 255
217 233 255
217 233 255
217 233 255
217 233 255
217 233 255
217 233 255
217 233 255
217 233 255
217 233 255
217 233 255
217 233 255
217 233 255
217 233 255
217 233 255
217 233 255
217 233 255
217 233 255
217 233 255
217 233 255
217 233 255
217 233 255
217 233 255
217 233 255
217 233 255
217 233 255
217 233 255
217 233 255
217 233 255
217 233 255
217 233 255
217 233 255
217 233 255
217 233 255
217 233 255
217 233 255
217 233 255
217 233 255
217 233 255
217 233 255
217 233 255
217 233 255
217 233 255
217 233 255
217 233 255
217 233 255
217 233 255
217 233 255
217 233 255
217 233 255
217 233 255
217 233 255
217 233 255
217 233 255
217 233 255
217 233 255
217 233 255
217 233 255
217 233 255
217 233 255
217 233 255
217 233 255
217 233 255
217 233 255
217 233 255
217 233 255
217 233 255
217 233 255
217 233 255
217 233 255
217 233 255
217 233 255
217 233 255
217 233 255
217 233 255
217 233 255
217 233 255
217 233 255
217 233 255
217 233 255
217 233 255
217 233 255
217 233 255
217 233 255
217 233 255
217 233 255
217 233 255
217 233 255
217 233 255
217 233 255
217 233 255
217 233 255
217 233 255
217 233 255
217 233 255
217 233 255
217 233 255
217 233 255
217 233 255
217 233 255
217 233 255
217 233 255
217 233 255
217 233 255
217 233 255
217 233 255
217 233 255
217 233 255
217 233 255
217 233 255
217 233 255
217 233 255
217 233 255
217 233 255
217 233 255
217 233 255
217 233 255
217 233 255
217 233 255
217 233 255
217 233 255
217 233 255
217 233 255
217 233 255
217 233 255
217 233 255
217 233 255
217 233 255
217 233 255
217 233 255
217 233 255
217 233 255
217 233 255
217 233 255
217 233 255
217 233 255
217 233 255
217 233 255
217 233 255
217 233 255
217 233 255
217 233 255
217 233 255
217 233 255
217 233 255
217 233 255
217 233 255
217 233 255
217 233 255
217 233 255
217 233 255
217 233 255
217 233 255
217 233 255
217 233 255
217 233 255
217 233 255
217 233 255
217 233 255
217 233 255
217 233 255
217 233 255
217 233 255
217 233 255
217 233 255
217 233 255
217 233 255
217 233 255
217 233 255
217 233 255
217 233 255
217 233 255
217 233 255
217 233 255
217 233 255
217 233 255
217 233 255
217 233 255
217 233 255
217 233 255
217 233 255
217 233 255
217 233 255
217 233 255
217 233 255
217 233 255
217 233 255
217 233 255
217 233 255
217 233 255
217 233 255
217 233 255
217 233 255
217 233 255
217 233 255
217 233 255
217 233 255
217 233 255
217 233 255
217 233 255
217 233 255
217 233 255
217 233 255
217 233 255
217 233 255
217 233 255
217 233 255
217 233 255
217 233 255
217 233 255
217 233 255
217 233 255
217 233 255
217 233 255
217 233 255
217 233 255
217 233 255
217 233 255
217 233 255
217 233 255
217 233 255
217 233 255
217 233 255
217 233 255
217 233 255
217 233 255
217 233 255
217 233 255
217 233 255
217 233 255
217 233 255
217 233 255
158 171 205
7 32 124
7 32 124
4 32 125
2 27 122
10 29 122
11 31 123
7 37 126
3 38 126
8 33 125
5 34 126
12 40 128
11 38 127
8 31 123
3 33 123
0 31 122
2 31 123
7 27 121
10 26 118
5 33 121
0 32 123
9 34 125
13 38 128
3 49 137
40 78 127
71 102 44
95 113 73
95 110 69
122 129 113
141 144 132
160 166 162
171 177 171
158 163 153
160 162 151
158 160 147
150 155 143
157 161 149
170 180 171
194 212 224
164 169 161
141 152 136
117 132 104
135 145 127
150 155 148
165 171 164
144 154 138
128 141 121
108 125 97
108 124 90
103 116 84
118 132 101
139 152 132
138 152 136
137 150 132
142 152 134
137 150 134
134 149 130
134 150 125
133 149 119
129 145 113
126 144 112
125 143 114
121 139 109
118 138 107
111 134 97
104 131 89
101 129 82
103 131 84
101 132 84
100 131 79
102 131 78
104 132 78
100 130 75
99 128 70
100 128 68
96 126 71
97 126 64
94 127 68
94 128 61
94 125 67
99 130 64
102 131 58
94 127 67
95 128 65
99 130 67
95 128 73
106 130 85
92 127 55
92 124 50
88 122 42
89 123 44
92 124 53
87 119 41
88 118 44
89 120 55
99 126 73
98 126 73
99 128 73
99 127 78
101 120 74
62 106 127
10 64 150
20 55 139
11 56 140
11 63 140
8 61 143
18 57 138
20 56 139
15 48 135
8 40 129
18 47 132
19 55 136
15 55 139
4 53 137
9 55 138
14 55 138
6 48 133
2 41 128
4 33 124
10 32 123
9 27 122
10 33 125
16 36 125
11 29 122
6 36 126
13 37 127
13 26 125
11 29 124
11 38 127
0 38 127
4 42 128
3 45 130
9 47 133
10 49 134
11 38 126
9 30 123
14 23 119
12 28 121
7 35 125
8 37 126
9 41 129
3 46 132
6 45 129
4 46 131
7 52 136
8 49 133
8 52 136
8 55 139
7 48 134
161 176 210
217 233 255
217 233 255
217 233 255
217 233 255
217 233 255
217 233 255
217 233 255
217 233 255
217 233 255
217 233 255
217 233 255
217 233 255
217 233 255
217 233 255
217 233 255
217 233 255
217 233 255
217 233 255
217 233 255
217 233 255
217 233 255
217 233 255
217 233 255
217 233 255
217 233 255
217 233 255
217 233 255
217 233 255
217 233 255
217 233 255
217 233 255
217 233 255
217 233 255
217 233 255
217 233 255
217 233 255
217 233 255
217 233 255
217 233 255
217 233 255
217 233 255
217 233 255
217 233 255
217 233 255
217 233 255
217 233 255
217 233 255
217 233 255
217 233 255
217 233 255
217 233 255
217 233 255
217 233 255
217 233 255
217 233 255
217 233 255
217 233 255
217 233 255
217 233 255
217 233 255
217 233 255
217 233 255
217 233 255
217 233 255
217 233 255
217 233 255
217 233 255
217 233 255
217 233 255
217 233 255
217 233 255
217 233 255
217 233 255
217 233 255
217 233 255
217 233 255
217 233 255
217 233 255
217 233 255
217 233 255
217 233 255
217 233 255
217 233 255
217 233 255
217 233 255
217 233 255
217 233 255
217 233 255
217 233 255
217 233 255
217 233 255
217 233 255
217 233 255
217 233 255
217 233 255
217 233 255
217 233 255
217 233 255
217 233 255
217 233 255
217 233 255
217 233 255
217 233 255
217 233 255
217 233 255
217 233 255
217 233 255
217 233 255
217 233 255
217 233 255
217 233 255
217 233 255
217 233 255
217 233 255
217 233 255
217 233 255
217 233 255
217 233 255
217 233 255
217 233 255
217 233 255
217 233 255
217 233 255
217 233 255
217 233 255
217 233 255
217 233 255
217 233 255
217 233 255
217 233 255
217 233 255
217 233 255
217 233 255
217 233 255
217 233 255
217 233 255
217 233 255
217 233 255
217 233 255
217 233 255
217 233 255
217 233 255
217 233 255
217 233 255
217 233 255
217 233 255
217 233 255
217 233 255
217 233 255
217 233 255
217 233 255
217 233 255
217 233 255
217 233 255
217 233 255
217 233 255
217 233 255
217 233 255
217 233 255
217 233 255
217 233 255
217 233 255
217 233 255
217 233 255
217 233 255
217 233 255
217 233 255
217 233 255
217 233 255
217 233 255
217 233 255
217 233 255
217 233 255
217 233 255
217 233 255
217 233 255
217 233 255
217 233 255
217 233 255
217 233 255
217 233 255
217 233 255
217 233 255
217 233 255
217 233 255
217 233 255
217 233 255
217 233 255
217 233 255
217 233 255
217 233 255
217 233 255
217 233 255
217 233 255
217 233 255
217 233 255
217 233 255
217 233 255
217 233 255
217 233 255
217 233 255
217 233 255
217 233 255
217 233 255
217 233 255
217 233 255
217 233 255
217 233 255
217 233 255
217 233 255
217 233 255
217 233 255
217 233 255
217 233 255
217 233 255
217 233 255
217 233 255
217 233 255
217 233 255
217 233 255
217 233 255
217 233 255
217 233 255
217 233 255
217 233 255
217 233 255
217 233 255
217 233 255
217 233 255
217 233 255
217 233 255
217 233 255
217 233 255
217 233 255
217 233 255
217 233 255
217 233 255
217 233 255
217 233 255
217 233 255
217 233 255
217 233 255
217 233 255
217 233 255
217 233 255
217 233 255
217 233 255
217 233 255
217 233 255
149 161 197
2 30 123
0 33 124
12 32 124
7 28 122
5 27 122
10 29 122
7 41 128
6 43 130
8 39 127
11 41 128
6 40 129
9 35 126
9 31 124
5 29 121
8 31 121
10 32 122
8 25 120
3 12 116
9 19 118
8 29 122
1 30 123
7 37 126
13 49 129
31 61 140
81 108 69
102 112 73
133 139 114
99 110 69
114 125 100
154 157 151
166 172 166
167 171 162
160 164 155
154 158 148
155 161 150
150 157 145
155 159 147
166 172 162
176 185 181
164 167 158
139 150 132
136 146 131
151 156 145
150 159 144
148 155 146
134 144 126
115 129 95
109 125 88
111 122 91
115 125 103
115 125 98
135 149 133
137 150 132
138 150 133
142 153 137
141 152 135
140 152 132
133 147 123
137 149 122
133 148 119
128 145 114
128 145 113
125 144 112
118 139 106
112 135 97
106 131 90
105 130 86
108 135 87
101 130 78
104 132 85
99 129 75
100 131 73
99 129 69
99 128 70
98 127 69
99 127 74
100 129 74
100 129 74
99 129 72
98 129 70
95 126 60
94 125 46
93 125 44
95 128 59
99 128 55
96 127 61
90 121 51
86 120 44
88 121 33
87 119 36
88 121 43
88 121 49
87 120 47
86 119 48
94 124 56
95 126 65
93 127 86
86 142 114
91 133 103
77 125 103
36 94 139
25 59 141
10 54 137
13 54 141
9 49 135
7 40 128
6 29 122
6 35 124
6 34 123
18 24 120
8 12 115
3 30 120
8 42 128
2 45 130
7 47 130
7 42 129
6 37 126
5 34 124
6 34 124
14 33 123
7 21 119
5 12 118
8 26 120
14 30 122
9 32 124
13 42 127
5 34 123
12 31 123
12 33 123
3 36 125
8 43 128
8 42 127
4 39 127
11 46 132
8 43 129
4 35 125
8 31 123
11 28 120
5 29 122
9 37 126
9 35 125
12 37 127
9 44 130
10 43 129
6 44 130
9 49 135
5 44 131
6 49 134
9 52 136
8 46 131
153 168 204
217 233 255
217 233 255
217 233 255
217 233 255
217 233 255
217 233 255
217 233 255
217 233 255
217 233 255
217 233 255
217 233 255
217 233 255
217 233 255
217 233 255
217 233 255
217 233 255
217 233 255
217 233 255
217 233 255
217 233 255
217 233 255
217 233 255
217 233 255
217 233 255
217 233 255
217 233 255
217 233 255
217 233 255
217 233 255
217 233 255
217 233 255
217 233 255
217 233 255
217 233 255
217 233 255
217 233 255
217 233 255
217 233 255
217 233 255
217 233 255
217 233 255
217 233 255
217 233 255
217 233 255
217 233 255
217 233 255
217 233 255
217 233 255
217 233 255
217 233 255
217 233 255
217 233 255
217 233 255
217 233 255
217 233 255
217 233 255
217 233 255
217 233 255
217 233 255
217 233 255
217 233 255
217 233 255
217 233 255
217 233 255
217 233 255
217 233 255
217 233 255
217 233 255
217 233 255
217 233 255
217 233 255
217 233 255
217 233 255
217 233 255
217 233 255
217 233 255
217 233 255
217 233 255
217 233 255
217 233 255
217 233 255
217 233 255
217 233 255
217 233 255
217 233 255
217 233 255
217 233 255
217 233 255
217 233 255
217 233 255
217 233 255
217 233 255
217 233 255
217 233 255
217 233 255
217 233 255
217 233 255
217 233 255
217 233 255
217 233 255
217 233 255
217 233 255
217 233 255
217 233 255
217 233 255
217 233 255
217 233 255
217 233 255
217 233 255
217 233 255
217 233 255
217 233 255
217 233 255
217 233 255
217 233 255
217 233 255
217 233 255
217 233 255
217 233 255
217 233 255
217 233 255
217 233 255
217 233 255
217 233 255
217 233 255
217 233 255
217 233 255
217 233 255
217 233 255
217 233 255
217 233 255
217 233 255
217 233 255
217 233 255
217 233 255
217 233 255
217 233 255
217 233 255
217 233 255
217 233 255
217 233 255
217 233 255
217 233 255
217 233 255
217 233 255
217 233 255
217 233 255
217 233 255
217 233 255
217 233 255
217 233 255
217 233 255
217 233 255
217 233 255
217 233 255
217 233 255
217 233 255
217 233 255
217 233 255
217 233 255
217 233 255
217 233 255
217 233 255
217 233 255
217 233 255
217 233 255
217 233 255
217 233 255
217 233 255
217 233 255
217 233 255
217 233 255
217 233 255
217 233 255
217 233 255
217 233 255
217 233 255
217 233 255
217 233 255
217 233 255
217 233 255
217 233 255
217 233 255
217 233 255
217 233 255
217 233 255
217 233 255
217 233 255
217 233 255
217 233 255
217 233 255
217 233 255
217 233 255
217 233 255
217 233 255
217 233 255
217 233 255
217 233 255
217 233 255
217 233 255
217 233 255
217 233 255
217 233 255
217 233 255
217 233 255
217 233 255
217 233 255
217 233 255
217 233 255
217 233 255
217 233 255
217 233 255
217 233 255
217 233 255
217 233 255
217 233 255
217 233 255
217 233 255
217 233 255
217 233 255
217 233 255
217 233 255
217 233 255
217 233 255
217 233 255
217 233 255
217 233 255
217 233 255
217 233 255
217 233 255
217 233 255
217 233 255
217 233 255
217 233 255
217 233 255
217 233 255
217 233 255
217 233 255
217 233 255
217 233 255
217 233 255
217 233 255
217 233 255
217 233 255
217 233 255
217 233 255
217 233 255
161 174 206
8 29 122
6 32 123
9 32 122
8 30 122
14 31 123
11 31 123
11 43 130
7 43 130
6 38 127
6 34 125
10 41 128
0 38 126
7 30 123
6 22 120
4 20 119
10 24 119
8 23 118
0 20 117
2 20 117
14 29 121
2 30 123
7 36 125
9 42 128
6 56 137
24 64 140
86 109 75
116 126 95
129 139 107
93 111 67
115 125 105
157 160 155
173 179 173
159 164 155
156 161 150
153 158 147
156 161 153
149 154 144
157 161 148
176 182 178
175 182 176
145 151 133
145 151 138
175 178 170
185 183 178
166 167 162
139 145 130
139 147 129
110 124 88
110 126 97
117 126 101
124 134 116
129 140 124
146 158 143
145 157 138
145 157 140
146 158 138
141 153 134
136 149 127
138 151 130
142 153 130
136 149 125
133 146 120
131 144 116
126 143 113
120 140 106
113 137 97
109 134 94
109 132 90
106 132 86
104 131 82
99 127 73
100 127 67
101 127 66
99 125 63
97 122 56
103 127 71
101 130 79
100 129 78
103 132 82
99 129 76
98 129 69
96 127 55
93 125 60
96 127 63
94 127 46
96 130 55
94 127 54
87 119 34
90 122 50
89 121 41
90 122 42
88 121 41
84 118 39
86 118 41
91 122 59
92 124 42
91 125 56
88 122 68
84 160 144
89 126 60
57 117 142
8 66 144
19 55 134
12 54 139
12 57 139
10 48 132
1 32 123
6 22 119
12 22 120
11 28 120
4 22 117
0 5 114
0 5 113
6 22 116
8 31 123
12 37 126
5 31 123
6 30 123
7 26 120
2 22 119
0 24 119
0 17 117
6 18 117
13 20 117
8 19 117
8 29 122
8 35 124
3 32 122
15 23 119
3 23 119
7 29 121
5 43 129
9 46 130
0 33 124
13 34 125
7 42 129
11 40 127
7 37 126
13 38 125
5 31 123
9 37 125
10 35 125
4 28 123
7 37 127
6 41 129
5 39 127
6 36 125
9 37 127
6 39 127
7 46 132
7 44 130
7 43 130
161 176 210
217 233 255
217 233 255
217 233 255
217 233 255
217 233 255
217 233 255
217 233 255
217 233 255
217 233 255
217 233 255
217 233 255
217 233 255
217 233 255
217 233 255
217 233 255
217 233 255
217 233 255
217 233 255
217 233 255
217 233 255
217 233 255
217 233 255
217 233 255
217 233 255
217 233 255
217 233 255
217 233 255
217 233 255
217 233 255
217 233 255
217 233 255
217 233 255
217 233 255
217 233 255
217 233 255
217 233 255
217 233 255
217 233 255
217 233 255
217 233 255
217 233 255
217 233 255
217 233 255
217 233 255
217 233 255
217 233 255
217 233 255
217 233 255
217 233 255
217 233 255
217 233 255
217 233 255
217 233 255
217 233 255
217 233 255
217 233 255
217 233 255
217 233 255
217 233 255
217 233 255
217 233 255
217 233 255
217 233 255
217 233 255
217 233 255
217 233 255
217 233 255
217 233 255
217 233 255
217 233 255
217 233 255
217 233 255
217 233 255
217 233 255
217 233 255
217 233 255
217 233 255
217 233 255
217 233 255
217 233 255
217 233 255
217 233 255
217 233 255
217 233 255
217 233 255
217 233 255
217 233 255
217 233 255
217 233 255
217 233 255
217 233 255
217 233 255
217 233 255
217 233 255
217 233 255
217 233 255
217 233 255
217 233 255
217 233 255
217 233 255
217 233 255
217 233 255
217 233 255
217 233 255
217 233 255
217 233 255
217 233 255
217 233 255
217 233 255
217 233 255
217 233 255
217 233 255
217 233 255
217 233 255
217 233 255
217 233 255
217 233 255
217 233 255
217 233 255
217 233 255
217 233 255
217 233 255
217 233 255
217 233 255
217 233 255
217 233 255
217 233 255
217 233 255
217 233 255
217 233 255
217 233 255
217 233 255
217 233 255
217 233 255
217 233 255
217 233 255
217 233 255
217 233 255
217 233 255
217 233 255
217 233 255
217 233 255
217 233 255
217 233 255
217 233 255
217 233 255
217 233 255
217 233 255
217 233 255
217 233 255
217 233 255
217 233 255
217 233 255
217 233 255
217 233 255
217 233 255
217 233 255
217 233 255
217 233 255
217 233 255
217 233 255
217 233 255
217 233 255
217 233 255
217 233 255
217 233 255
217 233 255
217 233 255
217 233 255
217 233 255
217 233 255
217 233 255
217 233 255
217 233 255
217 233 255
217 233 255
217 233 255
217 233 255
217 233 255
217 233 255
217 233 255
217 233 255
217 233 255
217 233 255
217 233 255
217 233 255
217 233 255
217 233 255
217 233 255
217 233 255
217 233 255
217 233 255
217 233 255
217 233 255
217 233 255
217 233 255
217 233 255
217 233 255
217 233 255
217 233 255
217 233 255
217 233 255
217 233 255
217 233 255
217 233 255
217 233 255
217 233 255
217 233 255
217 233 255
217 233 255
217 233 255
217 233 255
217 233 255
217 233 255
217 233 255
217 233 255
217 233 255
217 233 255
217 233 255
217 233 255
217 233 255
217 233 255
217 233 255
217 233 255
217 233 255
217 233 255
217 233 255
217 233 255
217 233 255
217 233 255
217 233 255
217 233 255
217 233 255
217 233 255
217 233 255
217 233 255
217 233 255
217 233 255
217 233 255
217 233 255
217 233 255
217 233 255
217 233 255
217 233 255
217 233 255
162 175 208
11 28 121
11 31 124
5 32 124
5 32 122
8 31 122
12 33 123
6 37 128
8 36 126
4 32 124
10 29 122
12 37 126
9 42 128
4 31 123
7 22 119
0 16 118
2 17 117
3 19 117
3 19 117
8 24 118
11 30 122
14 33 124
10 34 125
9 35 124
8 42 129
2 49 134
52 82 111
109 123 88
132 142 112
132 145 110
98 114 69
125 131 117
155 163 154
166 172 166
163 167 157
159 164 153
165 171 163
163 168 160
148 155 144
153 157 144
164 168 159
137 141 127
128 136 121
164 163 153
184 180 174
172 168 163
159 155 150
135 142 129
112 127 96
111 124 93
116 126 100
131 141 122
119 129 107
140 150 137
153 162 147
146 156 136
145 157 133
138 152 126
137 151 123
131 145 119
136 149 125
140 154 131
136 149 123
134 147 121
134 144 117
129 143 114
119 141 101
111 138 95
115 138 97
111 135 94
106 133 86
101 129 76
97 126 64
100 127 68
100 127 64
92 121 48
90 120 43
92 122 53
98 129 65
97 126 62
100 129 67
100 129 67
100 130 65
94 126 53
97 128 67
99 129 69
97 130 59
103 136 67
90 124 37
89 123 37
87 120 42
88 121 40
88 122 41
87 121 44
87 120 42
89 120 48
90 121 52
92 122 32
94 120 55
85 129 65
75 153 143
75 159 160
54 105 146
18 65 143
20 50 139
12 49 134
6 45 131
2 38 127
6 30 122
7 23 117
13 18 115
12 18 115
5 15 115
0 5 114
3 9 116
8 18 118
13 26 121
8 28 123
5 26 121
9 23 119
2 20 117
0 20 116
0 20 116
0 18 116
0 18 116
9 22 117
6 18 119
7 25 119
7 24 118
13 25 118
7 21 119
6 23 119
5 23 119
12 31 123
16 46 130
11 42 127
11 31 122
8 31 124
9 38 126
14 40 127
14 41 128
8 34 125
7 32 124
10 34 124
10 29 122
8 26 120
6 31 123
12 39 127
3 32 121
11 29 121
6 31 123
9 39 126
8 44 129
9 40 128
9 44 131
150 165 201
217 233 255
217 233 255
217 233 255
217 233 255
217 233 255
217 233 255
217 233 255
217 233 255
217 233 255
217 233 255
217 233 255
217 233 255
217 233 255
217 233 255
217 233 255
217 233 255
217 233 255
217 233 255
217 233 255
217 233 255
217 233 255
217 233 255
217 233 255
217 233 255
217 233 255
217 233 255
217 233 255
217 233 255
217 233 255
217 233 255
217 233 255
217 233 255
217 233 255
217 233 255
217 233 255
217 233 255
217 233 255
217 233 255
217 233 255
217 233 255
217 233 255
217 233 255
217 233 255
217 233 255
217 233 255
217 233 255
217 233 255
217 233 255
217 233 255
217 233 255
217 233 255
217 233 255
217 233 255
217 233 255
217 233 255
217 233 255
217 233 255
217 233 255
217 233 255
217 233 255
217 233 255
217 233 255
217 233 255
217 233 255
217 233 255
217 233 255
217 233 255
217 233 255
217 233 255
217 233 255
217 233 255
217 233 255
217 233 255
217 233 255
217 233 255
217 233 255
217 233 255
217 233 255
217 233 255
217 233 255
217 233 255
217 233 255
217 233 255
217 233 255
217 233 255
217 233 255
217 233 255
217 233 255
217 233 255
217 233 255
217 233 255
217 233 255
217 233 255
217 233 255
217 233 255
217 233 255
217 233 255
217 233 255
217 233 255
217 233 255
217 233 255
217 233 255
217 233 255
217 233 255
217 233 255
217 233 255
217 233 255
217 233 255
217 233 255
217 233 255
217 233 255
217 233 255
217 233 255
217 233 255
217 233 255
217 233 255
217 233 255
217 233 255
217 233 255
217 233 255
217 233 255
217 233 255
217 233 255
217 233 255
217 233 255
217 233 255
217 233 255
217 233 255
217 233 255
217 233 255
217 233 255
217 233 255
217 233 255
217 233 255
217 233 255
217 233 255
217 233 255
217 233 255
217 233 255
217 233 255
217 233 255
217 233 255
217 233 255
217 233 255
217 233 255
217 233 255
217 233 255
217 233 255
217 233 255
217 233 255
217 233 255
217 233 255
217 233 255
217 233 255
217 233 255
217 233 255
217 233 255
217 233 255
217 233 255
217 233 255
217 233 255
217 233 255
217 233 255
217 233 255
217 233 255
217 233 255
217 233 255
217 233 255
217 233 255
217 233 255
217 233 255
217 233 255
217 233 255
217 233 255
217 233 255
217 233 255
217 233 255
217 233 255
217 233 255
217 233 255
217 233 255
217 233 255
217 233 255
217 233 255
217 233 255
217 233 255
217 233 255
217 233 255
217 233 255
217 233 255
217 233 255
217 233 255
217 233 255
217 233 255
217 233 255
217 233 255
217 233 255
217 233 255
217 233 255
217 233 255
217 233 255
217 233 255
217 233 255
217 233 255
217 233 255
217 233 255
217 233 255
217 233 255
217 233 255
217 233 255
217 233 255
217 233 255
217 233 255
217 233 255
217 233 255
217 233 255
217 233 255
217 233 255
217 233 255
217 233 255
217 233 255
217 233 255
217 233 255
217 233 255
217 233 255
217 233 255
217 233 255
217 233 255
217 233 255
217 233 255
217 233 255
217 233 255
217 233 255
217 233 255
217 233 255
217 233 255
217 233 255
217 233 255
217 233 255
217 233 255
217 233 255
217 233 255
217 233 255
173 187 217
9 28 121
8 24 119
12 27 122
13 30 123
8 30 121
9 33 123
11 35 125
7 20 118
7 21 118
9 23 119
6 28 122
5 34 125
4 32 123
2 19 118
2 14 118
8 17 119
9 20 118
0 18 117
9 18 119
11 25 120
0 30 123
0 31 124
12 32 124
13 30 124
11 39 129
16 50 137
59 84 138
120 133 107
139 144 117
140 144 118
105 117 79
134 140 127
147 155 147
165 171 165
173 179 172
166 171 163
164 169 162
163 164 155
152 157 148
144 147 135
141 146 135
135 141 131
152 158 145
180 174 172
183 173 173
161 160 153
159 157 149
119 131 105
102 120 81
105 118 86
107 119 87
135 146 132
122 130 112
134 144 128
151 160 146
142 151 130
145 156 133
144 155 128
135 146 117
135 146 121
138 150 123
139 152 123
135 148 116
132 146 114
135 146 113
132 146 110
117 143 101
113 140 96
117 140 97
113 137 94
108 134 88
107 134 90
101 129 77
104 129 76
102 128 70
94 122 51
87 118 36
89 122 48
102 133 77
100 131 72
99 129 66
94 124 51
99 128 64
100 129 59
98 129 62
98 130 58
96 129 49
96 130 49
91 125 32
93 127 39
90 124 34
91 125 39
86 122 38
89 123 43
90 122 39
89 121 45
91 123 52
88 120 40
92 121 45
90 122 45
80 137 114
60 153 176
21 89 150
26 50 132
5 51 130
16 42 127
10 30 122
4 22 119
0 19 117
6 16 115
8 12 113
10 6 113
12 0 113
6 4 114
8 16 116
12 19 119
15 22 120
11 21 119
6 18 118
5 11 114
0 11 114
0 15 115
0 20 116
0 20 116
0 17 116
4 20 116
8 27 121
4 28 123
1 34 123
8 26 121
7 24 120
10 25 120
0 23 120
10 25 121
5 30 123
4 35 125
6 32 124
0 30 123
0 28 123
14 30 122
10 30 122
8 35 125
4 33 124
12 31 123
8 25 120
4 22 119
6 19 116
13 22 117
5 27 120
5 30 121
3 24 119
10 26 120
7 33 124
8 35 125
5 37 126
9 40 127
169 184 216
217 233 255
217 233 255
217 233 255
217 233 255
217 233 255
217 233 255
217 233 255
217 233 255
217 233 255
217 233 255
217 233 255
217 233 255
217 233 255
217 233 255
217 233 255
217 233 255
217 233 255
217 233 255
217 233 255
217 233 255
217 233 255
217 233 255
217 233 255
217 233 255
217 233 255
217 233 255
217 233 255
217 233 255
217 233 255
217 233 255
217 233 255
217 233 255
217 233 255
217 233 255
217 233 255
217 233 255
217 233 255
217 233 255
217 233 255
217 233 255
217 233 255
217 233 255
217 233 255
217 233 255
217 233 255
217 233 255
217 233 255
217 233 255
217 233 255
217 233 255
217 233 255
217 233 255
217 233 255
217 233 255
217 233 255
217 233 255
217 233 255
217 233 255
217 233 255
217 233 255
217 233 255
217 233 255
217 233 255
217 233 255
217 233 255
217 233 255
217 233 255
217 233 255
217 233 255
217 233 255
217 233 255
217 233 255
217 233 255
217 233 255
217 233 255
217 233 255
217 233 255
217 233 255
217 233 255
217 233 255
217 233 255
217 233 255
217 233 255
217 233 255
217 233 255
217 233 255
217 233 255
217 233 255
217 233 255
217 233 255
217 233 255
217 233 255
217 233 255
217 233 255
217 233 255
217 233 255
217 233 255
217 233 255
217 233 255
217 233 255
217 233 255
217 233 255
217 233 255
217 233 255
217 233 255
217 233 255
217 233 255
217 233 255
217 233 255
217 233 255
217 233 255
217 233 255
217 233 255
217 233 255
217 233 255
217 233 255
217 233 255
217 233 255
217 233 255
217 233 255
217 233 255
217 233 255
217 233 255
217 233 255
217 233 255
217 233 255
217 233 255
217 233 255
217 233 255
217 233 255
217 233 255
217 233 255
217 233 255
217 233 255
217 233 255
217 233 255
217 233 255
217 233 255
217 233 255
217 233 255
217 233 255
217 233 255
217 233 255
217 233 255
217 233 255
217 233 255
217 233 255
217 233 255
217 233 255
217 233 255
217 233 255
217 233 255
217 233 255
217 233 255
217 233 255
217 233 255
217 233 255
217 233 255
217 233 255
217 233 255
217 233 255
217 233 255
217 233 255
217 233 255
217 233 255
217 233 255
217 233 255
217 233 255
217 233 255
217 233 255
217 233 255
217 233 255
217 233 255
217 233 255
217 233 255
217 233 255
217 233 255
217 233 255
217 233 255
217 233 255
217 233 255
217 233 255
217 233 255
217 233 255
217 233 255
217 233 255
217 233 255
217 233 255
217 233 255
217 233 255
217 233 255
217 233 255
217 233 255
217 233 255
217 233 255
217 233 255
217 233 255
217 233 255
217 233 255
217 233 255
217 233 255
217 233 255
217 233 255
217 233 255
217 233 255
217 233 255
217 233 255
217 233 255
217 233 255
217 233 255
217 233 255
217 233 255
217 233 255
217 233 255
217 233 255
217 233 255
217 233 255
217 233 255
217 233 255
217 233 255
217 233 255
217 233 255
217 233 255
217 233 255
217 233 255
217 233 255
217 233 255
217 233 255
217 233 255
217 233 255
217 233 255
217 233 255
217 233 255
217 233 255
217 233 255
217 233 255
217 233 255
217 233 255
217 233 255
217 233 255
217 233 255
167 180 211
9 25 121
8 24 119
5 24 119
8 25 121
6 21 119
9 23 120
3 27 119
9 10 114
6 21 117
4 21 119
9 26 121
4 31 123
4 27 121
0 21 117
4 16 118
0 14 118
3 15 118
0 16 118
3 15 118
10 19 119
3 23 119
9 29 120
0 30 122
9 34 124
13 42 128
7 48 133
13 67 143
32 103 166
109 133 119
140 147 125
142 148 124
126 129 103
120 131 112
158 163 156
162 166 158
166 167 159
164 165 155
166 170 164
160 162 155
163 163 153
164 161 154
161 158 148
162 160 152
187 180 175
175 168 164
189 178 174
194 183 177
187 187 184
164 168 156
140 150 133
121 132 112
117 129 101
132 139 123
113 121 99
132 142 127
139 148 134
143 154 137
143 155 133
141 152 130
141 151 127
145 154 134
141 153 128
138 150 119
139 151 113
136 148 106
135 147 104
128 144 103
117 142 97
112 138 86
114 137 89
107 132 80
101 129 75
98 125 69
96 125 66
98 125 66
103 129 78
100 126 69
98 126 67
106 136 86
109 137 93
100 129 79
100 129 74
90 121 45
98 128 64
100 130 65
98 129 57
96 128 51
90 124 38
88 122 30
93 125 42
95 129 42
96 131 54
95 130 49
87 123 37
93 126 49
92 124 38
93 123 39
93 123 48
88 123 53
86 124 41
96 126 24
90 128 73
79 125 120
31 67 142
23 37 133
6 49 126
28 23 123
13 18 115
0 10 115
5 8 114
7 8 113
0 5 112
0 4 113
14 7 115
11 15 116
2 19 117
4 21 118
5 18 116
4 13 115
0 11 114
0 8 113
1 17 115
0 18 116
0 20 117
0 20 116
0 18 116
0 19 116
9 23 118
11 34 125
9 38 125
5 27 122
12 26 121
9 26 120
2 28 122
5 30 123
8 32 124
2 34 125
5 31 124
15 31 122
15 30 122
10 28 121
15 30 121
11 31 123
2 30 123
5 28 123
7 25 119
8 21 117
0 17 116
8 20 116
2 19 116
3 26 119
4 29 120
6 17 117
13 25 118
10 31 122
5 37 125
6 36 124
10 38 126
178 192 222
217 233 255
217 233 255
217 233 255
217 233 255
217 233 255
217 233 255
217 233 255
217 233 255
217 233 255
217 233 255
217 233 255
217 233 255
217 233 255
217 233 255
217 233 255
217 233 255
217 233 255
217 233 255
217 233 255
217 233 255
217 233 255
217 233 255
217 233 255
217 233 255
217 233 255
217 233 255
217 233 255
217 233 255
217 233 255
217 233 255
217 233 255
217 233 255
217 233 255
217 233 255
217 233 255
217 233 255
217 233 255
217 233 255
217 233 255
217 233 255
217 233 255
217 233 255
217 233 255
217 233 255
217 233 255
217 233 255
217 233 255
217 233 255
217 233 255
217 233 255
217 233 255
217 233 255
217 233 255
217 233 255
217 233 255
217 233 255
217 233 255
217 233 255
217 233 255
217 233 255
217 233 255
217 233 255
217 233 255
217 233 255
217 233 255
217 233 255
217 233 255
217 233 255
217 233 255
217 233 255
217 233 255
217 233 255
217 233 255
217 233 255
217 233 255
217 233 255
217 233 255
217 233 255
217 233 255
217 233 255
217 233 255
217 233 255
217 233 255
217 233 255
217 233 255
217 233 255
217 233 255
217 233 255
217 233 255
217 233 255
217 233 255
217 233 255
217 233 255
217 233 255
217 233 255
217 233 255
217 233 255
217 233 255
217 233 255
217 233 255
217 233 255
217 233 255
217 233 255
217 233 255
217 233 255
217 233 255
217 233 255
217 233 255
217 233 255
217 233 255
217 233 255
217 233 255
217 233 255
217 233 255
217 233 255
217 233 255
217 233 255
217 233 255
217 233 255
217 233 255
217 233 255
217 233 255
217 233 255
217 233 255
217 233 255
217 233 255
217 233 255
217 233 255
217 233 255
217 233 255
217 233 255
217 233 255
217 233 255
217 233 255
217 233 255
217 233 255
217 233 255
217 233 255
217 233 255
217 233 255
217 233 255
217 233 255
217 233 255
217 233 255
217 233 255
217 233 255
217 233 255
217 233 255
217 233 255
217 233 255
217 233 255
217 233 255
217 233 255
217 233 255
217 233 255
217 233 255
217 233 255
217 233 255
217 233 255
217 233 255
217 233 255
217 233 255
217 233 255
217 233 255
217 233 255
217 233 255
217 233 255
217 233 255
217 233 255
217 233 255
217 233 255
217 233 255
217 233 255
217 233 255
217 233 255
217 233 255
217 233 255
217 233 255
217 233 255
217 233 255
217 233 255
217 233 255
217 233 255
217 233 255
217 233 255
217 233 255
217 233 255
217 233 255
217 233 255
217 233 255
217 233 255
217 233 255
217 233 255
217 233 255
217 233 255
217 233 255
217 233 255
217 233 255
217 233 255
217 233 255
217 233 255
217 233 255
217 233 255
217 233 255
217 233 255
217 233 255
217 233 255
217 233 255
217 233 255
217 233 255
217 233 255
217 233 255
217 233 255
217 233 255
217 233 255
217 233 255
217 233 255
217 233 255
217 233 255
217 233 255
217 233 255
217 233 255
217 233 255
217 233 255
217 233 255
217 233 255
217 233 255
217 233 255
217 233 255
217 233 255
217 233 255
217 233 255
217 233 255
217 233 255
217 233 255
217 233 255
217 233 255
217 233 255
217 233 255
183 197 225
6 23 119
7 22 119
12 26 121
4 21 118
2 20 117
0 18 115
0 16 114
0 12 113
0 14 115
3 21 118
17 31 123
10 32 124
8 27 121
2 21 118
8 20 118
8 17 119
0 14 118
0 14 118
0 14 118
0 18 117
1 16 118
10 25 120
7 31 122
1 30 122
11 35 124
5 41 129
22 54 135
21 72 148
22 78 149
108 123 118
146 150 131
137 152 128
139 148 133
126 137 112
163 170 162
171 174 166
175 176 171
168 170 163
167 171 165
173 175 168
164 163 153
160 158 152
154 153 146
152 152 140
193 183 180
177 174 166
172 171 163
157 151 143
175 179 169
180 186 175
163 167 159
130 137 117
139 145 131
109 116 86
125 136 119
143 151 143
156 161 150
148 156 138
142 151 126
140 152 126
140 151 125
140 151 125
138 150 121
134 146 112
132 145 106
137 149 107
134 148 108
121 138 96
112 134 87
112 136 88
113 137 91
101 126 68
102 128 69
93 120 49
91 119 50
94 122 60
94 120 57
103 130 83
111 137 94
113 139 95
110 136 90
109 136 86
101 130 68
89 121 38
93 125 51
97 128 60
98 129 62
94 126 55
93 125 47
94 126 50
94 128 51
91 126 39
89 124 35
87 120 19
92 122 41
97 126 55
98 127 59
99 128 59
93 122 48
97 123 48
95 130 59
99 133 65
93 128 62
84 139 117
52 116 152
26 38 134
20 40 124
25 17 118
12 12 113
0 0 113
0 0 113
0 0 113
0 0 113
12 13 116
8 18 116
10 22 117
11 24 118
9 19 116
1 8 114
0 0 113
0 0 113
9 17 116
4 22 118
9 25 119
10 25 120
0 20 118
0 21 117
0 19 116
3 20 117
7 25 120
5 30 123
2 29 120
10 19 119
11 26 120
1 29 123
5 32 124
6 35 125
14 41 127
6 34 124
15 30 121
11 27 120
12 28 121
13 28 121
19 32 122
16 31 122
13 28 121
4 23 119
4 17 118
5 16 116
1 14 115
4 18 115
0 20 116
3 25 119
4 21 118
3 19 117
11 26 118
10 27 121
9 32 123
7 25 120
6 32 123
182 196 225
217 233 255
217 233 255
217 233 255
217 233 255
217 233 255
217 233 255
217 233 255
217 233 255
217 233 255
217 233 255
217 233 255
217 233 255
217 233 255
217 233 255
217 233 255
217 233 255
217 233 255
217 233 255
217 233 255
217 233 255
217 233 255
217 233 255
217 233 255
217 233 255
217 233 255
217 233 255
217 233 255
217 233 255
217 233 255
217 233 255
217 233 255
217 233 255
217 233 255
217 233 255
217 233 255
217 233 255
217 233 255
217 233 255
217 233 255
217 233 255
217 233 255
217 233 255
217 233 255
217 233 255
217 233 255
217 233 255
217 233 255
217 233 255
217 233 255
217 233 255
217 233 255
217 233 255
217 233 255
217 233 255
217 233 255
217 233 255
217 233 255
217 233 255
217 233 255
217 233 255
217 233 255
217 233 255
217 233 255
217 233 255
217 233 255
217 233 255
217 233 255
217 233 255
217 233 255
217 233 255
217 233 255
217 233 255
217 233 255
217 233 255
217 233 255
217 233 255
217 233 255
217 233 255
217 233 255
217 233 255
217 233 255
217 233 255
217 233 255
217 233 255
217 233 255
217 233 255
217 233 255
217 233 255
217 233 255
217 233 255
217 233 255
217 233 255
217 233 255
217 233 255
217 233 255
217 233 255
217 233 255
217 233 255
217 233 255
217 233 255
217 233 255
217 233 255
217 233 255
217 233 255
217 233 255
217 233 255
217 233 255
217 233 255
217 233 255
217 233 255
217 233 255
217 233 255
217 233 255
217 233 255
217 233 255
217 233 255
217 233 255
217 233 255
217 233 255
217 233 255
217 233 255
217 233 255
217 233 255
217 233 255
217 233 255
217 233 255
217 233 255
217 233 255
217 233 255
217 233 255
217 233 255
217 233 255
217 233 255
217 233 255
217 233 255
217 233 255
217 233 255
217 233 255
217 233 255
217 233 255
217 233 255
217 233 255
217 233 255
217 233 255
217 233 255
217 233 255
217 233 255
217 233 255
217 233 255
217 233 255
217 233 255
217 233 255
217 233 255
217 233 255
217 233 255
217 233 255
217 233 255
217 233 255
217 233 255
217 233 255
217 233 255
217 233 255
217 233 255
217 233 255
217 233 255
217 233 255
217 233 255
217 233 255
217 233 255
217 233 255
217 233 255
217 233 255
217 233 255
217 233 255
217 233 255
217 233 255
217 233 255
217 233 255
217 233 255
217 233 255
217 233 255
217 233 255
217 233 255
217 233 255
217 233 255
217 233 255
217 233 255
217 233 255
217 233 255
217 233 255
217 233 255
217 233 255
217 233 255
217 233 255
217 233 255
217 233 255
217 233 255
217 233 255
217 233 255
217 233 255
217 233 255
217 233 255
217 233 255
217 233 255
217 233 255
217 233 255
217 233 255
217 233 255
217 233 255
217 233 255
217 233 255
217 233 255
217 233 255
217 233 255
217 233 255
217 233 255
217 233 255
217 233 255
217 233 255
217 233 255
217 233 255
217 233 255
217 233 255
217 233 255
217 233 255
217 233 255
217 233 255
217 233 255
217 233 255
217 233 255
217 233 255
217 233 255
217 233 255
217 233 255
217 233 255
217 233 255
217 233 255
194 209 235
38 50 128
9 26 120
10 25 121
6 18 117
0 9 114
0 6 113
0 0 113
0 0 113
0 0 113
0 15 115
7 22 118
14 24 120
10 23 118
0 20 117
1 19 116
6 16 119
3 14 118
0 14 118
0 14 118
1 17 117
3 17 117
11 20 120
17 31 123
9 30 123
13 25 119
16 29 121
10 36 126
21 50 135
13 59 141
33 64 133
118 128 115
146 148 134
145 156 137
141 153 129
128 134 119
172 177 167
172 174 166
173 177 173
171 176 169
163 165 158
163 165 158
157 157 147
154 154 146
155 156 151
151 152 143
188 182 181
179 178 171
166 164 162
145 148 136
159 163 151
167 171 161
163 171 161
154 161 150
150 154 142
123 128 109
140 147 138
150 153 148
156 160 153
152 160 145
143 154 130
143 155 127
137 147 117
140 150 123
139 150 119
139 148 113
133 145 109
133 145 107
131 147 110
117 137 92
112 136 91
109 133 83
109 131 81
111 135 85
107 132 79
100 125 64
97 124 62
98 125 69
105 131 79
108 134 87
109 135 86
110 135 85
109 134 82
101 127 68
95 124 56
92 123 51
95 126 63
100 132 65
95 127 57
94 125 50
96 127 52
92 125 50
85 122 26
87 123 32
87 121 35
91 121 42
99 126 65
101 127 66
102 129 69
95 122 46
97 124 55
98 129 70
104 133 78
100 132 63
86 124 63
79 142 121
62 155 174
20 65 135
29 18 115
23 15 113
9 15 111
0 0 113
0 0 113
0 0 113
0 0 113
4 5 115
3 11 115
1 16 115
5 17 116
1 16 115
0 0 113
0 0 113
0 0 113
0 6 113
6 21 119
6 21 119
16 28 121
6 20 119
0 24 119
0 24 119
0 24 119
0 24 119
0 23 119
0 24 120
1 22 119
11 25 120
12 31 123
12 30 122
13 31 122
3 37 126
5 39 126
7 27 120
5 25 119
7 26 120
12 28 121
12 28 121
14 29 121
14 27 120
13 23 119
1 14 118
7 14 118
9 10 115
8 10 115
5 14 115
5 19 116
9 18 117
1 9 115
4 15 116
6 18 118
20 30 116
21 35 122
4 18 117
49 60 133
187 201 228
217 233 255
217 233 255
217 233 255
217 233 255
217 233 255
217 233 255
217 233 255
217 233 255
217 233 255
217 233 255
217 233 255
217 233 255
217 233 255
217 233 255
217 233 255
217 233 255
217 233 255
217 233 255
217 233 255
217 233 255
217 233 255
217 233 255
217 233 255
217 233 255
217 233 255
217 233 255
217 233 255
217 233 255
217 233 255
217 233 255
217 233 255
217 233 255
217 233 255
217 233 255
217 233 255
217 233 255
217 233 255
217 233 255
217 233 255
217 233 255
217 233 255
217 233 255
217 233 255
217 233 255
217 233 255
217 233 255
217 233 255
217 233 255
217 233 255
217 233 255
217 233 255
217 233 255
217 233 255
217 233 255
217 233 255
217 233 255
217 233 255
217 233 255
217 233 255
217 233 255
217 233 255
217 233 255
217 233 255
217 233 255
217 233 255
217 233 255
217 233 255
217 233 255
217 233 255
217 233 255
217 233 255
217 233 255
217 233 255
217 233 255
217 233 255
217 233 255
217 233 255
217 233 255
217 233 255
217 233 255
217 233 255
217 233 255
217 233 255
217 233 255
217 233 255
217 233 255
217 233 255
217 233 255
217 233 255
217 233 255
217 233 255
217 233 255
217 233 255
217 233 255
217 233 255
217 233 255
217 233 255
217 233 255
217 233 255
217 233 255
217 233 255
217 233 255
217 233 255
217 233 255
217 233 255
217 233 255
217 233 255
217 233 255
217 233 255
217 233 255
217 233 255
217 233 255
217 233 255
217 233 255
217 233 255
217 233 255
217 233 255
217 233 255
217 233 255
217 233 255
217 233 255
217 233 255
217 233 255
217 233 255
217 233 255
217 233 255
217 233 255
217 233 255
217 233 255
217 233 255
217 233 255
217 233 255
217 233 255
217 233 255
217 233 255
217 233 255
217 233 255
217 233 255
217 233 255
217 233 255
217 233 255
217 233 255
217 233 255
217 233 255
217 233 255
217 233 255
217 233 255
217 233 255
217 233 255
217 233 255
217 233 255
217 233 255
217 233 255
217 233 255
217 233 255
217 233 255
217 233 255
217 233 255
217 233 255
217 233 255
217 233 255
217 233 255
217 233 255
217 233 255
217 233 255
217 233 255
217 233 255
217 233 255
217 233 255
217 233 255
217 233 255
217 233 255
217 233 255
217 233 255
217 233 255
217 233 255
217 233 255
217 233 255
217 233 255
217 233 255
217 233 255
217 233 255
217 233 255
217 233 255
217 233 255
217 233 255
217 233 255
217 233 255
217 233 255
217 233 255
217 233 255
217 233 255
217 233 255
217 233 255
217 233 255
217 233 255
217 233 255
217 233 255
217 233 255
217 233 255
217 233 255
217 233 255
217 233 255
217 233 255
217 233 255
217 233 255
217 233 255
217 233 255
217 233 255
217 233 255
217 233 255
217 233 255
217 233 255
217 233 255
217 233 255
217 233 255
217 233 255
217 233 255
217 233 255
217 233 255
217 233 255
217 233 255
217 233 255
217 233 255
217 233 255
217 233 255
217 233 255
217 233 255
217 233 255
217 233 255
217 233 255
217 233 255
217 233 255
217 233 255
217 233 255
204 219 243
72 84 146
11 30 123
11 27 121
5 13 116
2 2 113
0 0 113
0 0 113
0 0 113
0 0 113
0 0 113
5 10 113
11 13 115
11 17 117
1 20 117
1 22 117
5 20 117
0 17 117
0 18 117
0 19 116
0 19 116
10 16 116
7 16 118
14 26 120
15 29 121
12 27 121
14 25 118
7 22 118
8 32 124
12 51 132
9 51 133
23 51 138
106 120 126
146 150 129
160 163 149
153 158 144
163 166 153
187 188 178
185 186 179
186 189 183
175 178 170
172 172 163
166 167 159
154 156 146
150 152 143
134 137 124
129 132 118
179 173 170
183 176 177
181 175 173
159 159 151
140 145 133
152 154 146
172 170 165
155 156 146
158 163 159
150 153 148
153 156 152
152 155 150
151 156 147
143 152 132
138 149 124
136 148 122
134 143 118
139 147 124
140 148 121
142 149 120
139 147 117
134 145 113
128 144 105
118 139 93
113 136 88
110 133 78
102 125 69
99 123 58
98 123 56
93 120 51
91 119 49
97 122 57
105 131 77
104 132 77
107 135 81
105 133 78
101 128 71
96 124 61
95 124 61
94 124 55
99 130 67
101 133 64
98 130 57
96 127 53
99 128 60
89 120 40
91 123 44
91 123 46
92 124 51
100 128 65
94 121 51
96 121 58
101 126 66
99 126 61
102 130 70
100 131 68
93 125 58
92 124 48
76 107 79
55 107 140
22 61 120
25 11 116
21 25 111
19 21 113
13 13 113
0 8 112
0 0 113
0 0 113
0 0 113
0 5 113
3 17 114
7 11 114
0 8 114
0 9 114
0 1 113
0 0 113
0 0 113
0 0 113
7 18 116
4 19 117
13 24 118
10 22 118
0 19 117
0 20 117
0 20 117
0 20 118
0 19 118
5 23 119
6 23 119
5 23 119
1 29 123
0 31 124
1 31 124
1 33 124
9 34 125
6 28 122
8 26 120
12 28 121
15 29 121
17 31 122
15 29 121
6 23 119
13 22 118
7 18 116
1 16 118
8 13 115
1 1 113
4 4 113
0 9 115
9 21 117
6 11 114
9 4 113
4 10 113
8 15 114
18 30 114
7 24 117
6 22 117
72 82 143
208 224 247
217 233 255
217 233 255
217 233 255
217 233 255
217 233 255
217 233 255
217 233 255
217 233 255
217 233 255
217 233 255
217 233 255
217 233 255
217 233 255
217 233 255
217 233 255
217 233 255
217 233 255
217 233 255
217 233 255
217 233 255
217 233 255
217 233 255
217 233 255
217 233 255
217 233 255
217 233 255
217 233 255
217 233 255
217 233 255
217 233 255
217 233 255
217 233 255
217 233 255
217 233 255
217 233 255
217 233 255
217 233 255
217 233 255
217 233 255
217 233 255
217 233 255
217 233 255
217 233 255
217 233 255
217 233 255
217 233 255
217 233 255
217 233 255
217 233 255
217 233 255
217 233 255
217 233 255
217 233 255
217 233 255
217 233 255
217 233 255
217 233 255
217 233 255
217 233 255
217 233 255
217 233 255
217 233 255
217 233 255
217 233 255
217 233 255
217 233 255
217 233 255
217 233 255
217 233 255
217 233 255
217 233 255
217 233 255
217 233 255
217 233 255
217 233 255
217 233 255
217 233 255
217 233 255
217 233 255
217 233 255
217 233 255
217 233 255
217 233 255
217 233 255
217 233 255
217 233 255
217 233 255
217 233 255
217 233 255
217 233 255
217 233 255
217 233 255
217 233 255
217 233 255
217 233 255
217 233 255
217 233 255
217 233 255
217 233 255
217 233 255
217 233 255
217 233 255
217 233 255
217 233 255
217 233 255
217 233 255
217 233 255
217 233 255
217 233 255
217 233 255
217 233 255
217 233 255
217 233 255
217 233 255
217 233 255
217 233 255
217 233 255
217 233 255
217 233 255
217 233 255
217 233 255
217 233 255
217 233 255
217 233 255
217 233 255
217 233 255
217 233 255
217 233 255
217 233 255
217 233 255
217 233 255
217 233 255
217 233 255
217 233 255
217 233 255
217 233 255
217 233 255
217 233 255
217 233 255
217 233 255
217 233 255
217 233 255
217 233 255
217 233 255
217 233 255
217 233 255
217 233 255
217 233 255
217 233 255
217 233 255
217 233 255
217 233 255
217 233 255
217 233 255
217 233 255
217 233 255
217 233 255
217 233 255
217 233 255
217 233 255
217 233 255
217 233 255
217 233 255
217 233 255
217 233 255
217 233 255
217 233 255
217 233 255
217 233 255
217 233 255
217 233 255
217 233 255
217 233 255
217 233 255
217 233 255
217 233 255
217 233 255
217 233 255
217 233 255
217 233 255
217 233 255
217 233 255
217 233 255
217 233 255
217 233 255
217 233 255
217 233 255
217 233 255
217 233 255
217 233 255
217 233 255
217 233 255
217 233 255
217 233 255
217 233 255
217 233 255
217 233 255
217 233 255
217 233 255
217 233 255
217 233 255
217 233 255
217 233 255
217 233 255
217 233 255
217 233 255
217 233 255
217 233 255
217 233 255
217 233 255
217 233 255
217 233 255
217 233 255
217 233 255
217 233 255
217 233 255
217 233 255
217 233 255
217 233 255
217 233 255
217 233 255
217 233 255
217 233 255
217 233 255
217 233 255
217 233 255
217 233 255
217 233 255
217 233 255
217 233 255
217 233 255
217 233 255
217 233 255
207 223 246
70 80 142
5 25 121
8 25 120
4 11 116
0 0 113
0 0 113
0 0 113
0 0 113
0 0 113
0 0 113
2 2 113
4 9 114
1 19 116
0 20 118
0 23 119
0 23 119
0 20 116
0 20 116
0 20 116
0 20 116
4 19 116
10 15 116
6 20 117
10 22 119
7 25 119
11 23 117
8 17 115
2 17 117
8 30 123
23 37 129
16 35 124
11 61 140
83 109 152
133 138 113
148 153 134
154 157 140
188 190 181
188 190 183
188 190 184
185 189 183
183 188 184
173 176 168
169 171 162
156 156 145
143 143 130
138 147 133
123 131 110
137 136 123
152 153 144
159 158 148
155 161 152
145 151 142
152 156 148
168 165 160
162 161 152
156 159 151
160 161 158
163 164 157
157 160 155
156 158 150
150 155 141
147 152 138
146 152 141
148 152 139
149 153 137
147 153 134
150 155 134
149 154 134
144 151 127
132 145 112
117 137 95
115 138 92
112 134 87
103 129 76
98 124 61
97 124 55
96 124 57
90 119 47
89 113 35
94 121 57
99 130 70
102 133 73
104 135 79
95 126 57
96 127 60
101 131 59
95 126 47
97 128 51
98 130 56
98 129 55
99 129 59
96 125 51
97 126 56
100 126 63
100 126 63
95 123 57
88 117 35
94 122 46
95 121 54
97 124 61
104 132 76
99 129 60
101 130 57
85 116 71
64 88 107
20 30 113
27 23 116
19 16 112
22 26 116
20 15 112
12 19 115
14 20 114
12 15 110
0 0 113
0 0 113
0 0 113
0 4 113
1 16 113
6 8 113
0 0 113
2 0 113
8 0 113
0 0 113
0 0 113
0 0 113
5 10 114
9 15 116
10 16 116
11 17 116
5 14 116
0 20 116
0 20 116
0 20 116
0 18 117
5 15 119
7 16 119
11 18 119
9 25 121
0 31 124
0 30 123
0 28 123
9 33 124
15 31 123
4 24 119
10 25 119
13 27 119
14 28 120
14 28 120
6 25 120
10 19 119
6 19 117
0 20 116
0 16 115
0 3 113
0 0 113
0 0 113
2 11 115
4 14 114
0 7 113
12 3 112
8 6 112
10 13 114
14 22 117
22 33 119
7 21 117
89 98 150
214 230 252
217 233 255
217 233 255
217 233 255
217 233 255
217 233 255
217 233 255
217 233 255
217 233 255
217 233 255
217 233 255
217 233 255
217 233 255
217 233 255
217 233 255
217 233 255
217 233 255
217 233 255
217 233 255
217 233 255
217 233 255
217 233 255
217 233 255
217 233 255
217 233 255
217 233 255
217 233 255
217 233 255
217 233 255
217 233 255
217 233 255
217 233 255
217 233 255
217 233 255
217 233 255
217 233 255
217 233 255
217 233 255
217 233 255
217 233 255
217 233 255
217 233 255
217 233 255
217 233 255
217 233 255
217 233 255
217 233 255
217 233 255
217 233 255
217 233 255
217 233 255
217 233 255
217 233 255
217 233 255
217 233 255
217 233 255
217 233 255
217 233 255
217 233 255
217 233 255
217 233 255
217 233 255
217 233 255
217 233 255
217 233 255
217 233 255
217 233 255
217 233 255
217 233 255
217 233 255
217 233 255
217 233 255
217 233 255
217 233 255
217 233 255
217 233 255
217 233 255
217 233 255
217 233 255
217 233 255
217 233 255
217 233 255
217 233 255
217 233 255
217 233 255
217 233 255
217 233 255
217 233 255
217 233 255
217 233 255
217 233 255
217 233 255
217 233 255
217 233 255
217 233 255
217 233 255
217 233 255
217 233 255
217 233 255
217 233 255
217 233 255
217 233 255
217 233 255
217 233 255
217 233 255
217 233 255
217 233 255
217 233 255
217 233 255
217 233 255
217 233 255
217 233 255
217 233 255
217 233 255
217 233 255
217 233 255
217 233 255
217 233 255
217 233 255
217 233 255
217 233 255
217 233 255
217 233 255
217 233 255
217 233 255
217 233 255
217 233 255
217 233 255
217 233 255
217 233 255
217 233 255
217 233 255
217 233 255
217 233 255
217 233 255
217 233 255
217 233 255
217 233 255
217 233 255
217 233 255
217 233 255
217 233 255
217 233 255
217 233 255
217 233 255
217 233 255
217 233 255
217 233 255
217 233 255
217 233 255
217 233 255
217 233 255
217 233 255
217 233 255
217 233 255
217 233 255
217 233 255
217 233 255
217 233 255
217 233 255
217 233 255
217 233 255
217 233 255
217 233 255
217 233 255
217 233 255
217 233 255
217 233 255
217 233 255
217 233 255
217 233 255
217 233 255
217 233 255
217 233 255
217 233 255
217 233 255
217 233 255
217 233 255
217 233 255
217 233 255
217 233 255
217 233 255
217 233 255
217 233 255
217 233 255
217 233 255
217 233 255
217 233 255
217 233 255
217 233 255
217 233 255
217 233 255
217 233 255
217 233 255
217 233 255
217 233 255
217 233 255
217 233 255
217 233 255
217 233 255
217 233 255
217 233 255
217 233 255
217 233 255
217 233 255
217 233 255
217 233 255
217 233 255
217 233 255
217 233 255
217 233 255
217 233 255
217 233 255
217 233 255
217 233 255
217 233 255
217 233 255
217 233 255
217 233 255
217 233 255
217 233 255
217 233 255
217 233 255
217 233 255
217 233 255
217 233 255
217 233 255
217 233 255
217 233 255
217 233 255
217 233 255
217 233 255
217 233 255
111 121 167
10 24 120
5 20 117
3 9 114
0 0 113
0 4 113
0 0 113
0 0 113
0 0 113
0 0 113
0 0 113
0 0 114
1 17 116
3 20 117
1 20 117
8 23 118
3 20 116
0 20 116
0 20 116
0 20 116
0 19 116
2 12 116
1 14 115
0 19 116
5 17 119
3 18 117
2 11 114
9 10 113
10 22 117
13 29 120
8 29 123
22 40 132
12 62 137
53 80 145
69 80 129
104 114 119
132 143 127
142 147 125
148 151 135
184 190 183
190 197 193
187 196 194
176 180 175
179 179 171
173 173 166
158 159 151
150 153 136
134 139 122
127 134 121
110 120 91
111 124 95
119 128 108
144 149 138
152 154 141
170 168 161
162 163 156
143 148 133
164 164 157
168 167 159
155 159 154
157 158 152
158 158 150
159 158 151
156 156 150
150 153 143
146 148 139
154 155 140
146 152 126
141 149 120
131 146 111
131 146 110
127 144 107
124 144 105
117 137 94
110 135 82
103 129 67
101 128 64
98 125 65
84 112 41
83 113 41
87 116 53
104 133 73
104 136 71
99 133 72
97 126 50
95 125 41
99 130 63
93 125 54
91 123 45
98 126 52
93 124 50
94 125 46
94 124 48
97 124 54
101 127 61
93 121 50
90 117 39
94 122 51
99 126 61
105 129 74
100 128 72
95 121 58
97 124 46
70 108 104
25 44 122
19 28 121
12 15 115
18 0 112
21 2 113
12 3 114
15 6 111
10 19 112
6 8 115
22 0 113
0 0 113
0 0 113
0 0 113
0 0 113
0 10 113
0 6 113
0 0 113
8 0 113
12 4 113
3 4 113
7 7 113
5 6 113
0 0 113
0 0 113
0 0 113
0 0 113
3 4 113
5 18 116
0 20 116
0 20 116
0 20 116
0 18 117
0 15 117
0 14 117
7 19 118
17 31 122
16 31 122
11 28 121
8 27 122
17 31 123
13 24 120
6 18 116
4 19 116
6 20 116
7 21 117
0 21 116
2 20 116
5 17 116
6 18 116
1 15 115
0 10 114
0 0 113
0 0 113
0 0 113
0 0 113
0 0 113
0 0 113
7 2 113
8 3 113
16 13 112
14 18 115
13 20 115
5 18 116
125 135 175
216 232 254
217 233 255
217 233 255
217 233 255
217 233 255
217 233 255
217 233 255
217 233 255
217 233 255
217 233 255
217 233 255
217 233 255
217 233 255
217 233 255
217 233 255
217 233 255
217 233 255
217 233 255
217 233 255
217 233 255
217 233 255
217 233 255
217 233 255
217 233 255
217 233 255
217 233 255
217 233 255
217 233 255
217 233 255
217 233 255
217 233 255
217 233 255
217 233 255
217 233 255
217 233 255
217 233 255
217 233 255
217 233 255
217 233 255
217 233 255
217 233 255
217 233 255
217 233 255
217 233 255
217 233 255
217 233 255
217 233 255
217 233 255
217 233 255
217 233 255
217 233 255
217 233 255
217 233 255
217 233 255
217 233 255
217 233 255
217 233 255
217 233 255
217 233 255
217 233 255
217 233 255
217 233 255
217 233 255
217 233 255
217 233 255
217 233 255
217 233 255
217 233 255
217 233 255
217 233 255
217 233 255
217 233 255
217 233 255
217 233 255
217 233 255
217 233 255
217 233 255
217 233 255
217 233 255
217 233 255
217 233 255
217 233 255
217 233 255
217 233 255
217 233 255
217 233 255
217 233 255
217 233 255
217 233 255
217 233 255
217 233 255
217 233 255
217 233 255
217 233 255
217 233 255
217 233 255
217 233 255
217 233 255
217 233 255
217 233 255
217 233 255
217 233 255
217 233 255
217 233 255
217 233 255
217 233 255
217 233 255
217 233 255
217 233 255
217 233 255
217 233 255
217 233 255
217 233 255
217 233 255
217 233 255
217 233 255
217 233 255
217 233 255
217 233 255
217 233 255
217 233 255
217 233 255
217 233 255
217 233 255
217 233 255
217 233 255
217 233 255
217 233 255
217 233 255
217 233 255
217 233 255
217 233 255
217 233 255
217 233 255
217 233 255
217 233 255
217 233 255
217 233 255
217 233 255
217 233 255
217 233 255
217 233 255
217 233 255
217 233 255
217 233 255
217 233 255
217 233 255
217 233 255
217 233 255
217 233 255
217 233 255
217 233 255
217 233 255
217 233 255
217 233 255
217 233 255
217 233 255
217 233 255
217 233 255
217 233 255
217 233 255
217 233 255
217 233 255
217 233 255
217 233 255
217 233 255
217 233 255
217 233 255
217 233 255
217 233 255
217 233 255
217 233 255
217 233 255
217 233 255
217 233 255
217 233 255
217 233 255
217 233 255
217 233 255
217 233 255
217 233 255
217 233 255
217 233 255
217 233 255
217 233 255
217 233 255
217 233 255
217 233 255
217 233 255
217 233 255
217 233 255
217 233 255
217 233 255
217 233 255
217 233 255
217 233 255
217 233 255
217 233 255
217 233 255
217 233 255
217 233 255
217 233 255
217 233 255
217 233 255
217 233 255
217 233 255
217 233 255
217 233 255
217 233 255
217 233 255
217 233 255
217 233 255
217 233 255
217 233 255
217 233 255
217 233 255
217 233 255
217 233 255
217 233 255
217 233 255
217 233 255
217 233 255
217 233 255
217 233 255
217 233 255
217 233 255
217 233 255
217 233 255
217 233 255
217 233 255
217 233 255
171 184 214
6 18 117
5 12 115
0 7 113
0 0 113
0 0 113
0 0 113
0 0 113
0 0 113
0 0 113
0 0 113
0 0 113
0 14 115
5 21 116
1 20 116
0 20 116
0 20 116
0 20 116
0 20 116
0 20 116
0 19 116
0 13 115
8 8 116
8 17 116
0 19 116
0 15 118
0 15 115
2 3 113
4 10 113
4 18 118
12 38 118
4 37 122
10 38 126
9 46 132
29 50 132
23 44 126
40 43 119
88 95 130
129 134 123
145 153 138
164 172 174
177 184 178
172 175 176
172 171 171
176 175 170
175 177 168
170 174 163
168 168 156
149 150 133
144 149 135
140 143 129
138 141 124
125 133 111
129 134 111
168 167 160
171 172 168
172 177 175
127 132 111
172 173 167
172 171 166
164 165 158
160 161 156
163 161 154
166 162 154
158 158 151
155 156 149
151 151 143
151 155 139
141 149 120
134 144 109
130 144 111
133 148 115
135 152 118
125 145 107
114 135 93
104 128 81
100 124 69
93 118 58
95 120 62
88 114 46
88 116 40
99 126 69
103 132 75
96 128 57
99 131 67
96 124 57
94 124 49
94 125 58
89 120 47
92 123 50
96 124 43
100 129 52
92 123 40
96 125 53
96 122 50
98 122 59
97 123 57
98 124 55
101 127 64
102 127 70
99 124 57
91 120 49
87 116 62
74 106 106
36 59 127
10 19 120
0 15 116
0 10 113
4 0 113
11 0 113
1 0 113
0 0 113
0 0 113
0 0 113
0 0 113
0 0 113
0 0 113
0 0 113
0 0 113
0 0 113
0 0 113
0 0 113
0 0 113
2 2 113
5 6 113
0 0 113
0 0 113
0 0 113
0 0 113
0 0 113
0 0 113
1 1 113
3 8 113
0 9 114
0 11 114
0 12 114
0 13 114
0 12 113
0 11 113
0 12 113
3 13 115
5 17 116
4 20 117
0 22 118
7 25 121
12 22 120
7 14 116
10 12 115
6 10 114
0 9 114
0 11 114
6 13 115
8 10 115
10 11 114
10 11 114
0 2 113
0 0 113
0 0 113
0 0 113
0 0 113
0 0 113
0 0 113
0 0 113
0 0 113
0 0 113
1 2 113
6 7 113
2 10 114
2 13 115
150 162 195
217 233 255
217 233 255
217 233 255
217 233 255
217 233 255
217 233 255
217 233 255
217 233 255
217 233 255
217 233 255
217 233 255
217 233 255
217 233 255
217 233 255
217 233 255
217 233 255
217 233 255
217 233 255
217 233 255
217 233 255
217 233 255
217 233 255
217 233 255
217 233 255
217 233 255
217 233 255
217 233 255
217 233 255
217 233 255
217 233 255
217 233 255
217 233 255
217 233 255
217 233 255
217 233 255
217 233 255
217 233 255
217 233 255
217 233 255
217 233 255
217 233 255
217 233 255
217 233 255
217 233 255
217 233 255
217 233 255
217 233 255
217 233 255
217 233 255
217 233 255
217 233 255
217 233 255
217 233 255
217 233 255
217 233 255
217 233 255
217 233 255
217 233 255
217 233 255
217 233 255
217 233 255
217 233 255
217 233 255
217 233 255
217 233 255
217 233 255
217 233 255
217 233 255
217 233 255
217 233 255
217 233 255
217 233 255
217 233 255
217 233 255
217 233 255
217 233 255
217 233 255
217 233 255
217 233 255
217 233 255
217 233 255
217 233 255
217 233 255
217 233 255
217 233 255
217 233 255
217 233 255
217 233 255
217 233 255
217 233 255
217 233 255
217 233 255
217 233 255
217 233 255
217 233 255
217 233 255
217 233 255
217 233 255
217 233 255
217 233 255
217 233 255
217 233 255
217 233 255
217 233 255
217 233 255
217 233 255
217 233 255
217 233 255
217 233 255
217 233 255
217 233 255
217 233 255
217 233 255
217 233 255
217 233 255
218 233 255
218 233 255
218 233 255
218 233 255
218 233 255
218 233 255
218 233 255
218 233 255
218 233 255
218 233 255
218 233 255
218 233 255
218 233 255
218 233 255
218 233 255
218 233 255
218 233 255
218 233 255
218 233 255
218 233 255
218 233 255
218 233 255
218 233 255
218 233 255
218 233 255
218 233 255
218 233 255
217 233 255
217 233 255
217 233 255
217 233 255
217 233 255
217 233 255
217 233 255
217 233 255
217 233 255
217 233 255
217 233 255
217 233 255
217 233 255
217 233 255
217 233 255
217 233 255
217 233 255
217 233 255
217 233 255
217 233 255
217 233 255
217 233 255
217 233 255
217 233 255
217 233 255
217 233 255
217 233 255
217 233 255
217 233 255
217 233 255
217 233 255
217 233 255
217 233 255
217 233 255
217 233 255
217 233 255
217 233 255
217 233 255
217 233 255
217 233 255
217 233 255
217 233 255
217 233 255
217 233 255
217 233 255
217 233 255
217 233 255
217 233 255
217 233 255
217 233 255
217 233 255
217 233 255
217 233 255
217 233 255
217 233 255
217 233 255
217 233 255
217 233 255
217 233 255
217 233 255
217 233 255
217 233 255
217 233 255
217 233 255
217 233 255
217 233 255
217 233 255
217 233 255
217 233 255
217 233 255
217 233 255
217 233 255
217 233 255
217 233 255
217 233 255
217 233 255
217 233 255
217 233 255
217 233 255
217 233 255
217 233 255
217 233 255
217 233 255
217 233 255
217 233 255
217 233 255
217 233 255
182 195 223
7 21 117
0 11 114
0 0 113
0 0 113
0 0 113
0 0 113
0 0 113
0 0 113
0 0 113
0 0 113
0 0 113
0 4 114
0 19 116
0 20 116
0 20 116
0 20 116
0 19 116
0 19 116
0 20 116
0 20 116
0 19 116
0 16 116
5 13 115
3 15 115
0 15 115
0 10 114
0 0 113
10 12 114
6 18 116
3 20 117
6 16 115
2 20 117
8 39 127
14 39 125
15 39 126
15 43 130
26 33 119
22 27 117
120 123 130
150 157 147
182 192 184
179 185 172
184 186 176
187 187 176
192 188 187
177 177 164
176 175 167
173 173 165
148 150 134
147 150 137
160 161 150
163 162 152
161 161 153
163 163 154
176 174 166
184 181 175
179 176 169
170 173 163
171 173 160
182 178 169
171 167 161
168 164 160
164 160 154
168 164 158
158 158 153
156 156 151
152 153 143
144 151 131
139 150 121
134 148 118
135 148 117
133 147 110
130 147 110
118 137 95
110 132 86
106 129 78
100 124 69
93 118 59
96 123 68
86 114 37
85 113 35
104 131 76
101 129 75
89 118 52
94 123 62
89 117 49
88 117 42
86 118 49
83 115 41
92 124 54
100 129 53
102 131 60
96 125 53
97 124 56
100 124 63
103 127 74
109 133 81
102 129 62
97 124 52
104 127 74
96 122 60
89 118 76
51 85 125
26 44 121
19 19 115
0 14 115
0 7 112
0 0 113
0 0 113
0 6 113
0 4 113
0 0 113
0 0 113
0 0 113
0 0 113
0 0 113
0 0 113
0 0 113
0 0 113
0 0 113
0 0 113
0 0 113
0 0 113
0 0 113
0 0 113
0 0 113
0 0 113
0 0 113
6 6 113
0 0 113
0 0 113
0 0 113
0 0 113
0 0 113
0 0 113
0 0 113
0 0 113
0 0 113
0 0 113
0 0 113
0 0 113
0 0 113
0 0 113
0 0 113
0 6 113
2 7 114
0 4 114
4 5 114
8 9 113
7 7 113
0 0 113
0 2 113
9 10 113
12 3 113
10 9 113
0 0 113
0 0 113
0 0 113
0 0 113
0 0 113
0 0 113
0 0 113
0 0 113
0 0 113
0 0 113
0 0 113
0 0 113
0 0 113
0 1 113
22 23 115
186 199 226
217 233 255
217 233 255
217 233 255
217 233 255
217 233 255
217 233 255
217 233 255
217 233 255
217 233 255
217 233 255
217 233 255
217 233 255
217 233 255
217 233 255
217 233 255
217 233 255
217 233 255
217 233 255
217 233 255
217 233 255
217 233 255
217 233 255
217 233 255
217 233 255
217 233 255
217 233 255
217 233 255
217 233 255
217 233 255
217 233 255
217 233 255
217 233 255
217 233 255
217 233 255
217 233 255
217 233 255
217 233 255
217 233 255
217 233 255
217 233 255
217 233 255
217 233 255
217 233 255
217 233 255
217 233 255
217 233 255
217 233 255
217 233 255
217 233 255
217 233 255
217 233 255
217 233 255
217 233 255
217 233 255
217 233 255
217 233 255
217 233 255
217 233 255
217 233 255
217 233 255
217 233 255
217 233 255
217 233 255
217 233 255
217 233 255
217 233 255
217 233 255
217 233 255
217 233 255
217 233 255
217 233 255
217 233 255
217 233 255
217 233 255
217 233 255
217 233 255
217 233 255
217 233 255
217 233 255
217 233 255
217 233 255
217 233 255
217 233 255
217 233 255
217 233 255
217 233 255
218 233 255
218 233 255
218 233 255
218 233 255
218 233 255
218 233 255
218 233 255
218 233 255
218 233 255
218 233 255
218 233 255
218 233 255
218 233 255
218 233 255
218 233 255
218 233 255
218 233 255
218 233 255
218 233 255
218 233 255
218 233 255
218 233 255
218 233 255
218 233 255
218 233 255
218 233 255
218 233 255
218 233 255
218 233 255
218 233 255
218 233 255
218 233 255
218 233 255
218 233 255
218 233 255
218 233 255
218 233 255
218 233 255
218 233 255
218 233 255
218 233 255
218 233 255
218 233 255
218 233 255
218 233 255
218 233 255
218 233 255
218 233 255
218 233 255
218 233 255
218 233 255
218 233 255
218 233 255
218 233 255
218 233 255
218 233 255
218 233 255
218 233 255
218 233 255
218 233 255
218 233 255
218 233 255
218 233 255
218 233 255
218 233 255
218 233 255
218 233 255
218 233 255
218 233 255
218 233 255
218 233 255
218 233 255
218 233 255
218 233 255
218 233 255
218 233 255
218 233 255
218 233 255
218 233 255
218 233 255
218 233 255
218 233 255
218 233 255
218 233 255
218 233 255
218 233 255
218 233 255
218 233 255
218 233 255
218 233 255
218 233 255
218 233 255
218 233 255
218 233 255
218 233 255
218 233 255
218 233 255
217 233 255
218 233 255
218 233 255
217 233 255
217 233 255
217 233 255
217 233 255
217 233 255
217 233 255
217 233 255
217 233 255
217 233 255
217 233 255
217 233 255
217 233 255
217 233 255
217 233 255
217 233 255
217 233 255
217 233 255
217 233 255
217 233 255
217 233 255
217 233 255
217 233 255
217 233 255
217 233 255
217 233 255
217 233 255
217 233 255
217 233 255
217 233 255
217 233 255
217 233 255
217 233 255
217 233 255
217 233 255
217 233 255
217 233 255
217 233 255
217 233 255
217 233 255
217 233 255
217 233 255
206 221 245
53 59 128
0 4 113
0 0 113
0 0 113
0 0 113
0 0 113
0 0 113
0 0 113
0 0 113
0 0 113
0 0 113
0 2 114
0 16 116
0 19 117
0 20 116
0 20 116
0 20 116
0 19 116
0 19 116
0 20 116
0 20 116
0 20 116
0 16 115
0 9 114
0 8 114
0 5 113
0 3 113
0 0 113
7 12 114
0 20 116
0 13 115
7 15 115
11 29 121
8 32 123
10 26 119
7 33 124
15 42 129
10 28 121
26 35 121
122 124 131
149 154 145
187 192 190
182 186 177
202 209 203
190 195 188
182 180 176
174 174 170
171 167 158
159 164 156
151 156 142
159 161 149
155 155 139
169 171 164
174 173 166
183 181 177
192 185 181
188 183 175
188 183 175
186 187 179
178 179 163
190 189 184
185 182 175
176 174 169
176 173 166
180 179 173
165 166 157
155 157 148
152 157 147
143 152 129
134 146 117
138 151 124
134 147 118
129 142 103
128 145 103
115 134 86
106 129 75
96 120 54
92 118 59
83 111 45
81 109 29
88 117 46
84 113 39
94 124 56
87 119 50
85 115 48
86 116 42
91 119 55
89 118 50
84 115 46
81 113 34
89 121 39
91 122 40
95 124 49
99 127 61
101 127 66
105 129 72
106 130 74
110 135 80
104 131 70
100 127 62
100 126 60
89 119 61
60 99 138
12 43 130
28 16 117
18 19 110
16 22 117
0 4 113
0 0 113
0 0 114
8 3 113
7 3 113
0 0 113
0 0 113
0 0 113
0 0 113
0 0 113
0 0 113
0 0 113
0 0 113
0 0 113
0 0 113
0 0 113
0 0 113
0 0 113
0 0 113
0 0 113
0 0 113
0 0 113
8 9 113
2 2 113
0 0 113
0 0 113
0 0 113
0 0 113
0 0 113
0 0 113
0 0 113
0 0 113
0 0 113
0 0 113
0 0 113
0 0 113
0 0 113
0 0 113
0 0 113
0 0 113
0 0 113
0 0 113
0 0 113
0 0 113
0 0 113
0 0 113
0 0 113
0 0 113
1 1 113
0 0 113
0 0 113
0 0 113
0 0 113
0 0 113
0 0 113
0 0 113
0 0 113
0 0 113
0 0 113
0 0 113
0 0 113
0 0 113
0 0 113
0 0 113
57 61 128
200 215 240
217 233 255
217 233 255
217 233 255
217 233 255
217 233 255
217 233 255
217 233 255
217 233 255
217 233 255
217 233 255
217 233 255
217 233 255
217 233 255
217 233 255
217 233 255
217 233 255
217 233 255
217 233 255
217 233 255
217 233 255
217 233 255
217 233 255
217 233 255
217 233 255
217 233 255
217 233 255
217 233 255
217 233 255
217 233 255
217 233 255
217 233 255
217 233 255
217 233 255
217 233 255
217 233 255
217 233 255
217 233 255
217 233 255
217 233 255
217 233 255
217 233 255
218 233 255
218 233 255
218 233 255
218 233 255
218 233 255
218 233 255
218 233 255
218 233 255
218 233 255
218 233 255
218 233 255
218 233 255
218 233 255
218 233 255
218 233 255
218 233 255
218 233 255
218 233 255
218 233 255
218 233 255
218 233 255
218 233 255
218 233 255
218 233 255
218 233 255
218 233 255
218 233 255
218 233 255
218 233 255
218 233 255
218 233 255
218 233 255
218 233 255
218 233 255
218 233 255
218 233 255
218 233 255
218 233 255
218 233 255
218 233 255
218 233 255
218 233 255
218 233 255
218 233 255
218 233 255
218 233 255
218 233 255
218 233 255
218 233 255
218 233 255
218 233 255
218 233 255
218 233 255
218 233 255
218 233 255
218 233 255
218 233 255
218 233 255
218 233 255
218 233 255
218 233 255
218 233 255
218 233 255
218 233 255
218 233 255
218 233 255
218 233 255
218 233 255
218 233 255
218 233 255
218 233 255
218 233 255
218 234 255
218 234 255
218 234 255
218 234 255
218 234 255
218 234 255
218 234 255
218 234 255
218 234 255
218 234 255
218 234 255
218 234 255
218 234 255
218 234 255
218 234 255
218 234 255
218 234 255
218 234 255
218 234 255
218 234 255
218 234 255
218 234 255
218 234 255
218 234 255
218 234 255
218 234 255
218 234 255
218 234 255
218 234 255
218 234 255
218 234 255
218 234 255
218 233 255
218 233 255
218 233 255
218 233 255
218 233 255
218 233 255
218 233 255
218 233 255
218 233 255
218 233 255
218 233 255
218 233 255
218 233 255
218 233 255
218 233 255
218 233 255
218 233 255
218 233 255
218 233 255
218 233 255
218 233 255
218 233 255
218 233 255
218 233 255
218 233 255
218 233 255
218 233 255
218 233 255
218 233 255
218 233 255
218 233 255
218 233 255
218 233 255
218 233 255
218 233 255
218 233 255
218 233 255
218 233 255
218 233 255
218 233 255
218 233 255
218 233 255
218 233 255
218 233 255
218 233 255
218 233 255
218 233 255
218 233 255
218 233 255
218 233 255
218 233 255
218 233 255
218 233 255
218 233 255
218 233 255
218 233 255
218 233 255
218 233 255
218 233 255
218 233 255
218 233 255
218 233 255
218 233 255
218 233 255
218 233 255
218 233 255
218 233 255
218 233 255
218 233 255
218 233 255
218 233 255
218 233 255
218 233 255
218 233 255
218 233 255
218 233 255
218 233 255
218 233 255
218 233 255
218 233 255
214 230 252
117 126 168
0 1 113
0 0 113
0 0 113
0 0 113
0 0 113
0 0 113
0 0 113
0 0 113
0 0 113
0 0 113
0 0 113
0 7 115
0 20 116
0 20 116
0 20 116
0 20 116
0 20 116
0 20 116
0 20 116
0 19 116
0 18 116
0 16 116
0 9 114
0 0 113
0 0 113
0 0 113
0 0 113
0 0 113
0 12 114
0 14 115
0 0 112
9 21 116
8 22 117
3 13 116
13 9 114
2 22 121
11 30 123
13 20 117
13 26 120
92 95 126
148 151 140
179 180 173
148 159 176
166 182 189
181 187 185
192 192 182
171 170 164
162 162 152
137 144 130
140 146 126
155 158 145
151 153 141
164 164 155
173 174 166
183 185 178
202 204 204
187 191 182
175 176 169
185 181 176
183 183 175
185 184 174
190 191 183
190 189 178
188 187 176
175 177 163
160 164 148
152 157 143
149 156 140
140 149 126
132 143 115
133 145 116
135 147 116
135 149 111
127 144 99
114 132 84
108 131 77
91 117 47
85 113 46
81 109 50
88 113 53
85 115 43
93 121 50
95 128 57
90 122 30
87 120 46
94 121 49
87 116 53
92 119 46
88 115 43
88 119 55
92 125 43
92 123 48
100 128 62
105 131 70
109 134 81
108 133 79
105 131 68
107 132 72
98 127 65
94 122 50
96 122 46
82 121 83
40 82 146
9 34 115
23 17 119
16 17 119
14 21 110
0 0 113
0 0 116
11 0 115
16 0 113
14 0 112
0 0 113
0 0 113
0 0 113
0 0 113
0 0 113
0 0 113
0 0 113
0 0 113
0 0 113
0 0 113
0 0 113
0 0 113
0 0 113
0 0 113
2 3 113
0 0 113
0 0 113
0 0 113
0 0 113
0 0 113
0 0 113
0 0 113
0 0 113
0 0 113
0 0 113
0 0 113
0 0 113
0 0 113
0 0 113
0 0 113
0 0 113
0 0 113
0 0 113
0 0 113
0 0 113
0 0 113
0 0 113
0 0 113
0 0 113
0 0 113
0 0 113
0 0 113
0 0 113
0 0 113
0 0 113
0 0 113
0 0 113
0 0 113
0 0 113
0 0 113
0 0 113
0 0 113
0 0 113
0 0 113
0 0 113
0 0 113
0 0 113
0 0 113
0 0 113
0 0 113
84 90 144
215 231 253
218 233 255
218 233 255
218 233 255
218 233 255
218 233 255
218 233 255
218 233 255
218 233 255
218 233 255
218 233 255
218 233 255
218 233 255
218 233 255
218 233 255
218 233 255
218 233 255
218 233 255
218 233 255
218 233 255
218 233 255
218 233 255
218 233 255
218 233 255
218 233 255
218 233 255
218 233 255
218 233 255
218 233 255
218 233 255
218 233 255
218 233 255
218 233 255
218 233 255
218 233 255
218 233 255
218 233 255
218 233 255
218 233 255
218 233 255
218 233 255
218 233 255
218 233 255
218 233 255
218 233 255
218 233 255
218 233 255
218 233 255
218 233 255
218 233 255
218 233 255
218 233 255
218 233 255
218 233 255
218 233 255
218 233 255
218 233 255
218 233 255
218 233 255
218 233 255
218 233 255
218 233 255
218 233 255
218 233 255
218 233 255
218 233 255
218 233 255
218 233 255
218 233 255
218 233 255
218 233 255
218 233 255
218 233 255
218 233 255
218 233 255
218 233 255
218 233 255
218 233 255
218 233 255
218 234 255
218 233 255
218 234 255
218 234 255
218 234 255
218 234 255
218 234 255
218 234 255
218 234 255
218 234 255
218 234 255
218 234 255
218 234 255
218 234 255
218 234 255
218 234 255
218 234 255
218 234 255
218 234 255
218 234 255
218 234 255
218 234 255
218 234 255
218 234 255
218 234 255
218 234 255
218 234 255
218 234 255
218 234 255
218 234 255
218 234 255
218 234 255
218 234 255
218 234 255
218 234 255
218 234 255
218 234 255
218 234 255
218 234 255
218 234 255
218 234 255
218 234 255
218 234 255
218 234 255
218 234 255
218 234 255
218 234 255
218 234 255
218 234 255
218 234 255
218 234 255
218 234 255
218 234 255
218 234 255
218 234 255
218 234 255
218 234 255
218 234 255
218 234 255
218 234 255
218 234 255
218 234 255
218 234 255
218 234 255
218 234 255
218 234 255
218 234 255
218 234 255
218 234 255
218 234 255
218 234 255
218 234 255
218 234 255
218 234 255
218 234 255
218 234 255
218 234 255
218 234 255
218 234 255
218 234 255
218 234 255
218 234 255
218 234 255
218 234 255
218 234 255
218 234 255
218 234 255
218 234 255
218 234 255
218 234 255
218 234 255
218 234 255
218 234 255
218 234 255
218 234 255
218 234 255
218 234 255
218 234 255
218 234 255
218 234 255
218 234 255
218 234 255
218 234 255
218 234 255
218 234 255
218 234 255
218 234 255
218 234 255
218 234 255
218 234 255
218 234 255
218 234 255
218 234 255
218 234 255
218 234 255
218 233 255
218 233 255
218 233 255
218 233 255
218 233 255
218 233 255
218 233 255
218 233 255
218 233 255
218 233 255
218 233 255
218 233 255
218 233 255
218 233 255
218 233 255
218 233 255
218 233 255
218 233 255
218 233 255
218 233 255
218 233 255
218 233 255
218 233 255
218 233 255
218 233 255
218 233 255
218 233 255
218 233 255
218 233 255
218 233 255
218 233 255
142 153 188
0 0 113
0 0 113
0 0 113
0 0 113
0 0 113
0 0 113
0 0 113
0 0 113
0 0 113
0 0 113
0 0 113
0 0 113
0 9 115
0 17 116
0 14 116
0 12 116
0 18 116
0 20 116
0 20 116
0 13 116
0 0 115
0 0 115
0 0 114
0 0 113
0 0 113
0 0 113
0 0 113
0 0 113
0 4 113
0 12 115
3 3 112
5 9 113
0 12 115
0 9 114
17 10 114
21 9 114
5 13 118
15 14 115
14 19 116
16 38 125
85 90 132
146 148 138
175 181 179
83 94 155
27 37 124
109 109 147
183 183 178
165 165 159
149 153 144
134 147 128
134 145 119
148 155 136
142 148 133
160 162 150
164 164 154
177 176 170
189 193 185
178 177 169
171 171 163
168 170 165
166 167 161
153 153 142
174 174 162
177 178 163
168 170 155
155 162 147
148 155 138
146 152 134
140 147 127
133 142 119
132 143 114
129 141 107
134 143 112
126 146 101
120 139 84
115 135 87
94 121 52
94 115 62
88 115 41
90 119 45
93 118 53
100 131 62
109 137 83
105 132 62
95 131 63
90 126 50
86 140 107
90 128 82
89 139 94
83 140 126
89 153 136
97 136 98
85 115 98
88 113 108
95 120 76
101 128 58
99 125 68
91 124 44
94 125 44
99 126 68
91 119 36
96 121 49
85 118 98
32 63 133
18 21 116
11 12 115
9 21 112
14 9 114
0 0 113
0 0 113
0 0 113
0 0 113
0 0 113
0 0 113
0 0 113
0 0 113
0 0 113
0 0 113
0 0 113
0 0 113
0 0 113
0 0 113
0 0 113
0 0 113
0 0 113
0 0 113
0 0 113
6 7 113
0 0 113
0 0 113
0 0 113
0 0 113
0 0 113
0 0 113
0 0 113
0 0 113
0 0 113
0 0 113
0 0 113
0 0 113
0 0 113
0 0 113
0 0 113
0 0 113
0 0 113
0 0 113
0 0 113
0 0 113
0 0 113
0 0 113
0 0 113
0 0 113
0 0 113
0 0 113
0 0 113
0 0 113
0 0 113
0 0 113
0 0 113
0 0 113
0 0 113
0 0 113
0 0 113
0 0 113
0 0 113
0 0 113
0 0 113
0 0 113
0 0 113
0 0 113
0 0 113
0 0 113
0 0 113
0 0 113
139 149 185
218 233 255
218 233 255
218 233 255
218 233 255
218 233 255
218 233 255
218 233 255
218 233 255
218 233 255
218 233 255
218 233 255
218 233 255
218 233 255
218 233 255
218 233 255
218 233 255
218 233 255
218 233 255
218 233 255
218 233 255
218 233 255
218 233 255
218 233 255
218 233 255
218 233 255
218 233 255
218 233 255
218 233 255
218 233 255
218 233 255
218 233 255
218 233 255
218 233 255
218 234 255
218 234 255
218 234 255
218 234 255
218 234 255
218 234 255
218 234 255
218 234 255
218 234 255
218 234 255
218 234 255
218 234 255
218 234 255
218 234 255
218 234 255
218 234 255
218 234 255
218 234 255
218 234 255
218 234 255
218 234 255
218 234 255
218 234 255
218 234 255
218 234 255
218 234 255
218 234 255
218 234 255
218 234 255
218 234 255
218 234 255
218 234 255
218 234 255
218 234 255
218 234 255
218 234 255
218 234 255
218 234 255
218 234 255
218 234 255
218 234 255
218 234 255
218 234 255
218 234 255
218 234 255
218 234 255
218 234 255
218 234 255
218 234 255
218 234 255
218 234 255
218 234 255
218 234 255
218 234 255
218 234 255
218 234 255
218 234 255
218 234 255
218 234 255
218 234 255
218 234 255
218 234 255
218 234 255
218 234 255
218 234 255
218 234 255
218 234 255
218 234 255
218 234 255
218 234 255
218 234 255
218 234 255
218 234 255
218 234 255
218 234 255
218 234 255
218 234 255
218 234 255
218 234 255
218 234 255
218 234 255
218 234 255
218 234 255
218 234 255
218 234 255
218 234 255
218 234 255
218 234 255
218 234 255
218 234 255
218 234 255
218 234 255
218 234 255
218 234 255
218 234 255
218 234 255
218 234 255
218 234 255
218 234 255
218 234 255
218 234 255
218 234 255
218 234 255
218 234 255
218 234 255
218 234 255
218 234 255
218 234 255
218 234 255
218 234 255
218 234 255
218 234 255
218 234 255
218 234 255
218 234 255
218 234 255
218 234 255
218 234 255
218 234 255
218 234 255
218 234 255
218 234 255
218 234 255
218 234 255
218 234 255
218 234 255
218 234 255
218 234 255
218 234 255
218 234 255
218 234 255
218 234 255
218 234 255
218 234 255
218 234 255
218 234 255
218 234 255
218 234 255
218 234 255
218 234 255
218 234 255
218 234 255
218 234 255
218 234 255
218 234 255
218 234 255
218 234 255
218 234 255
218 234 255
218 234 255
218 234 255
218 234 255
218 234 255
218 234 255
218 234 255
218 234 255
218 234 255
218 234 255
218 234 255
218 234 255
218 234 255
218 234 255
218 234 255
218 234 255
218 234 255
218 234 255
218 234 255
218 234 255
218 234 255
218 234 255
218 234 255
218 234 255
218 234 255
218 234 255
218 234 255
218 234 255
218 234 255
218 234 255
218 234 255
218 234 255
218 234 255
218 234 255
218 234 255
218 234 255
218 234 255
218 234 255
218 234 255
218 234 255
218 234 255
218 234 255
192 206 232
21 24 116
0 0 113
0 0 113
0 0 113
0 0 113
0 0 113
0 0 113
0 0 113
0 0 113
0 0 113
0 0 113
8 0 113
1 0 113
0 2 115
0 4 115
0 0 115
0 7 115
0 20 116
0 20 116
0 18 116
0 0 113
0 0 113
0 0 113
0 0 113
0 0 113
0 0 113
0 0 113
0 0 113
0 0 113
0 5 113
0 8 114
5 6 113
5 9 113
0 0 113
7 9 114
12 12 116
15 16 116
9 10 116
15 25 118
23 32 124
19 34 117
55 57 128
143 145 139
165 168 167
63 74 141
35 40 128
75 82 141
173 176 166
161 165 154
154 162 147
134 145 123
124 142 99
127 141 110
123 133 104
125 132 108
157 160 149
170 168 162
167 166 159
169 169 160
181 181 175
166 171 161
162 162 151
164 165 157
167 169 154
169 170 155
170 172 159
160 164 148
147 153 137
144 152 133
133 146 122
124 140 110
126 141 108
125 140 106
127 143 94
120 138 90
118 135 93
116 134 85
124 144 96
108 130 80
102 128 69
96 135 101
88 132 111
100 133 93
104 138 74
96 143 96
102 125 67
93 127 55
93 144 117
82 150 132
62 185 203
40 125 177
11 87 152
23 46 133
17 20 122
15 24 115
25 35 129
66 92 113
77 114 86
61 107 123
68 116 127
98 127 85
106 134 82
99 127 50
99 120 77
55 79 117
22 26 120
13 6 114
5 18 113
3 14 112
0 0 113
0 0 113
0 0 113
0 0 113
0 0 113
0 0 113
0 0 113
0 0 113
0 0 113
0 0 113
0 0 113
0 0 113
0 0 113
0 0 113
0 0 113
0 0 113
0 0 113
0 0 113
0 0 113
0 0 113
0 0 113
0 0 113
0 0 113
0 0 113
0 0 113
0 0 113
0 0 113
0 0 113
0 0 113
0 0 113
0 0 113
0 0 113
0 0 113
0 0 113
0 0 113
0 0 113
0 0 113
0 0 113
0 0 113
0 0 113
0 0 113
0 0 113
0 0 113
0 0 113
0 0 113
0 0 113
0 0 113
0 0 113
0 0 113
0 0 113
0 0 113
0 0 113
0 0 113
0 0 113
0 0 113
0 0 113
0 0 113
0 0 113
0 0 113
0 0 113
0 0 113
0 0 113
0 0 113
0 0 113
0 0 113
0 0 113
22 23 115
190 204 229
218 234 255
218 234 255
218 234 255
218 234 255
218 234 255
218 234 255
218 234 255
218 234 255
218 234 255
218 234 255
218 234 255
218 234 255
218 234 255
218 234 255
218 234 255
218 234 255
218 234 255
218 234 255
218 234 255
218 234 255
218 234 255
218 234 255
218 234 255
218 234 255
218 234 255
218 234 255
218 234 255
218 234 255
218 234 255
218 234 255
218 234 255
218 234 255
218 234 255
218 234 255
218 234 255
218 234 255
218 234 255
218 234 255
218 234 255
218 234 255
218 234 255
218 234 255
218 234 255
218 234 255
218 234 255
218 234 255
218 234 255
218 234 255
218 234 255
218 234 255
218 234 255
218 234 255
218 234 255
218 234 255
218 234 255
218 234 255
218 234 255
218 234 255
218 234 255
218 234 255
218 234 255
218 234 255
218 234 255
218 234 255
218 234 255
218 234 255
218 234 255
218 234 255
218 234 255
218 234 255
218 234 255
218 234 255
218 234 255
218 234 255
218 234 255
218 234 255
218 234 255
218 234 255
218 234 255
218 234 255
218 234 255
218 234 255
218 234 255
218 234 255
218 234 255
218 234 255
218 234 255
218 234 255
218 234 255
218 234 255
218 234 255
218 234 255
218 234 255
218 234 255
218 234 255
218 234 255
218 234 255
218 234 255
218 234 255
218 234 255
218 234 255
218 234 255
218 234 255
218 234 255
218 234 255
218 234 255
218 234 255
218 234 255
218 234 255
218 234 255
218 234 255
218 234 255
218 234 255
218 234 255
218 234 255
218 234 255
218 234 255
218 234 255
218 234 255
218 234 255
218 234 255
218 234 255
218 234 255
218 234 255
218 234 255
218 234 255
218 234 255
218 234 255
218 234 255
218 234 255
218 234 255
218 234 255
218 234 255
218 234 255
218 234 255
218 234 255
218 234 255
218 234 255
218 234 255
218 234 255
218 234 255
218 234 255
218 234 255
218 234 255
218 234 255
218 234 255
218 234 255
218 234 255
218 234 255
218 234 255
218 234 255
218 234 255
218 234 255
218 234 255
218 234 255
218 234 255
218 234 255
218 234 255
218 234 255
218 234 255
218 234 255
218 234 255
218 234 255
218 234 255
218 234 255
218 234 255
218 234 255
218 234 255
218 234 255
218 234 255
218 234 255
218 234 255
218 234 255
218 234 255
218 234 255
218 234 255
218 234 255
218 234 255
218 234 255
218 234 255
218 234 255
218 234 255
218 234 255
218 234 255
218 234 255
218 234 255
218 234 255
218 234 255
218 234 255
218 234 255
218 234 255
218 234 255
218 234 255
218 234 255
218 234 255
218 234 255
218 234 255
218 234 255
218 234 255
218 234 255
218 234 255
218 234 255
218 234 255
218 234 255
218 234 255
218 234 255
218 234 255
218 234 255
218 234 255
218 234 255
218 234 255
218 234 255
218 234 255
218 234 255
218 234 255
218 234 255
218 234 255
218 234 255
218 234 255
218 234 255
218 234 255
209 224 247
78 84 140
0 0 113
0 0 113
0 0 113
0 0 113
0 0 113
0 0 113
0 0 113
0 0 113
0 0 113
0 0 113
8 0 113
17 0 113
3 0 113
0 0 115
3 3 115
6 6 115
3 14 116
0 20 116
0 20 116
0 12 114
0 0 113
0 0 113
0 0 113
0 0 113
0 0 113
0 0 113
0 0 113
0 0 113
0 0 113
0 0 113
0 0 113
0 0 113
0 0 113
0 0 113
6 7 114
3 4 113
10 11 114
6 6 113
9 15 116
18 24 122
21 36 122
58 55 136
151 155 150
166 164 160
92 97 148
31 57 132
59 78 143
163 167 168
161 166 159
154 159 146
132 147 112
122 143 110
117 135 99
112 128 90
108 121 89
135 140 124
146 146 137
153 153 146
171 172 162
168 169 154
168 171 160
166 167 157
170 172 163
166 169 154
158 162 146
162 164 150
165 170 156
152 159 146
138 149 128
124 140 111
123 138 103
130 144 109
132 147 111
131 141 101
127 139 109
115 138 90
112 136 72
111 135 63
96 137 133
58 118 151
42 109 157
33 100 156
40 94 157
61 143 171
63 170 189
64 155 170
84 133 104
76 128 116
76 150 153
76 172 184
26 119 172
35 34 129
19 28 121
5 22 124
12 29 118
7 21 107
28 41 119
34 50 125
15 40 121
26 54 129
54 114 143
97 128 97
109 133 84
95 121 58
77 99 94
29 37 115
9 16 113
10 13 116
7 18 111
2 4 113
0 0 113
0 0 113
0 0 113
0 0 113
0 0 113
0 0 113
0 0 113
0 0 113
0 0 113
0 0 113
0 0 113
0 0 113
0 0 113
0 0 113
0 0 113
0 0 113
0 0 113
0 0 113
0 0 113
0 0 113
0 0 113
0 0 113
0 0 113
0 0 113
0 0 113
0 0 113
0 0 113
0 0 113
0 0 113
0 0 113
0 0 113
0 0 113
0 0 113
0 0 113
0 0 113
0 0 113
0 0 113
0 0 113
0 0 113
0 0 113
0 0 113
0 0 113
0 0 113
0 0 113
0 0 113
0 0 113
0 0 113
0 0 113
0 0 113
0 0 113
0 0 113
0 0 113
0 0 113
0 0 113
0 0 113
0 0 113
0 0 113
0 0 113
0 0 113
0 0 113
0 0 113
0 0 113
0 0 113
0 0 113
0 0 113
2 2 113
92 99 149
213 229 251
218 234 255
218 234 255
218 234 255
218 234 255
218 234 255
218 234 255
218 234 255
218 234 255
218 234 255
218 234 255
218 234 255
218 234 255
218 234 255
218 234 255
218 234 255
218 234 255
218 234 255
218 234 255
218 234 255
218 234 255
218 234 255
218 234 255
218 234 255
218 234 255
218 234 255
218 234 255
218 234 255
218 234 255
218 234 255
218 234 255
218 234 255
218 234 255
218 234 255
218 234 255
218 234 255
218 234 255
218 234 255
218 234 255
218 234 255
218 234 255
218 234 255
218 234 255
218 234 255
218 234 255
218 234 255
218 234 255
218 234 255
218 234 255
218 234 255
218 234 255
218 234 255
218 234 255
218 234 255
218 234 255
218 234 255
218 234 255
218 234 255
218 234 255
218 234 255
218 234 255
218 234 255
218 234 255
218 234 255
218 234 255
218 234 255
218 234 255
218 234 255
218 234 255
218 234 255
218 234 255
218 234 255
218 234 255
218 234 255
218 234 255
218 234 255
218 234 255
218 234 255
218 234 255
218 234 255
218 234 255
218 234 255
218 234 255
218 234 255
218 234 255
218 234 255
218 234 255
218 234 255
218 234 255
218 234 255
218 234 255
218 234 255
218 234 255
218 234 255
218 234 255
218 234 255
218 234 255
218 234 255
218 234 255
218 234 255
218 234 255
218 234 255
218 234 255
218 234 255
218 234 255
218 234 255
218 234 255
218 234 255
218 234 255
218 234 255
218 234 255
218 234 255
218 234 255
218 234 255
218 234 255
218 234 255
218 234 255
218 234 255
218 234 255
218 234 255
218 234 255
218 234 255
218 234 255
218 234 255
218 234 255
218 234 255
218 234 255
218 234 255
218 234 255
218 234 255
218 234 255
218 234 255
218 234 255
218 234 255
218 234 255
218 234 255
218 234 255
218 234 255
218 234 255
218 234 255
218 234 255
218 234 255
218 234 255
218 234 255
218 234 255
218 234 255
218 234 255
218 234 255
218 234 255
218 234 255
218 234 255
218 234 255
218 234 255
218 234 255
218 234 255
218 234 255
218 234 255
218 234 255
218 234 255
218 234 255
218 234 255
218 234 255
218 234 255
218 234 255
218 234 255
218 234 255
218 234 255
218 234 255
218 234 255
218 234 255
218 234 255
218 234 255
218 234 255
218 234 255
218 234 255
218 234 255
218 234 255
218 234 255
218 234 255
218 234 255
218 234 255
218 234 255
218 234 255
218 234 255
218 234 255
218 234 255
218 234 255
218 234 255
218 234 255
218 234 255
218 234 255
218 234 255
218 234 255
218 234 255
218 234 255
218 234 255
218 234 255
218 234 255
218 234 255
218 234 255
218 234 255
218 234 255
218 234 255
218 234 255
218 234 255
218 234 255
218 234 255
218 234 255
218 234 255
218 234 255
218 234 255
218 234 255
218 234 255
218 234 255
218 234 255
218 234 255
218 234 255
218 234 255
218 234 255
218 234 255
218 234 255
127 136 175
0 0 113
0 0 113
0 0 113
0 0 113
0 0 113
0 0 113
0 0 113
0 0 113
0 0 113
0 0 113
0 0 113
8 0 113
9 0 113
0 0 113
0 0 115
9 10 116
11 15 117
1 20 116
0 19 116
0 15 115
0 2 113
0 0 113
0 0 113
0 0 113
0 0 113
0 0 113
0 0 113
0 0 113
0 0 113
0 0 113
0 0 113
0 0 113
0 0 113
0 0 113
8 10 113
9 13 113
0 8 112
5 7 112
19 23 114
18 20 116
12 18 115
9 28 117
34 40 131
89 100 148
143 154 157
161 159 163
87 107 154
43 106 169
156 166 174
186 187 180
162 168 151
142 157 125
114 138 91
111 134 86
108 128 90
113 127 98
132 139 119
136 142 128
149 149 137
175 175 166
168 169 155
179 177 168
163 161 150
166 166 154
168 171 156
149 153 136
134 140 125
140 145 129
156 163 147
148 158 142
144 154 134
137 147 120
140 151 124
138 149 126
129 146 112
123 139 99
117 144 113
102 136 109
87 132 122
41 93 146
13 55 141
25 34 126
15 23 123
7 28 110
27 40 123
26 85 143
39 117 164
43 118 165
31 101 158
31 113 164
42 124 168
0 100 160
27 33 119
13 25 118
19 6 112
21 10 113
8 4 110
5 10 113
8 17 119
0 22 119
40 16 126
16 57 134
51 118 155
116 135 94
112 133 88
104 126 74
63 83 111
0 26 114
17 8 115
5 12 112
0 7 112
0 0 113
0 0 113
0 0 113
0 0 113
0 0 113
0 0 113
0 0 113
0 0 113
0 0 113
0 0 113
0 0 113
0 0 113
0 0 113
0 0 113
0 0 113
0 0 113
0 0 113
0 0 113
0 0 113
0 0 113
0 0 113
0 0 113
0 0 113
0 0 113
0 0 113
0 0 113
0 0 113
0 0 113
0 0 113
0 0 113
0 0 113
0 0 113
0 0 113
0 0 113
0 0 113
0 0 113
0 0 113
0 0 113
0 0 113
0 0 113
0 0 113
0 0 113
0 0 113
0 0 113
0 0 113
0 0 113
0 0 113
0 0 113
0 0 113
0 0 113
0 0 113
0 0 113
0 0 113
0 0 113
0 0 113
0 0 113
0 0 113
0 0 113
0 0 113
0 0 113
0 0 113
0 0 113
0 0 113
0 0 113
0 0 113
0 0 113
9 11 113
131 141 178
218 234 255
218 234 255
218 234 255
218 234 255
218 234 255
218 234 255
218 234 255
218 234 255
218 234 255
218 234 255
218 234 255
218 234 255
218 234 255
218 234 255
218 234 255
218 234 255
218 234 255
218 234 255
218 234 255
218 234 255
218 234 255
218 234 255
218 234 255
218 234 255
218 234 255
218 234 255
218 234 255
218 234 255
218 234 255
218 234 255
218 234 255
218 234 255
218 234 255
218 234 255
218 234 255
218 234 255
218 234 255
218 234 255
218 234 255
218 234 255
218 234 255
218 234 255
218 234 255
218 234 255
218 234 255
218 234 255
218 234 255
218 234 255
218 234 255
218 234 255
218 234 255
218 234 255
218 234 255
218 234 255
218 234 255
218 234 255
218 234 255
218 234 255
218 234 255
218 234 255
218 234 255
218 234 255
218 234 255
218 234 255
218 234 255
218 234 255
218 234 255
218 234 255
218 234 255
218 234 255
218 234 255
218 234 255
218 234 255
218 234 255
218 234 255
218 234 255
218 234 255
218 234 255
218 234 255
218 234 255
218 234 255
218 234 255
218 234 255
218 234 255
218 234 255
218 234 255
218 234 255
218 234 255
218 234 255
218 234 255
218 234 255
218 234 255
218 234 255
218 234 255
218 234 255
218 234 255
218 234 255
218 234 255
218 234 255
218 234 255
218 234 255
218 234 255
218 234 255
218 234 255
218 234 255
218 234 255
218 234 255
218 234 255
218 234 255
218 234 255
218 234 255
218 234 255
218 234 255
218 234 255
218 234 255
218 234 255
218 234 255
218 234 255
218 234 255
218 234 255
218 234 255
218 234 255
218 234 255
218 234 255
218 234 255
218 234 255
218 234 255
218 234 255
218 234 255
218 234 255
218 234 255
218 234 255
218 234 255
218 234 255
218 234 255
218 234 255
218 234 255
218 234 255
218 234 255
218 234 255
218 234 255
218 234 255
218 234 255
218 234 255
218 234 255
218 234 255
218 234 255
218 234 255
218 234 255
218 234 255
218 234 255
218 234 255
218 234 255
218 234 255
218 234 255
218 234 255
218 234 255
218 234 255
218 234 255
218 234 255
218 234 255
218 234 255
218 234 255
218 234 255
218 234 255
218 234 255
218 234 255
218 234 255
218 234 255
218 234 255
218 234 255
218 234 255
218 234 255
218 234 255
218 234 255
218 234 255
218 234 255
218 234 255
218 234 255
218 234 255
218 234 255
218 234 255
218 234 255
218 234 255
218 234 255
218 234 255
218 234 255
218 234 255
218 234 255
218 234 255
218 234 255
218 234 255
218 234 255
218 234 255
218 234 255
218 234 255
218 234 255
218 234 255
218 234 255
218 234 255
218 234 255
218 234 255
218 234 255
218 234 255
218 234 255
218 234 255
218 234 255
218 234 255
218 234 255
218 234 255
218 234 255
218 234 255
218 234 255
218 234 255
218 234 255
218 234 255
218 234 255
218 234 255
218 234 255
176 188 217
30 33 117
0 0 113
0 0 113
0 0 113
0 0 113
0 0 113
0 0 113
0 0 113
0 0 113
0 0 113
0 0 113
0 0 113
0 0 113
0 0 113
0 0 113
0 0 114
10 11 116
7 18 116
1 19 116
0 14 115
0 9 114
0 0 113
0 0 113
0 0 113
0 0 113
0 0 113
0 0 113
0 0 113
0 0 113
0 0 113
0 0 113
0 0 113
0 0 113
0 0 113
0 0 113
3 5 112
2 6 112
4 6 112
15 16 114
31 34 119
15 19 111
23 31 114
12 20 117
13 35 132
28 64 145
104 115 148
162 159 155
123 141 156
46 95 152
100 115 158
173 177 172
163 163 154
141 153 125
111 137 78
108 131 78
110 123 83
117 124 97
130 138 116
137 143 121
145 148 130
164 163 152
166 164 155
169 167 157
168 164 160
166 164 151
169 171 156
152 157 141
133 141 125
144 153 140
161 167 152
161 166 151
156 162 145
148 154 133
142 151 130
138 150 127
131 145 112
113 138 115
82 125 137
38 87 149
26 53 136
27 25 121
12 20 114
14 25 119
22 12 116
4 11 116
6 9 116
11 20 110
11 18 117
4 30 115
14 18 109
28 20 114
27 37 116
9 31 120
20 22 115
5 14 117
10 1 114
9 5 116
10 17 114
19 15 113
17 6 111
22 10 107
27 12 114
16 38 117
50 103 148
113 141 105
115 137 77
113 134 76
93 120 92
23 38 121
19 8 111
18 10 117
9 8 111
7 0 113
6 0 113
3 3 113
0 0 113
0 0 113
0 0 113
0 0 113
0 0 113
0 0 113
0 0 113
0 0 113
0 0 113
0 0 113
0 0 113
0 0 113
0 0 113
0 0 113
0 0 113
0 0 113
0 0 113
0 0 113
0 0 113
0 0 113
0 0 113
0 0 113
0 0 113
0 0 113
0 0 113
0 0 113
0 0 113
0 0 113
0 0 113
0 0 113
0 0 113
0 0 113
0 0 113
0 0 113
0 0 113
0 0 113
0 0 113
0 0 113
0 0 113
0 0 113
0 0 113
0 0 113
0 0 113
0 0 113
0 0 113
0 0 113
0 0 113
0 0 113
0 0 113
0 0 113
0 0 113
0 0 113
0 0 113
0 0 113
0 0 113
0 0 113
0 0 113
0 0 113
0 0 113
0 0 113
0 0 113
0 0 113
0 0 113
0 0 113
22 25 115
183 197 224
218 234 255
218 234 255
218 234 255
218 234 255
218 234 255
218 234 255
218 234 255
218 234 255
218 234 255
218 234 255
218 234 255
218 234 255
218 234 255
218 234 255
218 234 255
218 234 255
218 234 255
218 234 255
218 234 255
218 234 255
218 234 255
218 234 255
218 234 255
218 234 255
218 234 255
218 234 255
218 234 255
218 234 255
218 234 255
218 234 255
218 234 255
218 234 255
218 234 255
218 234 255
218 234 255
218 234 255
218 234 255
218 234 255
218 234 255
218 234 255
218 234 255
218 234 255
218 234 255
218 234 255
218 234 255
218 234 255
218 234 255
218 234 255
218 234 255
218 234 255
218 234 255
218 234 255
218 234 255
218 234 255
218 234 255
218 234 255
218 234 255
218 234 255
218 234 255
218 234 255
218 234 255
218 234 255
218 234 255
218 234 255
218 234 255
218 234 255
218 234 255
218 234 255
218 234 255
218 234 255
218 234 255
218 234 255
218 234 255
218 234 255
218 234 255
218 234 255
218 234 255
218 234 255
218 234 255
218 234 255
218 234 255
218 234 255
218 234 255
218 234 255
218 234 255
218 234 255
218 234 255
218 234 255
218 234 255
218 234 255
218 234 255
218 234 255
218 234 255
218 234 255
218 234 255
218 234 255
218 234 255
218 234 255
218 234 255
218 234 255
218 234 255
218 234 255
218 234 255
218 234 255
218 234 255
218 234 255
218 234 255
218 234 255
218 234 255
218 234 255
218 234 255
218 234 255
218 234 255
218 234 255
218 234 255
218 234 255
218 234 255
218 234 255
218 234 255
218 234 255
218 234 255
218 234 255
218 234 255
218 234 255
218 234 255
218 234 255
218 234 255
218 234 255
218 234 255
218 234 255
218 234 255
218 234 255
218 234 255
218 234 255
218 234 255
218 234 255
218 234 255
218 234 255
218 234 255
218 234 255
218 234 255
218 234 255
218 234 255
218 234 255
218 234 255
218 234 255
218 234 255
218 234 255
218 234 255
218 234 255
218 234 255
218 234 255
218 234 255
218 234 255
218 234 255
218 234 255
218 234 255
218 234 255
218 234 255
218 234 255
218 234 255
218 234 255
218 234 255
218 234 255
218 234 255
218 234 255
218 234 255
218 234 255
218 234 255
218 234 255
218 234 255
218 234 255
218 234 255
218 234 255
218 234 255
218 234 255
218 234 255
218 234 255
218 234 255
218 234 255
218 234 255
218 234 255
218 234 255
218 234 255
218 234 255
218 234 255
218 234 255
218 234 255
218 234 255
218 234 255
218 234 255
218 234 255
218 234 255
218 234 255
218 234 255
218 234 255
218 234 255
218 234 255
218 234 255
218 234 255
218 234 255
218 234 255
218 234 255
218 234 255
218 234 255
218 234 255
218 234 255
218 234 255
218 234 255
218 234 255
218 234 255
218 234 255
218 234 255
218 234 255
218 234 255
218 234 255
218 234 255
209 224 247
81 87 142
0 0 113
0 0 113
0 0 113
0 0 113
0 0 113
0 0 113
0 0 113
0 0 113
0 0 113
0 0 113
0 0 113
0 0 113
0 0 113
0 0 113
0 0 113
0 0 114
5 6 115
12 14 114
7 8 113
0 0 113
0 0 113
0 0 113
0 0 113
0 0 113
0 0 113
0 0 113
0 0 113
0 0 113
0 0 113
0 0 113
0 0 113
0 0 113
0 0 113
0 0 113
1 2 113
5 6 113
6 7 113
5 6 113
9 9 112
14 18 114
0 17 111
12 15 121
17 30 124
30 54 129
48 68 132
92 96 147
174 174 168
164 162 159
49 74 151
33 63 137
111 113 151
151 161 157
136 149 124
111 137 85
105 128 55
109 125 85
113 119 90
123 131 109
137 143 125
147 152 138
159 162 150
167 167 157
162 162 151
169 169 154
178 180 174
177 181 169
161 166 152
141 145 130
157 163 147
162 166 151
159 166 152
158 163 147
152 158 144
148 156 140
142 152 129
130 148 127
74 118 157
17 52 134
24 30 118
16 29 121
12 27 120
4 21 119
0 12 116
7 11 114
7 12 113
0 0 113
0 0 113
0 0 113
0 0 113
0 0 113
0 0 113
0 0 113
0 0 113
0 0 113
0 0 113
0 0 113
0 0 113
0 0 113
0 0 113
0 0 113
5 11 112
6 16 113
21 17 119
48 76 129
109 136 123
120 140 89
114 133 83
101 132 65
67 80 115
24 14 118
15 12 110
21 19 116
22 14 114
17 5 118
19 21 112
5 12 116
15 20 114
0 0 113
0 0 113
0 0 113
0 0 113
0 0 113
0 0 113
0 0 113
0 0 113
0 0 113
0 0 113
0 0 113
0 0 113
0 0 113
0 0 113
0 0 113
0 0 113
0 0 113
0 0 113
0 0 113
0 0 113
0 0 113
0 0 113
0 0 113
0 0 113
0 0 113
0 0 113
0 0 113
0 0 113
0 0 113
0 0 113
0 0 113
0 0 113
0 0 113
0 0 113
0 0 113
0 0 113
0 0 113
0 0 113
0 0 113
0 0 113
0 0 113
0 0 113
0 0 113
0 0 113
0 0 113
0 0 113
0 0 113
0 0 113
0 0 113
0 0 113
0 0 113
0 0 113
0 0 113
0 0 113
0 0 113
0 0 113
0 0 113
0 0 113
0 0 113
0 0 113
0 0 113
0 0 113
5 5 113
69 74 134
216 231 253
218 234 255
218 234 255
218 234 255
218 234 255
218 234 255
218 234 255
218 234 255
218 234 255
218 234 255
218 234 255
218 234 255
218 234 255
218 234 255
218 234 255
218 234 255
218 234 255
218 234 255
218 234 255
218 234 255
218 234 255
218 234 255
218 234 255
218 234 255
218 234 255
218 234 255
218 234 255
218 234 255
218 234 255
218 234 255
218 234 255
218 234 255
218 234 255
218 234 255
218 234 255
218 234 255
218 234 255
218 234 255
218 234 255
218 234 255
218 234 255
218 234 255
218 234 255
218 234 255
218 234 255
218 234 255
218 234 255
218 234 255
218 234 255
218 234 255
218 234 255
218 234 255
218 234 255
218 234 255
218 234 255
218 234 255
218 234 255
218 234 255
218 234 255
218 234 255
218 234 255
218 234 255
218 234 255
218 234 255
218 234 255
218 234 255
218 234 255
218 234 255
218 234 255
218 234 255
218 234 255
218 234 255
218 234 255
218 234 255
218 234 255
218 234 255
218 234 255
218 234 255
218 234 255
218 234 255
218 234 255
218 234 255
218 234 255
218 234 255
218 234 255
218 234 255
218 234 255
218 234 255
218 234 255
218 234 255
218 234 255
218 234 255
218 234 255
218 234 255
218 234 255
218 234 255
218 234 255
218 234 255
218 234 255
218 234 255
218 234 255
218 234 255
218 234 255
218 234 255
218 234 255
218 234 255
218 234 255
218 234 255
218 234 255
218 234 255
218 234 255
218 234 255
218 234 255
218 234 255
218 234 255
218 234 255
218 234 255
218 234 255
218 234 255
218 234 255
218 234 255
218 234 255
218 234 255
218 234 255
218 234 255
218 234 255
218 234 255
218 234 255
218 234 255
218 234 255
218 234 255
218 234 255
218 234 255
218 234 255
218 234 255
218 234 255
218 234 255
218 234 255
218 234 255
218 234 255
218 234 255
218 234 255
218 234 255
218 234 255
218 234 255
218 234 255
218 234 255
218 234 255
218 234 255
218 234 255
218 234 255
218 234 255
218 234 255
218 234 255
218 234 255
218 234 255
218 234 255
218 234 255
218 234 255
218 234 255
218 234 255
218 234 255
218 234 255
218 234 255
218 234 255
218 234 255
218 234 255
218 234 255
218 234 255
218 234 255
218 234 255
218 234 255
218 234 255
218 234 255
218 234 255
218 234 255
218 234 255
218 234 255
218 234 255
218 234 255
218 234 255
218 234 255
218 234 255
218 234 255
218 234 255
218 234 255
218 234 255
218 234 255
218 234 255
218 234 255
218 234 255
218 234 255
218 234 255
218 234 255
218 234 255
218 234 255
218 234 255
218 234 255
218 234 255
218 234 255
218 234 255
218 234 255
218 234 255
218 234 255
218 234 255
218 234 255
218 234 255
218 234 255
218 234 255
218 234 255
218 234 255
218 234 255
218 234 255
218 234 255
218 234 255
218 234 255
218 234 255
160 172 203
0 0 113
0 0 113
0 0 113
0 0 113
0 0 113
0 0 113
0 0 113
0 0 113
0 0 113
0 0 113
0 0 113
0 0 113
0 0 113
0 0 113
0 0 113
0 0 113
0 0 114
9 9 114
8 8 113
0 0 113
0 0 113
0 0 113
0 0 113
0 0 113
0 0 113
0 0 113
0 0 113
0 0 113
0 0 113
0 0 113
0 0 113
0 0 113
0 0 113
0 0 113
0 0 113
2 2 113
2 2 112
1 1 113
10 11 114
13 14 114
3 4 113
0 14 116
0 25 122
6 36 128
35 45 133
105 122 150
174 186 190
196 197 192
155 152 154
100 111 148
25 54 138
33 55 146
105 140 166
156 158 136
117 143 96
103 131 77
101 125 70
115 123 99
123 131 108
139 143 127
149 153 140
159 162 149
166 169 158
164 163 150
176 176 160
179 179 169
172 175 159
166 170 152
158 164 141
170 177 157
159 166 148
161 168 154
168 173 159
169 170 155
161 164 150
149 155 137
114 134 139
6 63 134
22 40 126
23 29 126
17 30 120
14 28 120
16 25 120
9 19 117
6 10 113
0 0 112
0 0 113
0 0 113
0 0 113
0 0 113
0 0 113
0 0 113
0 0 113
0 0 113
0 0 113
0 0 113
0 0 113
0 0 113
0 0 113
0 0 113
0 0 113
4 7 113
10 11 112
8 19 116
20 30 121
86 109 116
113 136 82
114 135 84
110 135 75
98 121 94
23 22 108
14 18 115
17 34 123
16 41 127
10 30 118
13 22 116
16 17 108
20 11 115
0 0 113
0 0 113
0 0 113
0 0 113
0 0 113
0 0 113
0 0 113
0 0 113
0 0 113
0 0 113
0 0 113
0 0 113
0 0 113
0 0 113
0 0 113
0 0 113
0 0 113
0 0 113
0 0 113
0 0 113
0 0 113
0 0 113
0 0 113
0 0 113
0 0 113
0 0 113
0 0 113
0 0 113
0 0 113
0 0 113
0 0 113
0 0 113
0 0 113
0 0 113
0 0 113
0 0 113
0 0 113
0 0 113
0 0 113
0 0 113
0 0 113
0 0 113
0 0 113
0 0 113
0 0 113
0 0 113
0 0 113
0 0 113
0 0 113
0 0 113
0 0 113
0 0 113
0 0 113
0 0 113
0 0 113
0 0 113
0 0 113
0 0 113
0 0 113
0 0 113
0 0 113
0 0 113
0 0 113
7 8 113
154 165 198
218 234 255
218 234 255
218 234 255
218 234 255
218 234 255
218 234 255
218 234 255
218 234 255
218 234 255
218 234 255
218 234 255
218 234 255
218 234 255
218 234 255
218 234 255
218 234 255
218 234 255
218 234 255
218 234 255
218 234 255
218 234 255
218 234 255
218 234 255
218 234 255
218 234 255
218 234 255
218 234 255
218 234 255
218 234 255
218 234 255
218 234 255
218 234 255
218 234 255
218 234 255
218 234 255
218 234 255
218 234 255
218 234 255
218 234 255
218 234 255
218 234 255
218 234 255
218 234 255
218 234 255
218 234 255
218 234 255
218 234 255
218 234 255
218 234 255
218 234 255
218 234 255
218 234 255
218 234 255
218 234 255
218 234 255
218 234 255
218 234 255
218 234 255
218 234 255
218 234 255
218 234 255
218 234 255
218 234 255
218 234 255
218 234 255
218 234 255
218 234 255
218 234 255
218 234 255
218 234 255
218 234 255
218 234 255
218 234 255
218 234 255
218 234 255
218 234 255
218 234 255
218 234 255
218 234 255
218 234 255
218 234 255
218 234 255
218 234 255
218 234 255
218 234 255
218 234 255
218 234 255
218 234 255
218 234 255
218 234 255
218 234 255
218 234 255
218 234 255
218 234 255
218 234 255
218 234 255
218 234 255
218 234 255
218 234 255
218 234 255
218 234 255
218 234 255
218 234 255
218 234 255
218 234 255
218 234 255
218 234 255
218 234 255
218 234 255
218 234 255
218 234 255
218 234 255
218 234 255
218 234 255
218 234 255
218 234 255
218 234 255
218 234 255
218 234 255
218 234 255
218 234 255
218 234 255
218 234 255
218 234 255
218 234 255
218 234 255
218 234 255
218 234 255
218 234 255
218 234 255
218 234 255
218 234 255
218 234 255
218 234 255
218 234 255
218 234 255
218 234 255
218 234 255
218 234 255
218 234 255
218 234 255
218 234 255
218 234 255
218 234 255
218 234 255
218 234 255
218 234 255
218 234 255
218 234 255
218 234 255
218 234 255
218 234 255
218 234 255
218 234 255
218 234 255
218 234 255
218 234 255
218 234 255
218 234 255
218 234 255
218 234 255
218 234 255
218 234 255
218 234 255
218 234 255
218 234 255
218 234 255
218 234 255
218 234 255
218 234 255
218 234 255
218 234 255
218 234 255
218 234 255
218 234 255
218 234 255
218 234 255
218 234 255
218 234 255
218 234 255
218 234 255
218 234 255
218 234 255
218 234 255
218 234 255
218 234 255
218 234 255
218 234 255
218 234 255
218 234 255
218 234 255
218 234 255
218 234 255
218 234 255
218 234 255
218 234 255
218 234 255
218 234 255
218 234 255
218 234 255
218 234 255
218 234 255
218 234 255
218 234 255
218 234 255
218 234 255
218 234 255
218 234 255
218 234 255
218 234 255
218 234 255
218 234 255
218 234 255
218 234 255
218 234 255
196 210 235
21 23 115
0 0 113
0 0 113
0 0 113
0 0 113
0 0 113
0 0 113
0 0 113
0 0 113
0 0 113
0 0 113
0 0 113
0 0 113
0 0 113
0 0 113
0 6 113
0 0 113
0 0 113
6 7 113
0 0 113
0 0 113
0 0 113
0 0 113
0 0 113
0 0 113
0 0 113
0 0 113
0 0 113
0 0 113
0 0 113
0 0 113
0 0 113
0 0 113
0 0 113
0 0 113
0 0 113
0 0 113
0 0 113
0 0 113
7 8 113
10 12 113
0 5 113
5 17 116
9 21 118
0 23 120
17 35 126
52 88 153
155 164 178
183 191 186
165 161 155
128 136 141
44 75 143
25 51 130
53 121 171
131 166 171
143 156 132
101 134 55
101 129 52
109 123 85
114 124 96
133 140 123
137 144 128
152 156 140
165 168 155
178 180 169
194 195 181
186 188 176
167 168 155
167 171 159
161 165 141
171 173 153
165 169 152
156 160 141
167 173 158
170 173 159
160 165 147
153 159 135
114 140 142
25 54 134
25 40 132
24 42 126
4 15 116
6 20 117
14 22 119
13 24 117
12 15 114
0 0 113
0 0 113
0 0 113
0 0 113
0 0 113
0 0 113
0 0 113
0 0 113
0 0 113
0 0 113
0 0 113
0 0 113
0 0 113
0 0 113
0 0 113
0 0 113
3 1 113
23 10 112
12 24 114
13 12 114
30 46 127
94 129 119
116 138 79
102 125 86
107 124 74
76 77 117
11 23 116
45 57 126
44 68 129
41 59 126
46 60 125
21 27 110
13 0 114
0 0 113
0 0 113
0 0 113
0 0 113
0 0 113
0 0 113
0 0 113
0 0 113
0 0 113
0 0 113
0 0 113
0 0 113
0 0 113
0 0 113
0 0 113
0 0 113
0 0 113
0 0 113
0 0 113
0 0 113
0 0 113
0 0 113
0 0 113
0 0 113
0 0 113
0 0 113
0 0 113
0 0 113
0 0 113
0 0 113
0 0 113
0 0 113
0 0 113
0 0 113
0 0 113
0 0 113
0 0 113
0 0 113
0 0 113
0 0 113
0 0 113
0 0 113
0 0 113
0 0 113
0 0 113
0 0 113
0 0 113
0 0 113
0 0 113
0 0 113
0 0 113
0 0 113
0 0 113
0 0 113
0 0 113
0 0 113
0 0 113
0 0 113
0 0 113
0 0 113
0 0 113
0 0 113
0 0 113
3 3 113
33 35 117
198 212 237
218 234 255
218 234 255
218 234 255
218 234 255
218 234 255
218 234 255
218 234 255
218 234 255
218 234 255
218 234 255
218 234 255
218 234 255
218 234 255
218 234 255
218 234 255
218 234 255
218 234 255
218 234 255
218 234 255
218 234 255
218 234 255
218 234 255
218 234 255
218 234 255
218 234 255
218 234 255
218 234 255
218 234 255
218 234 255
218 234 255
218 234 255
218 234 255
218 234 255
218 234 255
218 234 255
218 234 255
218 234 255
218 234 255
218 234 255
218 234 255
218 234 255
218 234 255
218 234 255
218 234 255
218 234 255
218 234 255
218 234 255
218 234 255
218 234 255
218 234 255
218 234 255
218 234 255
218 234 255
218 234 255
218 234 255
218 234 255
218 234 255
218 234 255
218 234 255
218 234 255
218 234 255
218 234 255
218 234 255
218 234 255
218 234 255
218 234 255
218 234 255
218 234 255
218 234 255
218 234 255
218 234 255
218 234 255
218 234 255
218 234 255
218 234 255
218 234 255
218 234 255
218 234 255
218 234 255
218 234 255
218 234 255
218 234 255
218 234 255
218 234 255
218 234 255
218 234 255
218 234 255
218 234 255
218 234 255
218 234 255
218 234 255
218 234 255
218 234 255
218 234 255
218 234 255
218 234 255
218 234 255
218 234 255
218 234 255
218 234 255
218 234 255
218 234 255
218 234 255
218 234 255
218 234 255
218 234 255
218 234 255
218 234 255
218 234 255
218 234 255
218 234 255
218 234 255
218 234 255
218 234 255
218 234 255
218 234 255
218 234 255
218 234 255
218 234 255
218 234 255
218 234 255
218 234 255
218 234 255
218 234 255
218 234 255
218 234 255
218 234 255
218 234 255
218 234 255
218 234 255
218 234 255
218 234 255
218 234 255
218 234 255
218 234 255
218 234 255
218 234 255
218 234 255
218 234 255
218 234 255
218 234 255
218 234 255
218 234 255
218 234 255
218 234 255
218 234 255
218 234 255
218 234 255
218 234 255
218 234 255
218 234 255
218 234 255
218 234 255
218 234 255
218 234 255
218 234 255
218 234 255
218 234 255
218 234 255
218 234 255
218 234 255
218 234 255
218 234 255
218 234 255
218 234 255
218 234 255
218 234 255
218 234 255
218 234 255
218 234 255
218 234 255
218 234 255
218 234 255
218 234 255
218 234 255
218 234 255
218 234 255
218 234 255
218 234 255
218 234 255
218 234 255
218 234 255
218 234 255
218 234 255
218 234 255
218 234 255
218 234 255
218 234 255
218 234 255
218 234 255
218 234 255
218 234 255
218 234 255
218 234 255
218 234 255
218 234 255
218 234 255
218 234 255
218 234 255
218 234 255
218 234 255
218 234 255
218 234 255
218 234 255
218 234 255
218 234 255
218 234 255
218 234 255
218 234 255
218 234 255
218 234 255
218 234 255
218 234 255
218 234 255
104 112 158
0 0 113
0 0 113
0 0 113
0 0 113
0 0 113
0 0 113
0 0 113
0 0 113
0 0 113
0 0 113
0 0 113
0 0 113
0 0 113
0 0 113
0 0 113
0 0 113
0 0 113
0 0 113
0 0 113
0 0 113
0 0 113
0 0 113
0 0 113
0 0 113
0 0 113
0 0 113
0 0 113
0 0 113
0 0 113
0 0 113
0 0 113
0 0 113
0 0 113
0 0 113
0 0 113
0 0 113
0 0 113
0 0 113
0 0 113
1 2 113
6 7 113
0 0 113
6 7 114
11 16 116
16 20 117
17 30 117
19 36 123
47 70 139
75 134 175
144 159 168
149 146 135
106 111 148
31 57 136
25 52 135
56 144 185
128 175 168
109 134 96
100 129 64
102 123 70
107 118 81
112 120 93
132 139 121
150 154 138
162 166 152
185 188 176
197 200 188
185 190 179
172 174 167
165 168 157
166 168 156
179 182 172
163 168 156
143 150 129
159 166 147
166 175 161
158 167 148
149 160 132
128 149 142
61 71 138
23 43 129
15 21 116
2 11 113
5 16 115
6 18 116
0 16 116
0 8 113
0 0 112
0 0 113
0 0 113
0 0 113
0 0 113
0 0 113
0 0 113
0 0 113
0 0 113
0 0 113
0 0 113
0 0 113
0 0 113
0 0 113
0 0 113
0 0 113
1 0 113
13 6 113
2 20 107
16 21 118
13 29 131
54 92 145
94 126 93
100 124 59
115 130 84
86 88 114
15 28 117
21 32 116
27 38 107
29 41 116
55 66 127
29 39 115
10 18 117
4 8 113
0 0 113
0 0 113
0 0 113
0 0 113
0 0 113
0 0 113
0 0 113
0 0 113
0 0 113
0 0 113
0 0 113
0 0 113
0 0 113
0 0 113
0 0 113
0 0 113
0 0 113
0 0 113
0 0 113
0 0 113
0 0 113
0 0 113
0 0 113
0 0 113
0 0 113
0 0 113
0 0 113
0 0 113
0 0 113
0 0 113
0 0 113
0 0 113
0 0 113
0 0 113
0 0 113
0 0 113
0 0 113
0 0 113
0 0 113
0 0 113
0 0 113
0 0 113
0 0 113
0 0 113
0 0 113
0 0 113
0 0 113
0 0 113
0 0 113
0 0 113
0 0 113
0 0 113
0 0 113
0 0 113
0 0 113
0 0 113
0 0 113
0 0 113
0 0 113
0 0 113
0 0 113
0 0 113
0 0 113
6 6 113
105 113 158
218 234 255
218 234 255
218 234 255
218 234 255
218 234 255
218 234 255
218 234 255
218 234 255
218 234 255
218 234 255
218 234 255
218 234 255
218 234 255
218 234 255
218 234 255
218 234 255
218 234 255
218 234 255
218 234 255
218 234 255
218 234 255
218 234 255
218 234 255
218 234 255
218 234 255
218 234 255
218 234 255
218 234 255
218 234 255
218 234 255
218 234 255
218 234 255
218 234 255
218 234 255
218 234 255
218 234 255
218 234 255
218 234 255
218 234 255
218 234 255
218 234 255
218 234 255
218 234 255
218 234 255
218 234 255
218 234 255
218 234 255
218 234 255
218 234 255
218 234 255
218 234 255
218 234 255
218 234 255
218 234 255
218 234 255
218 234 255
218 234 255
218 234 255
218 234 255
218 234 255
218 234 255
218 234 255
218 234 255
218 234 255
218 234 255
218 234 255
218 234 255
218 234 255
218 234 255
218 234 255
218 234 255
218 234 255
218 234 255
218 234 255
218 234 255
218 234 255
218 234 255
218 234 255
218 234 255
218 234 255
218 234 255
218 234 255
218 234 255
218 234 255
218 234 255
218 234 255
218 234 255
218 234 255
218 234 255
218 234 255
218 234 255
218 234 255
218 234 255
218 234 255
218 234 255
218 234 255
218 234 255
218 234 255
218 234 255
218 234 255
218 234 255
218 234 255
218 234 255
218 234 255
218 234 255
218 234 255
218 234 255
218 234 255
218 234 255
218 234 255
218 234 255
218 234 255
218 234 255
218 234 255
218 234 255
218 234 255
218 234 255
218 234 255
218 234 255
218 234 255
218 234 255
218 234 255
218 234 255
218 234 255
218 234 255
218 234 255
218 234 255
218 234 255
218 234 255
218 234 255
218 234 255
218 234 255
218 234 255
218 234 255
218 234 255
218 234 255
218 234 255
218 234 255
218 234 255
218 234 255
218 234 255
218 234 255
218 234 255
218 234 255
218 234 255
218 234 255
218 234 255
218 234 255
218 234 255
218 234 255
218 234 255
218 234 255
218 234 255
218 234 255
218 234 255
218 234 255
218 234 255
218 234 255
218 234 255
218 234 255
218 234 255
218 234 255
218 234 255
218 234 255
218 234 255
218 234 255
218 234 255
218 234 255
218 234 255
218 234 255
218 234 255
218 234 255
218 234 255
218 234 255
218 234 255
218 234 255
218 234 255
218 234 255
218 234 255
218 234 255
218 234 255
218 234 255
218 234 255
218 234 255
218 234 255
218 234 255
218 234 255
218 234 255
218 234 255
218 234 255
218 234 255
218 234 255
218 234 255
218 234 255
218 234 255
218 234 255
218 234 255
218 234 255
218 234 255
218 234 255
218 234 255
218 234 255
218 234 255
218 234 255
218 234 255
218 234 255
218 234 255
218 234 255
218 234 255
218 234 255
218 234 255
218 234 255
218 234 255
170 182 212
0 0 113
0 0 113
0 0 113
0 0 113
0 0 113
0 0 113
0 0 113
0 0 113
0 0 113
0 0 113
0 0 113
0 0 113
0 0 113
0 0 113
0 0 113
0 0 113
0 0 113
0 0 113
0 0 113
0 0 113
0 0 113
0 0 113
0 0 113
0 0 113
0 0 113
0 0 113
0 0 113
0 0 113
0 0 113
0 0 113
0 0 113
0 0 113
0 0 113
0 0 113
0 0 113
0 0 113
0 0 113
0 0 113
0 0 113
0 0 113
0 0 113
6 4 113
0 3 113
6 7 114
13 17 117
20 18 118
29 25 115
18 26 119
16 35 132
25 77 151
85 125 175
150 161 152
119 130 139
34 58 145
34 41 129
54 122 164
129 162 152
139 148 112
112 142 69
95 128 65
104 120 76
110 121 87
127 136 113
148 153 136
150 154 139
162 163 146
169 173 158
182 190 182
196 204 204
183 190 181
171 174 166
164 169 157
140 147 127
143 154 135
157 166 148
165 173 159
159 164 149
149 160 137
138 147 139
50 57 124
14 41 116
21 17 117
0 9 112
5 6 114
6 7 115
0 0 115
0 13 113
0 7 113
0 0 113
0 0 113
0 0 113
0 0 113
0 0 113
0 0 113
0 0 113
0 0 113
0 0 113
0 0 113
0 0 113
0 0 113
0 0 113
0 0 113
0 0 113
0 0 113
5 18 112
8 19 115
12 12 116
16 24 111
22 38 130
44 92 142
90 111 86
114 131 95
70 85 129
27 11 113
15 47 129
16 43 129
13 38 125
10 29 114
23 31 111
12 20 110
0 6 113
0 0 113
0 0 113
0 0 113
0 0 113
0 0 113
0 0 113
0 0 113
0 0 113
0 0 113
0 0 113
0 0 113
0 0 113
0 0 113
0 0 113
0 0 113
0 0 113
0 0 113
0 0 113
0 0 113
0 0 113
0 0 113
0 0 113
0 0 113
0 0 113
0 0 113
0 0 113
0 0 113
0 0 113
0 0 113
0 0 113
0 0 113
0 0 113
0 0 113
0 0 113
0 0 113
0 0 113
0 0 113
0 0 113
0 0 113
0 0 113
0 0 113
0 0 113
0 0 113
0 0 113
0 0 113
0 0 113
0 0 113
0 0 113
0 0 113
0 0 113
0 0 113
0 0 113
0 0 113
0 0 113
0 0 113
0 0 113
0 0 113
0 0 113
0 0 113
0 0 113
0 0 113
0 0 113
0 0 113
1 1 113
19 21 114
179 192 219
218 234 255
218 234 255
218 234 255
218 234 255
218 234 255
218 234 255
218 234 255
218 234 255
218 234 255
218 234 255
218 234 255
218 234 255
218 234 255
218 234 255
218 234 255
218 234 255
218 234 255
218 234 255
218 234 255
218 234 255
218 234 255
218 234 255
218 234 255
218 234 255
218 234 255
218 234 255
218 234 255
218 234 255
218 234 255
218 234 255
218 234 255
218 234 255
218 234 255
218 234 255
218 234 255
218 234 255
218 234 255
218 234 255
218 234 255
218 234 255
218 234 255
218 234 255
218 234 255
218 234 255
218 234 255
218 234 255
218 234 255
218 234 255
218 234 255
218 234 255
218 234 255
218 234 255
218 234 255
218 234 255
218 234 255
218 234 255
218 234 255
218 234 255
218 234 255
218 234 255
218 234 255
218 234 255
218 234 255
218 234 255
218 234 255
218 234 255
218 234 255
218 234 255
218 234 255
218 234 255
218 234 255
218 234 255
218 234 255
218 234 255
218 234 255
218 234 255
218 234 255
218 234 255
218 234 255
218 234 255
218 234 255
218 234 255
218 234 255
218 234 255
218 234 255
218 234 255
218 234 255
218 234 255
218 234 255
218 234 255
218 234 255
218 234 255
218 234 255
218 234 255
218 234 255
218 234 255
218 234 255
218 234 255
218 234 255
218 234 255
218 234 255
218 234 255
218 234 255
218 234 255
218 234 255
218 234 255
218 234 255
218 234 255
218 234 255
218 234 255
218 234 255
218 234 255
218 234 255
218 234 255
218 234 255
218 234 255
218 234 255
218 234 255
218 234 255
218 234 255
218 234 255
218 234 255
218 234 255
218 234 255
218 234 255
218 234 255
218 234 255
218 234 255
218 234 255
218 234 255
218 234 255
218 234 255
218 234 255
218 234 255
218 234 255
218 234 255
218 234 255
218 234 255
218 234 255
218 234 255
218 234 255
218 234 255
218 234 255
218 234 255
218 234 255
218 234 255
218 234 255
218 234 255
218 234 255
218 234 255
218 234 255
218 234 255
218 234 255
218 234 255
218 234 255
218 234 255
218 234 255
218 234 255
218 234 255
218 234 255
218 234 255
218 234 255
218 234 255
218 234 255
218 234 255
218 234 255
218 234 255
218 234 255
218 234 255
218 234 255
218 234 255
218 234 255
218 234 255
218 234 255
218 234 255
218 234 255
218 234 255
218 234 255
218 234 255
218 234 255
218 234 255
218 234 255
218 234 255
218 234 255
218 234 255
218 234 255
218 234 255
218 234 255
218 234 255
218 234 255
218 234 255
218 234 255
218 234 255
218 234 255
218 234 255
218 234 255
218 234 255
218 234 255
218 234 255
218 234 255
218 234 255
218 234 255
218 234 255
218 234 255
218 234 255
218 234 255
218 234 255
218 234 255
218 234 255
218 234 255
218 234 255
211 227 249
75 81 138
0 0 113
0 0 113
0 0 113
0 0 113
0 0 113
0 0 113
0 0 113
0 0 113
0 0 113
0 0 113
0 0 113
0 0 113
0 0 113
0 0 113
0 0 113
0 0 113
0 0 113
0 0 113
0 0 113
0 0 113
0 0 113
0 0 113
0 0 113
0 0 113
0 0 113
0 0 113
0 0 113
0 0 113
0 0 113
0 0 113
0 0 113
0 0 113
0 0 113
0 0 113
0 0 113
0 0 113
0 0 113
0 0 113
0 0 113
0 0 113
3 0 113
15 6 111
10 11 114
10 18 117
5 17 118
7 28 121
18 11 107
32 16 117
8 47 127
25 56 134
65 114 168
171 177 173
135 137 141
62 84 144
18 29 122
18 68 136
77 167 186
113 161 163
120 142 96
97 128 58
101 130 68
105 115 84
127 140 114
135 147 124
148 151 135
157 157 146
163 163 149
169 173 161
174 178 167
160 161 145
158 160 145
154 161 145
142 145 125
126 140 113
140 154 136
148 158 142
152 159 141
132 143 141
50 63 129
11 32 125
0 22 110
17 6 113
0 0 113
0 0 113
0 0 113
0 0 113
0 0 113
0 0 113
0 0 113
0 0 113
0 0 113
0 0 113
0 0 113
0 0 113
0 0 113
0 0 113
0 0 113
0 0 113
0 0 113
0 0 113
0 0 113
0 0 113
0 0 113
0 0 113
15 16 112
21 15 113
15 15 115
9 18 118
10 33 121
15 51 129
56 95 138
68 101 132
36 47 121
19 23 108
16 40 129
31 55 131
47 57 118
28 48 116
31 42 119
15 30 117
12 27 113
17 12 114
6 7 113
5 6 113
11 12 114
1 1 112
0 0 113
0 0 113
0 0 113
0 0 113
0 0 113
0 0 113
0 0 113
0 0 113
0 0 113
0 0 113
0 0 113
0 0 113
0 0 113
0 0 113
0 0 113
0 0 113
0 0 113
0 0 113
0 0 113
0 0 113
0 0 113
0 0 113
0 0 113
0 0 113
0 0 113
0 0 113
0 0 113
0 0 113
0 0 113
0 0 113
0 0 113
0 0 113
0 0 113
0 0 113
0 0 113
0 0 113
0 0 113
0 0 113
0 0 113
0 0 113
0 0 113
0 0 113
0 0 113
0 0 113
0 0 113
0 0 113
0 0 113
0 0 113
0 0 113
0 0 113
0 0 113
0 0 113
0 0 113
0 0 113
0 0 113
0 0 113
0 0 113
0 0 113
0 0 113
5 6 113
78 83 134
215 231 253
218 234 255
218 234 255
218 234 255
218 234 255
218 234 255
218 234 255
218 234 255
218 234 255
218 234 255
218 234 255
218 234 255
218 234 255
218 234 255
218 234 255
218 234 255
218 234 255
218 234 255
218 234 255
218 234 255
218 234 255
218 234 255
218 234 255
218 234 255
218 234 255
218 234 255
218 234 255
218 234 255
218 234 255
218 234 255
218 234 255
218 234 255
218 234 255
218 234 255
218 234 255
218 234 255
218 234 255
218 234 255
218 234 255
218 234 255
218 234 255
218 234 255
218 234 255
218 234 255
218 234 255
218 234 255
218 234 255
218 234 255
218 234 255
218 234 255
218 234 255
218 234 255
218 234 255
218 234 255
218 234 255
218 234 255
218 234 255
218 234 255
218 234 255
218 234 255
218 234 255
218 234 255
218 234 255
218 234 255
218 234 255
218 234 255
218 234 255
218 234 255
218 234 255
218 234 255
218 234 255
218 234 255
218 234 255
218 234 255
218 234 255
218 234 255
218 234 255
218 234 255
218 234 255
218 234 255
218 234 255
218 234 255
218 234 255
218 234 255
218 234 255
218 234 255
218 234 255
218 234 255
218 234 255
218 234 255
218 234 255
218 234 255
218 234 255
218 234 255
218 234 255
218 234 255
218 234 255
218 234 255
218 234 255
218 234 255
218 234 255
218 234 255
218 234 255
218 234 255
218 234 255
218 234 255
218 234 255
218 234 255
218 234 255
218 234 255
218 234 255
218 234 255
218 234 255
218 234 255
218 234 255
218 234 255
218 234 255
218 234 255
218 234 255
218 234 255
218 234 255
218 234 255
218 234 255
218 234 255
218 234 255
218 234 255
218 234 255
218 234 255
218 234 255
218 234 255
218 234 255
218 234 255
218 234 255
218 234 255
218 234 255
218 234 255
218 234 255
218 234 255
218 234 255
218 234 255
218 234 255
218 234 255
218 234 255
218 234 255
218 234 255
218 234 255
218 234 255
218 234 255
218 234 255
218 234 255
218 234 255
218 234 255
218 234 255
218 234 255
218 234 255
218 234 255
218 234 255
218 234 255
218 234 255
218 234 255
218 234 255
218 234 255
218 234 255
218 234 255
218 234 255
218 234 255
218 234 255
218 234 255
218 234 255
218 234 255
218 234 255
218 234 255
218 234 255
218 234 255
218 234 255
218 234 255
218 234 255
218 234 255
218 234 255
218 234 255
218 234 255
218 234 255
218 234 255
218 234 255
218 234 255
218 234 255
218 234 255
218 234 255
218 234 255
218 234 255
218 234 255
218 234 255
218 234 255
218 234 255
218 234 255
218 234 255
218 234 255
218 234 255
218 234 255
218 234 255
218 234 255
218 234 255
218 234 255
218 234 255
218 234 255
218 234 255
218 234 255
218 234 255
218 234 255
218 234 255
218 234 255
159 170 201
0 0 113
0 0 113
0 0 113
0 0 113
0 0 113
0 0 113
0 0 113
0 0 113
0 0 113
0 0 113
0 0 113
0 0 113
0 0 113
0 0 113
0 0 113
0 0 113
0 0 113
0 0 113
0 0 113
0 0 113
0 0 113
0 0 113
0 0 113
0 0 113
0 0 113
0 0 113
0 0 113
0 0 113
0 0 113
0 0 113
0 0 113
0 0 113
0 0 113
0 0 113
0 0 113
0 0 113
0 0 113
0 0 113
0 0 113
0 0 113
0 0 113
2 0 113
3 1 113
0 0 113
0 0 113
0 0 113
10 11 114
11 14 115
4 24 120
8 42 129
15 52 136
91 137 172
183 187 186
163 163 151
78 94 139
17 34 130
36 29 119
22 70 136
56 130 170
116 162 154
110 138 72
97 126 59
103 119 61
117 122 89
126 138 121
139 149 128
154 151 133
161 158 147
171 169 156
176 178 169
163 164 152
164 167 156
168 170 156
165 170 157
126 139 106
132 148 123
122 139 107
138 151 129
110 123 124
37 48 125
11 18 119
10 14 108
21 20 117
0 0 113
0 0 113
0 0 113
0 0 113
0 0 113
0 0 113
0 0 113
0 0 113
0 0 113
0 0 113
0 0 113
0 0 113
0 0 113
0 0 113
0 0 113
0 0 113
0 0 113
0 0 113
0 0 113
0 0 113
0 0 113
0 0 113
12 15 111
8 14 110
22 21 112
17 16 116
19 32 120
26 51 128
15 59 134
4 41 121
15 11 112
27 0 114
24 23 126
47 65 124
105 131 119
40 55 116
27 46 127
22 34 120
18 32 115
22 27 116
7 11 112
6 9 113
12 11 113
13 6 113
0 0 113
0 0 113
0 0 113
0 0 113
0 0 113
0 0 113
0 0 113
0 0 113
0 0 113
0 0 113
0 0 113
0 0 113
0 0 113
0 0 113
0 0 113
0 0 113
0 0 113
0 0 113
0 0 113
0 0 113
0 0 113
0 0 113
0 0 113
0 0 113
0 0 113
0 0 113
0 0 113
0 0 113
0 0 113
0 0 113
0 0 113
0 0 113
0 0 113
0 0 113
0 0 113
0 0 113
0 0 113
0 0 113
0 0 113
0 0 113
0 0 113
0 0 113
0 0 113
0 0 113
0 0 113
0 0 113
0 0 113
0 0 113
0 0 113
0 0 113
0 0 113
0 0 113
0 0 113
0 0 113
0 0 113
0 0 113
0 0 113
0 0 113
0 0 113
0 0 113
24 26 115
167 178 204
218 234 255
218 234 255
218 234 255
218 234 255
218 234 255
218 234 255
218 234 255
218 234 255
218 234 255
218 234 255
218 234 255
218 234 255
218 234 255
218 234 255
218 234 255
218 234 255
218 234 255
218 234 255
218 234 255
218 234 255
218 234 255
218 234 255
218 234 255
218 234 255
218 234 255
218 234 255
218 234 255
218 234 255
218 234 255
218 234 255
218 234 255
218 234 255
218 234 255
218 234 255
218 234 255
218 234 255
218 234 255
218 234 255
218 234 255
218 234 255
218 234 255
218 234 255
218 234 255
218 234 255
218 234 255
218 234 255
218 234 255
218 234 255
218 234 255
218 234 255
218 234 255
218 234 255
218 234 255
218 234 255
218 234 255
218 234 255
218 234 255
218 234 255
218 234 255
218 234 255
218 234 255
218 234 255
218 234 255
218 234 255
218 234 255
218 234 255
218 234 255
218 234 255
218 234 255
218 234 255
218 234 255
218 234 255
218 234 255
218 234 255
218 234 255
218 234 255
218 234 255
218 234 255
218 234 255
218 234 255
218 234 255
218 234 255
218 234 255
218 234 255
218 234 255
218 234 255
218 234 255
218 234 255
218 234 255
218 234 255
218 234 255
218 234 255
218 234 255
218 234 255
218 234 255
218 234 255
218 234 255
218 234 255
218 234 255
218 234 255
218 234 255
218 234 255
218 234 255
218 234 255
218 234 255
218 234 255
218 234 255
218 234 255
218 234 255
218 234 255
218 234 255
218 234 255
218 234 255
218 234 255
218 234 255
218 234 255
218 234 255
218 234 255
218 234 255
218 234 255
218 234 255
218 234 255
218 234 255
218 234 255
218 234 255
218 234 255
218 234 255
218 234 255
218 234 255
218 234 255
218 234 255
218 234 255
218 234 255
218 234 255
218 234 255
218 234 255
218 234 255
218 234 255
218 234 255
218 234 255
218 234 255
218 234 255
218 234 255
218 234 255
218 234 255
218 234 255
218 234 255
218 234 255
218 234 255
218 234 255
218 234 255
218 234 255
218 234 255
218 234 255
218 234 255
218 234 255
218 234 255
218 234 255
218 234 255
218 234 255
218 234 255
218 234 255
218 234 255
218 234 255
218 234 255
218 234 255
218 234 255
218 234 255
218 234 255
218 234 255
218 234 255
218 234 255
218 234 255
218 234 255
218 234 255
218 234 255
218 234 255
218 234 255
218 234 255
218 234 255
218 234 255
218 234 255
218 234 255
218 234 255
218 234 255
218 234 255
218 234 255
218 234 255
218 234 255
218 234 255
218 234 255
218 234 255
218 234 255
218 234 255
218 234 255
218 234 255
218 234 255
218 234 255
218 234 255
218 234 255
218 234 255
218 234 255
218 234 255
218 234 255
218 234 255
218 234 255
218 234 255
218 234 255
218 234 255
210 226 248
53 57 126
0 0 113
0 0 113
0 0 113
0 0 113
0 0 113
0 0 113
0 0 113
0 0 113
0 0 113
0 0 113
0 0 113
0 0 113
0 0 113
0 0 113
0 0 113
0 0 113
0 0 113
0 0 114
0 0 113
0 0 113
0 0 113
0 0 113
0 0 113
0 0 113
0 0 113
0 0 113
0 0 113
0 0 114
0 0 114
0 0 113
0 0 113
0 0 113
0 0 113
0 0 113
0 0 113
0 0 113
0 0 113
0 0 113
0 0 113
0 0 113
0 0 113
0 0 113
0 0 113
0 0 113
0 0 113
1 2 113
10 11 113
11 15 115
8 24 119
0 34 125
26 56 135
24 83 145
118 141 170
168 168 168
115 119 157
72 83 129
18 29 121
18 23 113
27 96 154
86 187 202
113 161 145
99 129 62
94 123 53
112 120 81
125 132 112
138 148 129
148 148 131
160 155 145
166 161 150
170 169 159
172 172 162
167 168 157
170 172 159
161 167 152
129 140 112
126 143 110
133 152 124
130 150 118
101 121 120
22 32 120
17 14 118
22 17 113
2 3 112
0 0 113
0 0 113
0 0 113
0 0 113
0 0 113
0 0 113
0 0 113
0 0 113
0 0 113
0 0 113
0 0 113
0 0 113
0 0 113
0 0 113
0 0 113
0 0 113
0 0 113
0 0 113
0 0 113
0 0 113
0 0 113
0 0 113
16 16 118
10 11 117
10 16 116
5 22 110
6 19 110
7 19 114
19 15 113
21 18 111
6 22 111
30 14 117
16 39 115
20 37 119
64 89 132
77 103 122
22 39 132
29 52 129
26 23 120
18 32 115
13 20 113
20 26 115
17 12 113
22 11 116
1 0 113
0 0 113
0 0 113
0 0 113
0 0 113
0 0 113
0 0 113
0 0 113
0 0 113
0 0 113
0 0 113
0 0 113
0 0 113
0 0 113
0 0 113
0 0 113
0 0 113
0 0 113
0 0 113
0 0 113
0 0 113
0 0 113
0 0 113
0 0 113
0 0 113
0 0 113
0 0 113
0 0 113
0 0 113
0 0 113
0 0 113
0 0 113
0 0 113
0 0 113
0 0 113
0 0 113
0 0 113
0 0 113
0 0 113
0 0 113
0 0 113
0 0 113
0 0 113
0 0 113
0 0 113
0 0 113
0 0 113
0 0 113
0 0 113
0 0 113
0 0 113
0 0 113
0 0 113
0 0 113
0 0 113
0 0 113
0 0 113
0 0 113
0 0 113
0 0 113
0 0 113
61 65 129
214 228 249
218 234 255
218 234 255
218 234 255
218 234 255
218 234 255
218 234 255
218 234 255
218 234 255
218 234 255
218 234 255
218 234 255
218 234 255
218 234 255
218 234 255
218 234 255
218 234 255
218 234 255
218 234 255
218 234 255
218 234 255
218 234 255
218 234 255
218 234 255
218 234 255
218 234 255
218 234 255
218 234 255
218 234 255
218 234 255
218 234 255
218 234 255
218 234 255
218 234 255
218 234 255
218 234 255
218 234 255
218 234 255
218 234 255
218 234 255
218 234 255
218 234 255
218 234 255
218 234 255
218 234 255
218 234 255
218 234 255
218 234 255
218 234 255
218 234 255
218 234 255
218 234 255
218 234 255
218 234 255
218 234 255
218 234 255
218 234 255
218 234 255
218 234 255
218 234 255
218 234 255
218 234 255
218 234 255
218 234 255
218 234 255
218 234 255
218 234 255
218 234 255
218 234 255
218 234 255
218 234 255
218 234 255
218 234 255
218 234 255
218 234 255
218 234 255
218 234 255
218 234 255
218 234 255
218 234 255
218 234 255
218 234 255
218 234 255
218 234 255
218 234 255
218 234 255
218 234 255
218 234 255
218 234 255
218 234 255
218 234 255
218 234 255
218 234 255
218 234 255
218 234 255
218 234 255
218 234 255
218 234 255
218 234 255
218 234 255
218 234 255
218 234 255
218 234 255
218 234 255
218 234 255
218 234 255
218 234 255
218 234 255
218 234 255
218 234 255
218 234 255
218 234 255
218 234 255
218 234 255
218 234 255
218 234 255
218 234 255
218 234 255
218 234 255
218 234 255
218 234 255
218 234 255
218 234 255
218 234 255
218 234 255
218 234 255
218 234 255
218 234 255
218 234 255
218 234 255
218 234 255
218 234 255
218 234 255
218 234 255
218 234 255
218 234 255
218 234 255
218 234 255
218 234 255
218 234 255
218 234 255
218 234 255
218 234 255
218 234 255
218 234 255
218 234 255
218 234 255
218 234 255
218 234 255
218 234 255
218 234 255
218 234 255
218 234 255
218 234 255
218 234 255
218 234 255
218 234 255
218 234 255
218 234 255
218 234 255
218 234 255
218 234 255
218 234 255
218 234 255
218 234 255
218 234 255
218 234 255
218 234 255
218 234 255
218 234 255
218 234 255
218 234 255
218 234 255
218 234 255
218 234 255
218 234 255
218 234 255
218 234 255
218 234 255
218 234 255
218 234 255
218 234 255
218 234 255
218 234 255
218 234 255
218 234 255
218 234 255
218 234 255
218 234 255
218 234 255
218 234 255
218 234 255
218 234 255
218 234 255
218 234 255
218 234 255
218 234 255
218 234 255
218 234 255
218 234 255
218 234 255
218 234 255
218 234 255
218 234 255
218 234 255
218 234 255
218 234 255
218 234 255
218 234 255
154 165 197
0 0 113
0 0 113
0 0 113
0 0 113
0 0 113
0 0 113
0 0 113
0 0 113
0 0 113
0 0 113
0 0 113
0 0 113
0 0 113
0 0 113
0 0 113
0 0 114
0 0 115
0 0 115
0 0 114
0 0 113
0 0 113
0 0 113
0 0 113
0 0 113
0 0 113
0 0 113
0 0 113
0 0 113
0 0 115
0 0 114
0 0 113
0 0 113
0 0 113
0 0 113
0 0 113
0 0 113
0 0 113
0 0 113
0 0 113
0 0 113
0 0 113
0 0 113
0 0 113
0 0 113
0 0 113
0 0 113
5 6 113
7 8 113
8 11 113
9 21 117
0 26 121
20 47 131
26 45 129
44 80 152
88 120 164
149 156 160
116 129 132
49 58 123
22 19 120
18 28 113
25 79 138
47 121 159
93 139 103
97 129 50
101 124 73
113 122 95
134 140 124
146 148 130
159 157 147
169 164 156
173 166 154
172 168 158
172 173 164
157 160 146
150 158 143
127 137 112
114 134 97
127 143 109
112 134 90
88 106 121
19 27 118
11 9 114
12 15 112
1 13 114
0 0 113
0 0 113
0 0 113
0 0 113
0 0 113
0 0 113
0 0 113
0 0 113
0 0 113
0 0 113
0 0 113
0 0 113
0 0 113
0 0 113
0 0 113
0 0 113
0 0 113
0 0 113
0 0 113
0 0 113
0 0 113
0 0 113
12 1 109
15 12 114
16 21 116
17 24 116
25 21 118
25 20 118
16 28 116
15 21 117
8 26 121
19 19 114
7 17 118
18 27 129
31 57 128
51 75 126
28 50 122
11 36 116
31 39 120
30 46 121
21 32 115
21 30 114
18 12 112
16 11 112
4 0 113
0 0 113
0 0 113
0 0 113
0 0 113
0 0 113
0 0 113
0 0 113
0 0 113
0 0 113
0 0 113
0 0 113
0 0 113
0 0 113
0 0 113
0 0 113
0 0 113
0 0 113
0 0 113
0 0 113
0 0 113
0 0 113
0 0 113
0 0 113
0 0 113
0 0 113
0 0 113
0 0 113
0 0 113
0 0 113
0 0 113
0 0 113
0 0 113
0 0 113
0 0 113
0 0 113
0 0 113
0 0 113
0 0 113
0 0 113
0 0 113
0 0 113
0 0 113
0 0 113
0 0 113
0 0 113
0 0 113
0 0 113
0 0 113
0 0 113
0 0 113
0 0 113
0 0 113
0 0 113
0 0 113
0 0 113
0 0 113
0 0 113
0 0 113
0 0 113
0 0 113
4 4 113
179 191 216
218 234 255
218 234 255
218 234 255
218 234 255
218 234 255
218 234 255
218 234 255
218 234 255
218 234 255
218 234 255
218 234 255
218 234 255
218 234 255
218 234 255
218 234 255
218 234 255
218 234 255
218 234 255
218 234 255
218 234 255
218 234 255
218 234 255
218 234 255
218 234 255
218 234 255
218 234 255
218 234 255
218 234 255
218 234 255
218 234 255
218 234 255
218 234 255
218 234 255
218 234 255
218 234 255
218 234 255
218 234 255
218 234 255
218 234 255
218 234 255
218 234 255
218 234 255
218 234 255
218 234 255
218 234 255
218 234 255
218 234 255
218 234 255
218 234 255
218 234 255
218 234 255
218 234 255
218 234 255
218 234 255
218 234 255
218 234 255
218 234 255
218 234 255
218 234 255
218 234 255
218 234 255
218 234 255
218 234 255
218 234 255
218 234 255
218 234 255
218 234 255
218 234 255
218 234 255
218 234 255
218 234 255
218 234 255
218 234 255
218 234 255
218 234 255
218 234 255
218 234 255
218 234 255
218 234 255
218 234 255
218 234 255
218 234 255
218 234 255
218 234 255
218 234 255
218 234 255
218 234 255
218 234 255
218 234 255
218 234 255
218 234 255
218 234 255
218 234 255
218 234 255
218 234 255
218 234 255
218 234 255
218 234 255
218 234 255
218 234 255
218 234 255
218 234 255
218 234 255
218 234 255
218 234 255
218 234 255
218 234 255
218 234 255
218 234 255
218 234 255
218 234 255
218 234 255
218 234 255
218 234 255
218 234 255
218 234 255
218 234 255
218 234 255
218 234 255
218 234 255
218 234 255
218 234 255
218 234 255
218 234 255
218 234 255
218 234 255
218 234 255
218 234 255
218 234 255
218 234 255
218 234 255
218 234 255
218 234 255
218 234 255
218 234 255
218 234 255
218 234 255
218 234 255
218 234 255
218 234 255
218 234 255
218 234 255
218 234 255
218 234 255
218 234 255
218 234 255
218 234 255
218 234 255
218 234 255
218 234 255
218 234 255
218 234 255
218 234 255
218 234 255
218 234 255
218 234 255
218 234 255
218 234 255
218 234 255
218 234 255
218 234 255
218 234 255
218 234 255
218 234 255
218 234 255
218 234 255
218 234 255
218 234 255
218 234 255
218 234 255
218 234 255
218 234 255
218 234 255
218 234 255
218 234 255
218 234 255
218 234 255
218 234 255
218 234 255
218 234 255
218 234 255
218 234 255
218 234 255
218 234 255
218 234 255
218 234 255
218 234 255
218 234 255
218 234 255
218 234 255
218 234 255
218 234 255
218 234 255
218 234 255
218 234 255
218 234 255
218 234 255
218 234 255
218 234 255
218 234 255
218 234 255
218 234 255
218 234 255
218 234 255
218 234 255
218 234 255
218 234 255
209 224 247
0 0 113
0 0 113
0 0 113
0 0 113
0 0 113
0 0 113
0 0 113
0 0 113
0 0 113
0 0 113
0 0 113
0 0 113
0 0 113
0 0 113
0 0 113
0 0 113
0 0 115
0 0 115
0 0 115
0 0 113
0 0 113
0 0 113
0 0 113
0 0 113
0 0 113
0 0 113
0 0 113
0 0 113
0 0 113
0 0 115
0 0 113
0 0 113
0 0 113
0 0 113
0 0 113
0 0 113
0 0 113
0 0 113
0 0 113
0 0 113
0 0 113
0 0 113
0 0 113
0 0 113
0 0 113
0 0 113
0 0 113
3 13 113
2 8 112
9 11 113
8 12 114
0 14 117
13 34 123
13 19 121
15 35 120
22 77 155
87 117 159
133 134 140
62 58 121
22 36 112
23 22 116
37 16 125
23 42 123
80 121 154
105 138 80
95 126 58
108 125 78
127 130 117
133 138 117
148 150 135
164 160 150
172 165 155
177 175 168
167 167 159
149 154 142
146 153 137
134 146 121
102 127 72
124 144 99
122 140 93
77 90 117
7 20 116
5 14 112
4 6 112
11 12 115
0 0 113
0 0 113
0 0 113
0 0 113
0 0 113
0 0 113
0 0 113
0 0 113
0 0 113
0 0 113
0 0 113
13 14 116
13 14 116
13 14 116
13 14 116
13 14 116
10 11 115
0 0 113
0 0 113
0 0 113
0 0 113
0 0 113
15 26 113
43 58 116
61 78 108
85 103 99
98 123 99
96 124 94
88 119 99
88 118 114
69 90 110
46 65 120
16 31 115
22 37 118
14 31 126
22 37 128
15 33 129
13 25 127
20 28 126
27 41 121
38 50 123
15 26 111
18 23 111
14 13 112
10 10 113
0 0 113
0 0 113
0 0 113
0 0 113
0 0 113
0 0 113
0 0 113
0 0 113
0 0 113
0 0 113
0 0 113
0 0 113
0 0 113
0 0 113
0 0 113
0 0 113
0 0 113
0 0 113
0 0 113
0 0 113
0 0 113
0 0 113
0 0 113
0 0 113
0 0 113
0 0 113
0 0 113
0 0 113
0 0 113
0 0 113
0 0 113
0 0 113
0 0 113
0 0 113
0 0 113
0 0 113
0 0 113
0 0 113
0 0 113
0 0 113
0 0 113
0 0 113
0 0 113
0 0 113
0 0 113
0 0 113
0 0 113
0 0 113
0 0 113
0 0 113
0 0 113
0 0 113
0 0 113
0 0 113
0 0 113
0 0 113
0 0 113
0 0 113
0 0 113
0 0 113
0 0 113
79 85 137
216 231 251
218 234 255
218 234 255
218 234 255
218 234 255
218 234 255
218 234 255
218 234 255
218 234 255
218 234 255
218 234 255
218 234 255
218 234 255
218 234 255
218 234 255
218 234 255
218 234 255
218 234 255
218 234 255
218 234 255
218 234 255
218 234 255
218 234 255
218 234 255
218 234 255
218 234 255
218 234 255
218 234 255
218 234 255
218 234 255
218 234 255
218 234 255
218 234 255
218 234 255
218 234 255
218 234 255
218 234 255
218 234 255
218 234 255
218 234 255
218 234 255
218 234 255
218 234 255
218 234 255
218 234 255
218 234 255
218 234 255
218 234 255
218 234 255
218 234 255
218 234 255
218 234 255
218 234 255
218 234 255
218 234 255
218 234 255
218 234 255
218 234 255
218 234 255
218 234 255
218 234 255
218 234 255
218 234 255
218 234 255
218 234 255
218 234 255
218 234 255
218 234 255
218 234 255
218 234 255
218 234 255
218 234 255
218 234 255
218 234 255
218 234 255
218 234 255
218 234 255
218 234 255
218 234 255
218 234 255
218 234 255
218 234 255
218 234 255
218 234 255
218 234 255
218 234 255
218 234 255
218 234 255
218 234 255
218 234 255
218 234 255
218 234 255
218 234 255
218 234 255
218 234 255
218 234 255
218 234 255
218 234 255
218 234 255
218 234 255
218 234 255
218 234 255
218 234 255
218 234 255
219 234 255
219 234 255
219 234 255
219 234 255
219 234 255
219 234 255
219 234 255
219 234 255
219 234 255
219 234 255
219 234 255
219 234 255
219 234 255
219 234 255
219 234 255
219 234 255
219 234 255
219 234 255
219 234 255
219 234 255
219 234 255
219 234 255
219 234 255
219 234 255
219 234 255
219 234 255
219 234 255
219 234 255
219 234 255
219 234 255
219 234 255
219 234 255
219 234 255
219 234 255
219 234 255
219 234 255
219 234 255
219 234 255
218 234 255
218 234 255
218 234 255
218 234 255
218 234 255
218 234 255
218 234 255
218 234 255
218 234 255
218 234 255
218 234 255
218 234 255
218 234 255
218 234 255
218 234 255
218 234 255
218 234 255
218 234 255
218 234 255
218 234 255
218 234 255
218 234 255
218 234 255
218 234 255
218 234 255
218 234 255
218 234 255
218 234 255
218 234 255
218 234 255
218 234 255
218 234 255
218 234 255
218 234 255
218 234 255
218 234 255
218 234 255
218 234 255
218 234 255
218 234 255
218 234 255
218 234 255
218 234 255
218 234 255
218 234 255
218 234 255
218 234 255
218 234 255
218 234 255
218 234 255
218 234 255
218 234 255
218 234 255
218 234 255
218 234 255
218 234 255
218 234 255
218 234 255
218 234 255
218 234 255
218 234 255
218 234 255
218 234 255
218 234 255
218 234 255
154 165 197
0 0 113
0 0 113
0 0 113
0 0 113
0 0 113
0 0 113
0 0 113
0 0 113
0 0 113
0 0 113
0 0 113
0 0 113
0 0 113
0 0 113
0 0 113
0 0 113
0 0 115
0 0 115
0 0 115
0 0 113
0 0 113
0 0 113
0 0 113
0 0 113
0 0 113
0 0 113
0 0 113
0 0 113
0 0 113
0 0 114
0 0 113
0 0 113
0 0 113
0 0 113
0 0 113
0 0 113
0 0 113
0 0 113
0 0 113
0 0 113
0 0 113
0 0 113
0 0 113
0 0 113
0 0 113
0 0 113
0 0 113
2 8 113
8 12 113
9 10 112
4 0 113
0 11 116
10 36 123
25 26 118
18 32 122
10 57 136
48 69 141
54 63 132
27 31 116
19 21 119
16 29 119
19 26 117
5 43 121
25 71 145
71 116 132
103 131 79
110 125 82
116 134 91
129 141 119
134 141 122
154 154 141
166 164 156
173 170 162
163 161 153
142 150 134
137 148 124
131 145 114
104 131 74
133 149 109
131 145 109
60 69 113
0 24 115
15 10 114
9 8 112
5 14 119
0 0 113
0 0 113
0 0 113
0 0 113
0 0 113
0 9 112
8 22 110
7 17 115
8 10 115
16 0 117
10 16 110
17 20 114
9 14 114
10 19 115
16 25 120
12 16 118
14 21 115
0 17 113
8 7 118
18 8 114
9 4 113
12 28 112
60 76 107
96 126 73
97 132 95
66 105 127
67 116 151
77 136 126
106 127 63
111 136 83
116 145 74
106 140 101
75 111 126
59 91 132
51 78 124
26 36 116
18 33 120
23 27 115
21 46 129
11 27 120
15 26 113
13 22 110
45 55 122
23 31 114
13 16 111
5 7 112
3 4 113
5 6 114
7 6 113
5 0 113
0 0 113
0 0 113
0 0 113
0 0 113
0 0 113
0 0 113
0 0 113
0 0 113
0 0 113
0 0 113
0 0 113
0 0 113
0 0 113
0 0 113
0 0 113
0 0 113
0 0 113
0 0 113
0 0 113
0 0 113
0 0 113
0 0 113
0 0 113
0 0 113
0 0 113
0 0 113
0 0 113
0 0 113
0 0 113
0 0 113
0 0 113
0 0 113
0 0 113
0 0 113
0 0 113
0 0 113
0 0 113
0 0 113
0 0 113
0 0 113
0 0 113
0 0 113
0 0 113
0 0 113
0 0 113
0 0 113
0 0 113
0 0 113
0 0 113
0 0 113
0 0 113
0 0 113
0 0 113
0 0 113
0 0 113
0 0 113
7 9 113
156 169 197
218 234 255
218 234 255
218 234 255
218 234 255
218 234 255
218 234 255
218 234 255
218 234 255
218 234 255
218 234 255
218 234 255
218 234 255
218 234 255
218 234 255
218 234 255
218 234 255
218 234 255
218 234 255
218 234 255
218 234 255
218 234 255
218 234 255
218 234 255
218 234 255
218 234 255
218 234 255
218 234 255
218 234 255
218 234 255
218 234 255
218 234 255
218 234 255
218 234 255
218 234 255
218 234 255
218 234 255
218 234 255
218 234 255
218 234 255
218 234 255
218 234 255
218 234 255
218 234 255
218 234 255
218 234 255
218 234 255
218 234 255
218 234 255
218 234 255
218 234 255
218 234 255
218 234 255
218 234 255
218 234 255
218 234 255
218 234 255
218 234 255
218 234 255
218 234 255
218 234 255
218 234 255
218 234 255
218 234 255
218 234 255
218 234 255
219 234 255
219 234 255
219 234 255
219 234 255
219 234 255
219 234 255
219 234 255
219 234 255
219 234 255
219 234 255
219 234 255
219 234 255
219 234 255
219 234 255
219 234 255
219 234 255
219 234 255
219 234 255
219 234 255
219 234 255
219 234 255
219 234 255
219 234 255
219 234 255
219 234 255
219 234 255
219 234 255
219 234 255
219 234 255
219 234 255
219 234 255
219 234 255
219 234 255
219 234 255
219 234 255
219 234 255
219 234 255
219 234 255
219 234 255
219 234 255
219 234 255
219 234 255
219 234 255
219 234 255
219 234 255
219 234 255
219 234 255
219 234 255
219 234 255
219 234 255
219 234 255
219 234 255
219 234 255
219 234 255
219 234 255
219 234 255
219 234 255
219 234 255
219 234 255
219 234 255
219 234 255
219 234 255
219 234 255
219 234 255
219 234 255
219 234 255
219 234 255
219 234 255
219 234 255
219 234 255
219 234 255
219 234 255
219 234 255
219 234 255
219 234 255
219 234 255
219 234 255
219 234 255
219 234 255
219 234 255
219 234 255
219 234 255
219 234 255
219 234 255
219 234 255
219 234 255
219 234 255
219 234 255
219 234 255
219 234 255
219 234 255
219 234 255
219 234 255
219 234 255
219 234 255
219 234 255
219 234 255
219 234 255
219 234 255
219 234 255
219 234 255
219 234 255
219 234 255
219 234 255
219 234 255
219 234 255
219 234 255
219 234 255
219 234 255
219 234 255
219 234 255
219 234 255
219 234 255
219 234 255
219 234 255
219 234 255
219 234 255
219 234 255
219 234 255
219 234 255
219 234 255
219 234 255
219 234 255
219 234 255
219 234 255
219 234 255
219 234 255
219 234 255
219 234 255
219 234 255
219 234 255
219 234 255
219 234 255
219 234 255
219 234 255
219 234 255
219 234 255
219 234 255
219 234 255
219 234 255
207 222 245
48 52 124
0 0 113
0 0 113
0 0 113
0 0 113
0 0 113
0 0 113
0 0 113
0 0 113
0 0 113
0 0 113
0 0 113
0 0 113
0 0 113
0 0 113
0 0 113
0 0 114
0 0 115
0 0 115
0 0 114
0 0 113
0 0 113
0 0 113
0 0 113
0 0 113
0 0 113
0 0 113
0 0 113
0 0 113
0 0 114
0 0 114
0 0 113
0 0 113
0 0 113
0 0 113
0 0 113
0 0 113
0 0 113
0 0 113
0 0 113
0 0 113
0 0 113
0 0 113
0 0 113
0 0 113
0 0 113
0 0 113
0 0 113
0 0 113
5 6 113
4 0 113
2 0 113
0 4 113
10 23 120
4 19 120
7 35 124
7 36 125
5 31 123
10 35 126
11 32 124
3 20 119
0 21 119
7 29 122
6 44 123
33 51 143
45 85 133
98 134 63
102 124 77
109 129 81
121 136 100
125 140 107
136 145 119
158 161 144
168 167 155
164 162 154
135 144 121
134 144 116
131 144 110
104 134 69
127 148 99
124 142 95
70 87 122
11 38 116
13 10 115
19 22 112
0 6 113
0 0 113
0 0 113
0 0 113
0 0 113
0 0 113
0 3 117
6 16 118
13 23 115
12 18 118
22 27 114
10 20 118
11 19 125
14 33 125
25 44 128
28 51 130
29 45 129
24 47 124
15 29 118
12 17 117
20 13 109
16 18 110
31 48 114
75 94 101
62 76 119
42 59 138
60 86 129
20 60 139
30 76 137
58 71 103
62 79 98
74 97 82
97 128 67
108 142 69
106 141 79
97 130 109
84 107 135
33 48 121
17 34 113
9 30 117
14 31 118
9 17 115
5 14 115
21 33 118
15 24 119
29 28 115
16 23 111
34 42 117
26 34 117
14 12 112
17 0 114
0 0 113
0 0 113
0 0 113
0 0 113
0 0 113
0 0 113
0 0 113
0 0 113
0 0 113
0 0 113
0 0 113
0 0 113
0 0 113
0 0 113
0 0 113
0 0 113
0 0 113
0 0 113
0 0 113
0 0 113
0 0 113
0 0 113
0 0 113
0 0 113
0 0 113
0 0 113
0 0 113
0 0 113
0 0 113
0 0 113
0 0 113
0 0 113
0 0 113
0 0 113
0 0 113
0 0 113
0 0 113
0 0 113
0 0 113
0 0 113
0 0 113
0 0 113
0 0 113
0 0 113
0 0 113
0 0 113
0 0 113
0 0 113
0 0 113
0 0 113
0 0 113
0 0 113
0 0 113
0 0 113
0 0 113
0 0 113
3 3 113
104 112 153
218 232 251
219 234 255
219 234 255
219 234 255
219 234 255
219 234 255
219 234 255
219 234 255
219 234 255
219 234 255
219 234 255
219 234 255
219 234 255
219 234 255
219 234 255
219 234 255
219 234 255
219 234 255
219 234 255
219 234 255
219 234 255
219 234 255
219 234 255
219 234 255
219 234 255
219 234 255
219 234 255
219 234 255
219 234 255
219 234 255
219 234 255
219 234 255
219 234 255
219 234 255
219 234 255
219 234 255
219 234 255
219 234 255
219 234 255
219 234 255
219 234 255
219 234 255
219 234 255
219 234 255
219 234 255
219 234 255
219 234 255
219 234 255
219 234 255
219 234 255
219 234 255
219 234 255
219 234 255
219 234 255
219 234 255
219 234 255
219 234 255
219 234 255
219 234 255
219 234 255
219 234 255
219 234 255
219 234 255
219 234 255
219 234 255
219 234 255
219 234 255
219 234 255
219 234 255
219 234 255
219 234 255
219 234 255
219 234 255
219 234 255
219 234 255
219 234 255
219 234 255
219 234 255
219 234 255
219 234 255
219 234 255
219 234 255
219 234 255
219 234 255
219 234 255
219 234 255
219 234 255
219 234 255
219 234 255
219 234 255
219 234 255
219 234 255
219 234 255
219 234 255
219 234 255
219 234 255
219 234 255
219 234 255
219 234 255
219 234 255
219 234 255
219 234 255
219 234 255
219 234 255
219 234 255
219 234 255
219 234 255
219 234 255
219 234 255
219 234 255
219 234 255
219 234 255
219 234 255
219 234 255
219 234 255
219 234 255
219 234 255
219 234 255
219 234 255
219 234 255
219 234 255
219 234 255
219 234 255
219 234 255
219 234 255
219 234 255
219 234 255
219 234 255
219 234 255
219 234 255
219 234 255
219 234 255
219 234 255
219 234 255
219 234 255
219 234 255
219 234 255
219 234 255
219 234 255
219 234 255
219 234 255
219 234 255
219 234 255
219 234 255
219 234 255
219 234 255
219 234 255
219 234 255
219 234 255
219 234 255
219 234 255
219 234 255
219 234 255
219 234 255
219 234 255
219 234 255
219 234 255
219 234 255
219 234 255
219 234 255
219 234 255
219 234 255
219 234 255
219 234 255
219 234 255
219 234 255
219 234 255
219 234 255
219 234 255
219 234 255
219 234 255
219 234 255
219 234 255
219 234 255
219 234 255
219 234 255
219 234 255
219 234 255
219 234 255
219 234 255
219 234 255
219 234 255
219 234 255
219 234 255
219 234 255
219 234 255
219 234 255
219 234 255
219 234 255
219 234 255
219 234 255
219 234 255
219 234 255
219 234 255
219 234 255
219 234 255
219 234 255
219 234 255
219 234 255
219 234 255
219 234 255
219 234 255
219 234 255
219 234 255
219 234 255
138 148 184
0 0 113
0 0 113
0 0 113
0 0 113
0 0 113
0 0 113
0 0 113
0 0 113
0 0 113
0 0 113
0 0 113
0 0 113
0 0 113
0 0 113
0 0 113
0 0 113
0 0 115
0 0 115
0 0 115
0 0 113
0 0 113
0 0 113
0 0 113
0 0 113
0 0 113
0 0 113
0 0 113
0 0 113
0 0 113
0 0 113
0 0 113
0 0 113
0 0 113
0 0 113
0 0 113
0 0 113
0 0 113
0 0 113
0 0 113
0 0 113
0 0 113
0 0 113
0 0 113
0 0 113
0 0 113
0 0 113
0 0 113
0 0 113
0 0 113
0 0 113
0 0 113
0 0 113
1 5 113
6 17 117
0 17 117
12 30 121
9 29 121
6 26 120
1 26 122
5 21 120
1 13 118
4 27 121
4 37 126
9 57 129
30 55 133
38 82 150
84 127 91
96 131 59
111 132 80
113 134 90
115 136 89
123 142 97
135 149 115
146 154 130
155 155 139
147 155 139
131 138 116
116 131 90
98 133 61
106 137 63
111 142 73
98 127 108
17 36 120
21 16 114
20 22 115
0 17 110
0 0 113
0 0 113
0 0 113
0 0 113
0 0 113
1 8 111
14 16 114
11 25 111
15 14 120
10 29 121
34 43 128
58 77 118
62 87 115
78 108 108
88 123 88
85 120 99
79 111 108
52 73 113
11 21 116
18 18 114
4 11 112
15 27 105
23 30 112
26 25 119
25 33 112
60 78 103
34 50 120
15 41 124
13 20 114
13 16 118
13 20 116
43 56 110
64 81 111
75 92 111
104 127 85
105 135 65
95 124 94
58 74 109
44 48 118
24 30 107
14 10 115
17 11 113
22 28 113
19 20 118
40 37 107
19 27 110
47 59 116
56 68 121
22 29 108
11 7 111
0 0 113
0 0 113
0 0 113
0 0 113
0 0 113
0 0 113
0 0 113
0 0 113
0 0 113
0 0 113
0 0 113
0 0 113
0 0 113
0 0 113
0 0 113
0 0 113
0 0 113
0 0 113
0 0 113
0 0 113
0 0 113
0 0 113
0 0 113
0 0 113
0 0 113
0 0 113
0 0 113
0 0 113
0 0 113
0 0 113
0 0 113
0 0 113
0 0 113
0 0 113
0 0 113
0 0 113
0 0 113
0 0 113
0 0 113
0 0 113
0 0 113
0 0 113
0 0 113
0 0 113
0 0 113
0 0 113
0 0 113
0 0 113
0 0 113
0 0 113
0 0 113
0 0 113
0 0 113
0 0 113
0 0 113
0 0 113
3 0 113
10 23 118
187 201 221
219 234 255
219 234 255
219 234 255
219 234 255
219 234 255
219 234 255
219 234 255
219 234 255
219 234 255
219 234 255
219 234 255
219 234 255
219 234 255
219 234 255
219 234 255
219 234 255
219 234 255
219 234 255
219 234 255
219 234 255
219 234 255
219 234 255
219 234 255
219 234 255
219 234 255
219 234 255
219 234 255
219 234 255
219 234 255
219 234 255
219 234 255
219 234 255
219 234 255
219 234 255
219 234 255
219 234 255
219 234 255
219 234 255
219 234 255
219 234 255
219 234 255
219 234 255
219 234 255
219 234 255
219 234 255
219 234 255
219 234 255
219 234 255
219 234 255
219 234 255
219 234 255
219 234 255
219 234 255
219 234 255
219 234 255
219 234 255
219 234 255
219 234 255
219 234 255
219 234 255
219 234 255
219 234 255
219 234 255
219 234 255
219 234 255
219 234 255
219 234 255
219 234 255
219 234 255
219 234 255
219 234 255
219 234 255
219 234 255
219 234 255
219 234 255
219 234 255
219 234 255
219 234 255
219 234 255
219 234 255
219 234 255
219 234 255
219 234 255
219 234 255
219 234 255
219 234 255
219 234 255
219 234 255
219 234 255
219 234 255
219 234 255
219 234 255
219 234 255
219 234 255
219 234 255
219 234 255
219 234 255
219 234 255
219 234 255
219 234 255
219 234 255
219 234 255
219 234 255
219 234 255
219 234 255
219 234 255
219 234 255
219 234 255
219 234 255
219 234 255
219 234 255
219 234 255
219 234 255
219 234 255
219 234 255
219 234 255
219 234 255
219 234 255
219 234 255
219 234 255
219 234 255
219 234 255
219 234 255
219 234 255
219 234 255
219 234 255
219 234 255
219 234 255
219 234 255
219 234 255
219 234 255
219 234 255
219 234 255
219 234 255
219 234 255
219 234 255
219 234 255
219 234 255
219 234 255
219 234 255
219 234 255
219 234 255
219 234 255
219 234 255
219 234 255
219 234 255
219 234 255
219 234 255
219 234 255
219 234 255
219 234 255
219 234 255
219 234 255
219 234 255
219 234 255
219 234 255
219 234 255
219 234 255
219 234 255
219 234 255
219 234 255
219 234 255
219 234 255
219 234 255
219 234 255
219 234 255
219 234 255
219 234 255
219 234 255
219 234 255
219 234 255
219 234 255
219 234 255
219 234 255
219 234 255
219 234 255
219 234 255
219 234 255
219 234 255
219 234 255
219 234 255
219 234 255
219 234 255
219 234 255
219 234 255
219 234 255
219 234 255
219 234 255
219 234 255
219 234 255
219 234 255
219 234 255
219 234 255
219 234 255
219 234 255
219 234 255
219 234 255
219 234 255
219 234 255
219 234 255
219 234 255
219 234 255
219 234 255
211 226 248
57 62 128
0 0 113
0 0 113
0 0 113
0 0 113
0 0 113
0 0 113
0 0 113
0 0 113
0 0 113
0 0 113
0 0 113
0 0 113
0 0 113
0 0 113
0 0 113
0 0 113
0 0 113
0 0 113
0 0 113
0 0 113
0 0 113
0 0 113
0 0 113
0 0 113
0 0 113
0 0 113
0 0 113
0 0 113
0 0 113
0 0 113
0 0 113
0 0 113
0 0 113
0 0 113
0 0 113
0 0 113
0 0 113
0 0 113
0 0 113
0 0 113
0 0 113
0 0 113
0 0 113
0 0 113
0 0 113
0 0 113
0 0 113
0 0 113
0 0 113
0 0 113
0 0 113
0 0 113
0 3 113
0 5 113
0 15 115
11 21 116
11 23 117
5 20 116
5 9 117
1 16 118
5 20 119
14 39 126
14 45 131
12 54 136
15 71 145
31 93 161
76 116 100
102 130 76
107 131 84
109 135 85
108 135 74
115 140 79
121 142 93
123 142 102
144 151 123
141 150 129
138 142 124
125 137 110
103 127 76
106 131 70
103 137 62
101 134 61
45 64 111
23 21 122
8 13 119
3 16 110
0 0 113
0 0 113
0 0 113
0 0 113
0 0 113
2 7 117
12 9 115
14 19 117
24 24 118
21 61 134
75 102 100
101 130 69
100 132 53
98 132 69
95 133 46
93 130 48
92 126 61
67 90 96
15 24 112
20 22 118
21 11 121
8 6 111
8 9 114
21 30 108
8 16 111
10 22 112
16 24 109
9 15 115
6 11 113
10 14 115
8 15 110
8 17 108
16 20 115
24 30 124
69 96 104
105 136 62
114 143 74
114 139 79
105 125 95
77 98 104
18 31 118
22 28 110
13 22 117
42 48 117
82 91 111
28 31 115
5 7 114
6 14 116
14 16 113
18 12 114
7 5 113
0 0 113
0 0 113
0 0 113
0 0 113
0 0 113
0 0 113
0 0 113
0 0 113
0 0 113
0 0 113
0 0 113
0 0 113
0 0 113
0 0 113
0 0 113
0 0 113
0 0 113
0 0 113
0 0 113
0 0 113
0 0 113
0 0 113
0 0 113
0 0 113
0 0 113
0 0 113
0 0 113
0 0 113
0 0 113
0 0 113
0 0 113
0 0 113
0 0 113
0 0 113
0 0 113
0 0 113
0 0 113
0 0 113
0 0 113
0 0 113
0 0 113
0 0 113
0 0 113
0 0 113
0 0 113
0 0 113
0 0 113
0 0 113
0 0 113
0 0 113
0 0 113
0 0 113
0 0 113
0 0 113
0 0 113
7 0 113
8 16 115
132 146 172
218 233 253
219 234 255
219 234 255
219 234 255
219 234 255
219 234 255
219 234 255
219 234 255
219 234 255
219 234 255
219 234 255
219 234 255
219 234 255
219 234 255
219 234 255
219 234 255
219 234 255
219 234 255
219 234 255
219 234 255
219 234 255
219 234 255
219 234 255
219 234 255
219 234 255
219 234 255
219 234 255
219 234 255
219 234 255
219 234 255
219 234 255
219 234 255
219 234 255
219 234 255
219 234 255
219 234 255
219 234 255
219 234 255
219 234 255
219 234 255
219 234 255
219 234 255
219 234 255
219 234 255
219 234 255
219 234 255
219 234 255
219 234 255
219 234 255
219 234 255
219 234 255
219 234 255
219 234 255
219 234 255
219 234 255
219 234 255
219 234 255
219 234 255
219 234 255
219 234 255
219 234 255
219 234 255
219 234 255
219 234 255
219 234 255
219 234 255
219 234 255
219 234 255
219 234 255
219 234 255
219 234 255
219 234 255
219 234 255
219 234 255
219 234 255
219 234 255
219 234 255
219 234 255
219 234 255
219 234 255
219 234 255
219 234 255
219 234 255
219 234 255
219 234 255
219 234 255
219 234 255
219 234 255
219 234 255
219 234 255
219 234 255
219 234 255
219 234 255
219 234 255
219 234 255
219 234 255
219 234 255
219 234 255
219 234 255
219 234 255
219 234 255
219 234 255
219 234 255
219 234 255
219 234 255
219 234 255
219 234 255
219 234 255
219 234 255
219 234 255
219 234 255
219 234 255
219 234 255
219 234 255
219 234 255
219 234 255
219 234 255
219 234 255
219 234 255
219 234 255
219 234 255
219 234 255
219 234 255
219 234 255
219 234 255
219 234 255
219 234 255
219 234 255
219 234 255
219 234 255
219 234 255
219 234 255
219 234 255
219 234 255
219 234 255
219 234 255
219 234 255
219 234 255
219 234 255
219 234 255
219 234 255
219 234 255
219 234 255
219 234 255
219 234 255
219 234 255
219 234 255
219 234 255
219 234 255
219 234 255
219 234 255
219 234 255
219 234 255
219 234 255
219 234 255
219 234 255
219 234 255
219 234 255
219 234 255
219 234 255
219 234 255
219 234 255
219 234 255
219 234 255
219 234 255
219 234 255
219 234 255
219 234 255
219 234 255
219 234 255
219 234 255
219 234 255
219 234 255
219 234 255
219 234 255
219 234 255
219 234 255
219 234 255
219 234 255
219 234 255
219 234 255
219 234 255
219 234 255
219 234 255
219 234 255
219 234 255
219 234 255
219 234 255
219 234 255
219 234 255
219 234 255
219 234 255
219 234 255
219 234 255
219 234 255
219 234 255
219 234 255
219 234 255
219 234 255
219 234 255
219 234 255
219 234 255
219 234 255
156 167 199
0 0 113
0 0 113
0 0 113
0 0 113
0 0 113
0 0 113
0 0 113
0 0 113
0 0 113
0 0 113
0 0 113
0 0 113
0 0 113
0 0 113
0 0 113
0 0 113
0 0 113
0 0 113
0 0 113
0 0 113
0 0 113
0 0 113
0 0 113
0 0 113
0 0 113
0 0 113
0 0 113
0 0 113
0 0 113
0 0 113
0 0 113
0 0 113
0 0 113
0 0 113
0 0 113
0 0 113
0 0 113
0 0 113
0 0 113
0 0 113
0 0 113
0 0 113
0 0 113
0 0 113
0 0 113
0 0 113
0 0 113
0 0 113
0 0 113
0 0 113
0 0 113
0 0 113
0 0 113
0 0 112
0 0 112
0 0 113
9 11 114
5 19 116
4 15 116
14 15 116
11 22 118
12 25 121
13 42 128
13 47 133
8 49 132
13 81 150
47 110 145
91 119 76
103 128 61
103 130 77
114 140 85
111 138 77
105 133 65
111 138 81
110 135 78
117 137 85
124 139 98
135 145 116
141 151 130
137 148 125
117 133 92
107 134 63
111 138 73
89 113 89
28 44 108
10 11 120
15 15 113
0 0 113
0 0 113
0 0 113
0 0 113
0 0 113
4 22 113
18 10 114
13 21 119
29 29 118
40 87 148
91 129 96
95 126 48
94 127 22
93 127 41
90 125 33
92 126 30
70 98 77
37 52 108
13 22 109
0 12 105
11 14 114
9 15 118
7 16 112
4 20 112
10 11 119
0 8 114
9 9 111
16 18 115
11 8 116
10 3 119
7 7 117
5 6 116
13 15 114
15 21 113
31 47 118
39 67 112
52 81 124
102 130 91
122 142 91
110 135 79
87 115 83
80 102 78
38 52 102
23 31 116
46 53 116
17 17 116
6 15 105
8 23 111
17 18 121
14 14 115
8 11 113
0 0 113
0 0 113
0 0 113
0 0 113
0 0 113
0 0 113
0 0 113
0 0 113
0 0 113
0 0 113
0 0 113
0 0 113
0 0 113
0 0 113
0 0 113
0 0 113
0 0 113
0 0 113
0 0 113
0 0 113
0 0 113
0 0 113
0 0 113
0 0 113
0 0 113
0 0 113
0 0 113
0 0 113
0 0 113
0 0 113
0 0 113
0 0 113
0 0 113
0 0 113
0 0 113
0 0 113
0 0 113
0 0 113
0 0 113
0 0 113
0 0 113
0 0 113
0 0 113
0 0 113
0 0 113
0 0 113
0 0 113
0 0 113
0 0 113
0 0 113
0 0 113
0 0 113
0 0 113
0 0 113
0 0 113
0 0 113
11 9 113
29 50 129
214 227 237
219 234 255
219 234 255
219 234 255
219 234 255
219 234 255
219 234 255
219 234 255
219 234 255
219 234 255
219 234 255
219 234 255
219 234 255
219 234 255
219 234 255
219 234 255
219 234 255
219 234 255
219 234 255
219 234 255
219 234 255
219 234 255
219 234 255
219 234 255
219 234 255
219 234 255
219 234 255
219 234 255
219 234 255
219 234 255
219 234 255
219 234 255
219 234 255
219 234 255
219 234 255
219 234 255
219 234 255
219 234 255
219 234 255
219 234 255
219 234 255
219 234 255
219 234 255
219 234 255
219 234 255
219 234 255
219 234 255
219 234 255
219 234 255
219 234 255
219 234 255
219 234 255
219 234 255
219 234 255
219 234 255
219 234 255
219 234 255
219 234 255
219 234 255
219 234 255
219 234 255
219 234 255
219 234 255
219 234 255
219 234 255
219 234 255
219 234 255
219 234 255
219 234 255
219 234 255
219 234 255
219 234 255
219 234 255
219 234 255
219 234 255
219 234 255
219 234 255
219 234 255
219 234 255
219 234 255
219 234 255
219 234 255
219 234 255
219 234 255
219 234 255
219 234 255
219 234 255
219 234 255
219 234 255
219 234 255
219 234 255
219 234 255
219 234 255
219 234 255
219 234 255
219 234 255
219 234 255
219 234 255
219 234 255
219 234 255
219 234 255
219 234 255
219 234 255
219 234 255
219 234 255
219 234 255
219 234 255
219 234 255
219 234 255
219 234 255
219 234 255
219 234 255
219 234 255
219 234 255
219 234 255
219 234 255
219 234 255
219 234 255
219 234 255
219 234 255
219 234 255
219 234 255
219 234 255
219 234 255
219 234 255
219 234 255
219 234 255
219 234 255
219 234 255
219 234 255
219 234 255
219 234 255
219 234 255
219 234 255
219 234 255
219 234 255
219 234 255
219 234 255
219 234 255
219 234 255
219 234 255
219 234 255
219 234 255
219 234 255
219 234 255
219 234 255
219 234 255
219 234 255
219 234 255
219 234 255
219 234 255
219 234 255
219 234 255
219 234 255
219 234 255
219 234 255
219 234 255
219 234 255
219 234 255
219 234 255
219 234 255
219 234 255
219 234 255
219 234 255
219 234 255
219 234 255
219 234 255
219 234 255
219 234 255
219 234 255
219 234 255
219 234 255
219 234 255
219 234 255
219 234 255
219 234 255
219 234 255
219 234 255
219 234 255
219 234 255
219 234 255
219 234 255
219 234 255
219 234 255
219 234 255
219 234 255
219 234 255
219 234 255
219 234 255
219 234 255
219 234 255
219 234 255
219 234 255
219 234 255
219 234 255
219 234 255
219 234 255
219 234 255
219 234 255
219 234 255
219 234 255
219 234 255
215 231 252
69 74 134
16 20 113
11 15 111
13 10 113
0 0 113
0 0 113
0 0 113
0 0 113
0 0 113
0 0 113
0 0 113
0 0 113
0 0 113
0 0 113
0 0 113
0 0 113
0 0 113
0 0 113
0 0 113
0 0 113
0 0 113
0 0 113
0 0 113
0 0 113
0 0 113
0 0 113
0 0 113
0 0 113
0 0 113
0 0 113
0 0 113
0 0 113
0 0 113
0 0 113
0 0 113
0 0 113
0 0 113
0 0 113
0 0 113
0 0 113
0 0 113
0 0 113
0 0 113
0 0 113
0 0 113
0 0 113
0 0 113
0 0 113
0 0 113
0 0 113
0 0 113
0 0 113
0 0 113
0 0 113
0 3 112
6 14 113
5 6 114
1 13 115
3 20 116
1 19 116
11 22 118
8 19 118
9 26 120
7 37 126
6 42 129
25 45 132
11 59 146
68 113 126
101 129 67
103 132 68
108 136 79
110 135 76
107 133 72
103 130 68
103 129 63
106 133 70
107 133 70
111 133 74
119 136 87
122 136 95
138 150 123
130 145 110
117 135 95
106 131 71
105 134 71
66 92 100
21 21 119
9 7 109
0 0 113
0 0 113
0 0 113
0 0 113
0 0 113
9 24 114
27 13 121
5 16 118
31 36 121
48 106 144
95 132 65
90 126 33
92 127 42
93 128 34
91 125 53
94 126 60
48 71 103
16 22 113
14 20 118
9 12 112
12 14 115
6 13 108
6 8 115
22 18 116
14 14 106
15 17 111
8 10 116
13 19 114
6 13 112
4 5 109
8 12 112
3 15 115
0 13 115
0 16 110
12 17 116
19 21 115
65 82 108
88 114 82
80 107 81
91 114 88
96 120 79
94 113 94
65 81 97
27 38 110
38 43 107
65 76 105
39 45 111
34 44 114
38 49 111
38 47 111
17 21 112
0 0 113
0 0 113
0 0 113
0 0 113
0 0 113
0 0 113
0 0 113
0 0 113
0 0 113
0 0 113
0 0 113
0 0 113
0 0 113
0 0 113
0 0 113
0 0 113
0 0 113
0 0 113
0 0 113
0 0 113
0 0 113
0 0 113
0 0 113
0 0 113
0 0 113
0 0 113
0 0 113
0 0 113
0 0 113
0 0 113
0 0 113
0 0 113
0 0 113
0 0 113
0 0 113
0 0 113
0 0 113
0 0 113
0 0 113
0 0 113
0 0 113
0 0 113
0 0 113
0 0 113
0 0 113
0 0 113
0 0 113
0 0 113
0 0 113
0 0 113
0 0 113
0 0 113
0 0 113
0 0 113
0 0 113
0 0 113
8 6 113
11 30 121
183 196 208
218 234 255
219 234 255
219 234 255
219 234 255
219 234 255
219 234 255
219 234 255
219 234 255
219 234 255
219 234 255
219 234 255
219 234 255
219 234 255
219 234 255
219 234 255
219 234 255
219 234 255
219 234 255
219 234 255
219 234 255
219 234 255
219 234 255
219 234 255
219 234 255
219 234 255
219 234 255
219 234 255
219 234 255
219 234 255
219 234 255
219 234 255
219 234 255
219 234 255
219 234 255
219 234 255
219 234 255
219 234 255
219 234 255
219 234 255
219 234 255
219 234 255
219 234 255
219 234 255
219 234 255
219 234 255
219 234 255
219 234 255
219 234 255
219 234 255
219 234 255
219 234 255
219 234 255
219 234 255
219 234 255
219 234 255
219 234 255
219 234 255
219 234 255
219 234 255
219 234 255
219 234 255
219 234 255
219 234 255
219 234 255
219 234 255
219 234 255
219 234 255
219 234 255
219 234 255
219 234 255
219 234 255
219 234 255
219 234 255
219 234 255
219 234 255
219 234 255
219 234 255
219 234 255
219 234 255
219 234 255
219 234 255
219 234 255
219 234 255
219 234 255
219 234 255
219 234 255
219 234 255
219 234 255
219 234 255
219 234 255
219 234 255
219 234 255
219 234 255
219 234 255
219 234 255
219 234 255
219 234 255
219 234 255
219 234 255
219 234 255
219 234 255
219 234 255
219 234 255
219 234 255
219 234 255
219 234 255
219 234 255
219 234 255
219 234 255
219 234 255
219 234 255
219 234 255
219 234 255
219 234 255
219 234 255
219 234 255
219 234 255
219 234 255
219 234 255
219 234 255
219 234 255
219 234 255
219 234 255
219 234 255
219 234 255
219 234 255
219 234 255
219 234 255
219 234 255
219 234 255
219 234 255
219 234 255
219 234 255
219 234 255
219 234 255
219 234 255
219 234 255
219 234 255
219 234 255
219 234 255
219 234 255
219 234 255
219 234 255
219 234 255
219 234 255
219 234 255
219 234 255
219 234 255
219 234 255
219 234 255
219 234 255
219 234 255
219 234 255
219 234 255
219 234 255
219 234 255
219 234 255
219 234 255
219 234 255
219 234 255
219 234 255
219 234 255
219 234 255
219 234 255
219 234 255
219 234 255
219 234 255
219 234 255
219 234 255
219 234 255
219 234 255
219 234 255
219 234 255
219 234 255
219 234 255
219 234 255
219 234 255
219 234 255
219 234 255
219 234 255
219 234 255
219 234 255
219 234 255
219 234 255
219 234 255
219 234 255
219 234 255
219 234 255
219 234 255
219 234 255
219 234 255
219 234 255
219 234 255
219 234 255
219 234 255
219 234 255
219 234 255
219 234 255
219 234 255
219 234 255
219 234 255
179 192 219
5 7 113
45 53 114
16 17 114
6 7 111
0 0 113
0 0 113
0 0 113
0 0 113
0 0 113
0 0 113
0 0 113
0 0 113
0 0 113
0 0 113
0 0 113
0 0 113
0 0 113
0 0 113
0 0 113
0 0 113
0 0 113
0 0 113
0 0 113
0 0 113
0 0 113
0 0 113
0 0 113
0 0 113
0 0 113
0 0 113
0 0 113
0 0 113
0 0 113
0 0 113
0 0 113
0 0 113
0 0 113
0 0 113
0 0 113
0 0 113
0 0 113
0 0 113
0 0 113
0 0 113
0 0 113
0 0 113
0 0 113
0 0 113
0 0 113
0 0 113
0 0 113
0 0 113
0 0 113
0 0 113
0 11 113
7 17 115
3 15 116
0 17 116
0 19 116
7 16 116
10 17 117
0 17 117
0 23 118
0 28 120
0 23 120
23 30 121
10 33 130
42 71 137
90 125 103
104 138 59
108 135 78
106 133 51
106 130 60
105 129 68
101 126 58
108 134 75
100 128 58
102 126 55
110 131 70
112 129 74
130 147 113
119 137 92
122 137 102
138 149 122
113 135 74
92 122 95
40 50 115
14 14 110
15 17 117
15 10 117
21 15 114
9 12 116
0 22 112
18 23 121
12 33 119
0 24 117
24 53 133
72 112 109
98 130 50
93 126 43
93 125 43
91 126 26
93 131 38
97 127 87
48 65 104
1 2 113
0 0 113
1 2 113
3 3 113
0 0 112
2 0 113
3 2 113
4 3 112
5 5 113
1 2 113
3 4 113
15 17 114
17 19 114
9 10 113
0 5 113
0 6 114
0 5 113
10 13 114
16 19 113
36 42 110
32 40 112
22 37 111
16 31 112
43 50 110
42 46 116
26 32 109
8 13 108
49 55 117
96 111 115
107 127 100
95 116 95
103 127 95
102 125 90
81 104 85
44 67 103
5 18 113
5 13 114
6 13 115
3 19 108
9 7 115
3 2 113
8 9 115
8 10 113
6 4 112
0 0 113
0 0 113
0 0 113
2 2 113
3 4 113
1 1 113
0 0 113
0 0 113
0 0 113
0 0 113
0 0 113
0 0 113
0 0 113
0 0 113
0 0 113
0 0 113
0 0 113
0 0 113
0 0 113
0 0 113
0 0 113
0 0 113
0 0 113
0 0 113
0 0 113
0 0 113
0 0 113
0 0 113
0 0 113
0 0 113
0 0 113
0 0 113
0 0 113
0 0 113
0 0 113
0 0 113
0 0 113
0 0 113
0 0 113
0 0 113
0 0 113
0 0 113
0 0 113
0 0 113
0 0 113
0 0 113
2 2 113
9 20 117
126 139 170
215 225 238
219 234 255
219 234 255
219 234 255
219 234 255
219 234 255
219 234 255
219 234 255
219 234 255
219 234 255
219 234 255
219 234 255
219 234 255
219 234 255
219 234 255
219 234 255
219 234 255
219 234 255
219 234 255
219 234 255
219 234 255
219 234 255
219 234 255
219 234 255
219 234 255
219 234 255
219 234 255
219 234 255
219 234 255
219 234 255
219 234 255
219 234 255
219 234 255
219 234 255
219 234 255
219 234 255
219 234 255
219 234 255
219 234 255
219 234 255
219 234 255
219 234 255
219 234 255
219 234 255
219 234 255
219 234 255
219 234 255
219 234 255
219 234 255
219 234 255
219 234 255
219 234 255
219 234 255
219 234 255
219 234 255
219 234 255
219 234 255
219 234 255
219 234 255
219 234 255
219 234 255
219 234 255
219 234 255
219 234 255
219 234 255
219 234 255
219 234 255
219 234 255
219 234 255
219 234 255
219 234 255
219 234 255
219 234 255
219 234 255
219 234 255
219 234 255
219 234 255
219 234 255
219 234 255
219 234 255
219 234 255
219 234 255
219 234 255
219 234 255
219 234 255
219 234 255
219 234 255
219 234 255
219 234 255
219 234 255
219 234 255
219 234 255
219 234 255
219 234 255
219 234 255
219 234 255
219 234 255
219 234 255
219 234 255
219 234 255
219 234 255
219 234 255
219 234 255
219 234 255
219 234 255
219 234 255
219 234 255
219 234 255
219 234 255
219 234 255
219 234 255
219 234 255
219 234 255
219 234 255
219 234 255
219 234 255
219 234 255
219 234 255
219 234 255
219 234 255
219 234 255
219 234 255
219 234 255
219 234 255
219 234 255
219 234 255
219 234 255
219 234 255
219 234 255
219 234 255
219 234 255
219 234 255
219 234 255
219 234 255
219 234 255
219 234 255
219 234 255
219 234 255
219 234 255
219 234 255
219 234 255
219 234 255
219 234 255
219 234 255
219 234 255
219 234 255
219 234 255
219 234 255
219 234 255
219 234 255
219 234 255
219 234 255
219 234 255
219 234 255
219 234 255
219 234 255
219 234 255
219 234 255
219 234 255
219 234 255
219 234 255
219 234 255
219 234 255
219 234 255
219 234 255
219 234 255
219 234 255
219 234 255
219 234 255
219 234 255
219 234 255
219 234 255
219 234 255
219 234 255
219 234 255
219 234 255
219 234 255
219 234 255
219 234 255
219 234 255
219 234 255
219 234 255
219 234 255
219 234 255
219 234 255
219 234 255
219 234 255
219 234 255
219 234 255
219 234 255
219 234 255
219 234 255
219 234 255
219 234 255
219 234 255
219 234 255
219 234 255
219 234 255
219 234 255
219 234 255
219 234 255
107 114 159
8 10 114
47 55 115
25 27 112
0 2 113
0 0 113
0 0 113
0 0 113
0 0 113
0 0 113
0 0 113
0 0 113
0 0 113
0 0 113
0 0 113
0 0 113
0 0 113
0 0 113
0 0 113
0 0 113
0 0 113
0 0 113
0 0 113
0 0 113
0 0 113
0 0 113
0 0 113
0 0 113
0 0 113
0 0 113
0 0 113
0 0 113
0 0 113
0 0 113
0 0 113
0 0 113
0 0 113
0 0 113
0 0 113
0 0 113
0 0 113
0 0 113
0 0 113
0 0 113
0 0 113
0 0 113
0 0 113
0 0 113
0 0 113
0 0 113
0 0 113
0 0 113
0 0 113
0 0 113
0 0 113
0 14 115
0 18 116
2 20 116
2 19 116
0 13 115
5 9 114
9 16 115
0 20 116
0 20 116
0 20 116
0 23 117
21 31 123
20 30 115
0 33 117
54 78 150
81 108 128
96 131 92
104 138 70
106 136 91
108 136 70
107 132 71
105 132 58
100 133 56
98 129 55
102 128 65
103 127 63
107 131 71
113 132 83
130 143 108
132 142 102
109 128 74
103 136 82
84 114 83
48 62 112
26 34 115
0 18 112
18 27 118
0 8 130
8 28 131
29 57 138
44 62 129
30 55 133
62 98 110
98 131 54
98 132 28
92 130 31
90 127 42
91 130 27
95 134 76
84 118 83
35 55 113
0 0 113
0 0 113
0 0 113
0 0 113
0 0 113
0 0 113
0 0 113
0 0 113
0 0 113
0 0 113
0 0 113
11 12 114
16 18 115
6 7 113
0 0 113
0 0 113
0 0 113
10 19 112
12 16 116
0 7 118
12 19 115
13 22 114
6 9 115
15 18 115
8 13 111
17 20 112
21 22 120
14 17 112
44 47 115
111 129 106
121 142 100
109 132 75
105 127 77
111 137 79
97 128 80
60 78 112
26 37 114
14 22 112
3 15 118
11 14 111
22 29 110
18 22 115
16 18 115
19 21 113
9 10 113
4 5 113
0 0 113
5 6 113
12 13 114
7 8 115
0 0 113
4 5 113
6 6 113
0 0 113
0 0 113
0 0 113
0 0 113
0 0 113
0 0 113
0 0 113
0 0 113
0 0 113
0 0 113
0 0 113
0 0 113
0 0 113
0 0 113
0 0 113
0 0 113
0 0 113
0 0 113
0 0 113
0 0 113
0 0 113
0 0 113
0 0 113
0 0 113
0 0 113
0 0 113
0 0 113
0 0 113
0 0 113
0 0 113
0 0 113
0 0 113
0 0 113
0 0 113
0 0 113
0 0 113
0 0 113
0 0 113
0 12 115
52 74 142
209 219 221
219 234 255
219 234 255
219 234 255
219 234 255
219 234 255
219 234 255
219 234 255
219 234 255
219 234 255
219 234 255
219 234 255
219 234 255
219 234 255
219 234 255
219 234 255
219 234 255
219 234 255
219 234 255
219 234 255
219 234 255
219 234 255
219 234 255
219 234 255
219 234 255
219 234 255
219 234 255
219 234 255
219 234 255
219 234 255
219 234 255
219 234 255
219 234 255
219 234 255
219 234 255
219 234 255
219 234 255
219 234 255
219 234 255
219 234 255
219 234 255
219 234 255
219 234 255
219 234 255
219 234 255
219 234 255
219 234 255
219 234 255
219 234 255
219 234 255
219 234 255
219 234 255
219 234 255
219 234 255
219 234 255
219 234 255
219 234 255
219 234 255
219 234 255
219 234 255
219 234 255
219 234 255
219 234 255
219 234 255
219 234 255
219 234 255
219 234 255
219 234 255
219 234 255
219 234 255
219 234 255
219 234 255
219 234 255
219 234 255
219 234 255
219 234 255
219 234 255
219 234 255
219 234 255
219 234 255
219 234 255
219 234 255
219 234 255
219 234 255
219 234 255
219 234 255
219 234 255
219 234 255
219 234 255
219 234 255
219 234 255
219 234 255
219 234 255
219 234 255
219 234 255
219 234 255
219 234 255
219 234 255
219 234 255
219 234 255
219 234 255
219 234 255
219 234 255
219 234 255
219 234 255
219 234 255
219 234 255
219 234 255
219 234 255
219 234 255
219 234 255
219 234 255
219 234 255
219 234 255
219 234 255
219 234 255
219 234 255
219 234 255
219 234 255
219 234 255
219 234 255
219 234 255
219 234 255
219 234 255
219 234 255
219 234 255
219 234 255
219 234 255
219 234 255
219 234 255
219 234 255
219 234 255
219 234 255
219 234 255
219 234 255
219 234 255
219 234 255
219 234 255
219 234 255
219 234 255
219 234 255
219 234 255
219 234 255
219 234 255
219 234 255
219 234 255
219 234 255
219 234 255
219 234 255
219 234 255
219 234 255
219 234 255
219 234 255
219 234 255
219 234 255
219 234 255
219 234 255
219 234 255
219 234 255
219 234 255
219 234 255
219 234 255
219 234 255
219 234 255
219 234 255
219 234 255
219 234 255
219 234 255
219 234 255
219 234 255
219 234 255
219 234 255
219 234 255
219 234 255
219 234 255
219 234 255
219 234 255
219 234 255
219 234 255
219 234 255
219 234 255
219 234 255
219 234 255
219 234 255
219 234 255
219 234 255
219 234 255
219 234 255
219 234 255
219 234 255
219 234 255
219 234 255
219 234 255
219 234 255
219 234 255
219 234 255
219 234 255
219 234 255
219 234 255
219 234 255
210 225 247
0 0 113
14 17 114
49 53 113
18 18 115
0 0 113
0 0 113
0 0 113
0 0 113
0 0 113
0 0 113
0 0 113
0 0 113
0 0 113
0 0 113
0 0 113
0 0 113
0 0 113
0 0 113
0 0 113
0 0 113
0 0 113
0 0 113
0 0 113
0 0 113
0 0 113
0 0 113
0 0 113
0 0 113
0 0 113
0 0 113
0 0 113
0 0 113
0 0 113
0 0 113
0 0 113
0 0 113
0 0 113
0 0 113
0 0 113
0 0 113
0 0 113
0 0 113
0 0 113
0 0 113
0 0 113
0 0 113
0 0 113
0 0 113
0 0 113
0 0 113
0 0 113
0 0 113
0 0 113
0 0 113
0 0 113
0 0 113
9 9 113
13 14 114
10 11 114
0 0 113
0 0 113
0 15 115
0 20 116
0 20 116
0 20 116
0 27 118
7 24 119
14 21 117
12 27 116
7 34 126
26 50 142
62 91 124
94 127 71
104 134 55
105 130 64
109 132 75
112 136 76
107 140 64
103 135 57
104 134 56
103 132 60
105 132 71
115 136 87
132 144 114
138 149 125
111 134 65
101 135 66
100 135 74
100 127 87
85 111 80
52 72 103
38 51 122
52 77 107
67 94 108
79 118 99
83 120 70
82 118 111
92 131 83
97 133 45
90 127 38
93 131 42
94 131 34
97 135 50
95 130 100
67 99 105
23 39 111
0 0 113
0 0 113
0 0 113
0 0 113
0 0 113
0 0 113
0 0 113
0 0 113
0 0 113
0 0 113
0 0 113
4 4 113
6 6 113
0 0 113
0 0 112
0 0 113
0 0 113
0 15 109
52 68 101
59 76 100
49 65 103
15 30 110
4 14 115
11 11 117
6 11 115
34 40 108
69 84 107
77 93 99
63 78 106
90 106 105
124 144 96
122 140 97
121 141 102
109 132 74
103 134 59
108 135 79
115 140 88
73 87 103
21 25 115
24 32 115
46 60 104
36 46 110
24 34 112
12 15 115
12 13 114
12 13 114
3 3 113
0 0 113
6 6 113
1 1 112
0 0 113
0 0 113
0 0 113
7 8 113
0 0 113
0 0 113
0 0 113
0 0 113
0 0 113
0 0 113
0 0 113
0 0 113
0 0 113
0 0 113
0 0 113
0 0 113
0 0 113
0 0 113
0 0 113
0 0 113
0 0 113
0 0 113
0 0 113
0 0 113
0 0 113
0 0 113
0 0 113
0 0 113
0 0 113
0 0 113
0 0 113
0 0 113
0 0 113
0 0 113
0 0 113
0 0 113
0 0 113
0 0 113
0 0 113
0 0 113
0 0 113
0 11 115
13 46 130
153 173 190
217 231 247
219 234 255
219 234 255
219 234 255
219 234 255
219 234 255
219 234 255
219 234 255
219 234 255
219 234 255
219 234 255
219 234 255
219 234 255
219 234 255
219 234 255
219 234 255
219 234 255
219 234 255
219 234 255
219 234 255
219 234 255
219 234 255
219 234 255
219 234 255
219 234 255
219 234 255
219 234 255
219 234 255
219 234 255
219 234 255
219 234 255
219 234 255
219 234 255
219 234 255
219 234 255
219 234 255
219 234 255
219 234 255
219 234 255
219 234 255
219 234 255
219 234 255
219 234 255
219 234 255
219 234 255
219 234 255
219 234 255
219 234 255
219 234 255
219 234 255
219 234 255
219 234 255
219 234 255
219 234 255
219 234 255
219 234 255
219 234 255
219 234 255
219 234 255
219 234 255
219 234 255
219 234 255
219 234 255
219 234 255
219 234 255
219 234 255
219 234 255
219 234 255
219 234 255
219 234 255
219 234 255
219 234 255
219 234 255
219 234 255
219 234 255
219 234 255
219 234 255
219 234 255
219 234 255
219 234 255
219 234 255
219 234 255
219 234 255
219 234 255
219 234 255
219 234 255
219 234 255
219 234 255
219 234 255
219 234 255
219 234 255
219 234 255
219 234 255
219 234 255
219 234 255
219 234 255
219 234 255
219 234 255
219 234 255
219 234 255
219 234 255
219 234 255
219 234 255
219 234 255
219 234 255
219 234 255
219 234 255
219 234 255
219 234 255
219 234 255
219 234 255
219 234 255
219 234 255
219 234 255
219 234 255
219 234 255
219 234 255
219 234 255
219 234 255
219 234 255
219 234 255
219 234 255
219 234 255
219 234 255
219 234 255
219 234 255
219 234 255
219 234 255
219 234 255
219 234 255
219 234 255
219 234 255
219 234 255
219 234 255
219 234 255
219 234 255
219 234 255
219 234 255
219 234 255
219 234 255
219 234 255
219 234 255
219 234 255
219 234 255
219 234 255
219 234 255
219 234 255
219 234 255
219 234 255
219 234 255
219 234 255
219 234 255
219 234 255
219 234 255
219 234 255
219 234 255
219 234 255
219 234 255
219 234 255
219 234 255
219 234 255
219 234 255
219 234 255
219 234 255
219 234 255
219 234 255
219 234 255
219 234 255
219 234 255
219 234 255
219 234 255
219 234 255
219 234 255
219 234 255
219 234 255
219 234 255
219 234 255
219 234 255
219 234 255
219 234 255
219 234 255
219 234 255
219 234 255
219 234 255
219 234 255
219 234 255
219 234 255
219 234 255
219 234 255
219 234 255
219 234 255
219 234 255
219 234 255
219 234 255
219 234 255
219 234 255
219 234 255
219 234 255
219 234 255
145 155 189
6 7 113
11 15 114
57 63 109
11 11 114
0 0 113
0 0 113
0 0 113
0 0 113
0 0 113
0 0 113
0 0 113
0 0 113
0 0 113
0 0 113
0 0 113
0 0 113
0 0 113
0 0 113
0 0 113
0 0 113
0 0 113
0 0 113
0 0 113
0 0 113
0 0 113
0 0 113
0 0 113
0 0 113
0 0 113
0 0 113
0 0 113
0 0 113
0 0 113
0 0 113
0 0 113
0 0 113
0 0 113
0 0 113
0 0 113
0 0 113
0 0 113
0 0 113
0 0 113
0 0 113
0 0 113
0 0 113
0 0 113
0 0 113
0 0 113
0 0 113
0 0 113
0 0 113
0 0 113
0 0 113
0 0 113
0 0 113
3 3 113
7 7 113
1 1 113
0 0 113
0 0 113
0 16 115
0 20 116
0 20 116
0 20 116
0 21 123
3 22 116
16 16 113
21 12 119
14 29 119
18 48 125
22 40 130
50 66 131
69 94 104
87 113 109
97 125 100
102 134 56
100 130 60
102 131 69
105 132 75
111 137 84
107 133 72
114 134 79
130 144 106
136 149 120
119 138 82
96 130 47
99 135 60
110 141 82
110 142 77
101 134 77
100 133 75
102 137 56
104 139 72
112 136 68
103 135 61
107 137 57
107 135 70
96 131 44
94 126 42
95 130 17
98 130 55
103 136 72
91 124 82
42 63 117
11 15 113
0 0 113
0 0 113
0 0 113
0 0 113
0 0 113
0 0 113
0 0 113
0 0 113
0 0 113
0 0 113
0 0 113
0 0 113
0 0 113
0 0 112
0 0 113
0 0 113
0 0 113
0 1 111
55 70 105
87 110 85
102 128 63
84 106 77
52 68 104
13 17 112
25 30 116
20 25 108
61 75 103
74 89 104
62 77 108
75 90 111
85 96 105
114 129 101
102 116 106
73 86 110
61 79 100
51 62 119
75 90 102
60 69 110
19 20 118
41 52 112
93 118 79
101 124 86
72 91 95
24 33 117
21 28 114
12 13 114
6 6 113
13 14 114
6 6 113
5 8 111
0 4 112
10 11 114
3 3 113
10 11 113
2 3 113
0 0 113
0 0 113
0 0 113
0 0 113
0 0 113
0 0 113
0 0 113
0 0 113
0 0 113
0 0 113
0 0 113
0 0 113
0 0 113
0 0 113
0 0 113
0 0 113
0 0 113
0 0 113
0 0 113
0 0 113
0 0 113
0 0 113
0 0 113
0 0 113
0 0 113
0 0 113
0 0 113
0 0 113
0 0 113
0 0 113
0 0 113
0 0 113
0 0 113
0 0 113
0 0 113
0 0 113
0 1 113
8 42 128
62 110 164
214 227 236
219 234 255
219 234 255
219 234 255
219 234 255
219 234 255
219 234 255
219 234 255
219 234 255
219 234 255
219 234 255
219 234 255
219 234 255
219 234 255
219 234 255
219 234 255
219 234 255
219 234 255
219 234 255
219 234 255
219 234 255
219 234 255
219 234 255
219 234 255
219 234 255
219 234 255
219 234 255
219 234 255
219 234 255
219 234 255
219 234 255
219 234 255
219 234 255
219 234 255
219 234 255
219 234 255
219 234 255
219 234 255
219 234 255
219 234 255
219 234 255
219 234 255
219 234 255
219 234 255
219 234 255
219 234 255
219 234 255
219 234 255
219 234 255
219 234 255
219 234 255
219 234 255
219 234 255
219 234 255
219 234 255
219 234 255
219 234 255
219 234 255
219 234 255
219 234 255
219 234 255
219 234 255
219 234 255
219 234 255
219 234 255
219 234 255
219 234 255
219 234 255
219 234 255
219 234 255
219 234 255
219 234 255
219 234 255
219 234 255
219 234 255
219 234 255
219 234 255
219 234 255
219 234 255
219 234 255
219 234 255
219 234 255
219 234 255
219 234 255
219 234 255
219 234 255
219 234 255
219 234 255
219 234 255
219 234 255
219 234 255
219 234 255
219 234 255
219 234 255
219 234 255
219 234 255
219 234 255
219 234 255
219 234 255
219 234 255
219 234 255
219 234 255
219 234 255
219 234 255
219 234 255
219 234 255
219 234 255
219 234 255
219 234 255
219 234 255
219 234 255
219 234 255
219 234 255
219 234 255
219 234 255
219 234 255
219 234 255
219 234 255
219 234 255
219 234 255
219 234 255
219 234 255
219 234 255
219 234 255
219 234 255
219 234 255
219 234 255
219 234 255
219 234 255
219 234 255
219 234 255
219 234 255
219 234 255
219 234 255
219 234 255
219 234 255
219 234 255
219 234 255
219 234 255
219 234 255
219 234 255
219 234 255
219 234 255
219 234 255
219 234 255
219 234 255
219 234 255
219 234 255
219 234 255
219 234 255
219 234 255
219 234 255
219 234 255
219 234 255
219 234 255
219 234 255
219 234 255
219 234 255
219 234 255
219 234 255
219 234 255
219 234 255
219 234 255
219 234 255
219 234 255
219 234 255
219 234 255
219 234 255
219 234 255
219 234 255
219 234 255
219 234 255
219 234 255
219 234 255
219 234 255
219 234 255
219 234 255
219 234 255
219 234 255
219 234 255
219 234 255
219 234 255
219 234 255
219 234 255
219 234 255
219 234 255
219 234 255
219 234 255
219 234 255
219 234 255
219 234 255
219 234 255
219 234 255
219 234 255
219 234 255
219 234 255
219 234 255
219 234 255
216 231 252
31 33 117
3 0 113
9 12 114
76 84 97
0 0 113
0 0 113
0 0 113
0 0 113
0 0 113
0 0 113
0 0 113
0 0 113
0 0 113
0 0 113
0 0 113
0 0 113
0 0 113
0 0 113
0 0 113
0 0 113
0 0 113
0 0 113
0 0 113
0 0 113
0 0 113
0 0 113
0 0 113
0 0 113
0 0 113
0 0 113
0 0 113
0 0 113
0 0 113
0 0 113
0 0 113
0 0 113
0 0 113
0 0 113
0 0 113
0 0 113
0 0 113
0 0 113
0 0 113
0 0 113
0 0 113
0 0 113
0 0 113
0 0 113
0 0 113
0 0 113
0 0 113
0 0 113
0 0 113
0 0 113
0 0 113
0 0 113
0 0 113
0 0 113
0 0 113
0 0 113
0 0 113
5 5 113
4 17 115
0 20 116
0 20 116
0 20 116
14 16 117
6 19 116
15 21 116
23 4 119
22 16 119
8 26 122
13 35 122
0 36 124
4 43 136
22 56 133
48 75 125
86 117 84
99 127 65
98 127 64
98 126 61
106 132 74
112 134 79
111 133 74
123 139 99
130 145 103
122 138 98
91 117 39
96 128 51
102 136 58
107 141 75
108 144 59
105 142 52
101 135 62
100 133 60
103 133 55
96 133 66
100 135 63
103 136 51
97 135 47
88 129 26
95 129 41
95 127 38
98 131 52
84 114 86
26 39 126
16 12 108
0 0 113
0 0 113
0 0 113
0 0 113
0 0 113
0 0 113
0 0 113
0 0 113
0 0 113
0 0 113
0 0 113
0 0 113
0 0 113
0 0 113
0 0 113
0 0 113
0 0 113
0 0 115
19 27 114
30 40 110
42 51 117
36 43 118
26 34 113
12 15 112
8 12 110
6 12 113
11 11 116
16 15 118
16 8 121
16 18 116
14 13 111
62 70 111
49 53 116
17 27 106
14 21 117
18 21 117
22 15 113
19 13 118
16 24 107
23 31 111
49 62 111
56 69 116
42 55 108
15 22 114
27 35 117
13 18 113
0 11 112
16 21 114
15 20 114
17 23 112
8 15 112
11 13 114
8 9 114
8 12 113
4 7 113
0 0 113
0 0 113
0 0 113
0 0 113
0 0 113
0 0 113
0 0 113
0 0 113
0 0 113
0 0 113
0 0 113
0 0 113
0 0 113
0 0 113
0 0 113
0 0 113
0 0 113
0 0 113
0 0 113
0 0 113
0 0 113
0 0 113
0 0 113
0 0 113
0 0 113
0 0 113
0 0 113
0 0 113
0 0 113
0 0 113
0 0 113
0 0 113
0 0 113
0 0 113
0 0 113
2 2 113
10 6 115
13 33 123
13 77 151
175 197 204
219 234 254
219 234 255
219 234 255
219 234 255
219 234 255
219 234 255
219 234 255
219 234 255
219 234 255
219 234 255
219 234 255
219 234 255
219 234 255
219 234 255
219 234 255
219 234 255
219 234 255
219 234 255
219 234 255
219 234 255
219 234 255
219 234 255
219 234 255
219 234 255
219 234 255
219 234 255
219 234 255
219 234 255
219 234 255
219 234 255
219 234 255
219 234 255
219 234 255
219 234 255
219 234 255
219 234 255
219 234 255
219 234 255
219 234 255
219 234 255
219 234 255
219 234 255
219 234 255
219 234 255
219 234 255
219 234 255
219 234 255
219 234 255
219 234 255
219 234 255
219 234 255
219 234 255
219 234 255
219 234 255
219 234 255
219 234 255
219 234 255
219 234 255
219 234 255
219 234 255
219 234 255
219 234 255
219 234 255
219 234 255
219 234 255
219 234 255
219 234 255
219 234 255
219 234 255
219 234 255
219 234 255
219 234 255
219 234 255
219 234 255
219 234 255
219 234 255
219 234 255
219 234 255
219 234 255
219 234 255
219 234 255
219 234 255
219 234 255
219 234 255
219 234 255
219 234 255
219 234 255
219 234 255
219 234 255
219 234 255
219 234 255
219 234 255
219 234 255
219 234 255
219 234 255
219 234 255
219 234 255
219 234 255
219 234 255
219 234 255
219 234 255
219 234 255
219 234 255
219 234 255
219 234 255
219 234 255
219 234 255
219 234 255
219 234 255
219 234 255
219 234 255
219 234 255
219 234 255
219 234 255
219 234 255
219 234 255
219 234 255
219 234 255
219 234 255
219 234 255
219 234 255
219 234 255
219 234 255
219 234 255
219 234 255
219 234 255
219 234 255
219 234 255
219 234 255
219 234 255
219 234 255
219 234 255
219 234 255
219 234 255
219 234 255
219 234 255
219 234 255
219 234 255
219 234 255
219 234 255
219 234 255
219 234 255
219 234 255
219 234 255
219 234 255
219 234 255
219 234 255
219 234 255
219 234 255
219 234 255
219 234 255
219 234 255
219 234 255
219 234 255
219 234 255
219 234 255
219 234 255
219 234 255
219 234 255
219 234 255
219 234 255
219 234 255
219 234 255
219 234 255
219 234 255
219 234 255
219 234 255
219 234 255
219 234 255
219 234 255
219 234 255
219 234 255
219 234 255
219 234 255
219 234 255
219 234 255
219 234 255
219 234 255
219 234 255
219 234 255
219 234 255
219 234 255
219 234 255
219 234 255
219 234 255
219 234 255
219 234 255
219 234 255
219 234 255
219 234 255
219 234 255
219 234 255
219 234 255
219 234 255
219 234 255
219 234 255
219 234 255
188 202 227
0 0 113
0 0 113
27 23 112
34 34 112
0 0 113
0 0 113
0 0 113
0 0 113
0 0 113
0 0 113
0 0 113
0 0 113
0 0 113
0 0 113
0 0 113
0 0 113
0 0 113
0 0 113
0 0 113
0 0 113
0 0 113
0 0 113
0 0 113
0 0 113
0 0 113
0 0 113
0 0 113
0 0 113
0 0 113
0 0 113
0 0 113
0 0 113
0 0 113
0 0 113
0 0 113
0 0 113
0 0 113
0 0 113
0 0 113
0 0 113
0 0 113
0 0 113
0 0 113
0 0 113
0 0 113
0 0 113
0 0 113
0 0 113
0 0 113
0 0 113
0 0 113
0 0 113
0 0 113
0 0 113
0 0 113
0 0 113
0 0 113
0 0 113
0 0 113
0 0 113
5 5 113
11 12 114
4 20 116
0 20 116
0 20 116
0 18 116
22 12 109
0 18 116
2 25 114
22 13 111
22 11 117
9 20 119
18 17 114
21 28 119
6 20 113
25 30 122
25 27 124
35 43 122
62 82 119
80 106 92
98 127 75
104 130 71
104 129 76
105 129 73
109 131 62
118 135 85
123 137 98
116 135 88
103 128 63
93 124 49
96 129 62
90 125 46
92 125 53
98 130 67
101 131 66
101 131 60
96 125 55
88 125 34
91 122 43
107 132 62
104 138 60
94 130 47
96 129 42
93 127 45
80 109 93
21 42 121
11 12 118
4 5 112
7 10 112
6 3 112
16 13 114
7 0 113
5 3 113
0 5 111
0 0 111
9 10 113
0 0 113
6 9 112
0 0 113
0 0 113
0 0 113
0 0 113
0 0 113
0 0 113
0 8 113
16 21 115
12 14 114
13 17 112
12 13 111
5 9 113
7 12 111
9 10 115
12 18 110
11 13 112
13 11 117
20 20 109
20 9 110
15 15 117
7 20 111
20 19 120
16 19 113
13 20 113
18 25 106
14 16 116
17 21 113
8 18 109
10 21 112
14 17 110
15 22 110
14 14 120
16 16 116
10 15 110
6 16 112
0 9 111
18 25 114
23 29 115
27 33 115
23 29 113
4 5 113
10 11 115
3 6 112
4 9 113
0 0 113
0 0 113
0 0 113
0 0 113
0 0 113
0 0 113
0 0 113
0 0 113
0 0 113
0 0 113
0 0 113
0 0 113
0 0 113
0 0 113
0 0 113
0 0 113
0 0 113
0 0 113
0 0 113
0 0 113
0 0 113
0 0 113
0 0 113
0 0 113
0 0 113
0 0 113
0 0 113
0 0 113
0 0 113
0 0 113
0 0 113
0 0 113
0 0 113
0 0 113
0 0 113
0 0 113
8 10 113
13 20 115
8 60 139
122 156 182
217 228 239
219 234 255
219 234 255
219 234 255
219 234 255
219 234 255
219 234 255
219 234 255
219 234 255
219 234 255
219 234 255
219 234 255
219 234 255
219 234 255
219 234 255
219 234 255
219 234 255
219 234 255
219 234 255
219 234 255
219 234 255
219 234 255
219 234 255
219 234 255
219 234 255
219 234 255
219 234 255
219 234 255
219 234 255
219 234 255
219 234 255
219 234 255
219 234 255
219 234 255
219 234 255
219 234 255
219 234 255
219 234 255
219 234 255
219 234 255
219 234 255
219 234 255
219 234 255
219 234 255
219 234 255
219 234 255
219 234 255
219 234 255
219 234 255
219 234 255
219 234 255
219 234 255
219 234 255
219 234 255
219 234 255
219 234 255
219 234 255
219 234 255
219 234 255
219 234 255
219 234 255
219 234 255
219 234 255
219 234 255
219 234 255
219 234 255
219 234 255
219 234 255
219 234 255
219 234 255
219 234 255
219 234 255
219 234 255
219 234 255
219 234 255
219 234 255
219 234 255
219 234 255
219 234 255
219 234 255
219 234 255
219 234 255
219 234 255
219 234 255
219 234 255
219 234 255
219 234 255
219 234 255
219 234 255
219 234 255
219 234 255
219 234 255
219 234 255
219 234 255
219 234 255
219 234 255
219 234 255
219 234 255
219 234 255
219 234 255
219 234 255
219 234 255
219 234 255
219 234 255
219 234 255
219 234 255
219 234 255
219 234 255
219 234 255
219 234 255
219 234 255
219 234 255
219 234 255
219 234 255
219 234 255
219 234 255
219 234 255
219 234 255
219 234 255
219 234 255
219 234 255
219 234 255
219 234 255
219 234 255
219 234 255
219 234 255
219 234 255
219 234 255
219 234 255
219 234 255
219 234 255
219 234 255
219 234 255
219 234 255
219 234 255
219 234 255
219 234 255
219 234 255
219 234 255
219 234 255
219 234 255
219 234 255
219 234 255
219 234 255
219 234 255
219 234 255
219 234 255
219 234 255
219 234 255
219 234 255
219 234 255
219 234 255
219 234 255
219 234 255
219 234 255
219 234 255
219 234 255
219 234 255
219 234 255
219 234 255
219 234 255
219 234 255
219 234 255
219 234 255
219 234 255
219 234 255
219 234 255
219 234 255
219 234 255
219 234 255
219 234 255
219 234 255
219 234 255
219 234 255
219 234 255
219 234 255
219 234 255
219 234 255
219 234 255
219 234 255
219 234 255
219 234 255
219 234 255
219 234 255
219 234 255
219 234 255
219 234 255
219 234 255
219 234 255
219 234 255
219 234 255
219 234 255
219 234 255
219 234 255
219 234 255
219 234 255
219 234 255
131 140 178
0 0 113
7 2 113
16 18 110
6 14 114
0 0 113
0 0 113
0 0 113
0 0 113
0 0 113
0 0 113
0 0 113
0 0 113
0 0 113
0 0 113
0 0 113
0 0 113
0 0 113
0 0 113
0 0 113
0 0 113
0 0 113
0 0 113
0 0 113
0 0 113
0 0 113
0 0 113
0 0 113
0 0 113
0 0 113
0 0 113
0 0 113
0 0 113
0 0 113
0 0 113
0 0 113
0 0 113
0 0 113
0 0 113
0 0 113
0 0 113
0 0 113
0 0 113
0 0 113
0 0 113
0 0 113
0 0 113
0 0 113
0 0 113
0 0 113
0 0 114
0 15 115
0 15 115
0 12 114
0 0 113
0 0 113
0 0 113
0 0 113
0 0 113
0 0 113
0 0 113
3 4 113
5 5 113
0 5 113
0 6 113
0 5 113
0 5 113
3 0 113
0 3 113
0 4 113
3 2 113
0 0 113
3 9 114
7 18 116
2 20 116
0 20 116
11 23 117
13 25 118
16 25 117
13 18 119
20 29 123
54 72 129
62 86 117
86 116 109
99 131 89
103 134 60
103 128 54
119 137 94
127 143 107
110 131 79
109 134 73
110 137 93
100 131 74
105 134 68
108 135 81
109 137 81
110 134 74
101 126 64
90 120 52
86 120 29
94 130 43
101 136 55
102 135 57
100 134 49
93 126 51
69 89 105
20 23 121
19 25 108
13 22 114
15 20 116
11 7 115
21 17 116
16 16 116
13 15 115
16 19 112
0 0 107
13 15 117
6 9 113
20 25 113
4 4 113
0 0 113
0 0 113
0 0 113
0 0 113
0 0 113
0 0 113
0 0 113
0 0 113
0 0 113
0 0 113
0 0 113
0 0 113
0 0 113
2 2 113
0 1 113
0 0 113
3 4 113
4 2 113
2 2 113
2 9 112
0 7 112
3 5 113
2 4 113
11 15 112
4 5 114
5 8 112
7 11 112
0 0 116
12 12 115
5 9 112
11 14 113
9 9 113
8 12 112
6 12 112
0 6 112
11 15 113
20 25 115
25 30 115
25 31 113
14 17 115
9 10 116
8 10 114
5 11 112
0 0 113
0 0 113
0 0 113
1 2 113
3 2 113
2 0 113
0 0 113
0 0 113
0 0 113
0 0 113
0 0 113
0 0 113
0 0 113
0 0 113
0 0 113
0 0 113
0 0 113
0 0 113
0 0 113
0 0 113
0 0 113
0 0 113
0 0 113
0 0 113
0 0 113
0 0 113
0 0 113
0 0 113
0 0 113
0 0 113
0 0 113
0 0 113
0 0 113
0 0 113
0 0 113
3 3 113
6 6 113
11 19 115
10 43 129
43 106 165
208 220 223
219 234 255
219 234 255
219 234 255
219 234 255
219 234 255
219 234 255
219 234 255
219 234 255
219 234 255
219 234 255
219 234 255
219 234 255
219 234 255
219 234 255
219 234 255
219 234 255
219 234 255
219 234 255
219 234 255
219 234 255
219 234 255
219 234 255
219 234 255
219 234 255
219 234 255
219 234 255
219 234 255
219 234 255
219 234 255
219 234 255
219 234 255
219 234 255
219 234 255
219 234 255
219 234 255
219 234 255
219 234 255
219 234 255
219 234 255
219 234 255
219 234 255
219 234 255
219 234 255
219 234 255
219 234 255
219 234 255
219 234 255
219 234 255
219 234 255
219 234 255
219 234 255
219 234 255
219 234 255
219 234 255
219 234 255
219 234 255
219 234 255
219 234 255
219 234 255
219 234 255
219 234 255
219 234 255
219 234 255
219 234 255
219 234 255
219 234 255
219 234 255
219 234 255
219 234 255
219 234 255
219 234 255
219 234 255
219 234 255
219 234 255
219 234 255
219 234 255
219 234 255
219 234 255
219 234 255
219 234 255
219 234 255
219 234 255
219 234 255
219 234 255
219 234 255
219 234 255
219 234 255
219 234 255
219 234 255
219 234 255
219 234 255
219 234 255
219 234 255
219 234 255
219 234 255
219 234 255
219 234 255
219 234 255
219 234 255
219 234 255
219 234 255
219 234 255
219 234 255
219 234 255
219 234 255
219 234 255
219 234 255
219 234 255
219 234 255
219 234 255
219 234 255
219 234 255
219 234 255
219 234 255
219 234 255
219 234 255
219 234 255
219 234 255
219 234 255
219 234 255
219 234 255
219 234 255
219 234 255
219 234 255
219 234 255
219 234 255
219 234 255
219 234 255
219 234 255
219 234 255
219 234 255
219 234 255
219 234 255
219 234 255
219 234 255
219 234 255
219 234 255
219 234 255
219 234 255
219 234 255
219 234 255
219 234 255
219 234 255
219 234 255
219 234 255
219 234 255
219 234 255
219 234 255
219 234 255
219 234 255
219 234 255
219 234 255
219 234 255
219 234 255
219 234 255
219 234 255
219 234 255
219 234 255
219 234 255
219 234 255
219 234 255
219 234 255
219 234 255
219 234 255
219 234 255
219 234 255
219 234 255
219 234 255
219 234 255
219 234 255
219 234 255
219 234 255
219 234 255
219 234 255
219 234 255
219 234 255
219 234 255
219 234 255
219 234 255
219 234 255
219 234 255
219 234 255
219 234 255
219 234 255
219 234 255
219 234 255
219 234 255
219 234 255
219 234 255
219 234 255
219 234 255
219 234 255
219 234 255
219 234 255
219 234 255
217 232 253
38 40 120
0 0 113
8 7 114
14 17 112
0 0 113
0 0 113
0 0 113
0 0 113
0 0 113
0 0 113
0 0 113
0 0 113
0 0 113
0 0 113
0 0 113
0 0 113
0 0 113
0 0 113
0 0 113
0 0 113
0 0 113
0 0 113
0 0 113
0 0 113
0 0 113
0 0 113
0 0 113
0 0 113
0 0 113
0 0 113
0 0 113
0 0 113
0 0 113
0 0 113
0 0 113
0 0 113
0 0 113
0 0 113
0 0 113
0 0 113
0 0 113
0 0 113
0 0 113
0 0 113
0 0 113
0 0 113
0 0 113
0 0 113
0 0 113
0 0 113
0 2 115
0 20 116
0 20 116
0 15 115
0 0 113
0 0 113
0 0 113
0 0 113
0 0 113
0 0 113
0 0 113
0 0 113
0 0 113
0 0 113
0 0 113
0 0 113
0 0 113
0 0 113
0 0 113
0 0 113
0 0 113
0 0 113
4 5 113
9 9 114
2 15 115
0 18 116
8 22 117
10 23 117
8 20 117
14 22 120
6 18 121
13 32 123
9 27 118
39 58 126
59 80 136
85 115 93
93 122 70
106 129 78
105 131 68
96 125 77
74 121 120
66 107 149
55 93 133
80 111 89
97 127 45
98 130 56
102 131 64
105 132 83
100 127 71
88 118 23
92 127 32
100 136 40
100 135 69
96 132 38
77 109 88
23 46 115
25 46 112
23 39 116
5 19 115
23 40 110
43 62 113
42 64 104
39 59 108
25 45 112
15 15 124
7 19 104
17 21 122
10 16 117
14 17 115
3 12 111
0 0 113
0 0 113
0 0 113
0 0 113
0 0 113
0 0 113
0 0 113
0 0 113
0 0 113
0 0 113
0 0 113
0 0 113
0 0 113
0 0 113
0 0 113
0 0 113
0 0 113
0 0 113
0 0 113
0 0 113
0 0 113
0 0 113
0 0 113
0 0 113
0 0 113
0 0 113
0 0 113
0 0 113
0 0 113
0 0 113
0 0 113
0 0 113
0 0 113
0 0 113
0 0 113
0 0 113
8 8 113
17 19 114
58 69 108
30 35 119
12 14 116
16 22 110
11 16 110
0 0 113
0 0 113
0 0 112
5 5 113
14 5 112
14 0 112
0 0 113
0 0 113
0 0 113
0 0 113
0 0 113
0 0 113
0 0 113
0 0 113
0 0 113
0 0 113
0 0 113
0 0 113
0 0 113
0 0 113
0 0 113
0 0 113
0 0 113
0 0 113
0 0 113
0 0 113
0 0 113
0 0 113
0 0 113
0 0 113
0 0 113
0 0 113
0 0 113
0 0 113
0 0 113
0 0 113
4 4 113
13 15 115
9 30 123
16 59 137
152 174 188
219 234 255
219 234 255
219 234 255
219 234 255
219 234 255
219 234 255
219 234 255
219 234 255
219 234 255
219 234 255
219 234 255
219 234 255
219 234 255
219 234 255
219 234 255
219 234 255
219 234 255
219 234 255
219 234 255
219 234 255
219 234 255
219 234 255
219 234 255
219 234 255
219 234 255
219 234 255
219 234 255
219 234 255
219 234 255
219 234 255
219 234 255
219 234 255
219 234 255
219 234 255
219 234 255
219 234 255
219 234 255
219 234 255
219 234 255
219 234 255
219 234 255
219 234 255
219 234 255
219 234 255
219 234 255
219 234 255
219 234 255
219 234 255
219 234 255
219 234 255
219 234 255
219 234 255
219 234 255
219 234 255
219 234 255
219 234 255
219 234 255
219 234 255
219 234 255
219 234 255
219 234 255
219 234 255
219 234 255
219 234 255
219 234 255
219 234 255
219 234 255
219 234 255
219 234 255
219 234 255
219 234 255
219 234 255
219 234 255
219 234 255
219 234 255
219 234 255
219 234 255
219 234 255
219 234 255
219 234 255
219 234 255
219 234 255
219 234 255
219 234 255
219 234 255
219 234 255
219 234 255
219 234 255
219 234 255
219 234 255
219 234 255
219 234 255
219 234 255
219 234 255
219 234 255
219 234 255
219 234 255
219 234 255
219 234 255
219 234 255
219 234 255
219 234 255
219 234 255
219 234 255
219 234 255
219 234 255
219 234 255
219 234 255
219 234 255
219 234 255
219 234 255
219 234 255
219 234 255
219 234 255
219 234 255
219 234 255
219 234 255
219 234 255
219 234 255
219 234 255
219 234 255
219 234 255
219 234 255
219 234 255
219 234 255
219 234 255
219 234 255
219 234 255
219 234 255
219 234 255
219 234 255
219 234 255
219 234 255
219 234 255
219 234 255
219 234 255
219 234 255
219 234 255
219 234 255
219 234 255
219 234 255
219 234 255
219 234 255
219 234 255
219 234 255
219 234 255
219 234 255
219 234 255
219 234 255
219 234 255
219 234 255
219 234 255
219 234 255
219 234 255
219 234 255
219 234 255
219 234 255
219 234 255
219 234 255
219 234 255
219 234 255
219 234 255
219 234 255
219 234 255
219 234 255
219 234 255
219 234 255
219 234 255
219 234 255
219 234 255
219 234 255
219 234 255
219 234 255
219 234 255
219 234 255
219 234 255
219 234 255
219 234 255
219 234 255
219 234 255
219 234 255
219 234 255
219 234 255
219 234 255
219 234 255
219 234 255
219 234 255
219 234 255
219 234 255
219 234 255
219 234 255
219 234 255
219 234 255
219 234 255
219 234 255
177 189 217
0 0 113
0 0 113
9 8 114
12 11 114
0 0 113
0 0 113
0 0 113
0 0 113
0 0 113
0 0 113
0 0 113
0 0 113
0 0 113
0 0 113
0 0 113
0 0 113
0 0 113
0 0 113
0 0 113
0 0 113
0 0 113
0 0 113
0 0 113
0 0 113
0 0 113
0 0 113
0 0 113
0 0 113
0 0 113
0 0 113
0 0 113
0 0 113
0 0 113
0 0 113
0 0 113
0 0 113
0 0 113
0 0 113
0 0 113
0 0 113
0 0 113
0 0 113
0 0 113
0 0 113
0 0 113
0 0 113
0 0 113
0 0 113
0 0 113
0 0 114
0 6 115
0 20 116
0 20 116
0 13 114
0 0 113
0 0 113
0 0 113
0 0 113
0 0 113
0 0 113
0 0 113
0 0 113
0 0 113
0 0 113
0 0 113
0 0 113
0 0 113
0 0 113
0 0 113
0 0 113
0 0 113
0 0 113
0 0 113
0 0 113
0 2 113
0 12 114
0 16 115
2 20 116
5 16 118
8 17 118
0 10 114
17 25 118
9 24 119
13 26 120
9 29 115
19 35 125
28 43 136
59 72 125
57 78 111
36 65 132
20 83 161
23 83 153
12 62 136
16 28 133
47 67 114
87 119 73
93 125 29
99 125 63
106 128 62
105 128 55
98 125 56
99 130 63
95 128 35
87 120 45
93 125 70
89 122 56
98 129 66
95 124 61
97 121 78
97 124 65
101 130 59
96 128 44
92 124 43
94 125 62
74 92 102
46 57 119
19 27 113
11 24 112
0 14 118
14 21 118
0 0 113
0 0 113
0 0 113
0 0 113
0 0 113
0 0 113
0 0 113
0 0 113
0 0 113
0 0 113
0 0 113
0 0 113
0 0 113
0 0 113
0 0 113
0 0 113
0 0 113
0 0 113
0 0 113
0 0 113
0 0 113
0 0 113
0 0 113
0 0 113
0 0 113
0 0 113
0 0 113
0 0 113
0 0 113
0 0 113
0 0 113
0 0 113
0 0 113
0 0 113
0 0 113
0 0 113
0 0 113
8 9 113
47 57 112
31 40 106
12 17 110
12 16 112
11 14 113
0 0 113
0 4 113
0 2 113
0 0 113
0 0 113
0 0 113
0 0 113
0 0 113
0 0 113
0 0 113
0 0 113
0 0 113
0 0 113
0 0 113
0 0 113
0 0 113
0 0 113
0 0 113
0 0 113
0 0 113
0 0 113
0 0 113
0 0 113
0 0 113
0 0 113
0 0 113
0 0 113
0 0 113
0 0 113
0 0 113
0 0 113
0 0 113
0 0 113
0 0 113
0 0 113
2 2 113
5 5 113
33 34 115
11 20 119
11 31 123
102 135 170
216 225 234
219 234 255
219 234 255
219 234 255
219 234 255
219 234 255
219 234 255
219 234 255
219 234 255
219 234 255
219 234 255
219 234 255
219 234 255
219 234 255
219 234 255
219 234 255
219 234 255
219 234 255
219 234 255
219 234 255
219 234 255
219 234 255
219 234 255
219 234 255
219 234 255
219 234 255
219 234 255
219 234 255
219 234 255
219 234 255
219 234 255
219 234 255
219 234 255
219 234 255
219 234 255
219 234 255
219 234 255
219 234 255
219 234 255
219 234 255
219 234 255
219 234 255
219 234 255
219 234 255
219 234 255
219 234 255
219 234 255
219 234 255
219 234 255
219 234 255
219 234 255
219 234 255
219 234 255
219 234 255
219 234 255
219 234 255
219 234 255
219 234 255
219 234 255
219 234 255
219 234 255
219 234 255
219 234 255
219 234 255
219 234 255
219 234 255
219 234 255
219 234 255
219 234 255
219 234 255
219 234 255
219 234 255
219 234 255
219 234 255
219 234 255
219 234 255
219 234 255
219 234 255
219 234 255
219 234 255
219 234 255
219 234 255
219 234 255
219 234 255
219 234 255
219 234 255
219 234 255
219 234 255
219 234 255
219 234 255
219 234 255
219 234 255
219 234 255
219 234 255
219 234 255
219 234 255
219 234 255
219 234 255
219 234 255
219 234 255
219 234 255
219 234 255
219 234 255
219 234 255
219 234 255
219 234 255
219 234 255
219 234 255
219 234 255
219 234 255
219 234 255
219 234 255
219 234 255
219 234 255
219 234 255
219 234 255
219 234 255
219 234 255
219 234 255
219 234 255
219 234 255
219 234 255
219 234 255
219 234 255
219 234 255
219 234 255
219 234 255
219 234 255
219 234 255
219 234 255
219 234 255
219 234 255
219 234 255
219 234 255
219 234 255
219 234 255
219 234 255
219 234 255
219 234 255
219 234 255
219 234 255
219 234 255
219 234 255
219 234 255
219 234 255
219 234 255
219 234 255
219 234 255
219 234 255
219 234 255
219 234 255
219 234 255
219 234 255
219 234 255
219 234 255
219 234 255
219 234 255
219 234 255
219 234 255
219 234 255
219 234 255
219 234 255
219 234 255
219 234 255
219 234 255
219 234 255
219 234 255
219 234 255
219 234 255
219 234 255
219 234 255
219 234 255
219 234 255
219 234 255
219 234 255
219 234 255
219 234 255
219 234 255
219 234 255
219 234 255
219 234 255
219 234 255
219 234 255
219 234 255
219 234 255
219 234 255
219 234 255
219 234 255
219 234 255
219 234 255
219 234 255
219 234 255
219 234 255
219 234 255
219 234 255
135 144 181
0 0 113
0 0 113
6 7 112
4 0 112
0 0 113
0 0 113
0 0 113
0 0 113
0 0 113
0 0 113
0 0 113
0 0 113
0 0 113
0 0 113
0 0 113
0 0 113
0 0 113
0 0 113
0 0 113
0 0 113
0 0 113
0 0 113
0 0 113
0 0 113
0 0 113
0 0 113
0 0 113
0 0 113
0 0 113
0 0 113
0 0 113
0 0 113
0 0 113
0 0 113
0 0 113
0 0 113
0 0 113
0 0 113
0 0 113
0 0 113
0 0 113
0 0 113
0 0 113
0 0 113
0 0 113
0 0 113
0 0 113
0 0 113
0 0 113
0 0 114
0 11 115
0 20 116
0 20 116
0 11 114
0 0 113
0 0 113
0 0 113
0 0 113
0 0 113
0 0 113
0 0 113
0 0 113
0 0 113
0 0 113
0 0 113
0 0 113
0 0 113
0 0 113
0 0 113
0 0 113
0 0 113
0 0 113
0 0 113
0 0 113
0 0 113
0 10 114
0 14 115
0 16 115
11 26 113
12 24 116
9 15 118
16 17 119
17 21 117
17 19 113
15 18 117
17 30 119
10 25 117
21 23 119
20 24 125
18 42 134
17 60 139
14 60 138
20 49 132
23 28 128
19 28 119
37 59 113
91 116 77
100 125 58
105 126 59
107 126 72
105 127 71
103 128 67
107 133 61
105 131 63
105 133 71
104 131 63
104 129 46
106 130 59
108 131 50
105 130 61
106 132 76
102 131 73
92 123 42
98 128 48
102 127 72
96 117 101
58 71 119
7 15 123
0 12 120
0 16 111
0 0 113
0 0 113
0 0 113
0 0 113
0 0 113
0 0 113
0 0 113
0 0 113
0 0 113
0 0 113
0 0 113
0 0 113
0 0 113
0 0 113
0 0 113
0 0 113
0 0 113
0 0 113
0 0 113
0 0 113
0 0 113
0 0 113
0 0 113
0 0 113
0 0 113
0 0 113
0 0 113
0 0 113
0 0 113
0 0 113
0 0 113
0 0 113
0 0 113
0 0 113
0 0 113
0 0 113
0 0 112
0 0 113
20 25 109
42 48 118
20 23 114
20 24 116
11 17 112
7 10 113
0 16 115
0 22 117
0 16 115
0 4 112
0 7 113
0 3 113
0 0 113
0 0 113
0 0 113
0 0 113
0 0 113
0 0 113
0 0 113
0 0 113
0 0 113
0 0 113
0 0 113
0 0 113
0 0 113
0 0 113
0 0 113
0 0 113
0 0 113
0 0 113
0 0 113
0 0 113
0 0 113
0 0 113
0 0 113
0 0 113
0 0 113
0 0 113
0 0 113
0 0 113
0 0 113
1 1 113
34 36 116
28 34 116
18 28 119
32 78 146
206 211 211
219 234 255
219 234 255
219 234 255
219 234 255
219 234 255
219 234 255
219 234 255
219 234 255
219 234 255
219 234 255
219 234 255
219 234 255
219 234 255
219 234 255
219 234 255
219 234 255
219 234 255
219 234 255
219 234 255
219 234 255
219 234 255
219 234 255
219 234 255
219 234 255
219 234 255
219 234 255
219 234 255
219 234 255
219 234 255
219 234 255
219 234 255
219 234 255
219 234 255
219 234 255
219 234 255
219 234 255
219 234 255
219 234 255
219 234 255
219 234 255
219 234 255
219 234 255
219 234 255
219 234 255
219 234 255
219 234 255
219 234 255
219 234 255
219 234 255
219 234 255
219 234 255
219 234 255
219 234 255
219 234 255
219 234 255
219 234 255
219 234 255
219 234 255
219 234 255
219 234 255
219 234 255
219 234 255
219 234 255
219 234 255
219 234 255
219 234 255
219 234 255
219 234 255
219 234 255
219 234 255
219 234 255
219 234 255
219 234 255
219 234 255
219 234 255
219 234 255
219 234 255
219 234 255
219 234 255
219 234 255
219 234 255
219 234 255
219 234 255
219 234 255
219 234 255
219 234 255
219 234 255
219 234 255
219 234 255
219 234 255
219 234 255
219 234 255
219 234 255
219 234 255
219 234 255
219 234 255
219 234 255
219 235 255
219 235 255
219 235 255
219 235 255
219 235 255
219 235 255
219 235 255
219 235 255
219 235 255
219 235 255
219 235 255
219 235 255
219 235 255
219 235 255
219 235 255
219 235 255
219 235 255
219 235 255
219 235 255
219 235 255
219 235 255
219 235 255
219 235 255
219 235 255
219 235 255
219 235 255
219 235 255
219 235 255
219 235 255
219 235 255
219 235 255
219 235 255
219 235 255
219 235 255
219 235 255
219 235 255
219 235 255
219 235 255
219 235 255
219 235 255
219 235 255
219 235 255
219 235 255
219 235 255
219 235 255
219 235 255
219 235 255
219 235 255
219 235 255
219 235 255
219 235 255
219 235 255
219 235 255
219 235 255
219 235 255
219 235 255
219 235 255
219 234 255
219 235 255
219 234 255
219 234 255
219 234 255
219 234 255
219 234 255
219 234 255
219 234 255
219 234 255
219 234 255
219 234 255
219 234 255
219 234 255
219 234 255
219 234 255
219 234 255
219 234 255
219 234 255
219 234 255
219 234 255
219 234 255
219 234 255
219 234 255
219 234 255
219 234 255
219 234 255
219 234 255
219 234 255
219 234 255
219 234 255
219 234 255
219 234 255
219 234 255
219 234 255
219 234 255
219 234 255
219 234 255
219 234 255
214 229 250
31 33 117
0 0 113
0 0 113
0 0 113
0 0 113
0 0 113
0 0 113
0 0 113
0 0 113
0 0 113
0 0 113
0 0 113
0 0 113
0 0 113
0 0 113
0 0 113
0 0 113
0 0 113
0 0 113
0 0 113
0 0 113
0 0 114
8 8 115
6 7 115
0 0 114
0 0 113
0 0 113
0 0 113
0 0 113
0 0 113
0 0 113
0 0 113
0 0 113
0 0 113
0 0 113
0 0 113
0 0 113
0 0 113
0 0 113
0 0 113
0 0 113
0 0 113
0 0 113
0 0 113
0 0 113
0 0 113
0 0 113
0 0 113
0 0 113
0 0 113
0 0 114
0 12 116
0 20 116
0 20 116
0 8 113
0 0 113
0 0 113
0 0 113
0 0 113
0 0 113
0 0 113
0 0 113
0 0 113
0 0 113
0 0 113
0 0 113
0 0 113
0 0 113
0 0 113
0 0 113
0 0 113
0 0 113
0 0 113
0 0 113
0 0 113
0 0 113
0 0 113
0 7 114
0 12 115
7 17 112
6 12 113
10 16 118
13 15 116
15 20 116
18 23 113
20 11 123
11 23 114
0 16 113
17 14 117
12 21 115
7 29 116
20 47 122
9 42 131
5 36 123
16 23 126
14 13 127
2 27 113
51 68 119
94 119 83
104 131 70
96 123 54
105 130 59
104 129 68
114 138 81
109 134 77
106 131 66
102 126 71
104 126 73
110 130 67
117 136 82
114 136 78
112 139 75
106 136 70
93 125 56
99 127 69
110 136 62
112 136 79
68 81 113
12 15 119
22 25 120
9 10 110
0 0 113
0 0 113
0 0 113
0 0 113
0 0 113
0 0 113
0 0 113
0 0 113
0 0 113
0 0 113
0 0 113
0 0 113
0 0 113
0 0 113
0 0 113
0 0 113
0 0 113
0 0 113
0 0 113
0 0 113
0 0 113
0 0 113
0 0 113
0 0 113
0 0 113
0 0 113
0 0 113
0 0 113
0 0 113
0 0 113
0 0 113
0 0 113
0 0 113
0 0 113
0 0 113
0 0 113
0 0 113
6 7 113
9 15 101
43 53 111
25 32 110
12 12 113
13 16 113
7 10 114
10 24 118
0 26 121
0 20 118
0 9 113
0 14 115
0 12 115
0 2 113
5 0 112
4 0 112
0 0 113
0 0 113
0 0 113
0 0 113
0 0 113
0 0 113
0 0 113
0 0 113
0 0 113
0 0 113
0 0 113
0 0 113
0 0 113
0 0 113
0 0 113
0 0 113
0 0 113
0 0 113
0 0 113
0 0 113
0 0 113
0 0 113
0 0 113
0 0 113
0 0 113
0 0 113
0 0 113
4 4 113
22 26 117
33 38 122
18 54 136
163 173 177
218 232 251
219 234 255
219 234 255
219 234 255
219 234 255
219 234 255
219 234 255
219 234 255
219 234 255
219 234 255
219 234 255
219 234 255
219 234 255
219 234 255
219 234 255
219 234 255
219 234 255
219 234 255
219 234 255
219 234 255
219 234 255
219 234 255
219 234 255
219 234 255
219 234 255
219 234 255
219 234 255
219 234 255
219 234 255
219 234 255
219 234 255
219 234 255
219 234 255
219 234 255
219 234 255
219 234 255
219 234 255
219 235 255
219 234 255
219 235 255
219 234 255
219 235 255
219 235 255
219 235 255
219 235 255
219 235 255
219 235 255
219 235 255
219 235 255
219 235 255
219 235 255
219 235 255
219 235 255
219 235 255
219 235 255
219 235 255
219 235 255
219 235 255
219 235 255
219 235 255
219 235 255
219 235 255
219 235 255
219 235 255
219 235 255
219 235 255
219 235 255
219 235 255
219 235 255
219 235 255
219 235 255
219 235 255
219 235 255
219 235 255
219 235 255
219 235 255
219 235 255
219 235 255
219 235 255
219 235 255
219 235 255
219 235 255
219 235 255
219 235 255
219 235 255
219 235 255
219 235 255
219 235 255
219 235 255
219 235 255
219 235 255
219 235 255
219 235 255
219 235 255
219 235 255
219 235 255
219 235 255
219 235 255
219 235 255
219 235 255
219 235 255
219 235 255
219 235 255
219 235 255
219 235 255
219 235 255
219 235 255
219 235 255
219 235 255
219 235 255
219 235 255
219 235 255
219 235 255
219 235 255
219 235 255
219 235 255
219 235 255
219 235 255
219 235 255
219 235 255
219 235 255
219 235 255
219 235 255
219 235 255
219 235 255
219 235 255
219 235 255
219 235 255
219 235 255
219 235 255
219 235 255
219 235 255
219 235 255
219 235 255
219 235 255
219 235 255
219 235 255
219 235 255
219 235 255
219 235 255
219 235 255
219 235 255
219 235 255
219 235 255
219 235 255
219 235 255
219 235 255
219 235 255
219 235 255
219 235 255
219 235 255
219 235 255
219 235 255
219 235 255
219 235 255
219 235 255
219 235 255
219 235 255
219 235 255
219 235 255
219 235 255
219 235 255
219 235 255
219 235 255
219 235 255
219 235 255
219 235 255
219 235 255
219 235 255
219 235 255
219 235 255
219 235 255
219 235 255
219 235 255
219 235 255
219 235 255
219 235 255
219 235 255
219 235 255
219 235 255
219 235 255
219 235 255
219 235 255
219 235 255
219 235 255
219 235 255
219 235 255
219 235 255
219 235 255
219 235 255
219 235 255
219 235 255
219 235 255
168 180 209
0 0 113
0 0 113
0 0 113
0 0 113
0 0 113
0 0 113
0 0 113
0 0 113
0 0 113
0 0 113
0 0 113
0 0 113
0 0 113
0 0 113
0 0 113
0 0 113
0 0 113
0 0 113
0 0 113
0 0 113
0 1 113
2 6 115
11 15 116
10 13 116
0 5 114
0 0 113
0 0 113
0 0 113
0 0 113
0 0 113
0 0 113
0 0 113
0 0 113
0 0 113
0 0 113
0 0 113
0 0 113
0 0 113
0 0 113
0 0 113
0 0 113
0 0 113
0 0 113
0 0 113
0 0 113
0 0 113
0 0 113
0 0 113
0 0 113
0 0 113
0 0 115
0 15 116
0 20 116
0 20 116
0 3 113
0 0 113
0 0 113
0 0 113
0 0 113
0 0 113
0 0 113
0 0 113
0 0 113
0 0 113
0 1 113
0 2 113
0 3 113
0 2 113
0 0 113
0 0 113
0 0 113
0 0 113
0 0 113
16 10 113
2 1 113
0 0 113
0 0 113
0 0 113
0 2 113
17 15 119
2 2 114
5 17 112
7 18 112
4 10 115
0 2 117
6 19 118
8 28 106
2 18 118
17 15 122
19 25 115
7 16 120
4 31 127
13 45 132
7 48 127
12 40 121
18 33 123
11 19 121
3 23 118
35 53 121
75 101 107
95 126 70
95 124 72
99 128 70
107 132 73
103 130 63
100 130 49
100 128 56
105 127 69
113 131 86
116 136 79
112 135 77
113 141 71
102 136 64
98 132 62
100 134 65
104 130 62
108 132 73
72 88 98
22 23 120
9 13 110
0 7 115
0 1 113
0 0 113
0 0 113
0 0 113
0 0 113
0 0 113
0 0 113
0 0 113
0 0 113
0 0 113
0 0 113
0 5 113
0 7 113
0 5 113
0 5 113
0 3 113
0 3 113
0 1 113
5 13 113
0 4 113
0 4 113
0 0 113
0 0 113
0 0 113
0 0 113
0 0 113
0 0 113
0 0 113
0 0 113
0 0 113
0 0 113
0 0 113
0 0 113
0 0 113
0 0 113
0 0 113
4 5 113
12 13 114
15 16 115
34 40 114
46 55 109
18 22 113
9 12 118
9 13 113
20 31 120
13 33 124
0 22 119
8 17 115
1 19 118
1 19 116
0 9 114
4 0 112
11 0 112
0 0 113
0 0 113
0 0 113
0 0 113
0 0 113
0 0 113
0 0 113
0 0 113
0 0 113
0 0 113
0 0 113
0 0 113
0 0 113
0 0 113
0 0 113
0 0 113
0 0 113
0 0 113
0 0 113
0 0 113
0 0 113
0 0 113
0 0 113
0 0 113
0 0 113
0 0 113
0 0 113
0 0 113
15 14 112
36 40 120
11 42 129
129 161 175
212 222 234
219 235 255
219 235 255
219 235 255
219 235 255
219 235 255
219 235 255
219 235 255
219 235 255
219 235 255
219 235 255
219 235 255
219 235 255
219 235 255
219 235 255
219 235 255
219 235 255
219 235 255
219 235 255
219 235 255
219 235 255
219 235 255
219 235 255
219 235 255
219 235 255
219 235 255
219 235 255
219 235 255
219 235 255
219 235 255
219 235 255
219 235 255
219 235 255
219 235 255
219 235 255
219 235 255
219 235 255
219 235 255
219 235 255
219 235 255
219 235 255
219 235 255
219 235 255
219 235 255
219 235 255
219 235 255
219 235 255
219 235 255
219 235 255
219 235 255
219 235 255
219 235 255
219 235 255
219 235 255
219 235 255
219 235 255
219 235 255
219 235 255
219 235 255
219 235 255
219 235 255
219 235 255
219 235 255
219 235 255
219 235 255
219 235 255
219 235 255
219 235 255
219 235 255
219 235 255
219 235 255
219 235 255
219 235 255
219 235 255
219 235 255
219 235 255
219 235 255
219 235 255
219 235 255
219 235 255
219 235 255
219 235 255
219 235 255
219 235 255
219 235 255
219 235 255
219 235 255
219 235 255
219 235 255
219 235 255
219 235 255
219 235 255
219 235 255
219 235 255
219 235 255
219 235 255
219 235 255
220 235 255
220 235 255
220 235 255
220 235 255
220 235 255
220 235 255
220 235 255
220 235 255
220 235 255
220 235 255
220 235 255
220 235 255
220 235 255
220 235 255
220 235 255
220 235 255
220 235 255
220 235 255
220 235 255
220 235 255
220 235 255
220 235 255
220 235 255
220 235 255
220 235 255
220 235 255
220 235 255
220 235 255
220 235 255
220 235 255
220 235 255
220 235 255
220 235 255
220 235 255
220 235 255
220 235 255
220 235 255
220 235 255
220 235 255
220 235 255
220 235 255
220 235 255
220 235 255
220 235 255
220 235 255
220 235 255
220 235 255
220 235 255
220 235 255
220 235 255
220 235 255
220 235 255
220 235 255
220 235 255
220 235 255
220 235 255
220 235 255
220 235 255
219 235 255
220 235 255
220 235 255
219 235 255
219 235 255
219 235 255
219 235 255
219 235 255
219 235 255
219 235 255
219 235 255
219 235 255
219 235 255
219 235 255
219 235 255
219 235 255
219 235 255
219 235 255
219 235 255
219 235 255
219 235 255
219 235 255
219 235 255
219 235 255
219 235 255
219 235 255
219 235 255
219 235 255
219 235 255
219 235 255
219 235 255
219 235 255
219 235 255
219 235 255
219 235 255
219 235 255
219 235 255
219 235 255
131 141 178
0 0 113
0 0 113
0 0 113
0 0 113
0 0 113
0 0 113
0 0 113
0 0 113
0 0 113
0 0 113
0 0 113
0 0 113
0 0 113
0 0 113
0 0 113
0 0 113
0 0 113
0 0 113
0 0 113
0 0 113
0 6 113
0 15 115
0 20 116
0 17 116
0 10 114
0 0 113
0 0 113
0 0 113
0 5 113
0 4 113
0 4 113
0 0 113
7 0 113
0 0 113
0 0 113
0 0 113
5 7 113
0 12 114
0 12 114
0 2 113
0 0 113
0 7 113
0 14 115
0 14 114
0 0 113
6 6 113
4 4 113
0 0 113
0 0 113
0 0 113
0 0 113
10 13 115
12 15 116
11 14 116
0 0 115
0 0 115
0 12 115
0 18 116
0 20 116
0 11 114
0 0 113
0 0 113
0 0 113
0 0 113
0 5 113
0 13 112
0 14 112
0 11 112
0 0 113
0 0 113
0 0 113
0 0 113
0 0 113
0 0 113
0 0 113
0 0 113
0 0 113
0 0 113
0 0 113
0 0 112
0 0 113
8 9 113
12 13 116
6 7 115
0 5 115
0 20 116
0 20 116
0 20 116
0 20 116
0 20 116
0 20 117
8 31 123
21 43 127
9 42 126
6 36 124
12 34 123
7 26 120
17 26 116
10 22 119
21 34 123
42 59 125
43 61 117
60 84 116
87 113 93
93 126 63
98 132 52
95 136 63
105 133 82
106 136 78
116 137 87
117 138 87
111 140 69
110 144 83
106 142 76
111 144 72
108 135 63
98 123 76
41 53 109
13 19 120
12 11 117
5 12 110
0 2 113
0 0 113
0 0 113
0 0 113
0 0 113
0 0 113
0 0 113
0 0 113
0 0 113
0 0 113
0 0 113
0 6 113
0 16 115
0 13 114
0 11 113
5 13 113
7 14 113
8 12 110
14 31 114
8 18 111
16 17 114
5 13 114
11 13 112
18 19 115
19 20 117
12 16 114
13 19 108
11 13 116
13 15 117
11 12 117
0 0 115
0 0 114
0 0 113
8 1 113
16 1 113
14 0 113
12 4 112
10 8 113
12 12 115
12 13 114
43 51 115
14 21 114
9 16 117
12 18 115
11 23 119
13 30 122
8 22 119
13 18 116
8 23 119
8 26 119
9 23 117
12 19 116
12 8 113
0 0 113
0 0 113
0 0 113
0 0 113
0 0 113
0 0 113
0 0 113
0 0 113
0 0 113
0 0 113
0 0 113
0 0 113
0 0 113
0 0 113
0 0 113
0 0 113
0 0 113
0 0 113
0 0 113
0 0 113
0 0 113
0 0 113
0 0 113
0 0 113
0 0 113
0 0 113
0 0 113
0 0 113
11 10 114
42 47 116
9 33 125
71 113 160
200 209 212
219 235 255
219 235 255
219 235 255
219 235 255
219 235 255
219 235 255
219 235 255
219 235 255
219 235 255
219 235 255
219 235 255
219 235 255
219 235 255
219 235 255
219 235 255
219 235 255
219 235 255
219 235 255
219 235 255
219 235 255
219 235 255
219 235 255
219 235 255
219 235 255
219 235 255
219 235 255
219 235 255
219 235 255
219 235 255
219 235 255
219 235 255
219 235 255
219 235 255
219 235 255
220 235 255
219 235 255
220 235 255
220 235 255
220 235 255
220 235 255
220 235 255
220 235 255
220 235 255
220 235 255
220 235 255
220 235 255
220 235 255
220 235 255
220 235 255
220 235 255
220 235 255
220 235 255
220 235 255
220 235 255
220 235 255
220 235 255
220 235 255
220 235 255
220 235 255
220 235 255
220 235 255
220 235 255
220 235 255
220 235 255
220 235 255
220 235 255
220 235 255
220 235 255
220 235 255
220 235 255
220 235 255
220 235 255
220 235 255
220 235 255
220 235 255
220 235 255
220 235 255
220 235 255
220 235 255
220 235 255
220 235 255
220 235 255
220 235 255
220 235 255
220 235 255
220 235 255
220 235 255
220 235 255
220 235 255
220 235 255
220 235 255
220 235 255
220 235 255
220 235 255
220 235 255
220 235 255
220 235 255
220 235 255
220 235 255
220 235 255
220 235 255
220 235 255
220 235 255
220 235 255
220 235 255
220 235 255
220 235 255
220 235 255
220 235 255
220 235 255
220 235 255
220 235 255
220 235 255
220 235 255
220 235 255
220 235 255
220 235 255
220 235 255
220 235 255
220 235 255
220 235 255
220 235 255
220 235 255
220 235 255
220 235 255
220 235 255
220 235 255
220 235 255
220 235 255
220 235 255
220 235 255
220 235 255
220 235 255
220 235 255
220 235 255
220 235 255
220 235 255
220 235 255
220 235 255
220 235 255
220 235 255
220 235 255
220 235 255
220 235 255
220 235 255
220 235 255
220 235 255
220 235 255
220 235 255
220 235 255
220 235 255
220 235 255
220 235 255
220 235 255
220 235 255
220 235 255
220 235 255
220 235 255
220 235 255
220 235 255
220 235 255
220 235 255
220 235 255
220 235 255
220 235 255
220 235 255
220 235 255
220 235 255
220 235 255
220 235 255
220 235 255
220 235 255
220 235 255
220 235 255
220 235 255
220 235 255
220 235 255
220 235 255
220 235 255
220 235 255
220 235 255
220 235 255
220 235 255
220 235 255
220 235 255
220 235 255
220 235 255
220 235 255
220 235 255
220 235 255
220 235 255
220 235 255
72 77 136
0 0 113
0 0 113
0 0 113
0 0 113
0 0 113
0 0 113
0 0 113
0 0 113
0 0 113
0 0 113
0 2 113
0 3 113
0 0 113
0 0 113
0 0 113
0 0 113
0 0 113
0 0 113
0 0 113
0 0 113
0 4 113
0 7 113
0 9 114
0 6 113
0 2 113
0 0 113
0 18 116
0 20 116
0 20 116
0 20 116
0 8 115
0 0 115
9 0 113
0 0 113
0 0 113
7 8 113
6 18 115
0 20 116
0 20 116
0 0 113
0 0 113
0 12 114
0 20 116
0 16 115
0 0 113
9 9 113
4 5 113
0 0 113
0 0 113
0 0 113
0 0 113
10 11 115
11 12 116
4 4 115
0 0 115
0 0 115
0 15 116
0 20 116
0 20 116
0 7 113
0 0 113
0 0 113
0 0 113
0 0 113
0 0 113
0 9 112
0 14 112
0 9 112
0 0 113
0 0 113
0 0 113
0 0 113
0 0 113
0 0 113
0 0 113
0 0 113
0 0 113
0 0 113
0 0 113
0 0 113
0 0 113
2 2 113
6 6 115
0 0 115
0 4 115
0 20 116
0 20 116
0 20 116
0 20 116
0 20 116
4 21 117
20 34 124
22 38 126
8 32 123
7 26 121
16 31 121
19 28 121
11 24 113
7 19 115
5 19 120
5 25 123
9 23 121
9 30 121
27 49 123
32 60 121
62 77 116
67 98 92
73 107 122
83 131 122
113 136 85
116 137 84
115 138 90
111 143 71
120 154 86
117 151 84
110 141 68
91 118 81
30 48 107
2 15 117
9 9 115
7 14 112
1 3 113
0 0 113
0 0 113
0 0 113
0 0 113
0 0 113
0 0 113
0 0 113
0 0 113
0 0 113
0 0 113
0 0 113
0 0 113
0 0 113
0 0 113
6 7 113
8 9 113
12 13 115
23 11 115
29 15 114
22 0 114
12 26 111
17 15 118
7 14 110
12 15 110
7 5 113
14 14 117
15 20 114
14 19 113
4 13 116
0 11 115
0 8 115
0 10 115
4 12 114
11 15 114
10 12 113
3 4 113
2 6 113
9 12 114
19 23 118
34 42 111
9 18 108
18 23 118
19 30 115
1 15 118
0 18 117
12 23 117
16 19 117
10 18 119
9 30 122
0 32 123
20 38 124
10 15 116
0 0 113
0 0 113
0 0 113
0 0 113
0 0 113
0 0 113
0 0 113
0 0 113
0 0 113
0 0 113
0 0 113
0 0 114
0 0 113
0 0 113
0 0 113
0 0 113
0 0 113
0 0 113
0 0 113
0 0 113
0 0 113
0 0 113
0 0 113
0 0 113
0 0 113
0 0 113
0 0 113
0 0 113
4 4 113
40 47 117
8 29 123
28 78 146
182 192 180
220 235 255
220 235 255
220 235 255
220 235 255
220 235 255
220 235 255
220 235 255
220 235 255
220 235 255
220 235 255
220 235 255
220 235 255
220 235 255
220 235 255
220 235 255
220 235 255
220 235 255
220 235 255
220 235 255
220 235 255
220 235 255
220 235 255
220 235 255
220 235 255
220 235 255
220 235 255
220 235 255
220 235 255
220 235 255
220 235 255
220 235 255
220 235 255
220 235 255
220 235 255
220 235 255
220 235 255
220 235 255
220 235 255
220 235 255
220 235 255
220 235 255
220 235 255
220 235 255
220 235 255
220 235 255
220 235 255
220 235 255
220 235 255
220 235 255
220 235 255
220 235 255
220 235 255
220 235 255
220 235 255
220 235 255
220 235 255
220 235 255
220 235 255
220 235 255
220 235 255
220 235 255
220 235 255
220 235 255
220 235 255
220 235 255
220 235 255
220 235 255
220 235 255
220 235 255
220 235 255
220 235 255
220 235 255
220 235 255
220 235 255
220 235 255
220 235 255
220 235 255
220 235 255
220 235 255
220 235 255
220 235 255
220 235 255
220 235 255
220 235 255
220 235 255
220 235 255
220 235 255
220 235 255
220 235 255
220 235 255
220 235 255
220 235 255
220 235 255
220 235 255
220 235 255
220 235 255
220 235 255
220 235 255
220 235 255
220 235 255
220 235 255
220 235 255
220 235 255
220 235 255
220 235 255
220 235 255
220 235 255
220 235 255
220 235 255
220 235 255
220 235 255
220 235 255
220 235 255
220 235 255
220 235 255
220 235 255
220 235 255
220 235 255
220 235 255
220 235 255
220 235 255
220 235 255
220 235 255
220 235 255
220 235 255
220 235 255
220 235 255
220 235 255
220 235 255
220 235 255
220 235 255
220 235 255
220 235 255
220 235 255
220 235 255
220 235 255
220 235 255
220 235 255
220 235 255
220 235 255
220 235 255
220 235 255
220 235 255
220 235 255
220 235 255
220 235 255
220 235 255
220 235 255
220 235 255
220 235 255
220 235 255
220 235 255
220 235 255
220 235 255
220 235 255
220 235 255
220 235 255
220 235 255
220 235 255
220 235 255
220 235 255
220 235 255
220 235 255
220 235 255
220 235 255
220 235 255
220 235 255
220 235 255
220 235 255
220 235 255
220 235 255
220 235 255
220 235 255
220 235 255
220 235 255
220 235 255
220 235 255
220 235 255
220 235 255
220 235 255
220 235 255
220 235 255
220 235 255
220 235 255
220 235 255
220 235 255
220 235 255
220 235 255
220 235 255
220 235 255
220 235 255
211 225 247
0 0 113
0 0 113
0 0 113
0 0 113
0 0 113
0 0 113
0 0 113
0 0 113
0 0 113
0 0 113
0 6 113
0 20 116
0 8 115
0 0 113
0 0 113
0 0 113
0 0 113
0 0 113
0 0 113
0 0 113
0 0 113
0 0 113
0 0 113
0 0 113
0 0 113
0 0 113
0 3 113
0 20 116
0 20 116
0 20 116
0 20 116
0 2 115
0 0 115
0 0 113
0 0 113
0 8 113
4 19 114
0 20 115
0 20 116
0 18 116
0 0 113
0 0 113
0 15 115
0 20 116
0 15 115
0 0 113
10 11 114
1 1 113
0 0 113
0 0 113
0 0 113
0 0 113
0 0 115
0 0 115
0 0 115
0 0 115
11 11 116
6 17 116
0 20 116
0 20 116
0 4 113
0 0 113
0 0 113
0 0 114
0 0 113
0 0 113
0 1 113
0 5 113
0 2 113
0 0 113
0 0 113
0 0 113
0 0 113
0 0 113
0 0 113
0 0 113
0 0 113
0 0 113
0 0 113
0 0 113
0 0 113
0 0 113
0 0 113
0 0 115
0 0 115
6 10 115
0 20 116
0 20 116
0 20 116
0 20 116
0 20 116
5 21 117
15 28 120
17 29 121
7 20 119
0 17 118
14 23 120
17 23 120
7 15 118
10 25 118
16 32 119
18 33 120
25 38 124
16 35 125
33 36 121
0 34 131
32 22 129
23 21 116
23 36 125
59 94 113
109 136 69
120 142 100
114 136 82
119 148 83
124 158 93
123 156 103
118 152 87
92 120 104
40 55 113
10 18 116
5 12 112
9 14 113
3 5 113
0 0 113
0 0 113
0 0 113
0 0 113
0 0 113
0 0 113
0 0 113
0 0 113
0 0 113
0 0 113
0 0 113
0 0 113
9 10 113
10 11 114
4 5 113
5 5 114
4 4 111
24 14 110
21 17 116
18 38 124
25 28 108
16 16 115
12 16 111
23 28 113
14 16 114
11 13 118
22 28 114
2 12 109
0 20 116
0 20 116
0 16 115
0 16 115
0 20 115
0 18 115
0 10 113
0 6 112
0 10 113
0 10 113
23 30 117
21 31 116
12 22 113
32 35 121
34 42 115
12 21 119
8 22 117
1 20 116
7 20 116
13 17 117
10 29 121
0 30 120
16 32 121
11 17 116
0 0 113
0 0 113
6 7 113
10 11 114
3 3 113
0 0 113
0 0 113
0 0 113
0 0 113
0 0 113
0 0 113
0 0 114
0 0 114
0 0 113
0 0 113
0 0 113
0 0 113
0 0 113
0 0 113
0 0 113
0 0 113
0 0 113
0 0 113
0 0 113
0 0 113
0 0 113
0 0 113
0 0 113
0 0 113
8 16 113
8 30 120
18 44 130
143 158 145
210 225 240
220 235 255
220 235 255
220 235 255
220 235 255
220 235 255
220 235 255
220 235 255
220 235 255
220 235 255
220 235 255
220 235 255
220 235 255
220 235 255
220 235 255
220 235 255
220 235 255
220 235 255
220 235 255
220 235 255
220 235 255
220 235 255
220 235 255
220 235 255
220 235 255
220 235 255
220 235 255
220 235 255
220 235 255
220 235 255
220 235 255
220 235 255
220 235 255
220 235 255
220 235 255
220 235 255
220 235 255
220 235 255
220 235 255
220 235 255
220 235 255
220 235 255
220 235 255
220 235 255
220 235 255
220 235 255
220 235 255
220 235 255
220 235 255
220 235 255
220 235 255
220 235 255
220 235 255
220 235 255
220 235 255
220 235 255
220 235 255
220 235 255
220 235 255
220 235 255
220 235 255
220 235 255
220 235 255
220 235 255
220 235 255
220 235 255
220 235 255
220 235 255
220 235 255
220 235 255
220 235 255
220 235 255
220 235 255
220 235 255
220 235 255
220 235 255
220 235 255
220 235 255
220 235 255
220 235 255
220 235 255
220 235 255
220 235 255
220 235 255
220 235 255
220 235 255
220 235 255
220 235 255
220 235 255
220 235 255
220 235 255
220 235 255
220 235 255
220 235 255
220 235 255
220 235 255
220 235 255
220 235 255
220 235 255
220 235 255
220 235 255
220 235 255
220 235 255
220 235 255
220 235 255
220 235 255
220 235 255
220 235 255
220 235 255
220 235 255
220 235 255
220 235 255
220 235 255
220 235 255
220 235 255
220 235 255
220 235 255
220 235 255
220 235 255
220 235 255
220 235 255
220 235 255
220 235 255
220 235 255
220 235 255
220 235 255
220 235 255
220 235 255
220 235 255
220 235 255
220 235 255
220 235 255
220 235 255
220 235 255
220 235 255
220 235 255
220 235 255
220 235 255
220 235 255
220 235 255
220 235 255
220 235 255
220 235 255
220 235 255
220 235 255
220 235 255
220 235 255
220 235 255
220 235 255
220 235 255
220 235 255
220 235 255
220 235 255
220 235 255
220 235 255
220 235 255
220 235 255
220 235 255
220 235 255
220 235 255
220 235 255
220 235 255
220 235 255
220 235 255
220 235 255
220 235 255
220 235 255
220 235 255
220 235 255
220 235 255
220 235 255
220 235 255
220 235 255
220 235 255
220 235 255
220 235 255
220 235 255
220 235 255
220 235 255
220 235 255
220 235 255
220 235 255
220 235 255
220 235 255
220 235 255
220 235 255
220 235 255
220 235 255
220 235 255
220 235 255
220 235 255
184 196 223
0 0 113
0 0 113
0 0 113
0 0 113
0 0 113
0 0 113
0 0 113
0 0 113
0 0 113
0 0 113
0 13 114
0 20 116
0 3 114
0 0 113
0 0 113
0 0 113
0 0 113
0 0 113
0 0 113
0 0 113
0 0 113
0 0 113
0 0 113
0 0 113
0 0 113
0 0 113
0 9 114
0 20 116
0 20 116
0 20 116
0 19 116
0 0 115
0 0 115
0 0 114
0 0 114
0 19 115
0 20 115
0 20 116
0 20 116
0 16 115
0 0 113
0 2 113
0 17 116
0 20 116
0 12 114
0 0 113
10 11 114
0 0 113
0 0 113
0 0 113
0 0 113
0 0 113
0 0 115
0 0 115
0 0 115
1 1 115
4 4 115
2 5 114
0 5 113
0 5 113
0 20 116
0 20 116
0 17 116
0 0 115
0 0 115
0 0 113
0 0 113
0 0 113
0 0 113
0 0 113
0 0 113
0 0 113
0 0 113
0 0 113
0 0 113
0 0 113
0 0 113
0 0 113
0 0 113
0 0 113
0 0 113
0 0 113
0 0 113
0 0 115
7 7 115
12 15 116
0 20 116
0 20 116
0 20 116
0 20 116
0 20 116
4 19 116
8 19 117
8 20 118
8 20 118
0 15 117
7 19 119
9 20 119
15 23 122
11 26 121
9 29 118
0 31 119
9 38 123
15 39 124
22 40 132
14 70 141
11 55 131
18 38 125
12 26 120
28 31 114
79 97 108
119 142 109
118 144 90
114 146 85
124 159 100
127 160 104
122 156 92
98 125 112
29 44 114
3 13 113
16 22 114
13 16 113
0 0 113
0 0 113
0 0 113
0 0 113
0 0 113
0 0 113
0 0 113
0 0 113
0 0 113
0 0 113
0 0 113
0 0 113
0 9 113
0 5 113
4 4 112
12 13 113
15 18 114
12 18 114
0 22 122
65 74 130
123 125 138
104 101 124
15 18 114
55 49 130
39 34 111
38 41 114
22 26 115
28 32 120
16 16 119
4 17 115
8 22 117
5 18 116
1 15 115
4 20 116
16 20 118
14 16 117
15 10 115
19 0 115
16 0 113
23 31 113
14 24 111
13 18 119
14 17 118
19 24 111
6 21 116
0 20 116
0 17 116
0 20 116
8 22 117
12 25 119
0 22 119
11 23 118
8 18 115
0 5 113
0 7 113
2 6 113
10 14 114
5 6 113
0 0 113
0 0 113
0 0 113
0 0 113
0 0 113
0 0 113
0 0 113
0 0 114
0 0 113
0 0 113
0 0 113
0 0 113
0 0 113
0 0 113
0 0 113
0 0 113
0 0 113
0 0 113
0 0 113
0 0 113
0 0 113
0 0 113
0 0 113
0 0 113
7 0 114
11 24 120
17 27 121
110 133 140
192 209 210
220 235 255
220 235 255
220 235 255
220 235 255
220 235 255
220 235 255
220 235 255
220 235 255
220 235 255
220 235 255
220 235 255
220 235 255
220 235 255
220 235 255
220 235 255
220 235 255
220 235 255
220 235 255
220 235 255
220 235 255
220 235 255
220 235 255
220 235 255
220 235 255
220 235 255
220 235 255
220 235 255
220 235 255
220 235 255
220 235 255
220 235 255
220 235 255
220 235 255
220 235 255
220 235 255
220 235 255
220 235 255
220 235 255
220 235 255
220 235 255
220 235 255
220 235 255
220 235 255
220 235 255
220 235 255
220 235 255
220 235 255
220 235 255
220 235 255
220 235 255
220 235 255
220 235 255
220 235 255
220 235 255
220 235 255
220 235 255
220 235 255
220 235 255
220 235 255
220 235 255
220 235 255
220 235 255
220 235 255
220 235 255
220 235 255
220 235 255
220 235 255
220 235 255
220 235 255
220 235 255
220 235 255
220 235 255
220 235 255
220 235 255
220 235 255
220 235 255
220 235 255
220 235 255
220 235 255
220 235 255
220 235 255
220 235 255
220 235 255
220 235 255
220 235 255
220 235 255
220 235 255
220 235 255
220 235 255
220 235 255
220 235 255
220 235 255
220 235 255
220 235 255
220 235 255
220 235 255
220 235 255
220 235 255
220 235 255
220 235 255
220 235 255
220 235 255
220 235 255
220 235 255
220 235 255
220 235 255
220 235 255
220 235 255
220 235 255
220 235 255
220 235 255
220 235 255
220 235 255
220 235 255
220 235 255
220 235 255
220 235 255
220 235 255
220 235 255
220 235 255
220 235 255
220 235 255
220 235 255
220 235 255
220 235 255
220 235 255
220 235 255
220 235 255
220 235 255
220 235 255
220 235 255
220 235 255
220 235 255
220 235 255
220 235 255
220 235 255
220 235 255
220 235 255
220 235 255
220 235 255
220 235 255
220 235 255
220 235 255
220 235 255
220 235 255
220 235 255
220 235 255
220 235 255
220 235 255
220 235 255
220 235 255
220 235 255
220 235 255
220 235 255
220 235 255
220 235 255
220 235 255
220 235 255
220 235 255
220 235 255
220 235 255
220 235 255
220 235 255
220 235 255
220 235 255
220 235 255
220 235 255
220 235 255
220 235 255
220 235 255
220 235 255
220 235 255
220 235 255
220 235 255
220 235 255
220 235 255
220 235 255
220 235 255
220 235 255
220 235 255
220 235 255
220 235 255
220 235 255
220 235 255
220 235 255
220 235 255
220 235 255
220 235 255
220 235 255
220 235 255
128 137 175
0 0 113
0 0 113
0 0 113
0 0 113
0 0 113
0 0 113
0 0 113
0 0 113
0 0 113
0 7 113
0 14 115
0 16 115
0 0 114
0 0 113
0 0 113
0 0 113
0 0 113
0 0 113
0 0 114
0 0 115
0 0 115
0 18 116
0 19 116
0 19 116
0 17 115
0 0 113
0 12 114
0 20 116
0 20 116
0 20 116
0 17 116
0 0 115
0 0 115
0 0 115
0 12 116
0 20 116
0 20 116
0 20 116
0 20 116
0 16 115
0 0 113
0 3 113
0 17 116
0 20 116
0 11 114
0 0 113
10 11 114
0 0 113
0 0 113
0 0 113
0 0 113
0 0 113
0 0 115
0 0 115
0 0 115
0 0 115
0 0 115
0 0 113
0 0 113
0 7 113
0 20 116
0 20 116
0 16 116
0 0 115
0 0 115
0 0 114
0 0 113
0 0 113
0 0 113
0 0 113
0 0 113
0 0 113
0 0 113
0 0 113
0 0 113
0 0 113
0 0 113
0 0 113
0 0 113
0 0 113
0 0 113
0 0 113
0 0 113
0 0 115
11 12 116
12 15 116
0 20 116
0 20 116
0 20 116
0 20 116
0 20 116
0 20 116
0 19 116
0 20 116
15 22 117
12 24 117
6 24 119
4 24 119
17 27 119
15 26 119
0 23 120
4 36 126
3 37 128
12 45 131
10 51 136
27 97 160
21 73 148
4 39 122
4 40 121
18 33 118
26 31 123
86 105 119
102 133 76
76 111 73
100 138 81
123 157 100
121 155 88
88 110 113
7 20 111
2 9 115
16 22 112
16 20 115
0 0 113
0 0 113
0 0 113
0 0 113
0 0 113
0 0 113
0 0 113
0 0 113
0 0 113
0 0 113
0 0 113
0 0 113
9 18 117
0 18 115
0 13 113
0 14 113
0 17 113
18 26 116
60 65 125
125 130 133
168 169 158
127 132 152
11 29 127
101 106 136
102 106 122
41 36 117
42 48 115
30 37 112
16 21 116
7 22 115
19 29 119
16 27 118
11 23 117
18 28 118
13 28 123
15 29 122
9 22 120
0 12 117
8 12 116
27 38 115
9 23 111
20 25 121
17 19 117
16 17 118
12 18 116
3 17 116
0 14 115
0 18 117
8 21 118
4 25 119
0 24 119
0 21 119
0 18 116
0 16 115
0 15 115
0 14 115
0 18 116
0 13 114
0 0 113
0 0 113
0 0 113
0 0 113
0 0 113
0 0 113
0 0 113
0 0 115
0 0 113
0 0 113
0 0 113
0 0 113
0 0 113
0 0 113
0 0 113
0 0 113
0 0 113
0 0 113
0 0 113
0 0 113
0 0 113
0 0 113
0 0 113
0 0 113
3 4 113
10 23 119
10 29 120
33 74 133
167 189 173
220 235 255
220 235 255
220 235 255
220 235 255
220 235 255
220 235 255
220 235 255
220 235 255
220 235 255
220 235 255
220 235 255
220 235 255
220 235 255
220 235 255
220 235 255
220 235 255
220 235 255
220 235 255
220 235 255
220 235 255
220 235 255
220 235 255
220 235 255
220 235 255
220 235 255
220 235 255
220 235 255
220 235 255
220 235 255
220 235 255
220 235 255
220 235 255
220 235 255
220 235 255
220 235 255
220 235 255
220 235 255
220 235 255
220 235 255
220 235 255
220 235 255
220 235 255
220 235 255
220 235 255
220 235 255
220 235 255
220 235 255
220 235 255
220 235 255
220 235 255
220 235 255
220 235 255
220 235 255
220 235 255
220 235 255
220 235 255
220 235 255
220 235 255
220 235 255
220 235 255
220 235 255
220 235 255
220 235 255
220 235 255
220 235 255
220 235 255
220 235 255
220 235 255
220 235 255
220 235 255
220 235 255
220 235 255
220 235 255
220 235 255
220 235 255
220 235 255
220 235 255
220 235 255
220 235 255
220 235 255
220 235 255
220 235 255
220 235 255
220 235 255
220 235 255
220 235 255
220 235 255
220 235 255
220 235 255
220 235 255
220 235 255
220 235 255
220 235 255
220 235 255
220 235 255
220 235 255
220 235 255
220 235 255
220 235 255
220 235 255
220 235 255
220 235 255
220 235 255
220 235 255
220 235 255
220 235 255
220 235 255
220 235 255
220 235 255
220 235 255
220 235 255
220 235 255
220 235 255
220 235 255
220 235 255
220 235 255
220 235 255
220 235 255
220 235 255
220 235 255
220 235 255
220 235 255
220 235 255
220 235 255
220 235 255
220 235 255
220 235 255
220 235 255
220 235 255
220 235 255
220 235 255
220 235 255
220 235 255
220 235 255
220 235 255
220 235 255
220 235 255
220 235 255
220 235 255
220 235 255
220 235 255
220 235 255
220 235 255
220 235 255
220 235 255
220 235 255
220 235 255
220 235 255
220 235 255
220 235 255
220 235 255
220 235 255
220 235 255
220 235 255
220 235 255
220 235 255
220 235 255
220 235 255
220 235 255
220 235 255
220 235 255
220 235 255
220 235 255
220 235 255
220 235 255
220 235 255
220 235 255
220 235 255
220 235 255
220 235 255
220 235 255
220 235 255
220 235 255
220 235 255
220 235 255
220 235 255
220 235 255
220 235 255
220 235 255
220 235 255
220 235 255
220 235 255
220 235 255
220 235 255
220 235 255
220 235 255
220 235 255
220 235 255
220 235 255
220 235 255
62 66 130
0 0 113
0 0 113
0 0 113
0 0 114
0 0 114
0 0 113
0 0 113
0 0 113
0 0 113
0 20 116
0 10 114
0 0 114
0 0 113
0 0 113
0 0 113
0 0 113
0 0 113
0 7 114
0 10 115
0 11 115
0 14 116
0 20 116
0 20 116
0 20 116
0 15 115
0 0 113
0 15 115
0 20 116
0 20 116
0 20 116
0 14 116
0 0 115
0 5 115
0 12 115
0 20 116
0 20 116
0 20 116
0 20 116
0 20 116
0 10 114
0 0 113
0 7 113
0 18 116
0 20 116
0 9 114
1 1 113
10 11 114
0 0 113
0 0 113
0 0 113
0 0 113
0 0 114
0 0 115
0 0 115
0 0 115
0 0 115
0 0 114
0 0 113
0 0 113
0 11 114
0 20 116
1 20 116
1 14 116
0 0 115
0 0 115
0 0 115
2 2 113
4 4 113
1 1 113
0 0 113
0 0 113
0 0 113
0 0 113
0 0 113
0 0 113
0 0 113
0 0 113
0 0 113
0 0 113
0 0 113
0 0 113
0 0 113
0 0 114
0 0 115
10 10 116
10 14 116
0 20 116
0 20 116
0 20 116
0 20 116
0 20 116
5 21 116
7 22 115
0 19 116
12 23 118
16 26 119
9 29 119
6 27 119
10 19 114
11 20 118
3 26 122
17 50 131
9 50 132
27 55 135
31 77 151
14 94 154
13 62 142
27 27 116
9 36 129
12 37 124
12 34 119
20 42 122
64 91 113
80 117 95
72 109 83
110 143 90
117 149 83
79 101 110
4 18 118
18 20 118
15 12 108
11 10 112
5 6 114
3 6 113
5 10 113
0 0 113
9 8 114
8 0 113
6 0 115
0 4 113
0 7 112
5 2 113
6 0 114
0 0 113
9 22 118
18 33 119
25 40 119
35 51 115
46 60 114
62 78 113
118 136 99
157 160 130
105 113 150
55 80 151
45 66 138
119 128 152
144 153 144
102 111 112
83 92 118
18 17 117
13 14 113
5 15 113
15 25 116
15 25 117
7 18 116
13 20 118
8 43 127
15 49 130
11 45 127
0 36 123
5 33 121
9 32 120
13 21 117
22 29 119
15 16 113
18 13 114
18 15 117
11 14 116
2 17 116
12 20 119
16 25 120
0 31 121
10 30 123
12 29 122
5 25 119
11 25 117
9 22 117
1 17 116
0 19 116
0 16 115
0 0 113
0 0 113
0 0 113
0 0 113
0 0 113
0 0 113
0 0 113
0 0 115
0 0 113
0 0 113
0 0 113
0 0 113
0 0 113
0 0 113
0 0 113
0 0 113
0 0 113
0 0 113
0 0 113
0 0 113
0 0 113
0 0 113
0 0 113
0 0 113
5 8 113
12 20 117
12 34 122
19 53 128
130 163 133
219 234 254
220 235 255
220 235 255
220 235 255
220 235 255
220 235 255
220 235 255
220 235 255
220 235 255
220 235 255
220 235 255
220 235 255
220 235 255
220 235 255
220 235 255
220 235 255
220 235 255
220 235 255
220 235 255
220 235 255
220 235 255
220 235 255
220 235 255
220 235 255
220 235 255
220 235 255
220 235 255
220 235 255
220 235 255
220 235 255
220 235 255
220 235 255
220 235 255
220 235 255
220 235 255
220 235 255
220 235 255
220 235 255
220 235 255
220 235 255
220 235 255
220 235 255
220 235 255
220 235 255
220 235 255
220 235 255
220 235 255
220 235 255
220 235 255
220 235 255
220 235 255
220 235 255
220 235 255
220 235 255
220 235 255
220 235 255
220 235 255
220 235 255
220 235 255
220 235 255
220 235 255
220 235 255
220 235 255
220 235 255
220 235 255
220 235 255
220 235 255
220 235 255
220 235 255
220 235 255
220 235 255
220 235 255
220 235 255
220 235 255
220 235 255
220 235 255
220 235 255
220 235 255
220 235 255
220 235 255
220 235 255
220 235 255
220 235 255
220 235 255
220 235 255
220 235 255
220 235 255
220 235 255
220 235 255
220 235 255
220 235 255
220 235 255
220 235 255
220 235 255
220 235 255
220 235 255
220 235 255
220 235 255
220 235 255
220 235 255
220 235 255
220 235 255
220 235 255
220 235 255
220 235 255
220 235 255
220 235 255
220 235 255
220 235 255
220 235 255
220 235 255
220 235 255
220 235 255
220 235 255
220 235 255
220 235 255
220 235 255
220 235 255
220 235 255
220 235 255
220 235 255
220 235 255
220 235 255
220 235 255
220 235 255
220 235 255
220 235 255
220 235 255
220 235 255
220 235 255
220 235 255
220 235 255
220 235 255
220 235 255
220 235 255
220 235 255
220 235 255
220 235 255
220 235 255
220 235 255
220 235 255
220 235 255
220 235 255
220 235 255
220 235 255
220 235 255
220 235 255
220 235 255
220 235 255
220 235 255
220 235 255
220 235 255
220 235 255
220 235 255
220 235 255
220 235 255
220 235 255
220 235 255
220 235 255
220 235 255
220 235 255
220 235 255
220 235 255
220 235 255
220 235 255
220 235 255
220 235 255
220 235 255
220 235 255
220 235 255
220 235 255
220 235 255
220 235 255
220 235 255
220 235 255
220 235 255
220 235 255
220 235 255
220 235 255
220 235 255
220 235 255
220 235 255
220 235 255
220 235 255
220 235 255
220 235 255
220 235 255
220 235 255
220 235 255
198 211 235
0 0 113
0 0 113
0 0 113
0 2 113
0 6 115
0 6 115
0 0 113
0 0 113
0 0 113
0 6 113
0 20 116
0 5 113
0 0 114
0 0 113
0 0 113
0 0 113
0 0 113
0 0 113
0 17 115
0 20 116
0 20 116
0 20 116
0 20 116
0 20 116
0 20 116
3 13 114
2 2 113
0 15 115
5 19 116
3 17 116
0 17 116
7 12 116
7 8 115
4 12 115
0 20 116
8 22 117
4 21 116
0 18 116
0 20 116
0 20 116
0 16 115
7 17 115
8 16 115
0 11 115
0 10 115
0 3 113
10 11 114
9 10 113
0 0 113
0 0 113
0 0 113
0 0 113
0 0 113
0 0 113
0 0 113
0 0 113
0 0 113
0 0 113
0 0 115
0 0 115
0 3 115
0 3 115
8 9 116
8 8 116
0 0 115
0 0 115
0 0 115
8 8 116
13 14 116
7 8 115
0 0 115
0 0 115
0 0 115
0 0 115
7 8 115
0 0 115
0 0 114
0 0 112
0 0 112
0 0 114
0 0 115
0 0 115
0 0 115
0 0 115
0 0 115
0 0 115
0 11 115
0 20 116
0 20 116
0 20 116
0 20 116
0 20 116
7 21 116
11 22 117
0 19 116
3 17 118
13 26 120
17 30 122
12 29 122
6 29 120
16 26 121
14 35 125
0 50 130
6 49 131
18 39 131
27 90 159
27 106 167
0 71 146
26 34 130
11 49 129
8 54 133
4 37 132
11 32 121
21 35 124
89 116 100
103 134 90
119 147 102
121 147 93
96 116 115
35 46 113
4 13 112
22 20 114
21 17 107
14 15 111
5 9 114
7 15 117
0 10 111
14 15 112
18 6 112
14 12 113
6 10 110
14 22 117
15 12 112
15 8 118
8 10 114
25 23 112
61 76 118
88 113 116
87 116 79
102 128 70
108 131 75
111 138 67
116 136 71
131 151 137
111 140 162
140 154 139
156 157 135
142 150 105
126 141 87
131 149 86
78 96 108
32 9 118
21 22 118
27 34 118
16 29 117
9 26 116
24 29 121
12 50 133
72 88 134
49 69 143
24 39 132
6 50 142
9 51 138
21 30 127
36 40 119
42 8 109
22 21 112
22 14 116
8 18 116
3 20 116
8 22 118
13 26 120
1 32 122
12 35 124
15 34 125
12 31 124
15 34 121
15 30 119
3 20 116
6 21 116
10 21 116
3 11 114
0 6 113
0 0 113
0 0 113
0 0 113
0 0 113
0 0 113
0 0 114
0 0 113
0 0 113
0 0 113
0 0 113
0 0 113
0 0 113
0 0 113
0 0 113
0 0 113
0 0 113
0 0 113
0 0 113
0 0 113
0 0 113
0 0 113
0 0 113
2 2 113
7 15 116
8 23 119
10 20 118
110 138 122
210 226 242
220 235 255
220 235 255
220 235 255
220 235 255
220 235 255
220 235 255
220 235 255
220 235 255
220 235 255
220 235 255
220 235 255
220 235 255
220 235 255
220 235 255
220 235 255
220 235 255
220 235 255
220 235 255
220 235 255
220 235 255
220 235 255
220 235 255
220 235 255
220 235 255
220 235 255
220 235 255
220 235 255
220 235 255
220 235 255
220 235 255
220 235 255
220 235 255
220 235 255
220 235 255
220 235 255
220 235 255
220 235 255
220 235 255
220 235 255
220 235 255
220 235 255
220 235 255
220 235 255
220 235 255
220 235 255
220 235 255
220 235 255
220 235 255
220 235 255
220 235 255
220 235 255
220 235 255
220 235 255
220 235 255
220 235 255
220 235 255
220 235 255
220 235 255
220 235 255
220 235 255
220 235 255
220 235 255
220 235 255
220 235 255
220 235 255
220 235 255
220 235 255
220 235 255
220 235 255
220 235 255
220 235 255
220 235 255
220 235 255
220 235 255
220 235 255
220 235 255
220 235 255
220 235 255
220 235 255
220 235 255
220 235 255
220 235 255
220 235 255
220 235 255
220 235 255
220 235 255
220 235 255
220 235 255
220 235 255
220 235 255
220 235 255
220 235 255
220 235 255
220 235 255
220 235 255
220 235 255
220 235 255
220 235 255
220 235 255
220 235 255
220 235 255
220 235 255
220 235 255
220 235 255
220 235 255
220 235 255
220 235 255
220 235 255
220 235 255
220 235 255
220 235 255
220 235 255
220 235 255
220 235 255
220 235 255
220 235 255
220 235 255
220 235 255
220 235 255
220 235 255
220 235 255
220 235 255
220 235 255
220 235 255
220 235 255
220 235 255
220 235 255
220 235 255
220 235 255
220 235 255
220 235 255
220 235 255
220 235 255
220 235 255
220 235 255
220 235 255
220 235 255
220 235 255
220 235 255
220 235 255
220 235 255
220 235 255
220 235 255
220 235 255
220 235 255
220 235 255
220 235 255
220 235 255
220 235 255
220 235 255
220 235 255
220 235 255
220 235 255
220 235 255
220 235 255
220 235 255
220 235 255
220 235 255
220 235 255
220 235 255
220 235 255
220 235 255
220 235 255
220 235 255
220 235 255
220 235 255
220 235 255
220 235 255
220 235 255
220 235 255
220 235 255
220 235 255
220 235 255
220 235 255
220 235 255
220 235 255
220 235 255
220 235 255
220 235 255
220 235 255
220 235 255
220 235 255
220 235 255
220 235 255
220 235 255
220 235 255
220 235 255
220 235 255
173 185 213
0 0 114
0 0 113
0 0 113
0 7 113
0 14 115
0 9 114
0 4 113
4 6 113
6 7 114
4 10 114
0 14 115
0 7 113
0 4 114
0 0 113
0 2 113
0 18 115
0 18 115
0 17 115
0 9 114
0 6 113
6 10 114
9 18 115
0 20 116
0 20 116
0 20 116
11 16 116
6 7 115
0 0 115
12 13 116
6 6 115
0 0 115
11 12 116
13 14 116
8 17 116
0 20 116
6 21 116
2 20 116
0 20 116
0 20 116
0 20 116
0 20 116
3 21 116
6 16 116
5 5 115
6 6 115
6 6 113
11 12 114
8 8 113
0 0 113
0 0 113
0 0 113
0 0 113
0 0 113
0 0 113
0 0 113
0 0 113
0 0 113
0 0 113
0 0 115
0 0 115
0 0 115
8 9 116
13 14 116
7 8 115
0 0 115
0 0 115
0 0 115
5 5 115
11 12 116
12 13 116
6 7 115
0 0 115
0 0 115
8 9 116
12 13 116
0 0 115
0 0 113
0 0 113
0 0 113
0 0 115
0 0 115
0 0 115
0 0 115
0 0 115
0 0 115
0 0 115
0 12 115
0 20 116
0 20 116
0 20 116
0 20 116
0 20 116
2 20 116
4 21 116
0 20 116
0 24 119
5 31 121
7 31 123
4 31 122
12 28 118
24 33 120
19 40 124
0 48 127
0 48 127
15 43 128
9 65 140
11 97 158
19 85 154
28 66 145
18 75 147
4 71 147
15 52 135
10 31 125
29 37 124
88 115 94
113 146 79
115 148 86
115 142 93
116 142 87
69 87 100
18 27 112
8 9 123
23 26 114
14 21 109
11 16 114
18 20 118
0 7 109
17 16 115
17 4 120
11 20 112
5 8 114
10 19 114
16 25 114
11 26 108
11 21 112
24 35 113
106 129 101
118 145 82
107 135 47
104 126 81
115 136 79
104 131 70
114 140 81
144 169 142
124 169 149
120 142 88
136 137 111
145 147 121
123 137 87
115 139 62
101 124 101
63 79 100
73 87 100
84 102 96
73 91 105
32 46 118
24 32 125
27 42 124
75 101 139
63 112 124
88 112 107
60 118 128
39 71 143
87 111 105
41 67 115
8 20 114
34 17 120
12 26 115
0 20 116
0 20 116
0 23 118
0 25 119
0 30 121
16 38 125
17 41 128
17 40 130
6 37 125
11 36 122
4 25 119
8 23 117
8 22 117
8 22 117
0 14 115
0 0 113
0 0 113
0 0 113
0 0 113
0 0 113
0 0 113
0 0 113
0 0 113
0 0 113
0 0 113
0 0 113
0 0 114
0 0 114
0 0 114
0 0 114
0 0 113
0 0 113
0 0 113
0 0 113
0 0 113
0 0 113
0 0 113
0 0 113
6 14 116
3 13 115
13 21 116
77 109 132
185 202 203
220 235 255
220 235 255
220 235 255
220 235 255
220 235 255
220 235 255
220 235 255
220 235 255
220 235 255
220 235 255
220 235 255
220 235 255
220 235 255
220 235 255
220 235 255
220 235 255
220 235 255
220 235 255
220 235 255
220 235 255
220 235 255
220 235 255
220 235 255
220 235 255
220 235 255
220 235 255
220 235 255
220 235 255
220 235 255
220 235 255
220 235 255
220 235 255
220 235 255
220 235 255
220 235 255
220 235 255
220 235 255
220 235 255
220 235 255
220 235 255
220 235 255
220 235 255
220 235 255
220 235 255
220 235 255
220 235 255
220 235 255
220 235 255
220 235 255
220 235 255
220 235 255
220 235 255
220 235 255
220 235 255
220 235 255
220 235 255
220 235 255
220 235 255
220 235 255
220 235 255
220 235 255
220 235 255
220 235 255
220 235 255
220 235 255
220 235 255
220 235 255
220 235 255
220 235 255
220 235 255
220 235 255
220 235 255
220 235 255
220 235 255
220 235 255
220 235 255
220 235 255
220 235 255
220 235 255
220 235 255
220 235 255
220 235 255
220 235 255
220 235 255
220 235 255
220 235 255
220 235 255
220 235 255
220 235 255
220 235 255
220 235 255
220 235 255
220 235 255
220 235 255
220 235 255
220 235 255
220 235 255
220 235 255
220 235 255
220 235 255
220 235 255
220 235 255
220 235 255
220 235 255
220 235 255
220 235 255
220 235 255
220 235 255
220 235 255
220 235 255
220 235 255
220 235 255
220 235 255
220 235 255
220 235 255
220 235 255
220 235 255
220 235 255
220 235 255
220 235 255
220 235 255
220 235 255
220 235 255
220 235 255
220 235 255
220 235 255
220 235 255
220 235 255
220 235 255
220 235 255
220 235 255
220 235 255
220 235 255
220 235 255
220 235 255
220 235 255
220 235 255
220 235 255
220 235 255
220 235 255
220 235 255
220 235 255
220 235 255
220 235 255
220 235 255
220 235 255
220 235 255
220 235 255
220 235 255
220 235 255
220 235 255
220 235 255
220 235 255
220 235 255
220 235 255
220 235 255
220 235 255
220 235 255
220 235 255
220 235 255
220 235 255
220 235 255
220 235 255
220 235 255
220 235 255
220 235 255
220 235 255
220 235 255
220 235 255
220 235 255
220 235 255
220 235 255
220 235 255
220 235 255
220 235 255
220 235 255
220 235 255
220 235 255
220 235 255
220 235 255
220 235 255
220 235 255
220 235 255
220 235 255
220 235 255
220 235 255
220 235 255
220 235 255
135 145 181
2 2 115
0 14 115
10 11 115
8 13 115
0 18 116
0 20 116
0 20 116
12 15 116
13 14 116
9 9 116
0 0 113
0 9 112
0 3 113
0 0 113
0 7 113
0 20 116
0 20 116
0 20 116
0 9 114
0 8 114
5 16 115
10 21 116
10 23 117
9 22 117
0 20 116
12 15 116
1 2 115
2 2 115
13 14 116
1 1 115
0 0 115
12 13 116
13 14 116
7 19 116
0 20 116
0 19 116
0 20 116
5 21 116
0 20 116
0 20 116
0 20 116
0 20 116
10 17 116
13 14 116
13 14 116
13 14 114
3 3 113
0 0 113
0 0 113
0 0 113
0 0 113
0 0 113
0 0 113
0 0 113
0 0 113
0 0 113
0 0 113
0 0 113
0 0 115
0 0 115
8 9 116
13 13 116
13 14 116
7 7 115
0 0 115
0 0 115
0 0 115
0 0 115
11 12 116
10 11 116
2 3 115
0 0 115
0 0 115
4 4 115
10 11 116
3 3 115
0 0 113
0 0 113
0 0 113
2 2 115
5 6 115
4 5 115
6 6 115
5 6 115
5 5 115
7 7 115
5 13 116
0 20 116
0 20 116
0 20 116
0 20 116
0 20 116
0 20 116
0 22 117
13 29 120
7 36 123
5 39 125
0 41 126
9 42 127
21 35 126
12 34 125
0 36 125
0 41 127
0 45 129
0 44 129
29 55 140
14 81 153
27 84 158
26 71 149
16 69 146
12 59 144
12 53 126
8 28 125
11 20 112
60 82 96
94 126 95
90 124 103
111 143 74
114 141 90
100 127 60
54 73 99
13 22 123
0 15 112
14 16 113
11 16 118
13 17 120
12 19 111
29 31 123
24 30 116
9 16 110
11 17 106
21 15 113
10 8 122
11 17 110
15 16 112
38 49 125
108 134 80
115 140 82
111 135 68
114 136 90
116 140 84
107 128 62
123 146 80
91 140 155
82 149 173
107 136 76
134 142 108
150 154 127
140 155 108
107 140 46
114 141 73
116 140 92
117 141 97
111 138 65
109 137 63
92 121 70
79 105 101
77 101 101
106 126 76
106 133 83
102 134 67
77 146 131
43 106 156
96 132 131
50 72 120
25 31 126
2 22 113
11 26 114
0 20 116
0 20 116
0 20 117
0 24 119
7 28 120
2 30 124
15 40 128
17 46 130
6 39 126
8 35 124
0 29 121
1 25 119
4 19 118
9 23 117
0 17 116
0 2 113
0 0 113
0 0 113
0 0 113
0 0 113
0 0 113
0 0 113
0 0 113
0 0 113
0 0 113
0 0 113
0 0 114
0 0 115
0 0 115
0 0 115
0 0 113
0 0 113
0 0 113
0 0 113
0 0 113
0 0 113
0 5 113
0 0 113
11 14 116
5 10 115
8 16 115
26 75 139
172 191 191
220 235 255
220 235 255
220 235 255
220 235 255
220 235 255
220 235 255
220 235 255
220 235 255
220 235 255
220 235 255
220 235 255
220 235 255
220 235 255
220 235 255
220 235 255
220 235 255
220 235 255
220 235 255
220 235 255
220 235 255
220 235 255
220 235 255
220 235 255
220 235 255
220 235 255
220 235 255
220 235 255
220 235 255
220 235 255
220 235 255
220 235 255
220 235 255
220 235 255
220 235 255
220 235 255
220 235 255
220 235 255
220 235 255
220 235 255
220 235 255
220 235 255
220 235 255
220 235 255
220 235 255
220 235 255
220 235 255
220 235 255
220 235 255
220 235 255
220 235 255
220 235 255
220 235 255
220 235 255
220 235 255
220 235 255
220 235 255
220 235 255
220 235 255
220 235 255
220 235 255
220 235 255
220 235 255
220 235 255
220 235 255
220 235 255
220 235 255
220 235 255
220 235 255
220 235 255
220 235 255
220 235 255
220 235 255
220 235 255
220 235 255
220 235 255
220 235 255
220 235 255
220 235 255
220 235 255
220 235 255
220 235 255
220 235 255
220 235 255
220 235 255
220 235 255
220 235 255
220 235 255
220 235 255
220 235 255
220 235 255
220 235 255
220 235 255
220 235 255
220 235 255
220 235 255
220 235 255
220 235 255
220 235 255
220 235 255
220 235 255
220 235 255
220 235 255
220 235 255
220 235 255
220 235 255
220 235 255
220 235 255
220 235 255
220 235 255
220 235 255
220 235 255
220 235 255
220 235 255
220 235 255
220 235 255
220 235 255
220 235 255
220 235 255
220 235 255
220 235 255
220 235 255
220 235 255
220 235 255
220 235 255
220 235 255
220 235 255
220 235 255
220 235 255
220 235 255
220 235 255
220 235 255
220 235 255
220 235 255
220 235 255
220 235 255
220 235 255
220 235 255
220 235 255
220 235 255
220 235 255
220 235 255
220 235 255
220 235 255
220 235 255
220 235 255
220 235 255
220 235 255
220 235 255
220 235 255
220 235 255
220 235 255
220 235 255
220 235 255
220 235 255
220 235 255
220 235 255
220 235 255
220 235 255
220 235 255
220 235 255
220 235 255
220 235 255
220 235 255
220 235 255
220 235 255
220 235 255
220 235 255
220 235 255
220 235 255
220 235 255
220 235 255
220 235 255
220 235 255
220 235 255
220 235 255
220 235 255
220 235 255
220 235 255
220 235 255
220 235 255
220 235 255
220 235 255
220 235 255
220 235 255
220 235 255
220 235 255
220 235 255
220 235 255
106 113 159
2 7 115
0 20 116
10 17 116
7 18 116
0 20 116
0 20 116
0 20 116
5 19 116
5 19 116
11 15 116
2 2 113
0 0 113
0 0 113
0 0 113
0 8 114
0 20 116
0 20 116
0 19 116
0 16 115
0 19 116
0 20 116
12 24 117
13 25 117
9 22 117
3 17 116
13 14 116
0 0 115
5 5 115
12 13 116
0 0 115
3 3 115
13 14 116
13 14 116
11 22 117
0 19 116
0 15 115
1 20 116
9 23 117
0 20 116
0 20 116
0 20 116
0 17 116
11 15 116
13 14 116
13 14 116
13 14 114
0 0 113
0 0 113
0 0 113
0 0 113
0 0 113
0 0 113
0 0 113
0 0 113
0 0 113
0 0 113
0 0 113
0 0 114
0 0 115
2 2 115
10 11 116
13 14 116
13 14 116
13 14 116
0 0 115
0 0 115
0 0 115
0 0 115
0 0 115
0 0 115
0 0 115
0 0 115
0 0 115
0 0 115
6 7 115
9 9 116
0 0 113
0 0 113
0 0 113
5 5 115
13 14 116
13 14 116
13 14 116
13 14 116
13 14 116
13 14 116
10 17 116
0 20 116
0 20 116
0 20 116
0 20 116
0 20 116
0 19 116
7 19 117
17 30 121
13 37 125
9 42 127
12 49 130
21 54 134
25 49 136
9 49 135
4 48 134
14 47 135
22 51 136
21 54 138
21 64 146
0 75 153
7 85 159
2 72 148
0 60 138
19 51 135
24 41 132
15 31 116
17 20 119
17 33 119
37 65 106
53 78 123
75 98 110
102 128 87
101 130 60
95 123 60
67 89 95
10 29 115
18 25 116
17 25 112
12 24 113
39 53 108
80 104 104
74 98 97
66 86 103
49 55 116
27 16 110
13 21 111
20 27 115
33 39 113
65 80 114
114 141 83
118 145 65
118 142 79
119 142 87
112 137 71
96 117 50
112 142 72
66 126 126
54 134 184
107 153 126
114 136 78
117 133 89
121 143 84
106 141 71
111 139 70
117 141 66
118 144 83
117 144 85
119 147 86
113 144 70
106 140 65
105 140 64
122 144 91
128 150 89
116 144 73
98 129 48
89 131 97
80 136 130
23 119 158
30 33 122
0 30 112
31 16 116
0 20 116
0 20 116
0 20 117
0 24 119
16 30 122
6 32 124
0 34 126
10 44 129
5 41 127
0 36 124
0 32 124
6 27 121
0 21 119
10 23 117
0 18 116
0 5 113
0 0 113
0 0 113
0 0 113
0 0 113
0 0 113
0 0 113
0 0 113
0 0 113
0 0 113
0 0 113
0 0 114
0 0 114
0 0 113
0 0 113
0 0 113
0 0 113
0 0 113
0 0 113
0 0 113
0 0 113
0 0 113
0 0 113
9 9 115
3 4 115
6 17 115
14 37 121
132 160 163
220 235 255
220 235 255
220 235 255
220 235 255
220 235 255
220 235 255
220 235 255
220 235 255
220 235 255
220 235 255
220 235 255
220 235 255
220 235 255
220 235 255
220 235 255
220 235 255
220 235 255
220 235 255
220 235 255
220 235 255
220 235 255
220 235 255
220 235 255
220 235 255
220 235 255
220 235 255
220 235 255
220 235 255
220 235 255
220 235 255
220 235 255
220 235 255
220 235 255
220 235 255
220 235 255
220 235 255
220 235 255
220 235 255
220 235 255
220 235 255
220 235 255
220 235 255
220 235 255
220 235 255
220 235 255
220 235 255
220 235 255
220 235 255
220 235 255
220 235 255
220 235 255
220 235 255
220 235 255
220 235 255
220 235 255
220 235 255
220 235 255
220 235 255
220 235 255
220 235 255
220 235 255
220 235 255
220 235 255
220 235 255
220 235 255
220 235 255
220 235 255
220 235 255
220 235 255
220 235 255
220 235 255
220 235 255
220 235 255
220 235 255
220 235 255
220 235 255
220 235 255
220 235 255
220 235 255
220 235 255
220 235 255
220 235 255
220 235 255
220 235 255
220 235 255
220 235 255
220 235 255
220 235 255
220 235 255
220 235 255
220 235 255
220 235 255
220 235 255
220 235 255
220 235 255
220 235 255
220 235 255
220 235 255
220 235 255
220 235 255
220 235 255
220 235 255
220 235 255
220 235 255
220 235 255
220 235 255
220 235 255
220 235 255
220 235 255
220 235 255
220 235 255
220 235 255
220 235 255
220 235 255
220 235 255
220 235 255
220 235 255
220 235 255
220 235 255
220 235 255
220 235 255
220 235 255
220 235 255
220 235 255
220 235 255
220 235 255
220 235 255
220 235 255
220 235 255
220 235 255
220 235 255
220 235 255
220 235 255
220 235 255
220 235 255
220 235 255
220 235 255
220 235 255
220 235 255
220 235 255
220 235 255
220 235 255
220 235 255
220 235 255
220 235 255
220 235 255
220 235 255
220 235 255
220 235 255
220 235 255
220 235 255
220 235 255
220 235 255
220 235 255
220 235 255
220 235 255
220 235 255
220 235 255
220 235 255
220 235 255
220 235 255
220 235 255
220 235 255
220 235 255
220 235 255
220 235 255
220 235 255
220 235 255
220 235 255
220 235 255
220 235 255
220 235 255
220 235 255
220 235 255
220 235 255
220 235 255
220 235 255
220 235 255
220 235 255
220 235 255
220 235 255
220 235 255
220 235 255
220 235 255
220 235 255
220 235 255
220 235 255
216 230 251
49 53 125
11 16 116
0 20 116
0 20 116
0 20 116
0 20 116
0 20 116
0 20 116
0 20 116
0 20 116
8 18 115
2 14 115
0 11 114
0 12 114
0 13 115
0 13 115
0 20 116
0 20 116
0 20 116
0 20 116
6 22 116
4 21 116
12 24 117
13 25 117
8 22 117
6 18 116
12 12 116
0 0 115
7 7 115
11 12 116
0 0 115
5 6 115
13 14 116
13 14 116
4 21 116
0 20 116
0 19 116
1 20 116
4 20 116
0 20 116
0 20 116
0 20 116
0 20 116
10 15 116
12 12 116
12 13 115
11 12 114
7 7 113
2 2 113
0 0 113
0 0 113
0 0 113
0 0 113
0 0 113
0 0 113
0 0 113
0 0 113
0 0 113
0 0 114
0 0 115
10 11 116
13 14 116
13 14 116
13 14 116
13 14 116
6 7 115
0 0 115
0 0 115
0 0 115
0 0 115
0 0 115
0 0 115
0 0 115
0 0 115
0 0 115
7 8 115
11 12 116
4 4 113
0 0 113
0 0 113
11 12 116
13 14 116
13 14 116
13 14 116
13 14 116
13 14 116
13 14 116
10 17 116
0 20 116
0 20 116
0 20 116
0 20 116
0 20 116
7 18 116
15 20 118
18 30 121
6 34 124
5 38 127
13 48 131
22 56 136
16 59 141
4 65 143
11 66 142
24 57 140
30 57 141
28 62 142
25 78 150
17 81 154
0 85 158
10 81 152
11 63 137
12 43 127
18 38 118
19 26 117
15 16 112
13 20 119
9 32 121
12 21 123
21 40 110
62 82 115
103 131 84
103 132 69
98 127 82
68 91 110
36 56 105
19 35 112
67 88 102
98 127 95
106 136 116
96 129 116
99 132 103
106 132 99
70 84 112
21 40 113
19 30 120
82 100 125
127 149 118
130 155 110
119 147 90
113 141 71
109 137 71
100 125 60
78 109 57
104 133 56
103 137 77
87 167 159
117 146 100
119 137 84
106 133 63
108 140 51
108 141 64
106 138 60
112 142 49
116 143 67
122 147 79
124 149 82
125 151 86
119 147 84
122 146 89
138 154 102
147 154 101
141 152 102
123 134 76
103 132 45
101 125 42
95 150 123
42 124 170
18 37 124
20 18 121
4 21 116
0 20 116
0 20 117
0 21 119
8 29 122
11 40 127
6 45 130
15 47 131
8 36 125
7 34 124
7 30 122
12 27 121
7 19 119
11 23 118
0 19 116
0 8 114
0 0 113
0 0 113
0 0 113
0 0 113
0 0 113
0 0 113
0 0 113
0 0 113
0 0 113
0 0 113
0 0 113
0 0 114
0 0 113
0 0 113
0 0 113
0 0 113
0 0 113
0 0 113
0 0 113
0 0 113
0 0 113
0 0 113
3 3 114
1 2 115
6 20 116
3 16 116
87 121 139
219 234 254
220 235 255
220 235 255
220 235 255
220 235 255
220 235 255
220 235 255
220 235 255
220 235 255
220 235 255
220 235 255
220 235 255
220 235 255
220 235 255
220 235 255
220 235 255
220 235 255
220 235 255
220 235 255
220 235 255
220 235 255
220 235 255
220 235 255
220 235 255
220 235 255
220 235 255
220 235 255
220 235 255
220 235 255
220 235 255
220 235 255
220 235 255
220 235 255
220 235 255
220 235 255
220 235 255
220 235 255
220 235 255
220 235 255
220 235 255
220 235 255
220 235 255
220 235 255
220 235 255
220 235 255
220 235 255
220 235 255
220 235 255
220 235 255
220 235 255
220 235 255
220 235 255
220 235 255
220 235 255
220 235 255
220 235 255
220 235 255
220 235 255
220 235 255
220 235 255
220 235 255
220 235 255
220 235 255
220 235 255
220 235 255
220 235 255
220 235 255
220 235 255
220 235 255
220 235 255
220 235 255
220 235 255
220 235 255
220 235 255
220 235 255
220 235 255
220 235 255
220 235 255
220 235 255
220 235 255
220 235 255
220 235 255
220 235 255
220 235 255
220 235 255
220 235 255
220 235 255
220 235 255
220 235 255
220 235 255
220 235 255
220 235 255
220 235 255
220 235 255
220 235 255
220 235 255
220 235 255
220 235 255
220 235 255
220 235 255
220 235 255
220 235 255
220 235 255
220 235 255
220 235 255
220 235 255
220 235 255
220 235 255
220 235 255
220 235 255
220 235 255
220 235 255
220 235 255
220 235 255
220 235 255
220 235 255
220 235 255
220 235 255
220 235 255
220 235 255
220 235 255
220 235 255
220 235 255
220 235 255
220 235 255
220 235 255
220 235 255
220 235 255
220 235 255
220 235 255
220 235 255
220 235 255
220 235 255
220 235 255
220 235 255
220 235 255
220 235 255
220 235 255
220 235 255
220 235 255
220 235 255
220 235 255
220 235 255
220 235 255
220 235 255
220 235 255
220 235 255
220 235 255
220 235 255
220 235 255
220 235 255
220 235 255
220 235 255
220 235 255
220 235 255
220 235 255
220 235 255
220 235 255
220 235 255
220 235 255
220 235 255
220 235 255
220 235 255
220 235 255
220 235 255
220 235 255
220 235 255
220 235 255
220 235 255
220 235 255
220 235 255
220 235 255
220 235 255
220 235 255
220 235 255
220 235 255
220 235 255
220 235 255
220 235 255
220 235 255
220 235 255
220 235 255
220 235 255
220 235 255
220 235 255
220 235 255
220 235 255
205 219 242
5 9 115
5 17 116
0 20 116
0 20 116
0 20 116
0 20 116
0 20 116
0 20 116
0 20 116
0 20 116
0 20 115
0 20 116
4 20 116
0 20 116
0 20 116
0 20 116
0 20 116
0 20 116
0 20 116
5 21 116
13 25 117
8 22 117
7 22 117
8 22 117
4 21 116
8 18 116
10 11 116
0 0 115
8 8 115
10 11 116
0 0 115
5 6 115
13 14 116
12 15 116
0 20 116
4 21 116
5 21 116
0 20 116
0 16 115
0 14 115
0 18 116
0 20 116
0 20 116
0 6 115
0 0 115
0 0 114
5 5 113
13 14 114
2 2 113
0 0 113
0 0 113
0 0 113
0 0 113
0 0 113
0 0 113
0 0 113
0 0 113
0 0 113
7 7 114
10 11 116
13 14 116
13 14 116
13 14 116
13 14 116
13 14 116
10 11 116
0 0 115
0 0 115
0 0 115
4 5 115
11 13 116
6 7 115
0 2 115
0 4 115
11 13 116
12 14 116
13 15 116
4 7 114
0 4 113
0 5 113
12 15 116
13 15 116
12 15 116
13 14 116
13 14 116
12 14 116
12 14 116
8 17 116
0 19 116
0 19 117
0 20 116
0 20 116
0 20 116
7 19 116
17 22 119
23 29 122
13 29 122
0 32 124
2 41 130
17 55 136
6 64 141
14 73 145
8 69 143
3 49 134
8 42 131
8 47 132
20 60 135
28 67 144
14 68 148
13 63 142
22 45 131
23 33 125
0 14 121
8 14 114
14 15 124
15 27 121
6 13 105
18 17 114
15 17 120
32 52 111
78 104 82
104 133 80
114 144 85
107 138 86
106 135 83
107 134 86
112 143 73
105 135 103
77 105 137
28 63 142
61 102 122
106 139 112
111 140 85
70 100 123
74 109 146
126 157 118
134 161 107
124 151 88
117 146 74
109 140 67
107 138 56
103 131 63
86 118 41
93 134 32
110 142 78
111 138 82
125 136 95
116 137 87
106 138 80
104 141 40
112 140 66
105 140 60
106 144 60
115 140 73
132 152 96
133 153 93
128 148 85
125 144 85
128 147 94
149 159 121
149 155 112
131 138 91
135 142 101
118 139 75
97 128 60
92 136 94
67 152 167
37 81 143
21 47 127
9 23 117
0 20 116
0 20 116
0 20 118
0 29 121
13 43 128
15 52 132
13 48 131
8 33 125
13 28 121
6 21 119
11 21 119
13 16 117
14 24 117
0 20 116
0 9 114
0 0 113
0 0 113
0 0 113
0 0 113
0 0 113
0 0 113
0 0 113
0 0 113
0 0 113
0 0 113
0 0 113
0 0 114
0 0 113
0 0 113
0 0 113
0 0 113
0 0 113
0 0 113
0 0 113
0 0 113
0 0 113
0 0 113
0 0 113
0 0 113
4 18 115
0 18 117
50 93 140
210 226 242
220 235 255
220 235 255
220 235 255
220 235 255
220 235 255
220 235 255
220 235 255
220 235 255
220 235 255
220 235 255
220 235 255
220 235 255
220 235 255
220 235 255
220 235 255
220 235 255
220 235 255
220 235 255
220 235 255
220 235 255
220 235 255
220 235 255
220 235 255
220 235 255
220 235 255
220 235 255
220 235 255
220 235 255
220 235 255
220 235 255
220 235 255
220 235 255
220 235 255
220 235 255
220 235 255
220 235 255
220 235 255
220 235 255
220 235 255
220 235 255
220 235 255
220 235 255
220 235 255
220 235 255
220 235 255
220 235 255
220 235 255
220 235 255
220 235 255
220 235 255
220 235 255
220 235 255
220 235 255
220 235 255
220 235 255
220 235 255
220 235 255
220 235 255
220 235 255
220 235 255
220 235 255
220 235 255
220 235 255
220 235 255
220 235 255
220 235 255
220 235 255
220 235 255
220 235 255
220 235 255
220 235 255
220 235 255
220 235 255
220 235 255
220 235 255
220 235 255
220 235 255
220 235 255
220 235 255
220 235 255
220 235 255
220 235 255
220 235 255
220 235 255
220 235 255
220 235 255
220 235 255
220 235 255
220 235 255
220 235 255
220 235 255
220 235 255
220 235 255
220 235 255
220 235 255
220 235 255
220 235 255
220 235 255
220 235 255
220 235 255
220 235 255
220 235 255
220 235 255
220 235 255
220 235 255
220 235 255
220 235 255
220 235 255
220 235 255
220 235 255
220 235 255
220 235 255
220 235 255
220 235 255
220 235 255
220 235 255
220 235 255
220 235 255
220 235 255
220 235 255
220 235 255
220 235 255
220 235 255
220 235 255
220 235 255
220 235 255
220 235 255
220 235 255
220 235 255
220 235 255
220 235 255
220 235 255
220 235 255
220 235 255
220 235 255
220 235 255
220 235 255
220 235 255
220 235 255
220 235 255
220 235 255
220 235 255
220 235 255
220 235 255
220 235 255
220 235 255
220 235 255
220 235 255
220 235 255
220 235 255
220 235 255
220 235 255
220 235 255
220 235 255
220 235 255
220 235 255
220 235 255
220 235 255
220 235 255
220 235 255
220 235 255
220 235 255
220 235 255
220 235 255
220 235 255
220 235 255
220 235 255
220 235 255
220 235 255
220 235 255
220 235 255
220 235 255
220 235 255
220 235 255
220 235 255
220 235 255
220 235 255
220 235 255
220 235 255
220 235 255
220 235 255
220 235 255
220 235 255
220 235 255
220 235 255
220 235 255
175 186 214
9 14 116
0 19 116
0 20 116
0 20 116
0 20 116
0 18 116
0 20 116
0 20 116
0 20 116
0 20 116
0 19 115
8 21 117
11 22 118
10 23 117
10 23 117
6 21 116
0 20 116
0 20 116
0 19 116
10 24 117
12 25 118
8 22 117
0 20 116
0 20 116
0 20 116
10 17 116
11 12 116
5 5 115
6 7 115
11 12 115
0 11 115
5 15 116
10 17 116
8 17 116
0 17 116
6 19 116
8 22 117
9 22 117
5 19 116
0 16 115
0 15 115
0 16 115
0 17 116
0 2 114
0 0 113
0 0 113
2 2 113
6 7 113
11 12 115
11 12 115
11 12 115
12 13 116
12 13 116
5 5 115
0 9 115
0 15 115
0 20 116
0 20 116
3 19 116
3 20 116
3 20 116
2 20 116
0 20 116
2 20 116
13 14 116
13 14 116
12 13 116
0 0 115
0 0 115
0 8 115
0 20 116
0 20 116
0 20 116
0 20 116
0 20 116
0 20 116
0 20 116
0 20 116
0 20 116
0 20 116
0 20 116
0 20 116
0 20 116
0 14 115
0 14 115
0 14 115
0 14 115
6 14 116
7 14 118
1 17 117
0 20 116
0 20 116
0 20 116
0 20 117
10 25 120
24 31 122
18 27 121
0 29 122
0 40 127
17 55 135
14 58 140
25 61 139
16 50 133
0 36 125
12 31 122
19 30 121
13 24 120
10 32 123
0 40 127
12 44 130
17 44 129
7 33 123
0 21 117
0 20 116
0 20 116
0 20 116
0 20 116
0 20 116
8 21 117
15 22 121
28 40 114
56 73 115
65 85 118
72 95 105
100 132 78
112 147 67
114 145 88
72 90 129
17 38 122
18 48 128
23 50 127
71 116 129
109 144 83
105 135 96
99 167 143
124 159 114
124 155 95
120 152 81
112 142 69
101 132 50
101 131 57
112 136 75
101 121 69
106 128 76
113 136 82
114 135 85
115 138 83
114 142 73
114 145 79
109 142 66
110 143 55
111 146 59
111 144 62
114 142 65
118 138 71
134 144 90
145 153 107
146 154 105
144 155 105
145 150 105
148 154 105
134 144 104
125 141 95
98 125 46
95 123 53
88 120 58
88 124 79
80 117 93
54 108 154
29 57 134
7 29 113
11 17 113
21 20 117
21 24 113
4 37 125
9 52 130
16 51 136
15 35 128
11 25 119
6 15 117
14 18 116
12 7 115
11 21 117
0 20 116
0 11 114
6 0 113
7 4 113
0 0 113
0 0 113
0 0 113
0 0 113
0 0 113
0 0 113
0 0 113
0 0 113
0 0 113
0 0 115
0 0 113
0 0 113
0 0 113
0 0 113
0 0 113
0 0 113
0 0 113
0 0 113
0 0 113
5 6 114
0 0 113
0 0 113
2 10 114
3 19 116
21 36 122
191 207 223
220 235 255
220 235 255
220 235 255
220 235 255
220 235 255
220 235 255
220 235 255
220 235 255
220 235 255
220 235 255
220 235 255
220 235 255
220 235 255
220 235 255
220 235 255
220 235 255
220 235 255
220 235 255
220 235 255
220 235 255
220 235 255
220 235 255
220 235 255
220 235 255
220 235 255
220 235 255
220 235 255
220 235 255
220 235 255
220 235 255
220 235 255
220 235 255
220 235 255
220 235 255
220 235 255
220 235 255
220 235 255
220 235 255
220 235 255
220 235 255
220 235 255
220 235 255
220 235 255
220 235 255
220 235 255
220 235 255
220 235 255
220 235 255
220 235 255
220 235 255
220 235 255
220 235 255
220 235 255
220 235 255
220 235 255
220 235 255
220 235 255
220 235 255
220 235 255
220 235 255
220 235 255
220 235 255
220 235 255
220 235 255
220 235 255
220 235 255
220 235 255
220 235 255
220 235 255
220 235 255
220 235 255
220 235 255
220 235 255
220 235 255
220 235 255
220 235 255
220 235 255
220 235 255
220 235 255
220 235 255
220 235 255
220 235 255
220 235 255
220 235 255
220 235 255
220 235 255
220 235 255
220 235 255
220 235 255
220 235 255
220 235 255
220 235 255
220 235 255
220 235 255
220 235 255
220 235 255
220 235 255
220 235 255
220 235 255
220 235 255
220 235 255
220 235 255
220 235 255
220 235 255
220 235 255
220 235 255
220 235 255
220 235 255
220 235 255
220 235 255
220 235 255
220 235 255
220 235 255
220 235 255
220 235 255
220 235 255
220 235 255
220 235 255
220 235 255
220 235 255
220 235 255
220 235 255
220 235 255
220 235 255
220 235 255
220 235 255
220 235 255
220 235 255
220 235 255
220 235 255
220 235 255
220 235 255
220 235 255
220 235 255
220 235 255
220 235 255
220 235 255
220 235 255
220 235 255
220 235 255
220 235 255
220 235 255
220 235 255
220 235 255
220 235 255
220 235 255
220 235 255
220 235 255
220 235 255
220 235 255
220 235 255
220 235 255
220 235 255
220 235 255
220 235 255
220 235 255
220 235 255
220 235 255
220 235 255
220 235 255
220 235 255
220 235 255
220 235 255
220 235 255
220 235 255
220 235 255
220 235 255
220 235 255
220 235 255
220 235 255
220 235 255
220 235 255
220 235 255
220 235 255
220 235 255
220 235 255
220 235 255
220 235 255
220 235 255
220 235 255
220 235 255
220 235 255
220 235 255
220 235 255
220 235 255
220 235 255
149 159 193
9 18 116
0 20 116
0 20 116
0 20 116
0 18 116
0 17 116
0 20 116
3 21 116
11 24 117
2 20 116
9 17 115
12 27 120
14 39 126
12 32 122
8 20 116
1 20 116
8 22 117
1 18 116
0 22 118
0 25 119
0 22 119
0 20 118
0 20 116
0 20 116
0 20 116
7 19 116
13 14 116
5 6 114
1 0 113
7 15 115
0 20 116
0 20 116
0 20 116
0 20 116
0 19 116
0 19 116
0 20 116
13 25 117
4 21 116
0 19 116
0 17 116
0 15 115
0 15 115
0 0 113
0 0 113
0 0 113
0 0 113
3 3 114
12 13 116
12 12 116
10 11 116
11 12 116
11 12 116
9 9 116
5 17 116
0 20 116
0 20 116
0 20 116
0 20 116
0 20 116
0 20 116
0 20 116
0 20 116
0 20 116
10 17 116
9 17 116
9 16 116
0 13 115
0 10 115
0 13 115
0 20 116
0 20 116
0 20 116
0 20 116
0 20 116
0 20 116
0 20 116
0 20 116
0 20 116
0 20 116
0 20 116
0 20 116
0 20 116
0 17 116
0 14 115
0 14 115
0 15 115
9 17 116
13 14 116
9 18 116
0 20 116
0 20 116
0 20 116
0 20 117
6 24 119
18 26 121
17 26 120
7 29 122
0 37 126
7 49 131
6 47 132
9 43 129
3 32 125
5 28 122
15 28 121
12 21 119
15 23 118
9 27 120
0 29 123
5 35 125
13 39 125
8 32 121
4 22 117
0 20 116
0 20 116
0 20 116
0 20 116
0 20 116
14 23 114
20 26 120
14 20 119
15 29 121
7 23 124
20 40 120
62 87 114
88 116 100
124 154 92
95 118 121
32 49 125
26 48 137
15 20 129
60 83 115
110 136 82
109 133 73
113 159 108
125 150 100
110 137 65
112 141 76
104 134 59
85 118 13
97 128 51
112 137 72
109 128 74
115 136 87
113 137 77
110 137 74
106 137 66
104 138 51
113 139 69
109 136 54
110 140 58
107 142 56
107 141 54
111 144 71
111 141 76
112 134 68
132 144 93
138 145 97
141 149 102
135 148 99
136 147 95
136 144 104
108 120 72
116 138 78
95 126 31
81 119 26
88 120 33
90 120 30
83 124 67
55 130 155
28 71 135
32 18 118
15 28 122
17 33 123
21 25 122
21 55 135
16 57 142
21 49 128
15 30 116
3 16 116
14 9 115
11 11 115
0 17 116
0 20 116
0 12 114
13 0 112
16 6 112
0 0 113
0 0 113
0 0 113
0 0 113
0 0 113
0 0 113
0 0 113
0 0 113
0 0 113
0 0 113
0 0 113
0 0 113
0 0 113
0 0 113
0 0 113
0 0 113
0 0 113
0 0 113
0 0 113
6 7 113
0 0 113
0 4 112
0 9 113
9 17 116
15 16 115
170 186 202
220 235 255
220 235 255
220 235 255
220 235 255
220 235 255
220 235 255
220 235 255
220 235 255
220 235 255
220 235 255
220 235 255
220 235 255
220 235 255
220 235 255
220 235 255
220 235 255
220 235 255
220 235 255
220 235 255
220 235 255
220 235 255
220 235 255
220 235 255
220 235 255
220 235 255
220 235 255
220 235 255
220 235 255
220 235 255
220 235 255
220 235 255
220 235 255
220 235 255
220 235 255
220 235 255
220 235 255
220 235 255
220 235 255
220 235 255
220 235 255
220 235 255
220 235 255
220 235 255
220 235 255
220 235 255
220 235 255
220 235 255
220 235 255
220 235 255
220 235 255
220 235 255
220 235 255
220 235 255
220 235 255
220 235 255
220 235 255
220 235 255
220 235 255
220 235 255
220 235 255
220 235 255
220 235 255
220 235 255
220 235 255
220 235 255
220 235 255
220 235 255
220 235 255
220 235 255
220 235 255
220 235 255
220 235 255
220 235 255
220 235 255
220 235 255
220 235 255
220 235 255
220 235 255
220 235 255
220 235 255
220 235 255
220 235 255
220 235 255
220 235 255
220 235 255
220 235 255
220 235 255
220 235 255
220 235 255
220 235 255
220 235 255
220 235 255
220 235 255
220 235 255
220 235 255
220 235 255
220 235 255
220 235 255
220 235 255
220 235 255
220 235 255
220 235 255
220 235 255
220 235 255
220 235 255
220 235 255
220 235 255
220 235 255
220 235 255
220 235 255
220 235 255
220 235 255
220 235 255
220 235 255
220 235 255
220 235 255
220 235 255
220 235 255
220 235 255
220 235 255
220 235 255
220 235 255
220 235 255
220 235 255
220 235 255
220 235 255
220 235 255
220 235 255
220 235 255
220 235 255
220 235 255
220 235 255
220 235 255
220 235 255
220 235 255
220 235 255
220 235 255
220 235 255
220 235 255
220 235 255
220 235 255
220 235 255
220 235 255
220 235 255
220 235 255
220 235 255
220 235 255
220 235 255
220 235 255
220 235 255
220 235 255
220 235 255
220 235 255
220 235 255
220 235 255
220 235 255
220 235 255
220 235 255
220 235 255
220 235 255
220 235 255
220 235 255
220 235 255
220 235 255
220 235 255
220 235 255
220 235 255
220 235 255
220 235 255
220 235 255
220 235 255
220 235 255
220 235 255
220 235 255
220 235 255
220 235 255
220 235 255
220 235 255
220 235 255
220 235 255
220 235 255
220 235 255
220 235 255
220 235 255
220 235 255
220 235 255
139 149 185
4 20 116
0 20 116
0 20 116
0 20 116
0 17 116
0 17 116
0 20 116
4 21 116
13 25 117
0 20 117
11 16 115
10 31 122
13 39 126
11 31 122
7 22 117
0 19 116
8 22 117
9 23 117
4 25 119
0 25 119
0 20 118
0 20 118
0 20 116
0 20 116
0 20 116
1 19 116
5 13 115
0 2 114
0 0 113
9 10 115
12 14 116
11 13 116
11 13 116
9 16 116
0 20 116
0 20 116
2 20 116
11 24 117
3 21 116
0 20 116
0 20 116
0 20 116
0 19 116
0 0 115
0 0 115
0 0 115
0 0 115
0 0 115
0 0 115
0 0 115
0 0 115
0 0 115
0 0 115
13 14 116
8 18 116
0 20 116
0 20 116
6 21 116
5 21 116
0 20 116
0 20 116
0 20 116
0 20 116
0 20 116
0 20 116
0 20 116
0 20 116
0 19 116
0 15 115
0 17 116
0 20 116
0 20 116
0 20 116
0 20 116
0 20 116
0 20 116
0 20 116
0 20 116
0 20 116
0 20 116
0 20 116
0 20 116
0 20 116
0 20 116
0 19 116
0 19 116
0 19 116
2 14 116
5 5 115
7 8 115
8 17 116
0 20 116
0 20 116
0 20 116
0 21 117
14 24 118
14 24 120
9 29 122
3 33 123
10 34 124
18 34 123
8 25 120
4 17 118
15 23 120
18 25 120
9 18 119
17 21 116
9 23 118
0 21 119
4 28 120
13 30 121
13 27 119
5 21 116
0 20 116
0 20 116
0 20 116
0 20 116
0 20 116
8 15 114
17 20 119
10 16 120
9 19 119
5 21 119
28 44 119
29 42 122
37 51 126
82 105 114
57 77 123
18 43 118
16 48 124
22 44 124
34 47 126
92 120 105
124 151 116
127 158 114
123 151 106
100 128 64
99 125 55
97 124 49
83 115 0
94 125 41
100 129 55
109 125 66
126 144 102
117 138 81
106 135 66
103 138 60
103 138 52
107 136 63
104 132 52
107 134 52
112 135 57
116 136 67
118 136 74
114 136 73
109 132 69
115 136 81
117 137 84
116 133 76
111 136 72
116 133 69
136 147 109
111 119 71
125 142 95
112 133 71
89 124 24
83 121 32
89 118 55
86 115 43
95 132 82
59 132 165
26 23 119
26 22 116
19 18 115
8 35 124
2 42 130
20 66 144
22 67 142
20 46 129
4 30 121
0 25 118
13 28 118
7 20 117
0 20 117
0 15 115
5 1 113
7 0 113
0 0 113
0 0 113
0 0 113
0 0 113
0 0 113
0 0 113
0 0 113
0 0 113
0 0 113
0 0 113
0 0 113
0 0 113
0 0 113
0 0 113
0 0 113
0 0 113
0 0 113
0 0 113
0 0 113
0 0 113
0 0 113
0 0 113
4 19 116
6 18 116
7 8 114
151 166 188
220 235 255
220 235 255
220 235 255
220 235 255
220 235 255
220 235 255
220 235 255
220 235 255
220 235 255
220 235 255
220 235 255
220 235 255
220 235 255
220 235 255
220 235 255
220 235 255
220 235 255
220 235 255
220 235 255
220 235 255
220 235 255
220 235 255
220 235 255
220 235 255
220 235 255
220 235 255
220 235 255
220 235 255
220 235 255
220 235 255
220 235 255
220 235 255
220 235 255
220 235 255
220 235 255
220 235 255
220 235 255
220 235 255
220 235 255
220 235 255
220 235 255
220 235 255
220 235 255
220 235 255
220 235 255
220 235 255
220 235 255
220 235 255
220 235 255
220 235 255
220 235 255
220 235 255
220 235 255
220 235 255
220 235 255
220 235 255
220 235 255
220 235 255
220 235 255
220 235 255
220 235 255
220 235 255
220 235 255
220 235 255
220 235 255
220 235 255
220 235 255
220 235 255
220 235 255
220 235 255
220 235 255
220 235 255
220 235 255
220 235 255
220 235 255
220 235 255
220 235 255
220 235 255
220 235 255
220 235 255
220 235 255
220 235 255
220 235 255
220 235 255
220 235 255
220 235 255
220 235 255
220 235 255
220 235 255
220 235 255
220 235 255
220 235 255
220 235 255
220 235 255
220 235 255
220 235 255
220 235 255
220 235 255
220 235 255
220 235 255
220 235 255
220 235 255
220 235 255
220 235 255
220 235 255
220 235 255
220 235 255
220 235 255
220 235 255
220 235 255
220 235 255
220 235 255
220 235 255
220 235 255
220 235 255
220 235 255
220 235 255
220 235 255
220 235 255
220 235 255
220 235 255
220 235 255
220 235 255
220 235 255
220 235 255
220 235 255
220 235 255
220 235 255
220 235 255
220 235 255
220 235 255
220 235 255
220 235 255
220 235 255
220 235 255
220 235 255
220 235 255
220 235 255
220 235 255
220 235 255
220 235 255
220 235 255
220 235 255
220 235 255
220 235 255
220 235 255
220 235 255
220 235 255
220 235 255
220 235 255
220 235 255
220 235 255
220 235 255
220 235 255
220 235 255
220 235 255
220 235 255
220 235 255
220 235 255
220 235 255
220 235 255
220 235 255
220 235 255
220 235 255
220 235 255
220 235 255
220 235 255
220 235 255
220 235 255
220 235 255
220 235 255
220 235 255
220 235 255
220 235 255
220 235 255
220 235 255
220 235 255
220 235 255
220 235 255
220 235 255
220 235 255
220 235 255
220 235 255
220 235 255
220 235 255
220 235 255
122 131 172
0 20 116
0 20 116
0 20 116
0 20 116
5 16 116
0 19 116
0 20 116
4 21 116
11 24 117
0 18 117
9 20 116
0 27 121
5 32 124
8 28 121
8 22 117
3 20 116
12 24 117
12 24 117
11 24 117
7 22 117
0 20 116
0 20 116
0 20 116
0 20 116
0 20 116
0 17 116
0 15 115
0 6 113
0 0 113
0 0 115
0 0 115
0 0 115
0 0 115
0 6 115
0 14 116
0 13 116
0 13 116
0 13 116
0 20 116
0 20 116
0 20 116
0 20 116
0 19 116
0 17 116
0 16 116
0 17 116
0 16 116
0 14 116
0 0 115
0 0 115
0 0 115
0 0 115
4 4 115
13 14 116
6 19 116
0 20 116
0 20 116
8 22 117
6 21 116
0 20 116
0 20 116
0 20 116
0 20 116
0 20 116
0 20 116
0 20 116
0 20 116
0 20 116
0 20 116
0 20 116
0 20 116
0 20 116
0 20 116
0 20 116
0 20 116
0 20 116
0 20 116
0 20 116
0 20 116
0 20 116
0 20 116
0 20 116
0 20 116
0 20 116
0 20 116
0 20 116
0 14 115
0 10 114
0 0 113
0 0 113
0 13 115
0 19 116
0 20 116
0 19 116
0 20 116
3 20 116
13 20 119
15 25 120
6 27 120
7 19 119
14 14 116
12 13 116
13 24 117
13 24 117
7 20 116
0 20 116
0 12 113
5 21 116
3 21 117
8 25 119
13 26 119
8 20 117
0 20 116
0 20 116
0 20 116
0 20 116
0 20 116
0 20 116
15 21 118
24 32 120
23 29 123
14 24 124
7 26 119
17 31 120
17 31 124
17 35 128
14 31 128
16 31 134
26 46 130
7 34 125
10 34 124
31 36 125
38 52 125
104 133 123
126 148 120
116 146 101
97 123 63
105 127 71
98 123 56
94 124 44
95 127 47
100 126 53
118 132 82
129 139 104
136 151 113
118 142 83
103 135 57
105 134 60
109 132 65
111 131 61
117 135 70
128 140 85
134 142 97
140 145 101
127 138 90
106 125 61
108 134 77
94 125 61
93 124 55
101 132 53
108 131 58
128 143 96
102 120 50
107 132 77
101 126 59
90 120 31
88 120 40
89 119 57
87 121 49
92 123 50
82 147 147
32 108 161
30 49 123
35 25 116
12 28 120
19 50 131
23 65 143
34 70 149
22 58 141
21 44 130
14 31 121
7 19 116
15 14 116
0 20 116
0 19 116
0 12 114
0 7 114
0 0 113
0 0 113
0 0 113
0 0 113
0 0 113
0 0 113
0 0 113
0 0 113
0 0 113
0 0 113
0 0 113
0 0 113
0 0 113
0 0 113
0 0 113
0 0 113
0 0 113
0 0 113
0 0 113
0 0 113
0 0 113
0 0 113
0 18 115
2 17 116
3 5 114
105 119 149
220 235 255
220 235 255
220 235 255
220 235 255
220 235 255
220 235 255
220 235 255
220 235 255
220 235 255
220 235 255
220 235 255
220 235 255
220 235 255
220 235 255
220 235 255
220 235 255
220 235 255
220 235 255
220 235 255
220 235 255
220 235 255
220 235 255
220 235 255
220 235 255
220 235 255
220 235 255
220 235 255
220 235 255
220 235 255
220 235 255
220 235 255
220 235 255
220 235 255
220 235 255
220 235 255
220 235 255
220 235 255
220 235 255
220 235 255
220 235 255
220 235 255
220 235 255
220 235 255
220 235 255
220 235 255
220 235 255
220 235 255
220 235 255
220 235 255
220 235 255
220 235 255
220 235 255
220 235 255
220 235 255
220 235 255
220 235 255
220 235 255
220 235 255
220 235 255
220 235 255
220 235 255
220 235 255
220 235 255
220 235 255
220 235 255
220 235 255
220 235 255
220 235 255
220 235 255
220 235 255
220 235 255
220 235 255
220 235 255
220 235 255
220 235 255
220 235 255
220 235 255
220 235 255
220 235 255
220 235 255
220 235 255
220 235 255
220 235 255
220 235 255
220 235 255
220 235 255
220 235 255
220 235 255
220 235 255
220 235 255
220 235 255
220 235 255
220 235 255
220 235 255
220 235 255
220 235 255
220 235 255
220 235 255
220 235 255
220 235 255
220 235 255
220 235 255
220 235 255
220 235 255
220 235 255
220 235 255
220 235 255
220 235 255
220 235 255
220 235 255
220 235 255
220 235 255
220 235 255
220 235 255
220 235 255
220 235 255
220 235 255
220 235 255
220 235 255
220 235 255
220 235 255
220 235 255
220 235 255
220 235 255
220 235 255
220 235 255
220 235 255
220 235 255
220 235 255
220 235 255
220 235 255
220 235 255
220 235 255
220 235 255
220 235 255
220 235 255
220 235 255
220 235 255
220 235 255
220 235 255
220 235 255
220 235 255
220 235 255
220 235 255
220 235 255
220 235 255
220 235 255
220 235 255
220 235 255
220 235 255
220 235 255
220 235 255
220 235 255
220 235 255
220 235 255
220 235 255
220 235 255
220 235 255
220 235 255
220 235 255
220 235 255
220 235 255
220 235 255
220 235 255
220 235 255
220 235 255
220 235 255
220 235 255
220 235 255
220 235 255
220 235 255
220 235 255
220 235 255
220 235 255
220 235 255
220 235 255
220 235 255
220 235 255
220 235 255
220 235 255
220 235 255
220 235 255
220 235 255
220 235 255
220 235 255
220 235 255
49 55 127
0 20 116
0 20 116
0 20 116
0 20 116
9 17 116
2 20 116
0 20 116
1 20 116
2 21 116
0 18 116
3 20 116
0 22 118
8 24 119
4 23 119
11 27 119
13 25 117
6 21 116
0 20 116
6 21 116
0 20 116
0 20 116
0 20 116
0 20 116
0 20 116
0 20 116
0 20 116
0 19 116
0 9 113
0 0 113
0 0 115
0 0 115
0 0 115
0 0 115
0 0 115
0 0 115
0 0 115
0 0 115
0 7 115
0 20 116
0 20 116
0 20 116
0 20 116
0 20 116
0 20 116
0 20 116
0 20 116
0 20 116
4 17 116
6 6 115
5 6 115
6 6 115
7 7 115
7 8 115
11 12 116
5 19 116
0 20 116
0 20 116
0 20 116
0 20 116
0 20 116
0 20 116
0 20 116
0 20 116
0 20 116
0 20 116
0 20 116
0 20 116
0 20 116
0 20 116
0 20 116
0 20 116
0 20 116
0 20 116
0 20 116
0 20 116
0 20 116
0 20 116
0 20 116
0 20 116
0 20 116
0 20 116
0 18 116
0 20 116
0 20 116
0 20 116
0 18 116
0 14 115
0 9 113
0 9 112
0 0 113
0 0 114
8 14 116
8 17 117
0 17 117
0 20 115
0 20 116
5 15 119
11 19 119
6 22 118
0 19 117
0 14 115
7 13 115
8 21 116
7 20 116
0 14 115
0 19 116
0 16 114
6 21 116
5 21 116
8 22 117
13 22 119
9 13 118
0 19 116
0 20 116
0 20 116
0 20 116
0 20 116
0 20 116
8 21 119
5 25 117
14 28 121
13 28 123
10 32 113
12 35 118
11 28 125
8 32 124
21 43 126
15 40 125
0 30 122
3 30 119
14 31 120
35 36 119
20 28 121
91 114 127
133 154 120
122 154 113
110 129 79
105 126 70
99 123 45
100 129 58
100 132 60
99 125 48
109 123 65
128 138 101
134 148 110
117 142 84
103 132 56
112 129 70
110 123 57
120 132 75
124 139 90
134 147 100
136 147 103
129 141 96
114 133 80
100 123 53
99 125 62
93 119 48
101 124 66
105 134 64
107 133 57
101 125 52
92 119 30
77 112 18
79 119 15
85 118 48
91 117 50
90 117 37
90 118 37
95 119 55
96 125 66
91 149 126
56 133 176
16 52 133
9 50 136
35 84 160
20 95 165
18 95 159
7 86 152
17 58 139
26 40 129
11 29 120
19 15 118
0 20 116
0 20 116
0 19 116
0 16 115
0 0 113
0 0 113
0 0 113
0 0 113
0 0 113
0 0 113
0 0 113
0 0 113
0 0 113
0 0 113
0 0 113
0 0 113
0 0 113
0 0 113
0 0 113
0 0 113
0 0 113
0 0 113
0 0 113
1 1 113
5 5 114
0 0 114
0 15 115
0 19 116
3 3 114
66 76 127
220 235 255
220 235 255
220 235 255
220 235 255
220 235 255
220 235 255
220 235 255
220 235 255
220 235 255
220 235 255
220 235 255
220 235 255
220 235 255
220 235 255
220 235 255
220 235 255
220 235 255
220 235 255
220 235 255
220 235 255
220 235 255
220 235 255
220 235 255
220 235 255
220 235 255
220 235 255
220 235 255
220 235 255
220 235 255
220 235 255
220 235 255
220 235 255
220 235 255
220 235 255
220 235 255
220 235 255
220 235 255
220 235 255
220 235 255
220 235 255
220 235 255
220 235 255
220 235 255
220 235 255
220 235 255
220 235 255
220 235 255
220 235 255
220 235 255
220 235 255
220 235 255
220 235 255
220 235 255
220 235 255
220 235 255
220 235 255
220 235 255
220 235 255
220 235 255
220 235 255
220 235 255
220 235 255
220 235 255
220 235 255
220 235 255
220 235 255
220 235 255
220 235 255
220 235 255
220 235 255
220 235 255
220 235 255
220 235 255
220 235 255
220 235 255
220 235 255
220 235 255
220 235 255
220 235 255
220 235 255
220 235 255
220 235 255
220 235 255
220 235 255
220 235 255
220 235 255
220 235 255
220 235 255
220 235 255
220 235 255
220 235 255
220 235 255
220 235 255
220 235 255
220 235 255
220 235 255
220 235 255
220 235 255
220 235 255
220 235 255
220 235 255
220 235 255
220 235 255
220 235 255
220 235 255
220 235 255
220 235 255
220 235 255
220 235 255
220 235 255
220 235 255
220 235 255
220 235 255
220 235 255
220 235 255
220 235 255
220 235 255
220 235 255
220 235 255
220 235 255
220 235 255
220 235 255
220 235 255
220 235 255
220 235 255
220 235 255
220 235 255
220 235 255
220 235 255
220 235 255
220 235 255
220 235 255
220 235 255
220 235 255
220 235 255
220 235 255
220 235 255
220 235 255
220 235 255
220 235 255
220 235 255
220 235 255
220 235 255
220 235 255
220 235 255
220 235 255
220 235 255
220 235 255
220 235 255
220 235 255
220 235 255
220 235 255
220 235 255
220 235 255
220 235 255
220 235 255
220 235 255
220 235 255
220 235 255
220 235 255
220 235 255
220 235 255
220 235 255
220 235 255
220 235 255
220 235 255
220 235 255
220 235 255
220 235 255
220 235 255
220 235 255
220 235 255
220 235 255
220 235 255
220 235 255
220 235 255
220 235 255
220 235 255
220 235 255
220 235 255
220 235 255
220 235 255
220 235 255
220 235 255
220 235 255
216 230 251
1 18 116
0 20 117
0 20 117
0 20 116
1 20 116
9 18 116
0 20 116
0 20 116
0 20 116
0 20 116
0 20 116
0 20 116
0 20 116
10 23 117
8 26 120
11 27 120
8 22 117
0 20 116
0 20 116
0 20 116
0 20 116
0 20 116
0 20 116
0 20 116
0 20 116
0 20 116
0 21 116
0 20 116
0 20 114
11 15 114
3 19 116
0 20 116
0 20 116
0 20 116
0 12 114
1 2 113
7 7 113
2 2 113
0 6 113
0 20 116
0 20 116
0 20 116
0 20 116
0 20 116
0 20 116
0 20 116
0 20 116
0 20 116
7 19 116
13 14 116
13 14 116
13 14 116
14 14 116
12 13 116
0 0 115
0 16 116
0 18 116
0 20 116
0 20 116
0 20 116
0 20 116
0 20 116
0 20 116
0 20 116
0 20 116
0 20 116
0 20 116
0 20 116
0 20 116
0 20 116
0 20 116
0 20 116
0 20 116
0 20 116
0 20 116
0 20 116
0 20 116
0 20 116
0 20 116
0 20 116
0 20 116
0 20 116
0 16 115
0 16 115
0 20 116
0 20 116
0 15 115
0 12 115
9 4 112
4 7 111
0 0 113
0 0 114
12 13 116
13 14 117
8 17 116
0 20 114
0 19 116
0 14 118
4 15 119
3 19 117
14 19 115
12 22 117
0 10 115
0 20 116
0 22 117
0 19 116
0 25 116
0 16 115
0 20 116
0 18 116
0 15 115
6 17 119
3 19 118
0 20 117
0 20 116
0 20 116
0 20 116
0 20 116
0 20 116
9 25 119
7 27 117
12 29 123
6 25 125
0 28 115
4 34 122
11 32 127
12 34 127
5 31 125
11 39 122
7 30 125
11 31 113
17 29 123
17 32 121
26 30 129
72 97 123
119 149 105
124 159 134
120 137 95
103 124 58
98 122 38
108 136 65
95 127 47
105 130 65
115 133 80
133 147 110
122 137 89
118 143 81
111 138 67
113 127 70
118 135 82
120 137 83
123 140 90
126 141 92
129 141 94
128 140 92
97 124 56
88 116 33
99 125 61
91 117 42
100 124 64
110 136 73
104 129 62
98 123 46
93 120 44
82 110 25
88 112 37
95 118 53
93 118 48
86 117 52
87 116 59
97 122 63
91 126 65
108 130 54
92 153 122
60 122 145
52 123 146
59 139 158
44 142 162
52 137 171
26 116 172
14 83 153
20 51 135
10 41 126
7 27 121
1 20 116
13 24 117
12 24 117
6 22 117
0 0 113
0 0 113
0 0 113
0 0 113
0 0 113
0 0 113
0 0 113
0 0 113
0 0 113
0 0 113
0 0 113
0 0 113
0 0 113
0 0 113
0 0 113
0 0 113
0 0 113
0 0 113
0 0 113
9 9 113
9 13 116
0 5 115
0 13 114
6 22 116
7 9 115
14 18 113
214 228 248
220 235 255
220 235 255
220 235 255
220 235 255
220 235 255
220 235 255
220 235 255
220 235 255
220 235 255
220 235 255
220 235 255
220 235 255
220 235 255
220 235 255
220 235 255
220 235 255
220 235 255
220 235 255
220 235 255
220 235 255
220 235 255
220 235 255
220 235 255
220 235 255
220 235 255
220 235 255
220 235 255
220 235 255
220 235 255
220 235 255
220 235 255
220 235 255
220 235 255
220 235 255
220 235 255
220 235 255
220 235 255
220 235 255
220 235 255
220 235 255
220 235 255
220 235 255
220 235 255
220 235 255
220 235 255
220 235 255
220 235 255
220 235 255
220 235 255
220 235 255
220 235 255
220 235 255
220 235 255
220 235 255
220 235 255
220 235 255
220 235 255
220 235 255
220 235 255
220 235 255
220 235 255
220 235 255
220 235 255
220 235 255
220 235 255
220 235 255
220 235 255
220 235 255
220 235 255
220 235 255
220 235 255
220 235 255
220 235 255
220 235 255
220 235 255
220 235 255
220 235 255
220 235 255
220 235 255
220 235 255
220 235 255
220 235 255
220 235 255
220 235 255
220 235 255
220 235 255
220 235 255
220 235 255
220 235 255
220 235 255
220 235 255
220 235 255
221 235 255
221 235 255
221 235 255
221 235 255
221 235 255
221 235 255
221 235 255
221 235 255
221 235 255
221 235 255
221 235 255
221 235 255
221 235 255
221 235 255
221 235 255
221 235 255
221 235 255
221 235 255
221 235 255
221 235 255
221 235 255
221 235 255
221 235 255
221 235 255
221 235 255
221 235 255
221 235 255
221 235 255
221 235 255
221 235 255
221 235 255
221 235 255
221 235 255
221 235 255
221 235 255
221 235 255
221 235 255
221 235 255
221 235 255
221 235 255
221 235 255
221 235 255
221 235 255
221 235 255
221 235 255
221 235 255
221 235 255
221 235 255
221 235 255
221 235 255
221 235 255
221 235 255
221 235 255
221 235 255
221 235 255
221 235 255
221 235 255
221 235 255
221 235 255
221 235 255
221 235 255
221 235 255
221 235 255
221 235 255
221 235 255
221 235 255
221 235 255
221 235 255
221 235 255
221 235 255
221 235 255
221 235 255
221 235 255
221 235 255
221 235 255
221 235 255
221 235 255
221 235 255
221 235 255
221 235 255
221 235 255
221 235 255
221 235 255
221 235 255
221 235 255
221 235 255
221 235 255
221 235 255
221 235 255
221 235 255
221 235 255
221 235 255
197 210 234
3 19 116
0 22 118
0 24 118
0 20 116
7 22 117
8 18 116
0 20 116
0 20 116
0 20 116
0 20 116
6 21 116
0 20 116
9 17 115
4 20 116
8 24 119
4 21 118
0 18 116
0 20 116
9 23 117
0 20 116
0 20 116
0 20 116
0 20 116
0 20 116
0 20 116
0 20 116
0 22 117
0 20 116
0 20 115
0 19 115
0 19 116
0 20 116
0 20 116
0 20 116
0 16 115
2 14 115
9 9 115
1 1 114
0 11 114
0 19 116
0 20 116
0 20 116
0 20 116
0 20 116
0 20 116
0 20 116
0 20 116
0 20 116
9 18 116
13 14 116
13 14 116
8 8 116
5 6 115
6 10 116
0 18 116
0 19 116
0 20 116
0 20 116
0 20 116
0 20 116
0 20 116
0 20 116
0 20 116
0 20 116
0 20 116
0 20 116
0 20 116
0 20 116
0 20 116
0 20 116
0 20 116
0 20 116
0 20 116
0 20 116
0 20 116
0 20 116
0 21 116
0 20 116
0 20 116
0 20 116
0 20 116
0 20 116
5 14 114
0 3 113
0 4 113
0 4 113
0 2 113
2 3 113
3 12 114
1 14 115
0 14 115
0 18 116
0 20 116
1 20 116
1 20 116
0 20 116
0 20 116
0 20 116
0 20 116
0 20 116
10 16 116
0 16 115
0 19 116
0 20 116
6 19 116
12 16 116
12 15 116
0 20 116
0 20 116
0 20 116
0 20 116
0 20 116
0 20 116
0 20 116
0 20 116
0 20 116
0 20 116
0 20 116
0 16 115
9 21 116
5 20 116
15 17 119
21 24 120
14 27 120
13 36 124
16 40 125
13 35 125
11 34 125
0 32 124
0 30 123
6 30 122
4 33 121
19 29 127
23 52 124
96 124 137
128 157 110
123 158 117
114 144 87
105 129 66
100 121 56
106 132 62
103 131 74
128 145 110
132 146 103
126 145 97
117 141 86
117 142 83
115 138 78
117 135 74
124 140 91
125 141 93
125 139 90
132 143 97
131 139 92
116 128 73
87 115 26
87 117 36
89 119 45
88 117 37
95 123 40
100 127 53
100 126 51
98 124 45
94 119 40
91 113 41
97 112 39
108 124 62
92 117 44
88 120 58
90 118 51
92 119 50
94 122 56
98 123 54
90 123 41
86 122 55
85 124 72
89 122 66
84 116 38
88 132 98
72 129 131
58 126 159
16 82 153
26 54 135
9 50 130
10 28 121
15 23 116
8 27 117
0 24 119
0 9 114
0 0 113
0 0 113
0 0 113
0 0 113
0 0 113
0 0 113
0 0 113
0 0 113
0 0 113
0 0 113
0 0 113
0 0 113
0 0 113
0 0 113
0 0 113
0 0 113
0 0 113
0 0 113
11 12 114
5 19 116
0 14 115
0 11 114
0 20 116
8 12 115
8 6 112
201 214 237
221 235 255
221 235 255
221 235 255
221 235 255
221 235 255
221 235 255
221 235 255
221 235 255
221 235 255
221 235 255
221 235 255
221 235 255
221 235 255
221 235 255
221 235 255
221 235 255
221 235 255
221 235 255
221 235 255
221 235 255
221 235 255
221 235 255
221 235 255
221 235 255
221 235 255
221 235 255
221 235 255
221 235 255
221 235 255
221 235 255
221 235 255
221 235 255
221 235 255
221 235 255
221 235 255
221 235 255
221 235 255
221 235 255
221 235 255
221 235 255
221 235 255
221 235 255
221 235 255
221 235 255
221 235 255
221 235 255
221 235 255
221 235 255
221 235 255
221 235 255
221 235 255
221 235 255
221 235 255
221 235 255
221 235 255
221 235 255
221 235 255
221 235 255
221 235 255
221 235 255
221 235 255
221 235 255
221 235 255
221 235 255
221 235 255
221 235 255
221 235 255
221 235 255
221 235 255
221 235 255
221 235 255
221 235 255
221 235 255
221 235 255
221 235 255
221 235 255
221 235 255
221 235 255
221 235 255
221 235 255
221 235 255
221 235 255
221 235 255
221 235 255
221 235 255
221 235 255
221 235 255
221 235 255
221 235 255
221 235 255
221 235 255
221 235 255
221 235 255
221 235 255
221 235 255
221 235 255
221 235 255
221 235 255
221 235 255
221 235 255
221 235 255
221 235 255
221 235 255
221 235 255
221 235 255
221 235 255
221 235 255
221 235 255
221 235 255
221 235 255
221 235 255
221 235 255
221 235 255
221 235 255
221 235 255
221 235 255
221 235 255
221 235 255
221 235 255
221 235 255
221 235 255
221 235 255
221 235 255
221 235 255
221 235 255
221 235 255
221 235 255
221 235 255
221 235 255
221 235 255
221 235 255
221 235 255
221 235 255
221 235 255
221 235 255
221 235 255
221 235 255
221 235 255
221 235 255
221 235 255
221 235 255
221 235 255
221 235 255
221 235 255
221 235 255
221 235 255
221 235 255
221 235 255
221 235 255
221 235 255
221 235 255
221 235 255
221 235 255
221 235 255
221 235 255
221 235 255
221 235 255
221 235 255
221 235 255
221 235 255
221 235 255
221 235 255
221 235 255
221 235 255
221 235 255
221 235 255
221 235 255
221 235 255
221 235 255
221 235 255
221 235 255
221 235 255
221 235 255
221 235 255
221 235 255
221 235 255
221 235 255
221 235 255
221 235 255
221 235 255
221 235 255
221 235 255
221 235 255
221 235 255
174 185 213
2 20 116
0 23 118
0 23 118
0 20 116
3 20 116
4 20 116
0 20 116
0 20 116
0 20 116
0 20 116
0 20 116
0 20 116
0 20 116
0 20 116
0 20 116
0 20 116
0 20 116
0 20 116
0 20 116
0 20 116
0 20 116
0 20 116
0 20 116
0 20 116
0 20 116
0 20 116
0 20 116
0 20 116
0 20 116
0 19 116
0 19 116
0 20 116
0 20 116
0 20 116
0 20 116
0 19 116
0 0 115
0 0 115
0 15 115
0 20 116
0 20 116
0 20 116
0 20 116
0 21 116
0 20 116
0 20 116
0 20 116
0 20 116
9 18 116
13 14 116
13 14 116
4 5 115
0 0 115
0 11 115
0 20 116
0 20 116
0 20 116
0 20 116
0 20 116
0 20 116
0 20 116
0 20 116
0 20 116
0 20 116
0 20 116
0 20 116
0 20 116
0 20 116
0 20 116
0 20 116
0 20 116
0 20 116
0 20 116
0 20 116
0 20 116
0 20 116
0 20 116
0 20 116
0 20 116
0 20 116
0 20 116
0 20 116
11 16 115
4 4 114
0 0 114
0 0 114
0 0 114
7 7 114
9 14 115
0 14 115
0 15 115
0 19 116
0 20 116
0 20 116
0 20 116
0 20 116
0 20 116
0 20 116
0 20 116
0 20 116
0 20 116
0 20 116
0 20 116
0 20 116
0 20 116
0 20 116
0 18 116
0 20 116
0 20 116
0 20 116
0 20 116
0 20 116
0 20 116
8 22 117
0 20 116
0 20 116
0 20 116
0 20 116
0 21 116
0 20 116
0 16 115
7 8 116
15 18 119
5 16 118
6 31 120
13 35 123
10 34 124
4 33 124
0 31 123
0 32 124
0 32 124
0 35 124
24 28 130
20 44 126
89 123 146
129 159 119
121 150 105
110 138 74
115 136 77
111 133 79
110 133 68
118 140 95
134 151 114
121 140 88
118 141 83
117 140 82
118 139 76
123 142 84
127 142 89
129 143 97
131 144 100
132 146 100
129 145 101
120 137 85
106 124 56
93 120 44
89 117 42
81 112 23
81 111 22
96 123 45
102 126 58
94 119 42
91 118 39
89 116 43
87 111 39
98 116 49
116 127 73
121 128 78
110 121 65
106 125 67
95 120 55
97 124 61
92 120 45
85 116 22
81 112 16
86 115 14
85 112 37
75 104 30
85 113 36
89 120 59
85 126 96
59 149 176
26 94 161
6 59 135
15 42 126
9 16 116
11 19 113
22 23 118
8 15 116
0 3 115
0 0 113
0 0 113
0 0 113
0 0 113
0 0 113
0 0 113
0 0 113
0 0 113
0 0 113
0 0 113
0 0 113
0 0 112
0 0 113
0 0 113
0 0 113
0 0 113
0 0 114
3 3 115
11 13 116
11 14 116
1 17 115
0 20 116
8 16 116
8 10 114
191 204 228
221 235 255
221 235 255
221 235 255
221 235 255
221 235 255
221 235 255
221 235 255
221 235 255
221 235 255
221 235 255
221 235 255
221 235 255
221 235 255
221 235 255
221 235 255
221 235 255
221 235 255
221 235 255
221 235 255
221 235 255
221 235 255
221 235 255
221 235 255
221 235 255
221 235 255
221 235 255
221 235 255
221 235 255
221 235 255
221 235 255
221 235 255
221 235 255
221 235 255
221 235 255
221 235 255
221 235 255
221 235 255
221 235 255
221 235 255
221 235 255
221 235 255
221 235 255
221 235 255
221 235 255
221 235 255
221 235 255
221 235 255
221 235 255
221 235 255
221 235 255
221 235 255
221 235 255
221 235 255
221 235 255
221 235 255
221 235 255
221 235 255
221 235 255
221 235 255
221 235 255
221 235 255
221 235 255
221 235 255
221 235 255
221 235 255
221 235 255
221 235 255
221 235 255
221 235 255
221 235 255
221 235 255
221 235 255
221 235 255
221 235 255
221 235 255
221 235 255
221 235 255
221 235 255
221 235 255
221 235 255
221 235 255
221 235 255
221 235 255
221 235 255
221 235 255
221 235 255
221 235 255
221 235 255
221 235 255
221 235 255
221 235 255
221 235 255
221 235 255
221 235 255
221 235 255
221 235 255
221 235 255
221 235 255
221 235 255
221 235 255
221 235 255
221 235 255
221 235 255
221 235 255
221 235 255
221 235 255
221 235 255
221 235 255
221 235 255
221 235 255
221 235 255
221 235 255
221 235 255
221 235 255
221 235 255
221 235 255
221 235 255
221 235 255
221 235 255
221 235 255
221 235 255
221 235 255
221 235 255
221 235 255
221 235 255
221 235 255
221 235 255
221 235 255
221 235 255
221 235 255
221 235 255
221 235 255
221 235 255
221 235 255
221 235 255
221 235 255
221 235 255
221 235 255
221 235 255
221 235 255
221 235 255
221 235 255
221 235 255
221 235 255
221 235 255
221 235 255
221 235 255
221 235 255
221 235 255
221 235 255
221 235 255
221 235 255
221 235 255
221 235 255
221 235 255
221 235 255
221 235 255
221 235 255
221 235 255
221 235 255
221 235 255
221 235 255
221 235 255
221 235 255
221 235 255
221 235 255
221 235 255
221 235 255
221 235 255
221 235 255
221 235 255
221 235 255
221 235 255
221 235 255
221 235 255
221 235 255
221 235 255
221 235 255
221 235 255
221 235 255
221 235 255
221 235 255
221 235 255
221 235 255
181 193 219
0 20 116
0 21 118
0 23 118
0 20 116
0 20 116
0 20 116
0 20 116
0 20 116
0 20 116
0 20 116
0 20 116
0 20 116
0 20 116
0 20 116
0 20 116
0 20 116
0 20 116
0 20 116
0 20 116
0 20 116
0 20 116
0 20 116
0 20 116
0 20 116
0 20 116
0 20 116
0 20 116
0 20 116
0 20 116
0 20 116
0 20 116
0 20 116
0 20 116
0 20 116
0 20 116
0 18 116
0 0 115
0 0 115
0 16 115
0 20 116
0 20 116
0 20 116
0 20 116
0 20 116
0 20 116
0 20 116
0 20 116
0 20 116
10 17 116
13 14 116
13 14 116
2 2 115
0 0 115
0 11 115
0 20 116
0 20 116
0 20 116
0 20 116
0 20 116
0 20 116
0 20 116
0 20 116
0 20 116
0 20 116
0 20 116
0 20 116
0 20 116
0 20 116
0 20 116
0 20 116
0 20 116
0 20 116
0 20 116
0 20 116
0 20 116
0 20 116
0 20 116
0 20 116
0 20 116
0 20 116
0 20 116
0 20 116
11 16 116
10 10 116
0 0 115
0 0 115
4 4 115
12 13 116
9 14 116
0 15 115
0 19 116
0 20 116
0 20 116
0 20 116
0 20 116
0 20 116
0 20 116
0 20 116
0 20 116
0 20 116
0 19 118
0 16 118
0 16 118
0 17 117
0 20 116
0 20 116
0 20 116
0 20 116
0 20 116
0 20 116
0 20 116
0 20 116
0 20 116
12 20 116
10 17 115
0 20 116
0 20 116
0 20 116
0 17 116
0 19 116
10 22 117
11 20 117
10 19 117
0 13 118
3 19 119
8 28 121
10 30 122
10 30 122
11 29 121
10 30 122
11 30 121
13 36 125
30 32 124
23 33 124
87 131 146
122 154 103
124 147 104
112 137 72
121 141 89
115 138 86
118 136 81
132 146 102
131 149 106
117 142 83
118 141 74
120 139 76
122 138 74
127 143 87
129 145 91
129 144 97
126 140 91
126 141 89
119 137 84
105 129 64
92 119 34
92 117 40
88 115 40
83 110 25
92 118 47
95 120 48
98 122 59
93 117 49
94 119 47
85 113 37
83 110 30
89 116 44
103 121 58
131 137 91
138 145 102
109 128 66
100 129 66
96 125 55
89 119 38
85 116 30
81 112 23
86 115 26
85 112 43
73 102 42
86 116 46
87 118 31
87 117 42
93 129 78
63 158 181
32 96 162
14 47 130
0 26 119
14 18 115
20 18 115
6 20 116
9 12 116
2 2 113
0 0 113
0 0 113
0 0 113
0 0 113
0 0 113
0 0 113
0 0 113
0 0 113
0 0 113
0 0 113
0 0 113
0 0 113
0 0 113
0 0 113
0 0 113
0 0 115
0 0 115
10 11 116
13 14 116
3 20 116
0 20 116
4 20 116
3 15 115
172 184 212
221 235 255
221 235 255
221 235 255
221 235 255
221 235 255
221 235 255
221 235 255
221 235 255
221 235 255
221 235 255
221 235 255
221 235 255
221 235 255
221 235 255
221 235 255
221 235 255
221 235 255
221 235 255
221 235 255
221 235 255
221 235 255
221 235 255
221 235 255
221 235 255
221 235 255
221 235 255
221 235 255
221 235 255
221 235 255
221 235 255
221 235 255
221 235 255
221 235 255
221 235 255
221 235 255
221 235 255
221 235 255
221 235 255
221 235 255
221 235 255
221 235 255
221 235 255
221 235 255
221 235 255
221 235 255
221 235 255
221 235 255
221 235 255
221 235 255
221 235 255
221 235 255
221 235 255
221 235 255
221 235 255
221 235 255
221 235 255
221 235 255
221 235 255
221 235 255
221 235 255
221 235 255
221 235 255
221 235 255
221 235 255
221 235 255
221 235 255
221 235 255
221 235 255
221 235 255
221 235 255
221 235 255
221 235 255
221 235 255
221 235 255
221 235 255
221 235 255
221 235 255
221 235 255
221 235 255
221 235 255
221 235 255
221 235 255
221 235 255
221 235 255
221 235 255
221 235 255
221 235 255
221 235 255
221 235 255
221 235 255
221 235 255
221 235 255
221 235 255
221 235 255
221 235 255
221 235 255
221 235 255
221 235 255
221 235 255
221 235 255
221 235 255
221 235 255
221 235 255
221 235 255
221 235 255
221 235 255
221 235 255
221 235 255
221 235 255
221 235 255
221 235 255
221 235 255
221 235 255
221 235 255
221 235 255
221 235 255
221 235 255
221 235 255
221 235 255
221 235 255
221 235 255
221 235 255
221 235 255
221 235 255
221 235 255
221 235 255
221 235 255
221 235 255
221 235 255
221 235 255
221 235 255
221 235 255
221 235 255
221 235 255
221 235 255
221 235 255
221 235 255
221 235 255
221 235 255
221 235 255
221 235 255
221 235 255
221 235 255
221 235 255
221 235 255
221 235 255
221 235 255
221 235 255
221 235 255
221 235 255
221 235 255
221 235 255
221 235 255
221 235 255
221 235 255
221 235 255
221 235 255
221 235 255
221 235 255
221 235 255
221 235 255
221 235 255
221 235 255
221 235 255
221 235 255
221 235 255
221 235 255
221 235 255
221 235 255
221 235 255
221 235 255
221 235 255
221 235 255
221 235 255
221 235 255
221 235 255
221 235 255
221 235 255
221 235 255
221 235 255
221 235 255
221 235 255
221 235 255
221 235 255
148 158 192
0 20 116
0 20 117
0 21 117
0 20 116
0 20 116
0 18 116
0 20 116
0 20 116
0 20 116
0 20 116
0 20 116
0 20 116
0 20 116
0 20 116
0 20 116
0 20 116
0 20 116
0 20 116
0 20 116
0 20 116
0 20 116
0 20 116
0 20 116
0 20 116
0 20 116
0 20 116
0 20 116
0 20 116
0 21 116
0 20 116
0 20 116
0 20 116
0 20 116
0 20 116
0 20 116
0 18 116
0 0 115
0 0 115
0 14 115
0 12 116
0 13 116
0 13 116
0 12 116
0 18 116
0 20 116
0 20 116
0 20 116
0 20 116
10 17 116
13 14 116
13 14 116
0 0 115
0 0 115
0 11 115
0 20 116
0 20 116
0 20 116
0 20 116
0 20 116
0 20 116
0 20 116
0 20 116
0 20 116
0 20 116
0 20 116
0 20 116
0 20 116
0 20 116
0 20 116
0 20 116
0 20 116
0 20 116
0 20 116
0 20 116
0 20 116
0 20 116
0 20 116
0 20 116
0 20 116
0 20 116
0 20 116
0 20 116
4 20 116
4 18 116
0 13 115
0 13 115
1 15 115
5 20 116
3 20 116
0 20 116
0 21 116
0 20 116
0 20 116
0 20 116
0 20 116
0 20 116
0 20 116
0 20 116
0 21 117
0 21 118
2 20 119
0 15 119
0 15 118
4 16 119
12 22 119
8 25 117
6 25 117
0 20 116
0 20 116
0 20 116
0 20 116
0 20 116
0 20 116
2 16 115
3 16 115
0 18 116
0 20 116
0 21 118
0 21 119
0 22 119
11 28 120
13 29 121
9 26 120
0 18 119
3 15 118
2 20 119
4 25 120
5 23 119
6 26 120
5 26 120
12 28 120
13 32 122
27 30 120
19 38 136
82 127 149
116 146 101
128 147 101
118 140 81
122 141 93
119 139 84
126 141 95
135 146 103
125 144 90
122 145 87
126 144 82
126 142 79
122 138 75
121 140 78
121 143 79
113 136 74
108 129 68
107 129 69
102 125 61
94 119 46
94 119 41
96 120 47
91 116 42
83 110 16
88 114 41
96 119 51
94 118 49
96 119 47
93 119 47
91 118 37
87 116 35
89 118 37
107 128 63
128 139 83
130 142 89
120 139 82
103 131 66
100 129 62
92 122 43
85 116 30
80 112 28
88 116 38
91 118 54
87 116 45
89 120 43
89 119 36
87 116 58
91 117 36
87 134 94
55 131 160
27 57 138
8 35 125
17 29 121
0 27 115
0 25 116
12 16 116
5 5 113
0 0 113
0 0 113
0 0 113
0 0 113
0 0 113
0 0 113
0 0 113
0 0 113
0 0 113
0 0 113
0 0 113
0 0 113
2 3 113
3 3 113
0 0 113
0 0 114
0 0 115
10 11 116
13 14 116
4 20 116
0 20 116
0 20 116
0 14 115
164 174 204
221 235 255
221 235 255
221 235 255
221 235 255
221 235 255
221 235 255
221 235 255
221 235 255
221 235 255
221 235 255
221 235 255
221 235 255
221 235 255
221 235 255
221 235 255
221 235 255
221 235 255
221 235 255
221 235 255
221 235 255
221 235 255
221 235 255
221 235 255
221 235 255
221 235 255
221 235 255
221 235 255
221 235 255
221 235 255
221 235 255
221 235 255
221 235 255
221 235 255
221 235 255
221 235 255
221 235 255
221 235 255
221 235 255
221 235 255
221 235 255
221 235 255
221 235 255
221 235 255
221 235 255
221 235 255
221 235 255
221 235 255
221 235 255
221 235 255
221 235 255
221 235 255
221 235 255
221 235 255
221 235 255
221 235 255
221 235 255
221 235 255
221 235 255
221 235 255
221 235 255
221 235 255
221 235 255
221 235 255
221 235 255
221 235 255
221 235 255
221 235 255
221 235 255
221 235 255
221 235 255
221 235 255
221 235 255
221 235 255
221 235 255
221 235 255
221 235 255
221 235 255
221 235 255
221 235 255
221 235 255
221 235 255
221 235 255
221 235 255
221 235 255
221 235 255
221 235 255
221 235 255
221 235 255
221 235 255
221 235 255
221 235 255
221 235 255
221 235 255
221 235 255
221 235 255
221 235 255
221 235 255
221 235 255
221 235 255
221 235 255
221 235 255
221 235 255
221 235 255
221 235 255
221 235 255
221 235 255
221 235 255
221 235 255
221 235 255
221 235 255
221 235 255
221 235 255
221 235 255
221 235 255
221 235 255
221 235 255
221 235 255
221 235 255
221 235 255
221 235 255
221 235 255
221 235 255
221 235 255
221 235 255
221 235 255
221 235 255
221 235 255
221 235 255
221 235 255
221 235 255
221 235 255
221 235 255
221 235 255
221 235 255
221 235 255
221 235 255
221 235 255
221 235 255
221 235 255
221 235 255
221 235 255
221 235 255
221 235 255
221 235 255
221 235 255
221 235 255
221 235 255
221 235 255
221 235 255
221 235 255
221 235 255
221 235 255
221 235 255
221 235 255
221 235 255
221 235 255
221 235 255
221 235 255
221 235 255
221 235 255
221 235 255
221 235 255
221 235 255
221 235 255
221 235 255
221 235 255
221 235 255
221 235 255
221 235 255
221 235 255
221 235 255
221 235 255
221 235 255
221 235 255
221 235 255
221 235 255
221 235 255
221 235 255
221 235 255
221 235 255
221 235 255
221 235 255
221 235 255
221 235 255
121 130 170
0 20 116
0 20 116
0 20 116
0 20 116
0 17 116
0 17 116
0 20 116
0 20 116
0 20 116
0 21 116
0 20 116
0 20 116
0 20 116
0 20 116
0 20 116
0 20 116
0 20 116
0 20 116
0 20 116
0 20 116
0 20 116
0 20 116
0 20 116
0 20 116
0 20 116
0 20 116
0 20 116
0 20 116
0 20 116
0 20 116
0 20 116
0 20 116
0 20 116
0 20 116
0 20 116
0 16 116
0 0 115
0 0 115
0 11 115
0 0 115
0 0 115
0 0 115
0 0 115
0 16 116
0 18 116
0 19 116
0 19 116
0 20 116
3 12 116
3 3 115
4 4 115
13 14 116
13 14 116
9 17 116
0 20 116
0 20 116
0 20 116
0 20 116
0 20 116
0 20 116
0 20 116
0 20 116
0 20 116
0 20 116
0 20 116
0 20 116
0 20 116
0 20 116
0 20 116
0 20 116
0 20 116
0 20 116
0 20 116
0 20 116
0 20 116
0 20 116
0 20 116
0 21 116
0 20 116
0 20 116
0 20 116
0 20 116
0 20 116
0 20 116
0 18 116
0 14 115
0 20 116
0 20 116
0 20 116
0 20 116
0 20 116
0 20 116
0 20 116
0 20 116
0 18 116
0 19 116
2 20 116
6 23 117
6 26 120
5 27 120
10 30 122
0 28 122
0 27 121
8 26 120
13 22 119
14 24 117
19 26 118
0 20 116
0 20 116
0 20 116
0 20 116
0 20 116
0 20 116
0 21 117
0 22 117
0 23 118
0 23 120
0 28 121
0 29 123
0 29 123
5 34 124
6 34 124
0 32 123
0 28 121
12 23 120
5 18 119
0 22 119
0 21 118
0 20 118
0 23 119
0 25 119
0 23 121
13 18 118
10 41 129
57 102 149
112 141 116
120 143 72
123 139 107
121 137 87
121 138 85
125 142 103
126 144 100
121 143 82
120 142 82
122 139 79
121 138 80
116 136 73
108 132 56
99 127 39
102 129 51
98 125 53
100 127 61
95 121 49
94 118 46
101 122 53
94 118 41
87 113 27
93 118 46
91 117 45
89 113 42
97 122 56
93 118 37
91 117 39
92 119 35
94 123 39
99 124 44
120 136 79
135 144 96
141 149 107
130 142 95
105 127 62
105 131 70
97 125 55
88 117 37
80 111 18
87 115 37
89 115 47
91 119 22
88 117 19
87 116 39
89 117 49
96 117 44
93 115 53
70 133 123
26 81 151
16 62 140
27 37 128
18 17 115
0 20 114
9 15 116
3 3 113
0 0 113
0 0 113
0 0 113
0 0 113
0 0 113
0 0 113
0 0 113
0 0 113
0 0 113
0 0 113
0 0 114
0 0 115
8 9 116
12 13 116
2 2 115
0 0 115
0 0 115
9 10 116
13 14 116
5 19 116
0 20 116
0 20 116
0 17 116
138 147 183
221 235 255
221 235 255
221 235 255
221 235 255
221 235 255
221 235 255
221 235 255
221 235 255
221 235 255
221 235 255
221 235 255
221 235 255
221 235 255
221 235 255
221 235 255
221 235 255
221 235 255
221 235 255
221 235 255
221 235 255
221 235 255
221 235 255
221 235 255
221 235 255
221 235 255
221 235 255
221 235 255
221 235 255
221 235 255
221 235 255
221 235 255
221 235 255
221 235 255
221 235 255
221 235 255
221 235 255
221 235 255
221 235 255
221 235 255
221 235 255
221 235 255
221 235 255
221 235 255
221 235 255
221 235 255
221 235 255
221 235 255
221 235 255
221 235 255
221 235 255
221 235 255
221 235 255
221 235 255
221 235 255
221 235 255
221 235 255
221 235 255
221 235 255
221 235 255
221 235 255
221 235 255
221 235 255
221 235 255
221 235 255
221 235 255
221 235 255
221 235 255
221 235 255
221 235 255
221 235 255
221 235 255
221 235 255
221 235 255
221 235 255
221 235 255
221 235 255
221 235 255
221 235 255
221 235 255
221 235 255
221 235 255
221 235 255
221 235 255
221 235 255
221 235 255
221 235 255
221 235 255
221 235 255
221 235 255
221 235 255
221 235 255
221 235 255
221 235 255
221 235 255
221 235 255
221 235 255
221 235 255
221 235 255
221 235 255
221 235 255
221 235 255
221 235 255
221 235 255
221 235 255
221 235 255
221 235 255
221 235 255
221 235 255
221 235 255
221 235 255
221 235 255
221 235 255
221 235 255
221 235 255
221 235 255
221 235 255
221 235 255
221 235 255
221 235 255
221 235 255
221 235 255
221 235 255
221 235 255
221 235 255
221 235 255
221 235 255
221 235 255
221 235 255
221 235 255
221 235 255
221 235 255
221 235 255
221 235 255
221 235 255
221 235 255
221 235 255
221 235 255
221 235 255
221 235 255
221 235 255
221 235 255
221 235 255
221 235 255
221 235 255
221 235 255
221 235 255
221 235 255
221 235 255
221 235 255
221 235 255
221 235 255
221 235 255
221 235 255
221 235 255
221 235 255
221 235 255
221 235 255
221 235 255
221 235 255
221 235 255
221 235 255
221 235 255
221 235 255
221 235 255
221 235 255
221 235 255
221 235 255
221 235 255
221 235 255
221 235 255
221 235 255
221 235 255
221 235 255
221 235 255
221 235 255
221 235 255
221 235 255
221 235 255
221 235 255
221 235 255
221 235 255
221 235 255
221 235 255
221 235 255
141 151 186
0 20 116
0 20 116
0 20 116
0 21 116
0 19 116
0 19 116
0 20 116
0 20 116
0 20 116
0 20 116
0 20 116
0 20 116
0 20 116
0 20 116
0 20 116
0 20 116
0 20 116
0 20 116
0 20 116
0 20 116
0 21 116
0 20 116
0 20 116
0 20 116
0 20 116
0 17 115
0 4 113
6 7 113
12 13 114
10 17 115
0 20 116
0 19 116
0 20 116
0 20 116
0 20 116
0 17 116
0 0 115
0 2 115
0 10 114
0 0 113
0 0 113
0 0 113
0 0 113
0 0 114
0 0 115
0 0 115
0 0 115
0 0 115
0 0 115
0 0 115
3 4 115
13 14 116
13 14 116
10 17 116
0 20 116
0 20 116
0 20 116
0 20 116
0 20 116
0 20 116
0 20 116
0 20 116
0 20 116
0 20 116
0 20 116
0 20 116
0 20 116
0 20 116
0 20 116
0 20 116
0 20 116
0 20 116
0 20 116
0 20 116
0 20 116
0 20 116
0 20 116
0 20 116
0 20 116
0 20 116
0 20 116
0 20 116
0 20 116
0 20 116
0 19 116
0 18 116
0 20 116
0 20 116
0 20 116
0 20 116
0 20 116
0 20 116
0 20 116
0 20 116
0 18 116
0 17 116
3 21 116
10 26 119
11 28 120
6 31 123
5 34 124
10 38 125
4 33 124
13 28 121
12 21 119
13 20 117
16 17 117
0 20 116
0 20 116
0 20 116
0 20 116
0 20 116
0 20 116
7 25 119
8 28 120
0 30 123
0 33 124
9 37 125
7 39 126
0 37 127
8 41 128
12 43 128
0 39 126
11 36 125
19 33 124
13 24 121
0 25 119
0 23 119
0 23 119
0 24 119
0 25 119
0 28 119
9 31 123
35 64 147
85 123 124
120 146 101
112 137 74
121 134 99
123 138 92
130 144 97
120 137 96
109 134 71
113 139 69
119 138 79
118 138 79
117 139 79
108 132 60
98 123 33
98 123 40
103 126 54
99 123 53
99 125 60
93 119 50
98 123 58
100 125 59
91 116 26
88 115 30
90 118 44
90 116 44
80 106 23
92 118 49
93 119 51
98 123 57
93 120 41
95 124 41
99 128 34
114 136 67
144 152 108
145 151 113
122 135 84
103 128 64
102 128 68
100 126 59
96 122 48
85 113 26
90 116 38
91 116 43
91 116 47
95 121 46
90 116 46
88 118 54
93 116 56
99 120 34
92 140 130
43 146 185
39 129 177
8 64 138
21 20 118
16 18 115
1 8 115
0 0 113
0 0 113
0 0 113
0 0 113
0 0 113
0 0 113
0 0 113
0 0 113
0 0 113
0 0 113
0 0 113
0 7 114
0 12 115
6 16 116
12 15 116
8 8 115
0 0 115
0 0 115
9 10 116
13 14 116
7 19 116
0 20 116
0 20 116
0 15 115
134 143 180
221 235 255
221 235 255
221 235 255
221 235 255
221 235 255
221 235 255
221 235 255
221 235 255
221 235 255
221 235 255
221 235 255
221 235 255
221 235 255
221 235 255
221 235 255
221 235 255
221 235 255
221 235 255
221 235 255
221 235 255
221 235 255
221 235 255
221 235 255
221 235 255
221 235 255
221 235 255
221 235 255
221 235 255
221 235 255
221 235 255
221 235 255
221 235 255
221 235 255
221 235 255
221 235 255
221 235 255
221 235 255
221 235 255
221 235 255
221 235 255
221 235 255
221 235 255
221 235 255
221 235 255
221 235 255
221 235 255
221 235 255
221 235 255
221 235 255
221 235 255
221 235 255
221 235 255
221 235 255
221 235 255
221 235 255
221 235 255
221 235 255
221 235 255
221 235 255
221 235 255
221 235 255
221 235 255
221 235 255
221 235 255
221 235 255
221 235 255
221 235 255
221 235 255
221 235 255
221 235 255
221 235 255
221 235 255
221 235 255
221 235 255
221 235 255
221 235 255
221 235 255
221 235 255
221 235 255
221 235 255
221 235 255
221 235 255
221 235 255
221 235 255
221 235 255
221 235 255
221 235 255
221 235 255
221 235 255
221 235 255
221 235 255
221 235 255
221 235 255
221 235 255
221 235 255
221 235 255
221 235 255
221 235 255
221 235 255
221 235 255
221 235 255
221 235 255
221 235 255
221 235 255
221 235 255
221 235 255
221 235 255
221 235 255
221 235 255
221 235 255
221 235 255
221 235 255
221 235 255
221 235 255
221 235 255
221 235 255
221 235 255
221 235 255
221 235 255
221 235 255
221 235 255
221 235 255
221 235 255
221 235 255
221 235 255
221 235 255
221 235 255
221 235 255
221 235 255
221 235 255
221 235 255
221 235 255
221 235 255
221 235 255
221 235 255
221 235 255
221 235 255
221 235 255
221 235 255
221 235 255
221 235 255
221 235 255
221 235 255
221 235 255
221 235 255
221 235 255
221 235 255
221 235 255
221 235 255
221 235 255
221 235 255
221 235 255
221 235 255
221 235 255
221 235 255
221 235 255
221 235 255
221 235 255
221 235 255
221 235 255
221 235 255
221 235 255
221 235 255
221 235 255
221 235 255
221 235 255
221 235 255
221 235 255
221 235 255
221 235 255
221 235 255
221 235 255
221 235 255
221 235 255
221 235 255
221 235 255
221 235 255
221 235 255
221 235 255
221 235 255
221 235 255
221 235 255
221 235 255
221 235 255
110 119 162
0 20 116
3 21 116
4 21 116
7 22 117
9 23 117
0 20 116
0 20 116
0 20 116
0 20 116
0 20 116
0 20 116
0 20 116
0 20 116
0 20 116
0 20 116
7 19 116
7 18 116
0 15 116
0 19 116
0 20 116
0 20 116
1 20 116
8 18 116
0 16 116
0 15 116
0 11 114
0 0 113
0 0 113
5 5 113
10 13 114
9 18 116
9 15 116
8 16 116
0 13 116
0 15 115
0 11 114
0 0 114
0 3 115
0 7 114
0 0 114
0 0 114
0 0 114
0 0 114
8 8 115
10 11 116
10 10 116
10 11 116
11 12 116
5 5 115
0 0 115
2 3 115
8 8 116
13 14 116
9 18 116
0 20 116
0 20 116
0 20 116
0 20 116
0 20 116
0 21 116
0 21 116
0 20 116
0 20 116
0 20 116
0 20 116
0 20 116
0 20 116
0 20 116
0 20 116
0 20 116
0 20 116
0 20 116
0 20 116
0 20 116
0 20 116
0 20 116
0 20 116
0 20 116
0 20 116
0 20 116
0 20 116
0 20 116
0 20 116
0 20 116
0 20 116
0 20 116
0 20 116
0 20 116
0 20 116
0 20 116
0 20 116
0 20 116
0 20 116
0 20 116
0 20 115
0 18 115
11 20 119
10 23 120
6 26 120
2 27 121
6 31 121
15 42 126
14 41 126
7 30 122
4 24 119
5 23 117
6 20 116
0 20 116
0 20 116
0 17 116
0 16 115
0 20 116
0 20 116
5 19 119
12 29 122
0 32 124
8 35 125
13 41 127
16 42 127
7 39 127
14 42 128
21 46 129
17 43 128
10 39 126
11 38 126
17 40 125
13 34 125
15 33 126
21 28 127
21 25 123
32 21 135
21 28 117
61 88 132
86 122 139
111 141 108
114 136 71
108 126 67
128 140 97
127 142 104
126 142 99
110 131 74
98 125 47
99 126 44
102 127 52
108 133 65
108 133 62
101 127 49
100 125 41
99 124 43
100 124 50
97 121 44
97 122 49
96 122 50
96 122 47
94 120 42
89 118 31
90 118 33
89 117 28
86 114 28
82 109 18
85 113 38
92 119 55
99 122 60
95 119 44
95 122 42
97 127 41
110 137 58
127 146 95
122 135 77
125 140 89
115 135 78
102 126 62
97 122 54
92 117 38
90 115 33
87 111 28
91 114 41
89 114 49
94 120 53
90 117 42
91 119 43
98 120 49
90 120 32
86 130 89
49 167 196
55 175 204
22 114 165
19 54 136
7 15 116
0 15 114
4 10 113
6 7 113
0 2 113
0 0 113
0 0 113
0 0 113
0 0 113
0 0 113
0 0 113
0 0 113
0 0 113
0 7 113
0 12 114
0 16 115
10 15 116
7 8 115
0 0 115
0 0 115
8 9 115
12 13 116
7 18 116
1 20 116
2 20 116
0 7 115
127 135 174
221 235 255
221 235 255
221 235 255
221 235 255
221 235 255
221 235 255
221 235 255
221 235 255
221 235 255
221 235 255
221 235 255
221 235 255
221 235 255
221 235 255
221 235 255
221 235 255
221 235 255
221 235 255
221 235 255
221 235 255
221 235 255
221 235 255
221 235 255
221 235 255
221 235 255
221 235 255
221 235 255
221 235 255
221 235 255
221 235 255
221 235 255
221 235 255
221 235 255
221 235 255
221 235 255
221 235 255
221 235 255
221 235 255
221 235 255
221 235 255
221 235 255
221 235 255
221 235 255
221 235 255
221 235 255
221 235 255
221 235 255
221 235 255
221 235 255
221 235 255
221 235 255
221 235 255
221 235 255
221 235 255
221 235 255
221 235 255
221 235 255
221 235 255
221 235 255
221 235 255
221 235 255
221 235 255
221 235 255
221 235 255
221 235 255
221 235 255
221 235 255
221 235 255
221 235 255
221 235 255
221 235 255
221 235 255
221 235 255
221 235 255
221 235 255
221 235 255
221 235 255
221 235 255
221 235 255
221 235 255
221 235 255
221 235 255
221 235 255
221 235 255
221 235 255
221 235 255
221 235 255
221 235 255
221 235 255
221 235 255
221 235 255
221 235 255
221 235 255
221 235 255
221 235 255
221 235 255
221 235 255
221 235 255
221 235 255
221 235 255
221 235 255
221 235 255
221 235 255
221 235 255
221 235 255
221 235 255
221 235 255
221 235 255
221 235 255
221 235 255
221 235 255
221 235 255
221 235 255
221 235 255
221 235 255
221 235 255
221 235 255
221 235 255
221 235 255
221 235 255
221 235 255
221 235 255
221 235 255
221 235 255
221 235 255
221 235 255
221 235 255
221 235 255
221 235 255
221 235 255
221 235 255
221 235 255
221 235 255
221 235 255
221 235 255
221 235 255
221 235 255
221 235 255
221 235 255
221 235 255
221 235 255
221 235 255
221 235 255
221 235 255
221 235 255
221 235 255
221 235 255
221 235 255
221 235 255
221 235 255
221 235 255
221 235 255
221 235 255
221 235 255
221 235 255
221 235 255
221 235 255
221 235 255
221 235 255
221 235 255
221 235 255
221 235 255
221 235 255
221 235 255
221 235 255
221 235 255
221 235 255
221 235 255
221 235 255
221 235 255
221 235 255
221 235 255
221 235 255
221 235 255
221 235 255
221 235 255
221 235 255
221 235 255
221 235 255
221 235 255
221 235 255
221 235 255
221 235 255
221 235 255
106 114 159
0 20 116
0 20 116
0 20 116
0 20 116
0 20 116
0 20 116
0 20 116
0 20 116
0 20 116
0 20 116
0 20 116
0 20 116
0 20 116
0 20 116
0 20 116
12 15 116
12 13 116
0 0 115
0 15 116
0 20 116
0 20 116
4 20 116
13 14 116
11 12 116
3 4 115
7 7 114
11 12 114
11 12 114
11 12 114
12 13 115
12 13 116
6 6 115
6 6 115
0 0 115
0 0 113
0 0 113
0 0 114
0 0 115
7 8 115
12 13 116
12 13 116
12 14 116
12 13 116
13 15 116
13 15 116
13 15 116
13 15 116
12 15 116
7 9 115
12 14 116
11 13 116
11 15 116
12 15 116
9 18 116
0 20 116
0 20 116
0 20 116
0 20 116
0 20 116
0 20 116
0 20 116
0 20 116
0 20 116
0 20 116
0 20 116
0 20 116
0 20 116
0 20 116
0 20 116
0 20 116
0 20 116
0 20 116
0 20 116
0 20 116
0 20 116
0 20 116
0 20 116
0 20 116
0 20 116
0 20 116
0 20 116
0 20 116
0 20 116
0 20 116
0 20 116
0 20 116
0 20 116
0 20 116
0 20 116
0 20 116
0 20 116
0 20 116
0 21 116
0 20 116
0 20 115
0 20 116
12 21 119
10 24 120
6 26 120
5 26 120
4 26 119
5 30 123
7 33 124
6 31 121
11 28 120
11 28 120
2 19 117
10 21 119
0 17 119
0 17 119
2 16 118
9 19 119
13 23 120
8 26 121
17 34 124
12 35 125
4 36 125
13 41 127
16 43 128
12 40 128
16 41 129
17 42 130
13 40 129
0 38 128
4 37 128
12 44 124
11 44 130
14 43 125
14 46 126
20 51 123
6 43 118
59 78 133
120 151 139
125 159 115
109 137 99
111 129 60
129 140 105
126 142 99
123 140 101
122 141 95
113 136 75
105 131 60
105 131 63
101 126 46
104 130 55
99 125 40
95 122 27
93 120 20
93 120 30
96 122 47
91 118 35
87 114 19
95 121 43
96 122 48
97 124 53
96 123 53
88 116 30
89 116 30
89 116 33
83 110 19
82 110 25
89 115 40
94 118 48
96 122 49
95 122 40
97 125 40
100 128 39
109 133 59
107 128 55
119 136 81
112 129 67
104 127 66
100 124 56
89 114 24
91 115 27
89 112 26
94 116 44
91 117 40
94 120 46
90 117 42
89 120 51
94 120 41
89 119 62
94 122 53
77 170 177
84 205 215
52 158 192
8 81 149
15 24 123
0 15 114
9 13 112
11 13 114
0 5 113
0 0 113
0 0 113
0 0 113
0 0 113
0 0 113
0 0 113
0 0 113
0 0 113
0 0 113
0 0 113
0 0 113
0 0 113
0 0 113
0 0 113
0 0 113
0 0 113
0 0 113
0 0 113
6 6 113
13 14 114
0 0 114
110 117 161
221 235 255
221 235 255
221 235 255
221 235 255
221 235 255
221 235 255
221 235 255
221 235 255
221 235 255
221 235 255
221 235 255
221 235 255
221 235 255
221 235 255
221 235 255
221 235 255
221 235 255
221 235 255
221 235 255
221 235 255
221 235 255
221 235 255
221 235 255
221 235 255
221 235 255
221 235 255
221 235 255
221 235 255
221 235 255
221 235 255
221 235 255
221 235 255
221 235 255
221 235 255
221 235 255
221 235 255
221 235 255
221 235 255
221 235 255
221 235 255
221 235 255
221 235 255
221 235 255
221 235 255
221 235 255
221 235 255
221 235 255
221 235 255
221 235 255
221 235 255
221 235 255
221 235 255
221 235 255
221 235 255
221 235 255
221 235 255
221 235 255
221 235 255
221 235 255
221 235 255
221 235 255
221 235 255
221 235 255
221 235 255
221 235 255
221 235 255
221 235 255
221 235 255
221 235 255
221 235 255
221 235 255
221 235 255
221 235 255
221 235 255
221 235 255
221 235 255
221 235 255
221 235 255
221 235 255
221 235 255
221 235 255
221 235 255
221 235 255
221 235 255
221 235 255
221 235 255
221 235 255
221 235 255
221 235 255
221 235 255
221 235 255
221 235 255
221 235 255
221 235 255
221 235 255
221 235 255
221 235 255
221 235 255
221 235 255
221 235 255
221 235 255
221 235 255
221 235 255
221 235 255
221 235 255
221 235 255
221 235 255
221 235 255
221 235 255
221 235 255
221 235 255
221 235 255
221 235 255
221 235 255
221 235 255
221 235 255
221 235 255
221 235 255
221 235 255
221 235 255
221 235 255
221 235 255
221 235 255
221 235 255
221 235 255
221 235 255
221 235 255
221 235 255
221 235 255
221 235 255
221 235 255
221 235 255
221 235 255
221 235 255
221 235 255
221 235 255
221 235 255
221 235 255
221 235 255
221 235 255
221 235 255
221 235 255
221 235 255
221 235 255
221 235 255
221 235 255
221 235 255
221 235 255
221 235 255
221 235 255
221 235 255
221 235 255
221 235 255
221 235 255
221 235 255
221 235 255
221 235 255
221 235 255
221 235 255
221 235 255
221 235 255
221 235 255
221 235 255
221 235 255
221 235 255
221 235 255
221 235 255
221 235 255
221 235 255
221 235 255
221 235 255
221 235 255
221 235 255
221 235 255
221 235 255
221 235 255
221 235 255
221 235 255
221 235 255
221 235 255
221 235 255
221 235 255
221 235 255
221 235 255
112 121 164
0 20 116
0 20 116
0 20 116
0 20 116
0 21 116
0 20 116
0 20 116
0 20 116
0 20 116
0 20 116
0 20 116
0 20 116
0 20 116
0 20 116
0 20 116
4 20 116
4 19 116
0 15 115
0 18 116
0 21 116
0 20 116
0 20 116
2 20 116
3 20 116
0 20 116
1 20 116
0 20 116
1 21 116
1 20 116
1 16 116
0 0 115
0 0 115
0 0 115
0 0 114
0 0 113
0 0 113
4 4 115
7 7 115
4 16 116
0 20 116
0 20 116
0 20 116
0 20 116
0 20 116
0 20 116
0 20 116
0 20 116
0 20 116
0 20 116
0 21 116
0 20 116
0 20 116
0 20 116
0 20 116
0 20 116
0 20 116
0 20 116
0 20 116
0 20 116
0 20 116
0 20 116
0 20 116
0 20 116
0 20 116
0 20 116
0 20 116
0 20 116
0 20 116
0 20 116
0 21 116
0 20 116
0 20 116
0 20 116
0 20 116
0 20 116
0 20 116
0 20 116
0 20 116
0 20 116
0 20 116
0 21 116
0 20 116
0 20 116
0 20 116
0 20 116
0 20 116
0 21 116
0 20 116
0 19 117
0 18 117
0 18 117
0 18 117
0 18 117
0 18 117
6 20 117
8 22 117
9 23 119
8 27 120
13 29 121
13 29 121
12 28 120
9 26 121
18 32 123
19 32 122
20 33 123
16 32 122
3 25 120
7 26 120
0 25 119
7 26 120
9 27 120
14 29 121
16 31 121
11 33 124
18 38 127
18 39 127
6 36 125
8 40 126
0 43 128
0 43 129
0 44 130
0 42 129
5 42 129
10 44 130
9 45 130
16 44 129
25 39 137
28 44 135
20 51 131
17 47 133
0 47 135
83 110 149
125 155 132
126 151 110
111 136 94
121 136 81
131 141 105
118 137 89
119 139 92
112 135 81
115 140 82
106 132 57
101 127 48
94 120 28
101 127 42
100 126 37
99 125 35
94 121 26
97 122 37
97 123 50
88 115 26
87 113 13
89 116 30
94 121 47
96 123 54
98 124 64
90 118 46
82 110 16
88 113 31
92 117 42
95 120 54
93 119 49
89 119 41
92 122 39
90 119 19
95 122 36
96 123 37
93 123 37
94 122 38
99 124 48
97 121 45
98 123 58
95 120 52
89 114 33
91 116 39
98 121 51
107 128 62
93 118 29
89 116 32
91 116 42
93 119 51
95 121 40
88 117 50
93 116 37
95 133 101
61 169 184
71 198 214
21 117 175
23 54 130
9 16 118
17 7 112
6 2 113
0 1 113
0 0 113
0 0 113
0 0 113
0 0 113
0 0 113
0 0 113
0 0 113
0 0 113
0 0 113
0 0 113
0 0 113
0 0 113
0 0 113
0 0 113
0 0 113
0 0 113
0 0 113
0 0 113
2 2 113
7 7 113
0 0 113
96 102 151
221 235 255
221 235 255
221 235 255
221 235 255
221 235 255
221 235 255
221 235 255
221 235 255
221 235 255
221 235 255
221 235 255
221 235 255
221 235 255
221 235 255
221 235 255
221 235 255
221 235 255
221 235 255
221 235 255
221 235 255
221 235 255
221 235 255
221 235 255
221 235 255
221 235 255
221 235 255
221 235 255
221 235 255
221 235 255
221 235 255
221 235 255
221 235 255
221 235 255
221 235 255
221 235 255
221 235 255
221 235 255
221 235 255
221 235 255
221 235 255
221 235 255
221 235 255
221 235 255
221 235 255
221 235 255
221 235 255
221 235 255
221 235 255
221 235 255
221 235 255
221 235 255
221 235 255
221 235 255
221 235 255
221 235 255
221 235 255
221 235 255
221 235 255
221 235 255
221 235 255
221 235 255
221 235 255
221 235 255
221 235 255
221 235 255
221 235 255
221 235 255
221 235 255
221 235 255
221 235 255
221 235 255
221 235 255
221 235 255
221 235 255
221 235 255
221 235 255
221 235 255
221 235 255
221 235 255
221 235 255
221 235 255
221 235 255
221 235 255
221 235 255
221 235 255
221 235 255
221 235 255
221 235 255
221 235 255
221 235 255
221 235 255
221 235 255
221 235 255
221 235 255
221 235 255
221 235 255
221 235 255
221 235 255
221 235 255
221 235 255
221 235 255
221 235 255
221 235 255
221 235 255
221 235 255
221 235 255
221 235 255
221 235 255
221 235 255
221 235 255
221 235 255
221 235 255
221 235 255
221 235 255
221 235 255
221 235 255
221 235 255
221 235 255
221 235 255
221 235 255
221 235 255
221 235 255
221 235 255
221 235 255
221 235 255
221 235 255
221 235 255
221 235 255
221 235 255
221 235 255
221 235 255
221 235 255
221 235 255
221 235 255
221 235 255
221 235 255
221 235 255
221 235 255
221 235 255
221 235 255
221 235 255
221 235 255
221 235 255
221 235 255
221 235 255
221 235 255
221 235 255
221 235 255
221 235 255
221 235 255
221 235 255
221 235 255
221 235 255
221 235 255
221 235 255
221 235 255
221 235 255
221 235 255
221 235 255
221 235 255
221 235 255
221 235 255
221 235 255
221 235 255
221 235 255
221 235 255
221 235 255
221 235 255
221 235 255
221 235 255
221 235 255
221 235 255
221 235 255
221 235 255
221 235 255
221 235 255
221 235 255
221 235 255
221 235 255
221 235 255
221 235 255
221 235 255
221 235 255
221 235 255
106 114 159
0 20 116
0 20 116
0 20 116
0 20 116
0 20 116
0 20 116
0 20 116
0 20 116
0 20 116
0 20 116
0 20 116
0 20 116
0 20 116
0 20 116
0 20 116
0 20 116
0 20 116
0 19 116
0 19 116
0 20 116
0 20 116
0 20 116
0 20 116
0 20 116
0 20 116
0 20 116
0 20 116
0 20 116
0 20 116
6 18 116
10 10 116
6 7 115
0 0 115
0 3 115
0 10 114
0 11 115
4 16 116
9 18 116
5 19 116
0 20 116
0 20 116
0 20 116
0 20 116
0 20 116
0 20 116
0 20 116
0 20 116
0 20 116
0 20 116
0 20 116
0 20 116
0 20 116
0 18 116
0 19 116
0 20 116
0 20 116
0 20 116
0 20 116
0 20 116
0 21 116
0 20 116
0 20 116
0 20 116
0 20 116
0 20 116
0 20 116
0 20 116
0 20 116
0 21 116
0 21 116
0 20 116
0 20 116
0 20 116
0 20 116
0 20 116
0 20 116
0 20 116
0 20 116
0 20 116
0 20 116
0 20 116
0 20 116
0 20 116
0 20 116
0 20 116
0 20 116
0 20 116
0 20 116
0 17 118
0 14 118
0 14 118
0 14 118
0 14 118
0 14 118
5 21 119
8 25 119
10 27 120
11 28 120
13 29 121
9 31 122
9 31 122
17 31 122
19 32 123
13 33 124
15 33 124
7 32 123
0 32 123
6 29 122
0 28 121
6 29 122
8 29 122
10 30 122
9 33 123
16 36 125
21 43 128
16 41 127
0 38 125
0 41 128
0 44 130
0 45 130
0 47 130
3 47 130
11 48 131
12 49 131
10 47 130
11 45 129
19 58 134
11 49 134
23 66 143
19 74 146
38 82 149
115 151 144
127 157 110
119 144 89
125 139 93
133 145 113
122 137 98
116 136 89
115 137 85
112 136 77
106 132 61
103 129 50
97 122 36
95 120 26
98 123 34
100 126 45
99 126 47
98 124 39
93 120 37
93 120 34
88 116 20
88 116 25
90 118 26
90 118 33
92 121 40
95 120 60
90 117 52
83 110 24
88 114 36
91 117 44
90 115 41
89 115 33
88 120 37
91 122 44
91 120 27
95 120 38
95 119 30
88 116 28
88 117 29
87 117 28
87 116 25
90 116 38
94 119 47
92 117 43
90 116 38
96 119 41
103 125 52
93 118 28
90 116 25
90 115 38
92 116 31
96 116 30
91 117 16
92 120 50
97 120 56
67 153 154
55 175 203
51 149 188
23 81 149
6 29 123
18 11 115
9 0 112
4 0 113
0 0 113
0 0 113
0 0 113
0 0 113
0 0 113
0 0 113
0 0 113
0 0 113
0 0 113
0 0 113
0 0 113
0 0 113
0 0 113
0 0 113
0 0 113
0 0 113
0 0 113
0 0 113
0 0 113
0 0 113
0 0 113
103 110 156
221 235 255
221 235 255
221 235 255
221 235 255
221 235 255
221 235 255
221 235 255
221 235 255
221 235 255
221 235 255
221 235 255
221 235 255
221 235 255
221 235 255
221 235 255
221 235 255
221 235 255
221 235 255
221 235 255
221 235 255
221 235 255
221 235 255
221 235 255
221 235 255
221 235 255
221 235 255
221 235 255
221 235 255
221 235 255
221 235 255
221 235 255
221 235 255
221 235 255
221 235 255
221 235 255
221 235 255
221 235 255
221 235 255
221 235 255
221 235 255
221 235 255
221 235 255
221 235 255
221 235 255
221 235 255
221 235 255
221 235 255
221 235 255
221 235 255
221 235 255
221 235 255
221 235 255
221 235 255
221 235 255
221 235 255
221 235 255
221 235 255
221 235 255
221 235 255
221 235 255
221 235 255
221 235 255
221 235 255
221 235 255
221 235 255
221 235 255
221 235 255
221 235 255
221 235 255
221 235 255
221 235 255
221 235 255
221 235 255
221 235 255
221 235 255
221 235 255
221 235 255
221 235 255
221 235 255
221 235 255
221 235 255
221 235 255
221 235 255
221 235 255
221 235 255
221 235 255
221 235 255
221 235 255
221 235 255
221 235 255
221 235 255
221 235 255
221 235 255
221 235 255
221 235 255
221 235 255
221 235 255
221 235 255
221 235 255
221 235 255
221 235 255
221 235 255
221 235 255
221 235 255
221 235 255
221 235 255
221 235 255
221 235 255
221 235 255
221 235 255
221 235 255
221 235 255
221 235 255
221 235 255
221 235 255
221 235 255
221 235 255
221 235 255
221 235 255
221 235 255
221 235 255
221 235 255
221 235 255
221 235 255
221 235 255
221 235 255
221 235 255
221 235 255
221 235 255
221 235 255
221 235 255
221 235 255
221 235 255
221 235 255
221 235 255
221 235 255
221 235 255
221 235 255
221 235 255
221 235 255
221 235 255
221 235 255
221 235 255
221 235 255
221 235 255
221 235 255
221 235 255
221 235 255
221 235 255
221 235 255
221 235 255
221 235 255
221 235 255
221 235 255
221 235 255
221 235 255
221 235 255
221 235 255
221 235 255
221 235 255
221 235 255
221 235 255
221 235 255
221 235 255
221 235 255
221 235 255
221 235 255
221 235 255
221 235 255
221 235 255
221 235 255
221 235 255
221 235 255
221 235 255
221 235 255
221 235 255
221 235 255
221 235 255
221 235 255
221 235 255
221 235 255
221 235 255
221 235 255
221 235 255
99 107 154
0 20 116
0 20 116
0 20 116
0 20 116
0 20 116
0 20 116
0 20 116
0 20 116
0 21 116
0 20 116
0 20 116
0 20 116
0 20 116
0 20 116
0 20 116
0 20 116
0 20 116
0 20 116
0 20 116
0 20 116
0 20 116
0 18 116
0 15 118
0 17 118
0 16 118
0 19 117
0 20 116
0 20 116
0 20 116
7 19 116
13 14 116
13 14 116
12 13 116
11 14 116
0 19 116
0 19 116
0 20 116
0 17 117
0 16 118
0 15 118
0 15 118
0 16 118
0 16 118
0 16 118
0 16 118
0 15 118
0 15 118
0 16 118
0 16 118
0 16 118
0 16 118
0 16 118
0 15 118
0 18 118
0 21 118
0 21 118
0 21 118
0 20 118
0 21 118
0 24 119
0 24 119
0 24 119
0 24 119
0 25 119
0 23 118
0 21 118
0 21 118
0 21 118
0 21 118
0 21 118
0 21 118
0 21 118
0 21 118
0 20 118
0 21 118
0 21 118
0 20 118
0 21 118
0 21 118
0 20 118
0 21 118
0 21 118
4 21 117
2 21 116
3 21 116
2 21 116
2 21 116
4 21 116
2 23 118
0 24 119
0 24 119
0 23 119
0 24 119
0 24 119
8 26 120
12 28 120
13 29 121
13 29 121
9 33 121
2 33 123
5 34 124
7 37 124
8 36 124
12 36 125
3 33 124
0 29 123
2 32 123
0 30 123
0 29 123
0 29 123
0 29 123
0 31 123
0 33 124
6 37 125
18 43 128
14 43 127
0 41 128
0 43 129
0 46 130
0 47 130
10 50 131
12 50 132
10 50 131
3 47 130
0 43 128
3 47 129
5 63 147
40 78 155
54 88 153
108 142 158
99 143 111
115 154 111
124 145 113
121 141 86
145 153 129
141 155 117
103 129 58
103 123 63
111 133 80
104 128 63
107 132 66
95 122 36
95 121 38
92 116 18
97 121 35
97 121 40
98 123 40
96 122 41
92 119 37
87 115 14
84 114 12
91 119 27
85 115 17
80 112 8
83 114 14
85 114 47
82 110 34
85 112 41
92 117 53
84 111 33
81 109 12
82 111 8
84 115 25
86 115 29
83 111 12
89 113 27
97 117 39
91 116 29
91 118 35
90 118 41
86 114 28
89 115 35
91 116 42
89 115 38
86 112 25
87 112 15
92 117 27
91 117 27
89 116 29
88 114 31
88 114 45
83 113 20
87 117 43
101 119 40
99 123 39
61 149 168
47 163 195
51 161 191
12 99 161
5 50 133
10 21 119
10 10 114
11 0 113
0 0 113
0 0 113
0 0 113
0 0 113
0 0 113
0 0 113
0 0 113
0 0 113
0 0 113
0 0 113
0 0 113
0 0 113
0 0 113
0 0 113
0 0 113
0 0 113
0 0 113
0 0 113
0 0 113
0 0 113
0 0 114
88 94 146
221 235 255
221 235 255
221 235 255
221 235 255
221 235 255
221 235 255
221 235 255
221 235 255
221 235 255
221 235 255
221 235 255
221 235 255
221 235 255
221 235 255
221 235 255
221 235 255
221 235 255
221 235 255
221 235 255
221 235 255
221 235 255
221 235 255
221 235 255
221 235 255
221 235 255
221 235 255
221 235 255
221 235 255
221 235 255
221 235 255
221 235 255
221 235 255
221 235 255
221 235 255
221 235 255
221 235 255
221 235 255
221 235 255
221 235 255
221 235 255
221 235 255
221 235 255
221 235 255
221 235 255
221 235 255
221 235 255
221 235 255
221 235 255
221 235 255
221 235 255
221 235 255
221 235 255
221 235 255
221 235 255
221 235 255
221 235 255
221 235 255
221 235 255
221 235 255
221 235 255
221 235 255
221 235 255
221 235 255
221 235 255
221 235 255
221 235 255
221 235 255
221 235 255
221 235 255
221 235 255
221 235 255
221 235 255
221 235 255
221 235 255
221 235 255
221 235 255
221 235 255
221 235 255
221 235 255
221 235 255
221 235 255
221 235 255
221 235 255
221 235 255
221 235 255
221 235 255
221 235 255
221 235 255
221 235 255
221 235 255
221 235 255
221 235 255
221 235 255
221 235 255
221 235 255
221 235 255
221 235 255
221 235 255
221 235 255
221 235 255
221 235 255
221 235 255
221 235 255
221 235 255
221 235 255
221 235 255
221 235 255
221 235 255
221 235 255
221 235 255
221 235 255
221 235 255
221 235 255
221 235 255
221 235 255
221 235 255
221 235 255
221 235 255
221 235 255
221 235 255
221 235 255
221 235 255
221 235 255
221 235 255
221 235 255
221 235 255
221 235 255
221 235 255
221 235 255
221 235 255
221 235 255
221 235 255
221 235 255
221 235 255
221 235 255
221 235 255
221 235 255
221 235 255
221 235 255
221 235 255
221 235 255
221 235 255
221 235 255
221 235 255
221 235 255
221 235 255
221 235 255
221 235 255
221 235 255
221 235 255
221 235 255
221 235 255
221 235 255
221 235 255
221 235 255
221 235 255
221 235 255
221 235 255
221 235 255
221 235 255
221 235 255
221 235 255
221 235 255
221 235 255
221 235 255
221 235 255
221 235 255
221 235 255
221 235 255
221 235 255
221 235 255
221 235 255
221 235 255
221 235 255
221 235 255
221 235 255
221 235 255
221 235 255
221 235 255
221 235 255
221 235 255
221 235 255
221 235 255
221 235 255
66 73 135
0 20 116
0 20 116
0 20 116
0 20 116
0 20 116
0 20 116
0 20 116
0 20 116
0 20 116
0 20 116
0 20 116
0 20 116
0 21 116
0 20 116
0 20 116
0 21 116
0 20 116
0 20 116
0 20 116
0 20 116
0 20 116
0 19 117
0 14 118
3 15 118
6 16 119
4 18 118
0 20 116
0 20 116
0 21 116
8 18 116
13 14 116
13 14 116
13 14 116
12 15 116
7 22 117
0 20 116
0 18 117
0 14 118
5 16 119
6 16 119
6 16 119
7 16 119
6 16 119
3 15 118
0 14 118
0 14 118
0 14 118
0 14 118
0 14 118
0 14 118
3 15 118
7 16 119
6 16 119
3 22 119
0 25 119
0 25 119
0 25 119
0 25 119
1 25 119
7 26 120
6 26 120
6 26 120
7 26 120
7 26 120
7 26 120
8 27 120
7 26 120
6 26 120
7 26 120
7 26 120
3 25 120
0 25 119
0 25 119
0 25 119
0 25 119
0 25 119
0 25 119
0 25 119
0 25 119
0 25 119
0 25 119
0 25 119
12 25 118
13 25 117
13 25 117
13 25 117
13 25 117
13 25 117
8 25 119
0 25 119
0 25 119
0 25 119
0 25 119
0 25 119
11 28 121
14 30 121
13 29 121
10 30 121
0 34 121
6 34 123
12 38 126
0 42 127
0 43 127
19 45 128
17 45 127
7 38 123
13 39 123
6 33 124
0 32 123
0 30 123
0 30 123
0 33 124
0 32 124
0 34 124
12 42 127
0 43 128
0 42 129
0 47 130
0 48 130
0 47 130
0 48 131
11 49 132
0 47 131
0 45 130
14 49 132
22 58 136
16 64 144
21 65 143
74 95 156
158 181 189
154 180 147
115 141 100
113 130 78
132 142 105
153 163 150
120 139 103
101 127 61
89 114 47
97 118 51
97 122 53
90 117 31
95 123 46
89 116 30
89 115 35
91 115 31
91 115 18
92 118 30
89 116 30
90 117 44
86 114 39
83 111 22
80 111 24
78 109 10
77 108 21
77 108 22
77 108 26
78 109 33
78 108 35
83 112 43
81 109 29
76 108 0
78 110 21
80 106 11
83 106 15
83 107 21
88 111 34
90 113 31
85 112 22
84 112 20
85 113 21
87 114 19
86 112 20
85 111 18
83 110 11
87 112 17
84 110 21
90 116 38
82 111 19
88 116 36
85 113 27
86 114 42
78 109 23
83 115 53
109 123 42
90 137 111
69 144 163
43 153 193
73 193 206
43 150 193
5 76 148
11 41 127
14 19 118
15 0 114
0 0 113
0 0 113
0 0 113
0 0 113
0 0 113
0 0 113
0 0 113
0 0 113
0 0 113
0 0 113
0 0 113
0 0 113
0 0 113
0 0 113
0 0 113
0 0 113
0 0 113
0 0 113
0 0 113
0 0 113
0 16 116
70 75 136
221 235 255
221 235 255
221 235 255
221 235 255
221 235 255
221 235 255
221 235 255
221 235 255
221 235 255
221 235 255
221 235 255
221 235 255
221 235 255
221 235 255
221 235 255
221 235 255
221 235 255
221 235 255
221 235 255
221 235 255
221 235 255
221 235 255
221 235 255
221 235 255
221 235 255
221 235 255
221 235 255
221 235 255
221 235 255
221 235 255
221 235 255
221 235 255
221 235 255
221 235 255
221 235 255
221 235 255
221 235 255
221 235 255
221 235 255
221 235 255
221 235 255
221 235 255
221 235 255
221 235 255
221 235 255
221 235 255
221 235 255
221 235 255
221 235 255
221 235 255
221 235 255
221 235 255
221 235 255
221 235 255
221 235 255
221 235 255
221 235 255
221 235 255
221 235 255
221 235 255
221 235 255
221 235 255
221 235 255
221 235 255
221 235 255
221 235 255
221 235 255
221 235 255
221 235 255
221 235 255
221 235 255
221 235 255
221 235 255
221 235 255
221 235 255
221 235 255
221 235 255
221 235 255
221 235 255
221 235 255
221 235 255
221 235 255
221 235 255
221 235 255
221 235 255
221 235 255
221 235 255
221 235 255
221 235 255
221 235 255
221 235 255
221 235 255
221 236 255
221 236 255
221 236 255
221 236 255
221 236 255
221 236 255
221 236 255
221 236 255
221 236 255
221 236 255
221 236 255
221 236 255
221 236 255
221 236 255
221 236 255
221 236 255
221 236 255
221 236 255
221 236 255
221 236 255
221 236 255
221 236 255
221 236 255
221 236 255
221 236 255
221 236 255
221 236 255
221 236 255
221 236 255
221 236 255
221 236 255
221 236 255
221 236 255
221 236 255
221 236 255
221 236 255
221 236 255
221 236 255
221 236 255
221 236 255
221 236 255
221 236 255
221 236 255
221 236 255
221 236 255
221 236 255
221 236 255
221 236 255
221 236 255
221 236 255
221 236 255
221 236 255
221 236 255
221 236 255
221 236 255
221 236 255
221 236 255
221 236 255
221 236 255
221 236 255
221 236 255
221 236 255
221 236 255
221 236 255
221 236 255
221 236 255
221 236 255
221 236 255
221 236 255
221 236 255
221 236 255
221 236 255
221 236 255
221 236 255
221 236 255
221 236 255
221 236 255
221 236 255
221 236 255
221 236 255
221 236 255
221 236 255
221 236 255
221 236 255
221 236 255
221 236 255
221 236 255
221 236 255
221 236 255
221 236 255
221 236 255
221 236 255
79 87 142
9 23 117
3 21 116
0 20 116
0 20 116
0 20 116
10 23 117
10 23 117
4 21 116
0 20 116
0 20 116
0 20 116
0 20 116
0 20 116
0 20 116
0 20 116
0 18 117
0 18 117
0 17 117
7 19 118
9 21 118
9 20 118
8 19 118
0 14 118
7 16 119
13 20 119
10 19 119
0 18 117
0 18 117
0 18 117
6 18 117
9 18 116
9 18 116
9 18 116
9 18 116
10 23 117
0 20 116
0 18 117
0 18 117
10 19 118
14 21 119
13 20 119
13 20 119
13 20 119
5 21 119
0 21 119
0 20 119
0 16 119
0 14 118
0 16 118
0 17 117
4 18 118
10 20 118
9 20 118
7 22 119
0 23 119
0 23 119
0 25 119
0 25 119
4 25 120
14 29 121
13 29 121
13 29 121
13 29 121
13 29 121
13 29 121
13 29 121
13 29 121
13 29 121
13 29 121
13 29 121
7 26 120
0 25 119
0 25 119
0 25 119
0 25 119
0 25 119
0 25 119
0 25 119
0 25 119
0 25 119
0 25 119
0 25 119
8 25 120
10 25 119
9 25 119
10 25 119
9 25 119
9 25 120
9 26 120
9 27 120
9 27 120
10 27 120
10 28 120
10 27 120
15 30 121
17 31 121
16 31 122
13 31 122
0 34 122
8 35 124
12 38 126
7 42 127
16 48 129
36 59 124
49 67 120
39 53 125
21 40 127
13 37 124
11 35 124
5 32 124
0 32 124
0 31 124
10 34 125
6 36 125
9 40 126
0 42 127
0 43 129
0 47 130
0 47 131
9 47 131
11 46 132
2 45 132
6 45 133
12 48 135
25 57 140
29 61 144
21 73 154
30 77 151
88 110 136
143 167 153
156 185 164
105 130 57
119 130 84
131 143 106
120 140 86
104 127 62
106 130 62
91 119 42
96 120 52
98 123 53
96 122 43
92 119 33
86 113 16
89 115 27
90 115 35
87 113 26
89 114 26
85 112 24
84 112 32
84 112 41
76 107 26
73 104 15
74 106 10
82 112 37
84 114 51
79 112 29
82 113 38
74 106 20
74 105 19
76 107 29
76 109 27
78 109 27
80 105 29
87 109 34
86 110 22
85 111 20
86 113 23
85 113 33
85 114 13
85 114 6
85 112 23
83 109 17
84 110 18
85 112 20
85 112 28
81 109 12
83 111 32
79 111 24
87 118 42
88 116 35
86 112 33
91 112 34
89 118 38
98 129 75
80 134 118
89 146 126
72 156 166
70 168 186
64 175 204
13 90 157
14 51 133
9 31 118
9 18 112
15 10 115
0 18 111
15 0 115
12 0 114
15 9 114
10 8 113
0 0 113
0 0 113
0 0 113
0 0 113
0 0 113
0 0 113
0 0 113
0 0 113
0 0 113
0 0 113
0 0 113
0 0 113
0 0 113
0 0 113
0 9 115
82 88 143
221 236 255
221 236 255
221 236 255
221 236 255
221 236 255
221 236 255
221 236 255
221 236 255
221 236 255
221 236 255
221 236 255
221 236 255
221 236 255
221 236 255
221 236 255
221 236 255
221 236 255
221 236 255
221 236 255
221 236 255
221 236 255
221 236 255
221 236 255
221 236 255
221 236 255
221 236 255
221 236 255
221 236 255
221 236 255
221 236 255
221 236 255
221 236 255
221 236 255
221 236 255
221 236 255
221 236 255
221 236 255
221 236 255
221 236 255
221 236 255
221 236 255
221 236 255
221 236 255
221 236 255
221 236 255
221 236 255
221 236 255
221 236 255
221 236 255
221 236 255
221 236 255
221 236 255
221 236 255
221 236 255
221 236 255
221 236 255
221 236 255
221 236 255
221 236 255
221 236 255
221 236 255
221 236 255
221 236 255
221 236 255
221 236 255
221 236 255
221 236 255
221 236 255
221 236 255
221 236 255
221 236 255
221 236 255
221 236 255
221 236 255
221 236 255
221 236 255
221 236 255
221 236 255
221 236 255
221 236 255
221 236 255
221 236 255
221 236 255
221 236 255
221 236 255
221 236 255
221 236 255
221 236 255
221 236 255
221 236 255
221 236 255
221 236 255
221 236 255
221 236 255
221 236 255
221 236 255
221 236 255
221 236 255
221 236 255
221 236 255
221 236 255
221 236 255
221 236 255
221 236 255
221 236 255
221 236 255
221 236 255
221 236 255
221 236 255
221 236 255
221 236 255
221 236 255
221 236 255
221 236 255
221 236 255
221 236 255
221 236 255
221 236 255
221 236 255
221 236 255
221 236 255
221 236 255
221 236 255
221 236 255
221 236 255
221 236 255
221 236 255
221 236 255
221 236 255
221 236 255
221 236 255
221 236 255
221 236 255
221 236 255
221 236 255
221 236 255
221 236 255
221 236 255
221 236 255
221 236 255
221 236 255
221 236 255
221 236 255
221 236 255
221 236 255
221 236 255
221 236 255
221 236 255
221 236 255
221 236 255
221 236 255
221 236 255
221 236 255
221 236 255
221 236 255
221 236 255
221 236 255
221 236 255
221 236 255
221 236 255
221 236 255
221 236 255
221 236 255
221 236 255
221 236 255
221 236 255
221 236 255
221 236 255
221 236 255
221 236 255
221 236 255
221 236 255
221 236 255
221 236 255
221 236 255
221 236 255
221 236 255
221 236 255
221 236 255
221 236 255
221 236 255
221 236 255
221 236 255
221 236 255
85 93 146
6 21 116
2 21 116
0 20 116
0 21 116
0 20 116
5 21 116
6 21 116
3 20 116
0 20 116
0 21 116
0 20 116
0 20 116
0 20 116
0 21 116
0 20 116
0 19 117
0 19 117
0 19 117
6 17 118
6 16 119
6 16 119
6 16 119
0 14 118
8 17 119
13 20 119
10 18 119
0 14 118
0 14 118
0 15 118
0 18 117
0 20 116
0 20 116
0 20 116
0 20 116
0 20 116
0 20 116
0 21 116
0 21 116
5 18 118
7 16 119
6 16 119
6 16 119
6 16 119
3 24 119
0 25 119
0 24 119
0 17 118
0 14 118
0 19 117
0 20 116
0 20 116
0 20 116
0 20 116
0 20 118
0 20 118
0 21 118
0 24 119
0 25 119
4 25 120
13 29 121
13 29 121
13 29 121
13 29 121
13 29 121
13 29 121
13 29 121
13 29 121
13 29 121
13 29 121
13 29 121
7 26 120
0 25 119
0 25 119
0 25 119
0 25 119
0 25 119
0 25 119
0 25 119
0 25 119
0 25 119
6 26 120
12 28 120
4 25 120
0 25 120
0 25 120
0 25 120
0 25 120
0 25 120
11 28 120
13 29 121
13 29 121
13 29 121
13 29 121
14 29 121
17 31 121
17 31 121
15 30 123
11 31 123
0 32 124
3 32 124
16 39 126
17 43 124
16 44 130
41 60 119
73 89 106
63 74 123
53 72 119
25 45 125
29 46 127
13 35 124
3 32 124
11 34 125
11 34 126
10 36 125
3 38 125
0 38 126
0 41 127
0 46 129
0 49 131
7 49 131
9 47 130
1 46 130
5 49 133
10 53 137
15 60 142
10 63 142
13 76 150
27 74 156
122 147 126
144 167 151
149 181 181
102 121 66
127 134 99
126 142 104
110 134 77
99 124 47
101 125 47
99 125 48
96 122 49
95 121 44
95 120 43
97 122 43
96 122 42
93 119 36
88 113 30
86 111 21
84 110 18
85 110 29
82 109 22
80 109 18
81 111 32
81 111 38
80 112 21
81 113 28
81 113 49
81 113 35
80 112 35
78 110 32
75 106 10
76 107 29
81 110 31
81 109 26
79 106 27
82 108 30
88 113 31
91 118 35
88 115 30
86 114 35
86 115 14
88 116 24
83 110 28
82 107 18
82 109 14
83 111 19
81 110 17
83 108 12
85 110 22
87 114 31
93 118 42
95 119 42
87 114 32
95 119 50
96 125 43
93 131 79
87 124 68
89 125 69
110 132 76
101 161 151
85 182 184
36 137 176
31 87 159
31 34 125
33 19 123
18 11 114
11 8 113
22 9 115
10 9 115
11 7 113
8 8 112
0 0 113
0 0 113
0 0 113
0 0 113
0 0 113
0 0 113
0 0 113
0 0 113
0 0 113
0 0 113
0 0 113
0 0 113
0 0 113
0 0 113
0 0 113
85 91 144
221 236 255
221 236 255
221 236 255
221 236 255
221 236 255
221 236 255
221 236 255
221 236 255
221 236 255
221 236 255
221 236 255
221 236 255
221 236 255
221 236 255
221 236 255
221 236 255
221 236 255
221 236 255
221 236 255
221 236 255
221 236 255
221 236 255
221 236 255
221 236 255
221 236 255
221 236 255
221 236 255
221 236 255
221 236 255
221 236 255
221 236 255
221 236 255
221 236 255
221 236 255
221 236 255
221 236 255
221 236 255
221 236 255
221 236 255
221 236 255
221 236 255
221 236 255
221 236 255
221 236 255
221 236 255
221 236 255
221 236 255
221 236 255
221 236 255
221 236 255
221 236 255
221 236 255
221 236 255
221 236 255
221 236 255
221 236 255
221 236 255
221 236 255
221 236 255
221 236 255
221 236 255
221 236 255
221 236 255
221 236 255
221 236 255
221 236 255
221 236 255
221 236 255
221 236 255
221 236 255
221 236 255
221 236 255
221 236 255
221 236 255
221 236 255
221 236 255
221 236 255
221 236 255
221 236 255
221 236 255
221 236 255
221 236 255
221 236 255
221 236 255
221 236 255
221 236 255
221 236 255
221 236 255
221 236 255
221 236 255
221 236 255
221 236 255
221 236 255
221 236 255
221 236 255
221 236 255
221 236 255
221 236 255
221 236 255
221 236 255
221 236 255
221 236 255
221 236 255
221 236 255
221 236 255
221 236 255
221 236 255
221 236 255
221 236 255
221 236 255
221 236 255
221 236 255
221 236 255
221 236 255
221 236 255
221 236 255
221 236 255
221 236 255
221 236 255
221 236 255
221 236 255
221 236 255
221 236 255
221 236 255
221 236 255
221 236 255
221 236 255
221 236 255
221 236 255
221 236 255
221 236 255
221 236 255
221 236 255
221 236 255
221 236 255
221 236 255
221 236 255
221 236 255
221 236 255
221 236 255
221 236 255
221 236 255
221 236 255
221 236 255
221 236 255
221 236 255
221 236 255
221 236 255
221 236 255
221 236 255
221 236 255
221 236 255
221 236 255
221 236 255
221 236 255
221 236 255
221 236 255
221 236 255
221 236 255
221 236 255
221 236 255
221 236 255
221 236 255
221 236 255
221 236 255
221 236 255
221 236 255
221 236 255
221 236 255
221 236 255
221 236 255
221 236 255
221 236 255
221 236 255
221 236 255
221 236 255
221 236 255
221 236 255
221 236 255
221 236 255
221 236 255
221 236 255
221 236 255
221 236 255
94 101 151
0 18 116
0 20 116
0 21 116
0 20 116
0 21 116
0 19 116
0 18 116
0 17 115
0 19 116
0 20 116
0 20 116
0 20 116
0 20 116
0 20 116
0 20 116
0 20 116
0 20 116
0 21 116
0 18 117
0 16 118
0 16 118
0 17 118
0 20 116
0 21 116
7 22 116
9 23 117
0 20 116
0 21 116
0 20 116
0 20 116
0 20 116
0 20 116
0 20 116
0 20 116
0 20 116
0 20 116
0 20 116
0 20 116
0 17 117
0 16 118
0 16 118
0 16 118
0 16 118
0 23 119
0 24 119
0 19 118
0 16 118
0 15 118
0 19 117
0 20 116
0 20 116
0 20 116
0 20 116
0 20 117
0 20 118
0 19 118
2 24 119
5 25 119
5 24 119
6 25 120
5 25 120
6 24 119
5 25 119
5 25 120
5 25 120
2 25 119
4 26 120
3 26 120
4 26 120
2 25 119
10 27 120
11 28 120
12 28 120
12 28 120
12 28 120
12 28 120
5 26 120
0 25 119
0 25 119
3 26 120
12 29 120
13 29 120
4 26 120
0 25 119
0 25 119
0 25 119
0 25 119
0 25 119
10 27 120
12 29 120
12 28 120
12 29 120
12 28 120
13 29 120
13 29 120
13 29 120
12 29 121
12 29 122
8 32 123
2 32 124
5 29 126
11 31 126
23 45 129
44 61 122
75 91 106
54 67 121
44 64 113
26 45 125
35 52 128
19 38 124
8 31 123
20 39 126
11 33 125
5 34 122
7 34 124
9 37 125
8 40 126
7 43 127
0 48 129
0 48 130
0 48 130
5 51 131
6 53 133
2 55 137
3 61 140
6 63 141
22 77 144
91 114 149
124 141 98
136 150 140
160 182 184
120 136 89
135 142 111
114 130 81
96 121 47
95 120 27
95 119 34
100 125 48
95 121 42
93 119 35
98 124 51
101 126 59
97 122 52
93 119 37
89 116 23
87 113 24
86 112 22
87 114 37
85 113 25
79 110 4
82 113 25
86 115 38
82 114 22
78 111 12
74 107 25
71 104 14
73 106 27
77 110 28
75 107 14
79 110 28
81 110 24
84 112 16
87 114 30
84 111 30
81 108 32
82 108 37
88 115 31
86 115 7
84 112 18
82 109 37
83 110 27
78 108 15
83 111 19
83 112 27
78 107 6
87 113 30
85 113 5
87 115 19
86 114 5
90 117 22
88 119 23
91 117 38
97 123 28
94 124 28
87 121 48
82 122 24
107 128 45
87 157 144
97 127 54
95 135 79
82 149 148
41 107 159
18 47 124
36 22 108
33 17 122
17 17 109
8 19 114
0 17 113
7 18 113
0 0 113
0 0 113
0 0 113
0 0 113
0 0 113
0 0 113
0 0 113
0 0 113
0 0 113
0 0 113
0 0 113
0 0 113
0 0 113
0 0 113
0 0 113
99 105 153
221 236 255
221 236 255
221 236 255
221 236 255
221 236 255
221 236 255
221 236 255
221 236 255
221 236 255
221 236 255
221 236 255
221 236 255
221 236 255
221 236 255
221 236 255
221 236 255
221 236 255
221 236 255
221 236 255
221 236 255
221 236 255
221 236 255
221 236 255
221 236 255
221 236 255
221 236 255
221 236 255
221 236 255
221 236 255
221 236 255
221 236 255
221 236 255
221 236 255
221 236 255
221 236 255
221 236 255
221 236 255
221 236 255
221 236 255
221 236 255
221 236 255
221 236 255
221 236 255
221 236 255
221 236 255
221 236 255
221 236 255
221 236 255
221 236 255
221 236 255
221 236 255
221 236 255
221 236 255
221 236 255
221 236 255
221 236 255
221 236 255
221 236 255
221 236 255
221 236 255
221 236 255
221 236 255
221 236 255
221 236 255
221 236 255
221 236 255
221 236 255
221 236 255
221 236 255
221 236 255
221 236 255
221 236 255
221 236 255
221 236 255
221 236 255
221 236 255
221 236 255
221 236 255
221 236 255
221 236 255
221 236 255
221 236 255
221 236 255
221 236 255
221 236 255
221 236 255
221 236 255
221 236 255
221 236 255
221 236 255
221 236 255
221 236 255
221 236 255
221 236 255
221 236 255
221 236 255
221 236 255
221 236 255
221 236 255
221 236 255
221 236 255
221 236 255
221 236 255
221 236 255
221 236 255
221 236 255
221 236 255
221 236 255
221 236 255
221 236 255
221 236 255
221 236 255
221 236 255
221 236 255
221 236 255
221 236 255
221 236 255
221 236 255
221 236 255
221 236 255
221 236 255
221 236 255
221 236 255
221 236 255
221 236 255
221 236 255
221 236 255
221 236 255
221 236 255
221 236 255
221 236 255
221 236 255
221 236 255
221 236 255
221 236 255
221 236 255
221 236 255
221 236 255
221 236 255
221 236 255
221 236 255
221 236 255
221 236 255
221 236 255
221 236 255
221 236 255
221 236 255
221 236 255
221 236 255
221 236 255
221 236 255
221 236 255
221 236 255
221 236 255
221 236 255
221 236 255
221 236 255
221 236 255
221 236 255
221 236 255
221 236 255
221 236 255
221 236 255
221 236 255
221 236 255
221 236 255
221 236 255
221 236 255
221 236 255
221 236 255
221 236 255
221 236 255
221 236 255
221 236 255
221 236 255
221 236 255
221 236 255
221 236 255
221 236 255
221 236 255
221 236 255
221 236 255
221 236 255
221 236 255
91 98 149
3 8 114
0 20 116
9 17 116
8 14 116
0 11 115
0 9 114
0 8 114
0 8 114
9 14 114
10 17 115
10 17 116
10 17 116
4 15 115
0 13 114
0 15 115
0 13 114
0 14 115
0 14 114
0 18 115
0 20 116
0 20 116
0 20 116
0 20 116
0 20 116
0 20 116
0 18 116
0 12 116
0 15 116
0 14 116
0 18 116
0 20 116
0 20 116
0 20 116
0 20 116
0 21 116
0 20 116
0 20 116
0 20 116
0 20 116
0 20 116
0 20 116
0 20 116
0 20 116
0 20 116
0 20 116
0 20 116
0 21 116
0 20 116
0 20 116
0 21 116
0 20 116
0 20 116
0 20 116
0 18 117
0 14 118
0 14 118
3 15 118
10 18 119
10 18 119
10 18 119
10 18 119
10 18 119
10 18 119
10 18 119
9 21 119
0 24 119
0 23 119
0 23 119
0 23 119
0 24 119
0 25 119
0 25 119
0 25 119
0 25 119
0 25 119
0 25 119
0 24 119
0 23 119
0 23 119
0 24 119
0 24 119
0 25 119
0 25 119
0 25 119
0 25 119
0 25 119
0 25 119
0 25 119
0 25 119
0 25 119
0 25 119
0 25 119
0 25 119
0 25 119
0 24 119
0 22 119
0 24 119
5 26 120
12 28 122
9 31 123
15 33 123
21 38 119
16 39 127
21 36 130
41 50 122
27 35 125
10 33 124
10 34 121
20 38 123
10 31 120
9 29 122
10 32 123
12 32 123
13 29 121
10 28 120
9 34 123
10 36 125
13 41 126
7 43 127
0 45 128
0 47 130
13 49 131
15 50 133
7 55 137
0 59 140
15 68 148
41 88 161
109 133 140
120 134 70
160 174 165
173 189 184
122 136 87
133 142 109
112 128 75
94 120 43
97 121 39
97 120 29
94 119 29
93 121 36
91 119 27
94 120 44
93 120 45
87 115 32
86 114 20
94 120 32
94 120 40
87 113 25
90 117 38
89 116 35
87 117 20
85 116 18
81 112 18
83 114 22
83 114 28
74 107 22
69 102 17
72 105 22
74 107 17
75 107 0
79 110 19
78 108 18
80 109 8
80 110 16
84 113 31
81 109 27
74 104 14
82 110 16
88 116 9
81 109 24
68 97 11
78 107 10
79 109 9
83 112 20
86 114 25
80 108 12
86 114 30
88 119 27
89 119 24
90 119 25
96 125 42
90 118 18
97 121 36
99 124 44
90 119 17
86 118 35
83 121 39
95 136 96
97 150 112
106 133 45
105 132 35
99 130 51
87 140 125
60 117 146
20 29 124
15 22 118
22 15 116
17 9 112
14 6 114
13 8 112
0 0 113
0 0 113
0 0 113
0 0 113
0 0 113
0 0 113
0 0 113
0 0 113
0 0 113
0 0 113
0 0 113
0 0 113
0 0 113
0 0 113
0 0 113
99 105 153
221 236 255
221 236 255
221 236 255
221 236 255
221 236 255
221 236 255
221 236 255
221 236 255
221 236 255
221 236 255
221 236 255
221 236 255
221 236 255
221 236 255
221 236 255
221 236 255
221 236 255
221 236 255
221 236 255
221 236 255
221 236 255
221 236 255
221 236 255
221 236 255
221 236 255
221 236 255
221 236 255
221 236 255
221 236 255
221 236 255
221 236 255
221 236 255
221 236 255
221 236 255
221 236 255
221 236 255
221 236 255
221 236 255
221 236 255
221 236 255
221 236 255
221 236 255
221 236 255
221 236 255
221 236 255
221 236 255
221 236 255
221 236 255
221 236 255
221 236 255
221 236 255
221 236 255
221 236 255
221 236 255
221 236 255
221 236 255
221 236 255
221 236 255
221 236 255
221 236 255
221 236 255
221 236 255
221 236 255
221 236 255
221 236 255
221 236 255
221 236 255
221 236 255
221 236 255
221 236 255
221 236 255
221 236 255
221 236 255
221 236 255
221 236 255
221 236 255
221 236 255
221 236 255
221 236 255
221 236 255
221 236 255
221 236 255
221 236 255
221 236 255
221 236 255
221 236 255
221 236 255
221 236 255
221 236 255
221 236 255
221 236 255
221 236 255
221 236 255
221 236 255
221 236 255
221 236 255
221 236 255
221 236 255
221 236 255
221 236 255
221 236 255
221 236 255
221 236 255
221 236 255
221 236 255
221 236 255
221 236 255
221 236 255
221 236 255
221 236 255
221 236 255
221 236 255
221 236 255
221 236 255
221 236 255
221 236 255
221 236 255
221 236 255
221 236 255
221 236 255
221 236 255
221 236 255
221 236 255
221 236 255
221 236 255
221 236 255
221 236 255
221 236 255
221 236 255
221 236 255
221 236 255
221 236 255
221 236 255
221 236 255
221 236 255
221 236 255
221 236 255
221 236 255
221 236 255
221 236 255
221 236 255
221 236 255
221 236 255
221 236 255
221 236 255
221 236 255
221 236 255
221 236 255
221 236 255
221 236 255
221 236 255
221 236 255
221 236 255
221 236 255
221 236 255
221 236 255
221 236 255
221 236 255
221 236 255
221 236 255
221 236 255
221 236 255
221 236 255
221 236 255
221 236 255
221 236 255
221 236 255
221 236 255
221 236 255
221 236 255
221 236 255
221 236 255
221 236 255
221 236 255
221 236 255
221 236 255
221 236 255
221 236 255
221 236 255
221 236 255
221 236 255
221 236 255
221 236 255
221 236 255
121 129 170
0 1 113
6 18 116
0 5 115
0 0 115
0 0 114
0 0 113
0 0 113
0 0 113
4 4 113
9 10 114
5 5 115
3 3 115
3 3 113
0 0 113
0 0 113
0 0 113
0 0 113
0 0 113
0 12 114
0 15 115
0 16 115
1 16 115
4 20 115
1 19 114
0 16 114
0 12 113
0 0 113
0 0 113
0 0 113
0 13 115
0 20 116
0 21 116
0 20 116
0 21 116
0 20 116
0 20 116
0 20 116
0 21 116
0 20 116
0 21 116
0 20 116
0 20 116
0 21 116
0 20 116
0 20 116
0 20 116
0 20 116
0 21 116
0 20 116
0 21 116
0 20 116
0 20 116
0 21 116
0 20 116
0 18 117
0 19 117
0 18 117
0 19 117
0 19 117
0 19 117
0 19 117
0 18 117
0 19 117
0 18 117
0 19 117
0 21 117
0 21 117
0 21 117
0 20 117
0 21 117
0 22 117
0 22 117
0 22 117
0 22 117
0 22 117
0 22 117
0 21 117
0 20 117
0 20 117
0 20 117
0 21 117
0 22 118
9 23 119
10 22 119
10 22 119
10 22 119
11 22 119
10 23 119
5 23 118
0 22 117
0 22 117
0 23 118
0 23 118
0 22 117
0 19 118
0 14 118
0 19 119
0 25 119
7 27 120
13 29 122
17 30 122
17 26 120
0 32 122
16 36 121
0 19 121
21 31 120
15 24 128
10 27 120
7 23 119
0 19 118
15 30 121
0 22 119
11 24 120
15 24 120
6 26 120
10 31 122
11 35 124
9 39 126
6 40 126
0 43 129
0 45 131
14 46 132
18 49 134
7 55 138
0 63 144
0 73 146
24 94 165
116 141 146
119 140 78
158 178 172
182 198 205
114 129 75
128 139 102
100 120 57
88 115 27
94 120 33
88 114 9
92 118 19
93 120 27
91 119 28
92 119 30
90 117 28
86 114 16
88 115 19
94 120 33
94 120 42
83 111 14
85 113 26
89 116 29
91 119 28
90 119 32
83 113 23
81 112 15
85 115 32
80 111 33
71 104 24
76 109 30
79 111 20
81 112 16
79 110 15
76 107 16
77 107 24
78 109 20
80 111 21
82 112 28
82 112 27
79 109 10
82 113 13
85 114 37
72 102 15
77 107 19
80 111 9
85 114 20
88 114 32
87 112 29
92 115 30
105 124 53
100 119 40
105 124 49
107 128 55
103 124 46
102 124 50
93 120 43
82 114 21
89 121 62
81 131 74
82 144 110
99 128 48
100 131 35
102 133 44
100 133 46
95 128 57
89 135 125
18 70 141
33 21 123
20 19 112
11 10 114
13 0 116
22 15 114
0 0 113
0 0 113
0 0 113
0 0 113
0 0 113
0 0 113
0 0 113
0 0 113
0 0 113
0 0 113
0 0 113
0 0 113
0 0 113
0 0 113
0 0 113
113 120 163
221 236 255
221 236 255
221 236 255
221 236 255
221 236 255
221 236 255
221 236 255
221 236 255
221 236 255
221 236 255
221 236 255
221 236 255
221 236 255
221 236 255
221 236 255
221 236 255
221 236 255
221 236 255
221 236 255
221 236 255
221 236 255
221 236 255
221 236 255
221 236 255
221 236 255
221 236 255
221 236 255
221 236 255
221 236 255
221 236 255
221 236 255
221 236 255
221 236 255
221 236 255
221 236 255
221 236 255
221 236 255
221 236 255
221 236 255
221 236 255
221 236 255
221 236 255
221 236 255
221 236 255
221 236 255
221 236 255
221 236 255
221 236 255
221 236 255
221 236 255
221 236 255
221 236 255
221 236 255
221 236 255
221 236 255
221 236 255
221 236 255
221 236 255
221 236 255
221 236 255
221 236 255
221 236 255
221 236 255
221 236 255
221 236 255
221 236 255
221 236 255
221 236 255
221 236 255
221 236 255
221 236 255
221 236 255
221 236 255
221 236 255
221 236 255
221 236 255
221 236 255
221 236 255
221 236 255
221 236 255
221 236 255
221 236 255
221 236 255
221 236 255
221 236 255
221 236 255
221 236 255
221 236 255
221 236 255
221 236 255
221 236 255
221 236 255
221 236 255
221 236 255
221 236 255
221 236 255
221 236 255
221 236 255
221 236 255
221 236 255
221 236 255
221 236 255
221 236 255
221 236 255
221 236 255
221 236 255
221 236 255
221 236 255
221 236 255
221 236 255
221 236 255
221 236 255
221 236 255
221 236 255
221 236 255
221 236 255
221 236 255
221 236 255
221 236 255
221 236 255
221 236 255
221 236 255
221 236 255
221 236 255
221 236 255
221 236 255
221 236 255
221 236 255
221 236 255
221 236 255
221 236 255
221 236 255
221 236 255
221 236 255
221 236 255
221 236 255
221 236 255
221 236 255
221 236 255
221 236 255
221 236 255
221 236 255
221 236 255
221 236 255
221 236 255
221 236 255
221 236 255
221 236 255
221 236 255
221 236 255
221 236 255
221 236 255
221 236 255
221 236 255
221 236 255
221 236 255
221 236 255
221 236 255
221 236 255
221 236 255
221 236 255
221 236 255
221 236 255
221 236 255
221 236 255
221 236 255
221 236 255
221 236 255
221 236 255
221 236 255
221 236 255
221 236 255
221 236 255
221 236 255
221 236 255
221 236 255
221 236 255
221 236 255
221 236 255
221 236 255
221 236 255
221 236 255
221 236 255
221 236 255
121 129 170
0 0 113
10 11 116
0 0 113
0 0 113
0 0 113
0 0 113
0 0 113
0 0 113
0 0 113
0 0 113
0 0 113
0 0 113
0 0 113
0 0 113
0 0 113
0 8 112
0 7 113
0 9 112
0 5 113
0 0 113
0 0 113
3 4 113
13 14 114
6 6 113
0 0 113
0 0 113
0 0 113
0 0 113
0 0 113
0 0 113
0 0 113
0 1 113
0 0 113
0 5 113
0 14 115
0 15 115
0 14 115
0 15 115
8 14 116
11 14 116
11 13 116
12 14 116
12 13 116
12 13 116
13 15 116
5 20 116
0 20 116
0 20 116
0 20 116
0 20 116
0 20 116
0 20 116
0 20 116
0 20 116
0 20 116
0 20 116
0 20 116
0 20 116
0 21 116
0 21 116
0 20 116
0 21 116
0 20 116
0 21 116
0 20 116
0 20 116
0 21 116
0 21 116
0 20 116
0 20 116
0 20 116
0 20 116
0 20 116
0 20 116
0 20 116
0 20 116
0 20 116
0 20 116
0 21 116
0 21 116
0 20 116
2 21 116
4 17 118
5 16 118
5 15 119
5 16 118
5 16 118
5 16 118
4 19 117
0 20 116
0 21 116
0 20 116
0 20 116
0 20 116
8 22 117
11 20 119
12 20 119
10 23 119
0 25 119
12 28 121
15 28 121
14 23 117
1 31 117
10 30 124
0 16 119
18 33 110
12 29 116
15 23 120
12 18 119
0 8 117
17 28 119
10 21 117
9 20 117
8 25 119
12 28 121
10 31 123
5 36 125
2 38 126
0 39 126
0 43 130
0 50 135
6 50 135
12 55 137
3 64 142
5 79 151
16 85 157
52 103 172
126 151 167
118 141 91
164 186 173
199 211 218
117 127 94
122 134 93
102 124 66
89 119 35
87 117 24
89 115 5
93 120 30
90 119 19
93 121 27
90 118 26
91 119 28
92 119 26
90 118 18
93 121 34
90 118 34
83 111 0
84 112 14
87 115 25
88 118 18
91 118 32
84 113 29
77 108 8
80 112 14
78 109 22
75 107 31
78 111 31
83 115 29
87 117 38
87 117 39
82 112 19
80 111 26
79 110 33
74 106 22
75 108 19
80 111 22
82 112 34
76 107 19
86 116 34
82 113 14
81 112 34
80 109 22
85 112 24
92 116 39
97 119 47
97 118 46
100 120 50
97 116 36
107 126 59
97 119 32
96 122 47
93 120 27
88 117 17
92 120 41
92 117 35
92 120 43
100 120 31
97 128 53
100 128 30
98 129 48
99 129 45
104 131 39
96 132 82
64 135 149
92 118 134
50 64 125
18 32 118
23 33 124
8 19 115
0 0 113
0 0 113
0 0 113
0 0 113
0 0 113
0 0 113
0 0 113
0 0 113
0 0 113
0 0 113
0 0 113
0 0 113
0 0 113
0 0 113
0 0 113
108 115 160
221 236 255
221 236 255
221 236 255
221 236 255
221 236 255
221 236 255
221 236 255
221 236 255
221 236 255
221 236 255
221 236 255
221 236 255
221 236 255
221 236 255
221 236 255
221 236 255
221 236 255
221 236 255
221 236 255
221 236 255
221 236 255
221 236 255
221 236 255
221 236 255
221 236 255
221 236 255
221 236 255
221 236 255
221 236 255
221 236 255
221 236 255
221 236 255
221 236 255
221 236 255
221 236 255
221 236 255
221 236 255
221 236 255
221 236 255
221 236 255
221 236 255
221 236 255
221 236 255
221 236 255
221 236 255
221 236 255
221 236 255
221 236 255
221 236 255
221 236 255
221 236 255
221 236 255
221 236 255
221 236 255
221 236 255
221 236 255
221 236 255
221 236 255
221 236 255
221 236 255
221 236 255
221 236 255
221 236 255
221 236 255
221 236 255
221 236 255
221 236 255
221 236 255
221 236 255
221 236 255
221 236 255
221 236 255
221 236 255
221 236 255
221 236 255
221 236 255
221 236 255
221 236 255
221 236 255
221 236 255
221 236 255
221 236 255
221 236 255
221 236 255
221 236 255
221 236 255
221 236 255
221 236 255
221 236 255
221 236 255
221 236 255
221 236 255
222 236 255
222 236 255
222 236 255
222 236 255
222 236 255
222 236 255
222 236 255
222 236 255
222 236 255
222 236 255
222 236 255
222 236 255
222 236 255
222 236 255
222 236 255
222 236 255
222 236 255
222 236 255
222 236 255
222 236 255
222 236 255
222 236 255
222 236 255
222 236 255
222 236 255
222 236 255
222 236 255
222 236 255
222 236 255
222 236 255
222 236 255
222 236 255
222 236 255
222 236 255
222 236 255
222 236 255
222 236 255
222 236 255
222 236 255
222 236 255
222 236 255
222 236 255
222 236 255
222 236 255
222 236 255
222 236 255
222 236 255
222 236 255
222 236 255
222 236 255
222 236 255
222 236 255
222 236 255
222 236 255
222 236 255
222 236 255
222 236 255
222 236 255
222 236 255
222 236 255
222 236 255
222 236 255
222 236 255
222 236 255
222 236 255
222 236 255
222 236 255
222 236 255
222 236 255
222 236 255
222 236 255
222 236 255
222 236 255
222 236 255
222 236 255
222 236 255
222 236 255
222 236 255
222 236 255
222 236 255
222 236 255
222 236 255
222 236 255
222 236 255
222 236 255
222 236 255
222 236 255
222 236 255
222 236 255
222 236 255
222 236 255
222 236 255
129 137 176
0 0 115
2 2 114
0 0 113
0 0 113
0 0 113
0 0 113
0 0 113
0 0 113
0 0 113
0 0 113
0 0 113
0 0 113
0 0 113
0 0 113
0 0 113
0 7 113
0 8 112
0 9 112
0 6 113
0 0 113
0 0 113
2 2 113
8 8 113
0 0 113
0 0 113
0 0 113
0 0 113
0 0 113
0 0 113
0 0 113
0 0 113
0 0 113
0 0 113
0 3 113
0 10 115
0 10 115
0 11 115
0 11 115
0 9 115
0 0 115
0 0 115
0 0 115
0 0 115
1 2 115
10 11 116
4 15 116
0 17 116
0 16 116
0 16 116
0 16 116
0 16 116
0 16 116
0 17 116
0 16 116
0 16 116
0 16 116
0 15 116
0 17 116
0 16 116
0 17 116
0 16 116
4 17 116
6 19 116
7 19 116
7 20 116
7 22 117
0 21 116
0 20 116
1 20 116
6 19 116
4 20 116
0 20 116
0 21 116
0 20 116
0 20 116
0 21 116
0 20 116
0 20 116
0 20 116
0 20 116
5 21 116
12 24 117
7 22 117
0 20 116
0 21 116
0 20 116
0 21 116
0 20 116
0 20 116
0 20 116
0 20 116
0 20 116
0 20 117
0 20 117
8 23 117
12 25 118
13 23 120
11 25 120
4 26 120
3 25 120
10 26 121
10 20 122
9 26 114
9 19 121
20 30 120
13 19 119
3 8 125
8 16 118
12 23 118
0 15 115
6 20 116
15 25 117
8 21 117
10 27 120
11 29 122
9 33 124
7 37 125
11 41 127
4 44 129
4 50 133
0 58 138
4 60 139
9 65 143
3 75 148
16 88 157
28 97 163
22 97 160
59 90 158
110 148 162
153 186 198
134 149 125
123 138 89
120 134 88
100 123 57
79 111 12
90 119 31
93 120 39
90 118 21
94 121 32
91 119 19
82 111 0
85 114 9
91 119 30
90 118 23
89 118 26
88 117 31
81 111 9
82 112 18
83 115 20
85 115 20
87 115 29
85 114 31
85 114 24
86 117 29
80 111 13
83 114 41
84 115 37
85 116 32
89 119 38
92 121 49
86 117 35
83 114 12
76 107 12
70 102 19
75 107 24
79 110 22
85 113 40
76 105 26
80 109 15
89 117 30
84 112 29
82 110 24
87 115 32
91 116 38
91 116 39
91 118 38
87 117 34
89 118 32
96 124 45
87 117 13
89 117 40
102 130 57
95 124 33
93 120 16
90 119 23
88 121 22
98 125 39
96 126 35
101 126 54
95 123 46
100 123 39
106 130 55
98 133 87
94 130 79
116 135 86
96 119 99
85 105 110
90 109 106
67 75 120
12 15 110
13 19 111
0 13 113
0 17 111
11 15 113
10 6 112
0 0 113
0 0 113
0 0 113
0 0 113
0 0 113
0 0 113
0 0 113
0 0 113
0 0 113
136 145 181
222 236 255
222 236 255
222 236 255
222 236 255
222 236 255
222 236 255
222 236 255
222 236 255
222 236 255
222 236 255
222 236 255
222 236 255
222 236 255
222 236 255
222 236 255
222 236 255
222 236 255
222 236 255
222 236 255
222 236 255
222 236 255
222 236 255
222 236 255
222 236 255
222 236 255
222 236 255
222 236 255
222 236 255
222 236 255
222 236 255
222 236 255
222 236 255
222 236 255
222 236 255
222 236 255
222 236 255
222 236 255
222 236 255
222 236 255
222 236 255
222 236 255
222 236 255
222 236 255
222 236 255
222 236 255
222 236 255
222 236 255
222 236 255
222 236 255
222 236 255
222 236 255
222 236 255
222 236 255
222 236 255
222 236 255
222 236 255
222 236 255
222 236 255
222 236 255
222 236 255
222 236 255
222 236 255
222 236 255
222 236 255
222 236 255
222 236 255
222 236 255
222 236 255
222 236 255
222 236 255
222 236 255
222 236 255
222 236 255
222 236 255
222 236 255
222 236 255
222 236 255
222 236 255
222 236 255
222 236 255
222 236 255
222 236 255
222 236 255
222 236 255
222 236 255
222 236 255
222 236 255
222 236 255
222 236 255
222 236 255
222 236 255
222 236 255
222 236 255
222 236 255
222 236 255
222 236 255
222 236 255
222 236 255
222 236 255
222 236 255
222 236 255
222 236 255
222 236 255
222 236 255
222 236 255
222 236 255
222 236 255
222 236 255
222 236 255
222 236 255
222 236 255
222 236 255
222 236 255
222 236 255
222 236 255
222 236 255
222 236 255
222 236 255
222 236 255
222 236 255
222 236 255
222 236 255
222 236 255
222 236 255
222 236 255
222 236 255
222 236 255
222 236 255
222 236 255
222 236 255
222 236 255
222 236 255
222 236 255
222 236 255
222 236 255
222 236 255
222 236 255
222 236 255
222 236 255
222 236 255
222 236 255
222 236 255
222 236 255
222 236 255
222 236 255
222 236 255
222 236 255
222 236 255
222 236 255
222 236 255
222 236 255
222 236 255
222 236 255
222 236 255
222 236 255
222 236 255
222 236 255
222 236 255
222 236 255
222 236 255
222 236 255
222 236 255
222 236 255
222 236 255
222 236 255
222 236 255
222 236 255
222 236 255
222 236 255
222 236 255
222 236 255
222 236 255
222 236 255
222 236 255
222 236 255
222 236 255
222 236 255
222 236 255
222 236 255
222 236 255
222 236 255
222 236 255
222 236 255
222 236 255
133 141 179
0 0 115
0 0 114
0 0 113
0 0 113
0 0 113
0 0 113
0 0 113
0 0 113
0 0 113
0 0 113
0 0 113
0 0 113
0 0 113
0 0 113
0 0 113
0 0 113
0 0 113
0 0 113
0 0 113
0 0 113
0 0 113
0 0 113
0 0 113
0 0 113
0 0 113
0 0 113
0 0 113
0 0 113
0 0 113
0 0 113
0 0 113
0 0 113
0 0 113
0 0 113
0 0 115
0 0 115
0 0 115
0 0 115
0 0 115
0 0 115
0 0 115
0 0 115
0 0 115
0 0 115
0 0 115
0 0 115
0 0 115
0 0 115
0 0 115
0 0 115
0 0 115
0 0 115
0 0 115
0 0 115
0 0 115
0 0 115
0 0 115
0 0 115
0 0 115
0 0 115
0 0 115
6 6 115
14 14 116
13 14 116
13 20 117
11 24 117
0 21 116
0 21 116
4 20 116
14 14 116
8 18 116
0 21 116
0 20 116
0 21 116
0 20 116
0 20 116
0 21 116
0 21 116
0 21 116
0 20 116
0 21 116
0 21 116
0 21 116
0 21 116
0 20 116
0 20 116
0 20 116
0 21 116
0 21 116
0 20 116
0 21 116
0 20 116
0 20 118
0 21 118
7 24 119
9 27 120
13 29 121
16 31 121
15 30 121
10 28 120
9 26 120
10 23 119
10 21 119
11 23 120
12 24 120
10 22 119
4 16 118
0 25 119
0 23 118
0 21 116
0 18 116
0 17 116
0 17 118
0 25 117
6 26 120
10 31 122
0 37 125
0 43 128
6 54 133
7 60 137
0 60 138
9 62 141
15 66 145
5 73 149
16 84 155
20 86 157
16 88 157
27 90 160
104 160 188
149 180 180
119 128 77
125 135 98
108 127 68
98 121 38
84 112 9
86 114 28
85 115 25
91 119 21
92 118 22
86 113 22
79 109 16
81 111 24
86 114 27
86 115 23
87 117 23
84 115 24
83 114 16
83 114 18
85 115 22
82 113 21
80 111 15
86 116 21
92 121 40
92 121 43
88 118 27
77 110 13
78 110 0
82 113 8
84 115 19
84 114 32
85 115 34
83 114 25
80 111 22
74 105 24
75 106 20
81 111 22
83 111 35
83 109 30
88 112 37
94 119 50
89 114 28
87 115 33
89 117 37
85 113 33
86 116 28
85 116 18
85 116 20
88 116 24
89 117 18
89 117 13
96 121 51
106 132 63
102 129 44
100 128 39
88 118 25
96 124 45
99 126 42
90 120 23
98 125 50
100 126 54
101 127 46
106 130 45
98 130 65
96 122 45
106 127 54
105 128 48
110 135 54
112 137 61
116 135 92
64 72 116
15 18 113
19 13 114
13 13 115
8 11 116
5 11 112
0 0 113
0 0 113
0 0 113
0 0 113
0 0 113
0 0 113
0 0 113
0 0 113
0 0 113
133 141 178
222 236 255
222 236 255
222 236 255
222 236 255
222 236 255
222 236 255
222 236 255
222 236 255
222 236 255
222 236 255
222 236 255
222 236 255
222 236 255
222 236 255
222 236 255
222 236 255
222 236 255
222 236 255
222 236 255
222 236 255
222 236 255
222 236 255
222 236 255
222 236 255
222 236 255
222 236 255
222 236 255
222 236 255
222 236 255
222 236 255
222 236 255
222 236 255
222 236 255
222 236 255
222 236 255
222 236 255
222 236 255
222 236 255
222 236 255
222 236 255
222 236 255
222 236 255
222 236 255
222 236 255
222 236 255
222 236 255
222 236 255
222 236 255
222 236 255
222 236 255
222 236 255
222 236 255
222 236 255
222 236 255
222 236 255
222 236 255
222 236 255
222 236 255
222 236 255
222 236 255
222 236 255
222 236 255
222 236 255
222 236 255
222 236 255
222 236 255
222 236 255
222 236 255
222 236 255
222 236 255
222 236 255
222 236 255
222 236 255
222 236 255
222 236 255
222 236 255
222 236 255
222 236 255
222 236 255
222 236 255
222 236 255
222 236 255
222 236 255
222 236 255
222 236 255
222 236 255
222 236 255
222 236 255
222 236 255
222 236 255
222 236 255
222 236 255
222 236 255
222 236 255
222 236 255
222 236 255
222 236 255
222 236 255
222 236 255
222 236 255
222 236 255
222 236 255
222 236 255
222 236 255
222 236 255
222 236 255
222 236 255
222 236 255
222 236 255
222 236 255
222 236 255
222 236 255
222 236 255
222 236 255
222 236 255
222 236 255
222 236 255
222 236 255
222 236 255
222 236 255
222 236 255
222 236 255
222 236 255
222 236 255
222 236 255
222 236 255
222 236 255
222 236 255
222 236 255
222 236 255
222 236 255
222 236 255
222 236 255
222 236 255
222 236 255
222 236 255
222 236 255
222 236 255
222 236 255
222 236 255
222 236 255
222 236 255
222 236 255
222 236 255
222 236 255
222 236 255
222 236 255
222 236 255
222 236 255
222 236 255
222 236 255
222 236 255
222 236 255
222 236 255
222 236 255
222 236 255
222 236 255
222 236 255
222 236 255
222 236 255
222 236 255
222 236 255
222 236 255
222 236 255
222 236 255
222 236 255
222 236 255
222 236 255
222 236 255
222 236 255
222 236 255
222 236 255
222 236 255
222 236 255
222 236 255
222 236 255
222 236 255
222 236 255
222 236 255
222 236 255
222 236 255
222 236 255
222 236 255
222 236 255
147 156 190
0 0 115
0 0 114
0 0 113
0 0 113
0 0 113
0 0 113
0 0 113
0 0 113
0 0 113
0 0 113
0 0 113
0 0 113
0 0 113
0 0 113
0 0 113
0 0 113
0 0 113
0 0 113
0 0 113
0 0 113
0 0 113
0 0 113
0 0 113
0 0 113
0 0 113
0 0 113
0 0 113
0 0 113
0 0 113
0 0 113
0 0 113
0 0 113
0 0 113
0 0 113
0 0 115
0 0 115
0 0 115
0 0 115
0 0 115
0 0 115
0 0 115
0 0 115
0 0 115
0 0 115
0 0 115
0 0 115
0 0 115
0 0 115
0 0 115
0 0 115
0 0 115
0 0 115
0 0 115
0 0 115
0 0 115
0 0 115
0 0 115
0 0 115
0 0 115
0 0 115
0 0 115
6 7 115
14 14 116
13 14 116
10 18 116
3 21 116
0 20 116
0 20 116
3 20 116
13 14 116
8 18 116
0 21 116
0 20 116
0 21 116
0 21 116
0 20 116
0 20 116
0 20 116
0 20 116
0 20 116
0 20 116
0 20 116
0 20 116
0 20 116
0 20 116
0 21 116
0 20 116
0 21 116
0 20 116
0 20 116
0 20 116
0 21 116
0 21 118
0 20 118
5 25 120
8 31 122
7 32 123
10 33 123
8 32 123
7 30 122
7 29 122
0 25 119
0 22 119
0 22 119
0 25 119
0 23 119
0 16 118
0 24 119
0 21 118
0 20 116
0 21 116
0 21 117
0 21 118
0 24 118
10 28 121
6 34 124
0 39 127
0 46 131
0 55 136
8 58 138
11 56 139
21 58 140
12 60 143
0 69 148
0 80 154
11 81 153
36 82 156
76 114 147
128 153 137
140 156 133
122 134 87
107 132 79
100 122 54
98 122 44
86 114 23
83 113 23
85 115 20
86 116 6
85 115 8
82 113 9
79 111 20
74 106 9
78 109 10
85 114 26
84 115 22
82 113 14
81 112 12
83 114 27
84 115 26
78 109 10
81 112 23
85 115 30
88 118 31
83 114 26
81 112 18
78 111 8
82 114 21
85 115 27
81 113 15
79 110 10
79 110 22
86 116 37
85 115 42
82 111 40
83 113 39
84 115 34
81 112 31
83 113 34
86 113 37
88 115 31
85 113 34
87 114 32
86 114 24
79 110 11
82 113 19
83 114 11
84 115 9
90 118 22
91 119 27
95 122 43
91 119 33
93 121 29
93 121 18
97 126 41
94 124 35
96 122 57
100 127 54
92 120 24
97 123 42
92 119 35
99 125 45
108 132 62
97 125 45
96 121 37
101 124 46
104 126 60
106 128 70
116 138 81
117 139 69
100 117 91
25 24 116
19 21 111
16 20 112
6 14 114
0 5 113
0 0 113
0 0 113
0 0 113
0 0 113
0 0 113
0 0 113
0 0 113
0 0 113
0 0 113
145 154 188
222 236 255
222 236 255
222 236 255
222 236 255
222 236 255
222 236 255
222 236 255
222 236 255
222 236 255
222 236 255
222 236 255
222 236 255
222 236 255
222 236 255
222 236 255
222 236 255
222 236 255
222 236 255
222 236 255
222 236 255
222 236 255
222 236 255
222 236 255
222 236 255
222 236 255
222 236 255
222 236 255
222 236 255
222 236 255
222 236 255
222 236 255
222 236 255
222 236 255
222 236 255
222 236 255
222 236 255
222 236 255
222 236 255
222 236 255
222 236 255
222 236 255
222 236 255
222 236 255
222 236 255
222 236 255
222 236 255
222 236 255
222 236 255
222 236 255
222 236 255
222 236 255
222 236 255
222 236 255
222 236 255
222 236 255
222 236 255
222 236 255
222 236 255
222 236 255
222 236 255
222 236 255
222 236 255
222 236 255
222 236 255
222 236 255
222 236 255
222 236 255
222 236 255
222 236 255
222 236 255
222 236 255
222 236 255
222 236 255
222 236 255
222 236 255
222 236 255
222 236 255
222 236 255
222 236 255
222 236 255
222 236 255
222 236 255
222 236 255
222 236 255
222 236 255
222 236 255
222 236 255
222 236 255
222 236 255
222 236 255
222 236 255
222 236 255
222 236 255
222 236 255
222 236 255
222 236 255
222 236 255
222 236 255
222 236 255
222 236 255
222 236 255
222 236 255
222 236 255
222 236 255
222 236 255
222 236 255
222 236 255
222 236 255
222 236 255
222 236 255
222 236 255
222 236 255
222 236 255
222 236 255
222 236 255
222 236 255
222 236 255
222 236 255
222 236 255
222 236 255
222 236 255
222 236 255
222 236 255
222 236 255
222 236 255
222 236 255
222 236 255
222 236 255
222 236 255
222 236 255
222 236 255
222 236 255
222 236 255
222 236 255
222 236 255
222 236 255
222 236 255
222 236 255
222 236 255
222 236 255
222 236 255
222 236 255
222 236 255
222 236 255
222 236 255
222 236 255
222 236 255
222 236 255
222 236 255
222 236 255
222 236 255
222 236 255
222 236 255
222 236 255
222 236 255
222 236 255
222 236 255
222 236 255
222 236 255
222 236 255
222 236 255
222 236 255
222 236 255
222 236 255
222 236 255
222 236 255
222 236 255
222 236 255
222 236 255
222 236 255
222 236 255
222 236 255
222 236 255
222 236 255
222 236 255
222 236 255
222 236 255
222 236 255
222 236 255
222 236 255
222 236 255
222 236 255
222 236 255
222 236 255
173 184 212
0 0 115
0 0 115
0 0 113
0 0 113
0 0 113
0 0 113
0 0 113
0 0 113
0 0 113
0 0 113
0 0 113
0 0 113
0 0 113
0 0 113
0 0 113
0 0 113
0 0 113
0 0 113
0 0 113
0 0 113
0 0 113
0 0 113
0 0 113
0 0 113
0 0 113
0 0 113
0 0 113
0 0 113
0 0 113
0 0 113
0 0 113
0 0 113
0 0 113
0 0 113
0 0 115
0 0 115
0 0 115
0 0 115
0 0 115
0 0 115
0 0 115
0 0 115
0 0 115
0 0 115
0 0 114
0 0 114
0 0 114
0 0 114
0 0 115
0 0 115
0 0 115
0 0 115
0 0 115
0 0 115
0 0 115
0 0 115
0 0 115
0 0 115
0 0 115
0 0 115
0 0 115
5 5 115
13 14 116
14 14 116
11 17 116
0 21 116
0 20 116
0 21 116
2 20 116
13 14 116
8 16 116
0 18 116
0 18 116
0 18 116
0 19 116
0 18 116
0 19 116
0 20 116
0 21 116
0 20 116
0 20 116
0 20 116
0 20 116
0 21 116
0 20 116
0 21 116
0 20 116
0 20 116
0 20 116
0 20 116
0 20 116
0 21 116
0 21 118
0 25 119
2 29 122
1 33 124
0 33 124
0 33 124
0 31 123
0 30 123
6 30 122
10 27 120
5 25 119
4 25 119
9 27 120
10 28 120
5 22 119
0 21 119
0 20 117
0 20 116
0 20 116
0 21 117
0 24 119
4 24 118
12 30 121
1 35 124
1 43 128
0 49 133
0 56 137
13 58 139
24 57 140
24 57 140
9 59 142
17 74 150
21 88 159
22 86 158
99 115 148
120 140 102
103 129 45
109 135 53
118 127 86
103 120 58
100 124 56
103 129 61
92 122 46
82 114 29
84 116 32
83 116 6
80 116 10
76 113 6
77 112 17
75 108 10
81 111 26
86 114 41
79 110 16
77 108 8
78 109 12
81 112 29
83 113 28
83 113 34
88 117 45
84 114 36
78 109 13
80 110 21
78 109 12
79 112 16
85 115 34
87 117 32
83 114 27
81 112 15
76 108 12
80 111 25
77 109 18
76 108 28
80 112 26
80 113 15
80 112 18
78 110 15
78 110 13
77 109 19
78 108 22
78 106 4
83 113 16
82 112 20
86 116 27
92 121 38
87 118 22
93 120 26
90 118 23
90 117 33
90 118 15
93 120 19
91 120 18
92 122 28
98 127 43
87 114 50
99 125 56
94 121 42
107 130 58
102 127 56
107 131 61
111 133 68
104 129 57
97 122 39
96 119 35
106 128 55
110 131 74
117 137 81
115 136 82
117 136 85
67 75 115
11 16 115
8 20 117
13 17 112
9 0 115
0 0 113
0 0 113
0 0 113
0 0 113
0 0 113
0 0 113
0 0 113
0 0 113
0 0 113
160 170 200
222 236 255
222 236 255
222 236 255
222 236 255
222 236 255
222 236 255
222 236 255
222 236 255
222 236 255
222 236 255
222 236 255
222 236 255
222 236 255
222 236 255
222 236 255
222 236 255
222 236 255
222 236 255
222 236 255
222 236 255
222 236 255
222 236 255
222 236 255
222 236 255
222 236 255
222 236 255
222 236 255
222 236 255
222 236 255
222 236 255
222 236 255
222 236 255
222 236 255
222 236 255
222 236 255
222 236 255
222 236 255
222 236 255
222 236 255
222 236 255
222 236 255
222 236 255
222 236 255
222 236 255
222 236 255
222 236 255
222 236 255
222 236 255
222 236 255
222 236 255
222 236 255
222 236 255
222 236 255
222 236 255
222 236 255
222 236 255
222 236 255
222 236 255
222 236 255
222 236 255
222 236 255
222 236 255
222 236 255
222 236 255
222 236 255
222 236 255
222 236 255
222 236 255
222 236 255
222 236 255
222 236 255
222 236 255
222 236 255
222 236 255
222 236 255
222 236 255
222 236 255
222 236 255
222 236 255
222 236 255
222 236 255
222 236 255
222 236 255
222 236 255
222 236 255
222 236 255
222 236 255
222 236 255
222 236 255
222 236 255
222 236 255
222 236 255
222 236 255
222 236 255
222 236 255
222 236 255
222 236 255
222 236 255
222 236 255
222 236 255
222 236 255
222 236 255
222 236 255
222 236 255
222 236 255
222 236 255
222 236 255
222 236 255
222 236 255
222 236 255
222 236 255
222 236 255
222 236 255
222 236 255
222 236 255
222 236 255
222 236 255
222 236 255
222 236 255
222 236 255
222 236 255
222 236 255
222 236 255
222 236 255
222 236 255
222 236 255
222 236 255
222 236 255
222 236 255
222 236 255
222 236 255
222 236 255
222 236 255
222 236 255
222 236 255
222 236 255
222 236 255
222 236 255
222 236 255
222 236 255
222 236 255
222 236 255
222 236 255
222 236 255
222 236 255
222 236 255
222 236 255
222 236 255
222 236 255
222 236 255
222 236 255
222 236 255
222 236 255
222 236 255
222 236 255
222 236 255
222 236 255
222 236 255
222 236 255
222 236 255
222 236 255
222 236 255
222 236 255
222 236 255
222 236 255
222 236 255
222 236 255
222 236 255
222 236 255
222 236 255
222 236 255
222 236 255
222 236 255
222 236 255
222 236 255
222 236 255
222 236 255
222 236 255
222 236 255
222 236 255
222 236 255
222 236 255
222 236 255
222 236 255
180 192 218
0 0 115
0 0 115
0 0 113
0 0 113
0 0 113
0 0 113
0 0 113
0 0 113
0 0 113
0 0 113
0 0 113
0 0 113
0 0 113
0 0 113
0 0 113
0 0 113
0 0 113
0 0 113
0 0 113
0 0 113
0 0 113
0 0 113
0 0 113
0 0 113
0 0 113
0 0 113
0 0 113
0 0 113
0 0 113
0 0 113
0 0 113
0 0 113
0 0 113
0 0 113
0 0 115
0 0 115
0 0 115
0 0 115
0 0 115
0 0 115
0 0 115
0 0 115
0 0 115
0 0 114
0 0 113
0 0 113
0 0 113
0 0 113
0 0 114
0 0 115
0 0 115
0 0 115
0 0 115
0 0 115
0 0 115
0 0 115
0 0 115
0 0 115
0 0 115
0 0 115
0 0 115
5 5 115
13 14 116
14 14 116
11 17 116
0 20 116
0 21 116
0 20 116
1 18 116
9 9 116
0 0 115
0 0 115
0 0 115
0 0 115
0 0 115
0 0 115
0 11 115
0 15 115
0 19 116
0 20 116
0 21 116
0 20 116
0 20 116
0 21 116
0 21 116
0 20 116
0 20 116
0 20 116
0 21 116
0 20 116
0 21 116
0 20 116
0 22 118
0 25 119
10 31 122
11 35 125
9 34 125
5 33 125
0 33 124
0 33 124
11 33 124
18 32 121
14 30 121
14 29 121
17 32 121
17 31 121
14 29 121
0 24 119
0 21 118
0 21 116
0 20 116
0 22 117
0 24 119
9 20 119
12 30 121
8 37 125
8 43 128
0 48 132
0 51 135
0 54 136
9 58 137
9 57 137
0 58 139
0 75 148
21 94 161
52 114 166
129 151 152
140 150 104
120 140 92
112 132 70
110 126 75
101 122 48
98 122 52
100 126 59
88 119 41
79 112 25
82 114 33
82 115 16
80 116 17
77 114 14
78 114 24
80 114 31
83 113 32
84 112 29
79 110 17
76 107 12
77 108 13
79 110 21
76 108 17
76 108 21
81 112 31
76 107 20
76 107 11
81 112 26
80 111 19
80 113 16
83 114 27
81 111 20
82 112 20
81 112 14
79 111 29
78 110 22
74 108 3
76 108 23
77 110 22
76 110 0
78 111 0
77 110 0
79 112 16
79 111 28
75 106 17
80 110 15
84 115 20
83 113 25
85 115 33
91 121 41
86 117 22
91 119 16
87 116 11
85 113 8
90 118 15
89 118 10
89 120 9
88 119 12
91 121 24
90 116 48
102 127 54
104 130 56
114 137 70
105 129 61
97 122 38
105 128 62
102 125 48
100 125 53
104 125 59
112 130 76
111 126 82
116 133 81
120 137 81
125 141 87
123 135 120
71 75 120
47 52 114
21 13 114
1 0 113
0 0 113
0 0 113
0 0 113
0 0 113
0 0 113
0 0 113
0 0 113
0 0 113
0 0 113
176 187 214
222 236 255
222 236 255
222 236 255
222 236 255
222 236 255
222 236 255
222 236 255
222 236 255
222 236 255
222 236 255
222 236 255
222 236 255
222 236 255
222 236 255
222 236 255
222 236 255
222 236 255
222 236 255
222 236 255
222 236 255
222 236 255
222 236 255
222 236 255
222 236 255
222 236 255
222 236 255
222 236 255
222 236 255
222 236 255
222 236 255
222 236 255
222 236 255
222 236 255
222 236 255
222 236 255
222 236 255
222 236 255
222 236 255
222 236 255
222 236 255
222 236 255
222 236 255
222 236 255
222 236 255
222 236 255
222 236 255
222 236 255
222 236 255
222 236 255
222 236 255
222 236 255
222 236 255
222 236 255
222 236 255
222 236 255
222 236 255
222 236 255
222 236 255
222 236 255
222 236 255
222 236 255
222 236 255
222 236 255
222 236 255
222 236 255
222 236 255
222 236 255
222 236 255
222 236 255
222 236 255
222 236 255
222 236 255
222 236 255
222 236 255
222 236 255
222 236 255
222 236 255
222 236 255
222 236 255
222 236 255
222 236 255
222 236 255
222 236 255
222 236 255
222 236 255
222 236 255
222 236 255
222 236 255
222 236 255
222 236 255
222 236 255
222 236 255
222 236 255
222 236 255
222 236 255
222 236 255
222 236 255
222 236 255
222 236 255
222 236 255
222 236 255
222 236 255
222 236 255
222 236 255
222 236 255
222 236 255
222 236 255
222 236 255
222 236 255
222 236 255
222 236 255
222 236 255
222 236 255
222 236 255
222 236 255
222 236 255
222 236 255
222 236 255
222 236 255
222 236 255
222 236 255
222 236 255
222 236 255
222 236 255
222 236 255
222 236 255
222 236 255
222 236 255
222 236 255
222 236 255
222 236 255
222 236 255
222 236 255
222 236 255
222 236 255
222 236 255
222 236 255
222 236 255
222 236 255
222 236 255
222 236 255
222 236 255
222 236 255
222 236 255
222 236 255
222 236 255
222 236 255
222 236 255
222 236 255
222 236 255
222 236 255
222 236 255
222 236 255
222 236 255
222 236 255
222 236 255
222 236 255
222 236 255
222 236 255
222 236 255
222 236 255
222 236 255
222 236 255
222 236 255
222 236 255
222 236 255
222 236 255
222 236 255
222 236 255
222 236 255
222 236 255
222 236 255
222 236 255
222 236 255
222 236 255
222 236 255
222 236 255
222 236 255
222 236 255
222 236 255
222 236 255
222 236 255
222 236 255
222 236 255
189 201 226
0 0 115
0 0 115
0 0 113
0 0 113
0 0 113
0 0 113
0 0 113
0 0 113
0 0 113
0 0 113
0 0 113
0 0 113
0 0 113
0 0 113
0 0 113
0 0 113
0 0 113
0 0 113
0 0 113
0 0 113
0 0 113
0 0 113
0 0 113
0 0 113
0 0 113
0 0 113
0 0 113
0 0 113
0 0 113
0 0 113
0 0 113
0 0 113
0 0 113
0 0 113
0 0 115
0 0 115
0 0 115
0 0 115
0 0 114
0 0 113
0 0 113
0 0 113
0 0 113
0 0 113
0 0 113
0 0 113
0 0 113
0 0 113
0 0 114
0 0 115
0 0 115
0 0 115
0 0 115
0 0 115
0 0 115
0 0 115
0 0 115
0 0 115
0 0 115
0 0 115
0 0 115
4 5 115
13 14 116
13 14 116
10 17 116
0 21 116
0 20 116
0 21 116
0 16 115
0 0 115
0 0 114
0 0 114
0 0 114
0 0 114
0 0 114
0 0 114
0 6 115
0 8 115
0 11 115
8 15 116
10 17 116
10 17 116
5 19 116
0 21 116
0 20 116
0 21 116
0 21 116
0 21 116
0 20 116
0 20 116
0 21 116
0 20 116
0 24 119
5 26 120
14 33 123
14 36 125
9 34 124
7 32 124
0 31 123
0 32 124
11 33 123
19 33 121
13 29 120
9 27 120
17 31 121
17 31 121
14 29 121
0 25 119
7 25 118
5 21 116
0 21 116
0 21 117
0 22 119
0 17 119
12 30 122
6 36 125
5 41 127
0 43 128
9 44 131
8 51 134
3 54 133
18 55 135
13 55 137
0 70 145
21 92 159
32 109 172
131 156 160
173 173 133
137 149 107
116 134 83
109 130 79
107 126 64
97 121 51
95 121 45
83 112 19
77 109 22
80 112 26
84 116 29
85 117 31
78 114 11
77 113 13
83 116 30
84 115 28
81 112 14
75 108 5
74 107 0
73 106 0
75 107 23
75 107 17
72 105 0
74 106 11
73 106 21
76 108 19
80 112 20
81 113 17
84 115 25
83 113 23
79 110 6
82 112 22
82 113 16
78 110 30
77 110 9
77 110 6
77 110 29
80 112 27
80 112 20
83 113 24
83 113 19
82 112 21
78 109 24
76 107 18
84 115 23
83 114 14
79 110 17
81 113 26
80 112 16
83 114 14
89 118 13
90 118 16
90 118 22
87 116 11
85 115 4
91 121 22
93 123 23
94 124 44
102 129 52
105 129 65
107 133 58
115 136 68
103 126 56
97 123 46
107 129 65
102 127 60
100 126 56
112 128 68
115 131 78
117 131 80
124 137 87
124 137 90
137 146 101
138 145 114
140 144 125
94 101 107
19 21 114
0 0 113
0 0 113
0 0 113
0 0 113
0 0 113
0 0 113
0 0 113
0 0 113
0 0 113
3 3 113
192 204 228
222 236 255
222 236 255
222 236 255
222 236 255
222 236 255
222 236 255
222 236 255
222 236 255
222 236 255
222 236 255
222 236 255
222 236 255
222 236 255
222 236 255
222 236 255
222 236 255
222 236 255
222 236 255
222 236 255
222 236 255
222 236 255
222 236 255
222 236 255
222 236 255
222 236 255
222 236 255
222 236 255
222 236 255
222 236 255
222 236 255
222 236 255
222 236 255
222 236 255
222 236 255
222 236 255
222 236 255
222 236 255
222 236 255
222 236 255
222 236 255
222 236 255
222 236 255
222 236 255
222 236 255
222 236 255
222 236 255
222 236 255
222 236 255
222 236 255
222 236 255
222 236 255
222 236 255
222 236 255
222 236 255
222 236 255
222 236 255
222 236 255
222 236 255
222 236 255
222 236 255
222 236 255
222 236 255
222 236 255
222 236 255
222 236 255
222 236 255
222 236 255
222 236 255
222 236 255
222 236 255
222 236 255
222 236 255
222 236 255
222 236 255
222 236 255
222 236 255
222 236 255
222 236 255
222 236 255
222 236 255
222 236 255
222 236 255
222 236 255
222 236 255
222 236 255
222 236 255
222 236 255
222 236 255
222 236 255
222 236 255
222 236 255
222 236 255
222 236 255
222 236 255
222 236 255
222 236 255
222 236 255
222 236 255
222 236 255
222 236 255
222 236 255
222 236 255
222 236 255
222 236 255
222 236 255
222 236 255
222 236 255
222 236 255
222 236 255
222 236 255
222 236 255
222 236 255
222 236 255
222 236 255
222 236 255
222 236 255
222 236 255
222 236 255
222 236 255
222 236 255
222 236 255
222 236 255
222 236 255
222 236 255
222 236 255
222 236 255
222 236 255
222 236 255
222 236 255
222 236 255
222 236 255
222 236 255
222 236 255
222 236 255
222 236 255
222 236 255
222 236 255
222 236 255
222 236 255
222 236 255
222 236 255
222 236 255
222 236 255
222 236 255
222 236 255
222 236 255
222 236 255
222 236 255
222 236 255
222 236 255
222 236 255
222 236 255
222 236 255
222 236 255
222 236 255
222 236 255
222 236 255
222 236 255
222 236 255
222 236 255
222 236 255
222 236 255
222 236 255
222 236 255
222 236 255
222 236 255
222 236 255
222 236 255
222 236 255
222 236 255
222 236 255
222 236 255
222 236 255
222 236 255
222 236 255
222 236 255
222 236 255
222 236 255
222 236 255
222 236 255
222 236 255
222 236 255
222 236 255
222 236 255
197 210 233
0 0 115
0 0 114
0 0 113
0 0 113
0 0 113
0 0 113
0 0 113
0 0 113
0 0 113
0 0 113
0 0 113
0 0 113
0 0 113
0 0 113
0 0 113
0 0 113
0 0 113
0 0 113
0 0 113
0 0 113
0 0 113
0 0 113
0 0 113
0 0 113
0 0 113
0 0 113
0 0 113
0 0 113
0 0 113
0 0 113
0 0 113
0 0 113
0 0 113
0 0 113
0 0 114
0 0 114
0 0 114
0 0 114
0 0 114
0 0 113
0 0 113
0 0 113
0 0 113
0 0 113
0 0 113
0 0 113
0 0 113
0 0 113
0 0 114
0 0 115
0 0 115
0 0 114
0 0 114
0 0 114
0 0 114
0 0 115
0 0 115
0 0 115
0 0 115
0 0 115
0 0 115
5 6 115
13 14 116
13 13 116
11 15 116
0 19 116
1 19 116
4 19 116
0 16 115
0 8 115
0 2 114
0 0 113
0 0 113
0 0 113
0 0 113
0 0 113
0 4 114
0 5 115
0 4 115
12 13 116
13 15 116
13 15 116
8 19 116
0 21 116
0 20 116
0 21 116
0 20 116
0 20 116
0 20 116
0 21 116
3 21 116
1 21 116
2 24 119
7 26 120
11 31 122
6 31 123
0 29 123
0 26 122
0 26 122
0 27 122
2 28 122
7 32 121
4 30 120
1 26 119
7 29 120
5 29 120
5 29 120
11 28 120
9 25 118
9 23 117
0 20 116
0 20 117
0 20 118
0 16 120
5 27 122
0 35 124
2 39 125
6 39 125
17 39 127
12 46 130
12 48 131
30 50 133
24 51 134
2 59 139
10 81 153
21 88 162
91 129 163
178 183 165
154 159 124
120 135 81
115 127 71
110 136 78
109 130 70
96 121 49
85 113 31
81 112 35
79 110 18
84 115 27
81 113 17
80 113 13
85 119 32
86 119 32
84 115 11
79 112 3
78 111 3
77 110 7
73 107 8
74 107 20
74 107 17
71 104 2
71 104 10
72 105 18
75 108 14
79 111 15
85 117 24
81 113 14
78 109 6
77 108 9
82 113 23
82 113 20
77 110 25
79 112 23
80 112 26
79 111 32
78 111 23
82 113 24
85 114 29
82 112 15
79 111 14
79 110 23
78 110 13
84 114 10
83 113 14
76 109 8
78 111 13
79 111 8
84 114 9
87 116 13
84 114 13
86 116 8
86 116 11
84 115 6
89 119 18
87 118 16
95 123 55
104 131 49
107 134 67
109 132 59
113 131 65
110 131 66
104 124 57
107 122 62
102 126 60
99 125 54
109 126 62
113 128 71
117 135 88
129 140 95
123 139 85
133 144 103
149 153 127
145 147 117
103 112 100
9 12 113
0 0 113
0 0 113
0 0 113
0 0 113
0 0 113
0 0 113
0 0 113
0 0 113
0 0 113
2 2 113
200 212 235
222 236 255
222 236 255
222 236 255
222 236 255
222 236 255
222 236 255
222 236 255
222 236 255
222 236 255
222 236 255
222 236 255
222 236 255
222 236 255
222 236 255
222 236 255
222 236 255
222 236 255
222 236 255
222 236 255
222 236 255
222 236 255
222 236 255
222 236 255
222 236 255
222 236 255
222 236 255
222 236 255
222 236 255
222 236 255
222 236 255
222 236 255
222 236 255
222 236 255
222 236 255
222 236 255
222 236 255
222 236 255
222 236 255
222 236 255
222 236 255
222 236 255
222 236 255
222 236 255
222 236 255
222 236 255
222 236 255
222 236 255
222 236 255
222 236 255
222 236 255
222 236 255
222 236 255
222 236 255
222 236 255
222 236 255
222 236 255
222 236 255
222 236 255
222 236 255
222 236 255
222 236 255
222 236 255
222 236 255
222 236 255
222 236 255
222 236 255
222 236 255
222 236 255
222 236 255
222 236 255
222 236 255
222 236 255
222 236 255
222 236 255
222 236 255
222 236 255
222 236 255
222 236 255
222 236 255
222 236 255
222 236 255
222 236 255
222 236 255
222 236 255
222 236 255
222 236 255
222 236 255
222 236 255
222 236 255
222 236 255
222 236 255
222 236 255
222 236 255
222 236 255
222 236 255
222 236 255
222 236 255
222 236 255
222 236 255
222 236 255
222 236 255
222 236 255
222 236 255
222 236 255
222 236 255
222 236 255
222 236 255
222 236 255
222 236 255
222 236 255
222 236 255
222 236 255
222 236 255
222 236 255
222 236 255
222 236 255
222 236 255
222 236 255
222 236 255
222 236 255
222 236 255
222 236 255
222 236 255
222 236 255
222 236 255
222 236 255
222 236 255
222 236 255
222 236 255
222 236 255
222 236 255
222 236 255
222 236 255
222 236 255
222 236 255
222 236 255
222 236 255
222 236 255
222 236 255
222 236 255
222 236 255
222 236 255
222 236 255
222 236 255
222 236 255
222 236 255
222 236 255
222 236 255
222 236 255
222 236 255
222 236 255
222 236 255
222 236 255
222 236 255
222 236 255
222 236 255
222 236 255
222 236 255
222 236 255
222 236 255
222 236 255
222 236 255
222 236 255
222 236 255
222 236 255
222 236 255
222 236 255
222 236 255
222 236 255
222 236 255
222 236 255
222 236 255
222 236 255
222 236 255
222 236 255
222 236 255
222 236 255
222 236 255
222 236 255
222 236 255
222 236 255
222 236 255
222 236 255
222 236 255
217 231 251
0 0 115
0 0 115
0 0 113
0 0 113
0 0 113
0 0 113
0 0 113
0 0 113
0 0 113
0 0 113
0 0 113
0 0 113
0 0 113
0 0 113
0 0 113
0 0 113
0 0 113
0 0 113
0 0 113
0 0 113
0 0 113
0 0 113
0 0 113
0 0 113
0 0 113
0 0 113
0 0 113
0 0 113
0 0 113
0 0 113
0 0 113
0 0 113
0 0 113
0 0 113
0 0 113
0 0 113
0 0 113
0 0 113
0 0 113
0 0 113
0 0 113
0 0 113
0 0 113
0 0 113
0 0 113
0 0 113
0 0 113
0 0 113
0 0 113
0 0 113
0 0 113
0 0 113
0 0 113
0 0 113
0 0 113
0 0 113
0 0 113
0 0 113
0 0 115
0 0 115
5 5 115
12 13 116
12 13 116
4 5 115
2 3 115
8 8 115
9 9 116
10 17 116
0 21 116
0 20 116
4 15 116
7 8 115
7 8 115
6 6 115
8 9 116
8 9 116
5 18 116
0 21 116
0 21 116
0 21 116
0 20 116
0 21 116
0 20 116
0 21 116
0 20 116
0 21 116
0 20 116
0 21 116
0 21 116
2 21 116
12 24 117
12 24 117
13 25 117
14 25 117
9 23 117
0 21 116
0 21 116
0 20 116
0 20 116
0 17 116
6 16 116
14 21 119
14 21 119
5 25 119
0 25 119
0 25 121
0 25 122
13 29 122
9 27 119
0 22 117
0 21 114
0 21 116
10 23 117
5 25 118
0 30 120
7 36 122
16 38 125
14 36 125
11 37 125
11 38 127
25 45 131
16 48 132
0 52 135
10 64 143
15 75 150
9 63 147
102 122 164
202 211 208
185 186 161
135 143 108
121 133 79
123 140 93
122 137 90
104 123 67
97 117 54
97 119 56
84 114 27
89 122 34
84 116 18
86 119 28
91 123 40
83 116 22
79 112 0
78 111 6
80 112 18
77 110 7
77 110 0
73 107 0
74 107 14
73 106 13
74 107 15
71 105 5
72 105 5
81 112 21
87 118 30
81 112 0
73 105 5
75 107 15
80 111 19
79 112 19
76 110 14
78 111 27
79 111 29
79 112 27
81 113 16
86 115 24
87 115 21
83 114 5
79 111 9
76 110 14
82 112 6
84 112 11
80 110 13
75 108 8
75 109 0
79 111 0
83 115 3
85 115 19
83 114 18
86 117 18
88 119 24
91 121 34
95 124 46
86 117 30
89 118 38
111 137 66
111 139 71
109 130 64
114 130 70
114 132 73
114 128 74
115 127 76
101 121 52
106 124 58
113 127 69
115 128 74
121 133 90
132 138 96
129 141 96
139 145 110
151 151 127
141 144 109
107 118 97
10 11 114
0 0 113
0 0 113
0 0 113
0 0 113
0 0 113
0 0 113
0 0 113
0 0 113
0 0 113
0 0 113
213 226 247
222 236 255
222 236 255
222 236 255
222 236 255
222 236 255
222 236 255
222 236 255
222 236 255
222 236 255
222 236 255
222 236 255
222 236 255
222 236 255
222 236 255
222 236 255
222 236 255
222 236 255
222 236 255
222 236 255
222 236 255
222 236 255
222 236 255
222 236 255
222 236 255
222 236 255
222 236 255
222 236 255
222 236 255
222 236 255
222 236 255
222 236 255
222 236 255
222 236 255
222 236 255
222 236 255
222 236 255
222 236 255
222 236 255
222 236 255
222 236 255
222 236 255
222 236 255
222 236 255
222 236 255
222 236 255
222 236 255
222 236 255
222 236 255
222 236 255
222 236 255
222 236 255
222 236 255
222 236 255
222 236 255
222 236 255
222 236 255
222 236 255
222 236 255
222 236 255
222 236 255
222 236 255
222 236 255
222 236 255
222 236 255
222 236 255
222 236 255
222 236 255
222 236 255
222 236 255
222 236 255
222 236 255
222 236 255
222 236 255
222 236 255
222 236 255
222 236 255
222 236 255
222 236 255
222 236 255
222 236 255
222 236 255
222 236 255
222 236 255
222 236 255
222 236 255
222 236 255
222 236 255
222 236 255
222 236 255
222 236 255
222 236 255
222 236 255
222 236 255
222 236 255
222 236 255
222 236 255
222 236 255
222 236 255
222 236 255
222 236 255
222 236 255
222 236 255
222 236 255
222 236 255
222 236 255
222 236 255
222 236 255
222 236 255
222 236 255
222 236 255
222 236 255
222 236 255
222 236 255
222 236 255
222 236 255
222 236 255
222 236 255
222 236 255
222 236 255
222 236 255
222 236 255
222 236 255
222 236 255
222 236 255
222 236 255
222 236 255
222 236 255
222 236 255
222 236 255
222 236 255
222 236 255
222 236 255
222 236 255
222 236 255
222 236 255
222 236 255
222 236 255
222 236 255
222 236 255
222 236 255
222 236 255
222 236 255
222 236 255
222 236 255
222 236 255
222 236 255
222 236 255
222 236 255
222 236 255
222 236 255
222 236 255
222 236 255
222 236 255
222 236 255
222 236 255
222 236 255
222 236 255
222 236 255
222 236 255
222 236 255
222 236 255
222 236 255
222 236 255
222 236 255
222 236 255
222 236 255
222 236 255
222 236 255
222 236 255
222 236 255
222 236 255
222 236 255
222 236 255
222 236 255
222 236 255
222 236 255
222 236 255
222 236 255
222 236 255
222 236 255
222 236 255
222 236 255
222 236 255
222 236 255
222 236 255
38 40 120
0 0 113
0 0 113
0 0 113
0 0 113
0 0 113
0 0 114
0 0 114
0 0 113
0 0 113
0 0 113
0 0 113
0 0 113
0 0 113
0 0 113
0 0 113
0 0 113
0 0 113
0 0 113
0 0 113
0 0 113
0 0 113
0 0 113
0 0 113
0 0 113
0 0 113
0 0 113
0 0 113
0 0 113
0 0 113
0 0 113
0 0 113
0 0 113
0 0 113
0 0 113
0 0 113
0 0 113
0 0 113
0 0 113
0 0 113
0 0 113
0 0 113
0 0 113
0 0 113
0 0 113
0 0 113
0 0 113
0 0 113
0 0 113
0 0 113
0 0 113
0 0 113
0 0 113
0 0 113
0 0 113
0 0 113
0 0 113
0 0 113
0 0 115
0 10 115
5 17 116
8 19 116
8 18 116
6 17 116
5 13 115
13 14 116
14 14 116
12 16 116
0 21 116
0 21 116
9 18 116
14 14 116
14 14 116
14 14 116
14 14 116
13 14 116
9 18 116
0 20 116
0 21 116
0 20 116
0 20 116
0 21 116
0 21 116
0 20 116
0 21 116
0 20 116
0 21 116
0 21 116
0 21 116
0 21 116
0 20 116
0 21 116
9 23 117
9 23 117
7 22 117
0 21 116
0 21 116
0 21 116
0 21 116
0 21 116
4 18 116
9 20 118
10 19 119
2 21 119
0 25 119
0 25 120
0 25 120
12 28 121
6 25 119
5 22 117
0 20 115
0 21 116
0 19 117
0 24 119
0 26 120
5 31 120
10 33 122
9 34 124
9 34 124
10 37 126
15 43 129
16 46 131
6 50 134
0 62 141
16 80 152
16 81 151
84 104 163
162 178 209
189 200 192
142 152 111
110 131 81
127 134 85
121 132 85
109 125 75
91 113 41
94 119 47
93 122 47
87 118 28
84 115 22
86 118 24
84 116 21
82 113 9
81 112 15
79 110 10
78 110 18
76 108 8
77 109 11
77 109 14
76 108 17
77 110 18
78 110 25
75 108 11
78 109 15
81 112 21
80 111 16
74 105 0
73 104 19
79 109 22
82 114 20
79 112 11
80 112 18
76 109 15
73 106 7
78 110 22
83 113 26
84 114 17
83 114 5
82 113 0
80 111 4
76 108 5
86 114 20
83 112 17
79 110 17
75 108 5
77 110 4
81 113 8
87 117 13
83 114 10
85 115 16
87 118 8
88 119 8
97 126 45
107 135 67
99 128 50
106 133 62
113 138 69
113 138 66
116 134 74
117 131 74
118 132 74
120 131 82
121 129 79
111 125 66
119 129 77
120 132 85
118 129 86
132 135 102
134 139 105
132 140 100
143 147 115
150 150 126
139 145 108
103 118 88
6 7 115
0 0 113
0 0 113
0 0 113
0 0 113
0 0 113
0 0 113
0 0 113
0 0 113
0 0 113
62 66 130
222 236 255
222 236 255
222 236 255
222 236 255
222 236 255
222 236 255
222 236 255
222 236 255
222 236 255
222 236 255
222 236 255
222 236 255
222 236 255
222 236 255
222 236 255
222 236 255
222 236 255
222 236 255
222 236 255
222 236 255
222 236 255
222 236 255
222 236 255
222 236 255
222 236 255
222 236 255
222 236 255
222 236 255
222 236 255
222 236 255
222 236 255
222 236 255
222 236 255
222 236 255
222 236 255
222 236 255
222 236 255
222 236 255
222 236 255
222 236 255
222 236 255
222 236 255
222 236 255
222 236 255
222 236 255
222 236 255
222 236 255
222 236 255
222 236 255
222 236 255
222 236 255
222 236 255
222 236 255
222 236 255
222 236 255
222 236 255
222 236 255
222 236 255
222 236 255
222 236 255
222 236 255
222 236 255
222 236 255
222 236 255
222 236 255
222 236 255
222 236 255
222 236 255
222 236 255
222 236 255
222 236 255
222 236 255
222 236 255
222 236 255
222 236 255
222 236 255
222 236 255
222 236 255
222 236 255
222 236 255
222 236 255
222 236 255
222 236 255
222 236 255
222 236 255
222 236 255
222 236 255
222 236 255
222 236 255
222 236 255
222 236 255
222 236 255
222 236 255
222 236 255
222 236 255
222 236 255
222 236 255
222 236 255
222 236 255
222 236 255
222 236 255
222 236 255
222 236 255
222 236 255
222 236 255
222 236 255
222 236 255
222 236 255
222 236 255
222 236 255
222 236 255
222 236 255
222 236 255
222 236 255
222 236 255
222 236 255
222 236 255
222 236 255
222 236 255
222 236 255
222 236 255
222 236 255
222 236 255
222 236 255
222 236 255
222 236 255
222 236 255
222 236 255
222 236 255
222 236 255
222 236 255
222 236 255
222 236 255
222 236 255
222 236 255
222 236 255
222 236 255
222 236 255
222 236 255
222 236 255
222 236 255
222 236 255
222 236 255
222 236 255
222 236 255
222 236 255
222 236 255
222 236 255
222 236 255
222 236 255
222 236 255
222 236 255
222 236 255
222 236 255
222 236 255
222 236 255
222 236 255
222 236 255
222 236 255
222 236 255
222 236 255
222 236 255
222 236 255
222 236 255
222 236 255
222 236 255
222 236 255
222 236 255
222 236 255
222 236 255
222 236 255
222 236 255
222 236 255
222 236 255
222 236 255
222 236 255
222 236 255
222 236 255
222 236 255
222 236 255
222 236 255
222 236 255
222 236 255
222 236 255
222 236 255
222 236 255
101 108 154
0 0 113
0 0 113
0 0 113
0 0 113
0 0 113
0 0 115
0 0 115
0 0 115
0 0 115
0 0 115
0 0 115
0 0 115
0 0 115
0 0 115
0 0 115
0 0 113
0 0 113
0 0 113
0 0 113
0 0 113
0 0 113
0 0 113
0 0 113
0 0 113
0 0 113
0 0 113
0 0 113
0 0 113
0 0 113
0 0 113
0 0 113
0 0 113
0 0 113
0 0 113
0 0 113
0 0 113
0 0 113
0 0 113
0 0 113
0 0 113
0 0 113
0 0 113
0 0 113
0 0 113
0 0 113
0 0 113
0 0 113
0 0 113
0 0 113
0 0 113
0 0 113
0 0 113
0 0 113
0 0 113
0 0 113
0 0 113
0 0 113
0 0 115
0 17 116
0 21 116
0 20 116
0 21 116
0 21 116
4 19 116
13 15 116
13 15 116
11 17 116
3 20 116
1 20 116
9 18 116
13 14 116
14 15 116
13 14 116
14 14 116
14 14 116
9 18 116
0 21 116
0 21 116
0 20 116
0 21 116
0 21 116
0 20 116
0 21 116
0 21 116
0 20 116
0 21 116
0 21 116
0 20 116
0 21 116
0 20 116
0 21 116
0 21 116
0 20 116
0 21 116
0 21 116
0 21 116
0 20 116
0 21 116
0 21 116
0 21 116
0 21 116
0 20 117
2 16 118
10 23 119
0 25 119
0 25 119
13 23 120
10 22 118
5 21 116
0 20 116
0 21 116
0 17 118
0 23 119
0 24 119
4 24 119
3 27 120
0 32 122
0 32 123
0 34 125
7 40 128
24 45 131
19 50 135
5 62 140
5 81 152
7 82 153
24 64 151
58 76 153
98 115 153
148 160 145
122 131 94
125 133 88
132 137 101
109 120 73
86 107 23
87 116 36
102 130 65
86 116 20
81 112 13
83 114 20
81 112 0
81 113 13
83 113 24
79 110 4
78 109 7
75 107 0
78 109 22
80 110 25
79 110 19
78 111 10
80 112 19
77 108 12
80 110 20
80 111 20
73 104 3
72 103 12
73 104 22
77 108 15
82 113 20
84 115 24
82 114 27
77 110 16
75 107 6
80 111 22
81 112 16
83 114 14
81 112 0
79 110 11
79 110 9
76 107 0
81 111 15
85 115 28
87 117 38
80 111 16
82 114 24
87 117 20
88 119 16
83 114 6
85 116 13
88 119 8
86 118 0
92 123 30
96 126 44
99 128 49
117 141 77
111 136 66
113 137 65
118 133 80
123 136 86
122 134 84
123 133 87
120 129 81
116 127 76
127 132 86
120 130 89
125 133 98
143 142 118
133 135 102
131 137 98
137 142 111
139 145 111
128 140 91
95 113 91
9 9 114
0 0 113
0 0 113
0 0 113
0 0 113
0 0 113
0 0 113
0 0 113
0 0 113
0 0 113
86 91 144
222 236 255
222 236 255
222 236 255
222 236 255
222 236 255
222 236 255
222 236 255
222 236 255
222 236 255
222 236 255
222 236 255
222 236 255
222 236 255
222 236 255
222 236 255
222 236 255
222 236 255
222 236 255
222 236 255
222 236 255
222 236 255
222 236 255
222 236 255
222 236 255
222 236 255
222 236 255
222 236 255
222 236 255
222 236 255
222 236 255
222 236 255
222 236 255
222 236 255
222 236 255
222 236 255
222 236 255
222 236 255
222 236 255
222 236 255
222 236 255
222 236 255
222 236 255
222 236 255
222 236 255
222 236 255
222 236 255
222 236 255
222 236 255
222 236 255
222 236 255
222 236 255
222 236 255
222 236 255
222 236 255
222 236 255
222 236 255
222 236 255
222 236 255
222 236 255
222 236 255
222 236 255
222 236 255
222 236 255
222 236 255
222 236 255
222 236 255
222 236 255
222 236 255
222 236 255
222 236 255
222 236 255
222 236 255
222 236 255
222 236 255
222 236 255
222 236 255
222 236 255
222 236 255
222 236 255
222 236 255
222 236 255
222 236 255
222 236 255
222 236 255
222 236 255
222 236 255
222 236 255
222 236 255
222 236 255
222 236 255
222 236 255
222 236 255
222 236 255
222 236 255
222 236 255
222 236 255
222 236 255
222 236 255
222 236 255
222 236 255
222 236 255
222 236 255
222 236 255
222 236 255
222 236 255
222 236 255
222 236 255
222 236 255
222 236 255
222 236 255
222 236 255
222 236 255
222 236 255
222 236 255
222 236 255
222 236 255
222 236 255
222 236 255
222 236 255
222 236 255
222 236 255
222 236 255
222 236 255
222 236 255
222 236 255
222 236 255
222 236 255
222 236 255
222 236 255
222 236 255
222 236 255
222 236 255
222 236 255
222 236 255
222 236 255
222 236 255
222 236 255
222 236 255
222 236 255
222 236 255
222 236 255
222 236 255
222 236 255
222 236 255
222 236 255
222 236 255
222 236 255
222 236 255
222 236 255
222 236 255
222 236 255
222 236 255
222 236 255
222 236 255
222 236 255
222 236 255
222 236 255
222 236 255
222 236 255
222 236 255
222 236 255
222 236 255
222 236 255
222 236 255
222 236 255
222 236 255
222 236 255
222 236 255
222 236 255
222 236 255
222 236 255
222 236 255
222 236 255
222 236 255
222 236 255
222 236 255
222 236 255
222 236 255
222 236 255
222 236 255
222 236 255
222 236 255
222 236 255
222 236 255
222 236 255
222 236 255
125 133 172
0 0 113
0 0 113
0 0 113
0 0 113
0 0 113
0 0 115
0 0 115
0 16 116
0 19 116
0 17 116
0 17 116
0 18 116
0 17 116
0 15 116
0 15 116
0 3 113
0 0 113
0 0 113
0 0 113
0 0 113
0 0 113
0 0 113
0 0 113
0 0 113
0 0 113
0 0 113
0 0 113
0 0 113
0 0 113
0 0 113
0 0 113
0 0 113
0 0 113
0 0 113
0 0 113
0 0 113
0 0 113
0 0 113
0 0 113
0 0 113
0 0 113
0 0 113
0 0 113
0 0 113
0 0 113
0 0 113
0 0 113
0 0 113
0 0 113
0 0 113
0 0 113
0 0 113
0 0 113
0 0 113
0 0 113
0 0 113
0 0 113
0 0 115
0 17 116
0 20 116
0 20 116
0 19 116
0 20 116
0 20 116
0 21 116
0 21 116
5 19 116
12 12 116
4 5 115
0 0 115
0 0 115
0 0 115
9 9 116
12 12 116
14 14 116
10 18 116
0 20 116
0 21 116
0 21 116
0 20 116
0 20 116
0 20 116
0 20 116
0 20 116
0 20 116
0 21 116
0 21 116
0 20 116
0 21 116
0 21 116
0 20 116
0 21 116
0 21 116
0 20 116
0 21 116
0 21 116
0 21 116
0 21 116
0 21 116
2 21 116
3 20 116
0 21 116
13 24 117
13 21 119
9 23 119
11 27 120
13 21 119
9 22 117
0 21 116
0 21 116
0 19 117
0 16 118
10 23 118
0 20 117
0 19 118
0 21 119
5 26 120
13 29 121
7 36 124
9 42 127
20 46 131
10 49 134
0 61 139
9 80 151
12 76 149
12 70 139
26 63 144
24 74 154
111 126 158
147 148 129
124 132 94
141 142 109
130 133 99
97 111 47
92 119 47
93 122 47
87 114 15
84 114 27
86 117 30
82 113 14
82 113 13
84 114 22
84 115 21
83 113 22
77 108 0
77 108 15
79 110 13
80 111 19
79 110 6
80 111 0
80 110 4
81 111 18
78 109 18
72 103 9
74 105 20
74 105 21
79 110 10
84 115 13
83 115 31
77 110 16
78 111 8
79 111 24
82 112 27
80 110 8
78 109 9
79 109 0
81 111 23
79 110 24
76 108 0
78 109 0
81 111 17
87 116 35
83 114 23
81 113 12
84 115 10
89 119 11
82 114 6
84 115 4
87 119 5
87 119 1
88 119 19
86 117 13
100 128 47
112 136 70
115 138 74
119 141 80
122 135 88
120 132 80
121 132 81
121 130 84
119 126 81
116 128 79
120 129 83
120 130 93
129 137 104
143 143 114
137 137 106
134 138 99
137 142 108
133 143 106
125 141 83
79 97 98
6 8 113
0 0 113
0 0 113
0 0 113
0 0 113
0 0 113
0 0 113
0 0 113
0 0 113
0 0 113
144 153 187
222 236 255
222 236 255
222 236 255
222 236 255
222 236 255
222 236 255
222 236 255
222 236 255
222 236 255
222 236 255
222 236 255
222 236 255
222 236 255
222 236 255
222 236 255
222 236 255
222 236 255
222 236 255
222 236 255
222 236 255
222 236 255
222 236 255
222 236 255
222 236 255
222 236 255
222 236 255
222 236 255
222 236 255
222 236 255
222 236 255
222 236 255
222 236 255
222 236 255
222 236 255
222 236 255
222 236 255
222 236 255
222 236 255
222 236 255
222 236 255
222 236 255
222 236 255
222 236 255
222 236 255
222 236 255
222 236 255
222 236 255
222 236 255
222 236 255
222 236 255
222 236 255
222 236 255
222 236 255
222 236 255
222 236 255
222 236 255
222 236 255
222 236 255
222 236 255
222 236 255
222 236 255
222 236 255
222 236 255
222 236 255
222 236 255
222 236 255
222 236 255
222 236 255
222 236 255
222 236 255
222 236 255
222 236 255
222 236 255
222 236 255
222 236 255
222 236 255
222 236 255
222 236 255
222 236 255
222 236 255
222 236 255
222 236 255
222 236 255
222 236 255
222 236 255
222 236 255
222 236 255
222 236 255
222 236 255
222 236 255
222 236 255
222 236 255
222 236 255
222 236 255
222 236 255
222 236 255
222 236 255
222 236 255
222 236 255
222 236 255
222 236 255
222 236 255
222 236 255
222 236 255
222 236 255
222 236 255
222 236 255
222 236 255
222 236 255
222 236 255
222 236 255
222 236 255
222 236 255
222 236 255
222 236 255
222 236 255
222 236 255
222 236 255
222 236 255
222 236 255
222 236 255
222 236 255
222 236 255
222 236 255
222 236 255
222 236 255
222 236 255
222 236 255
222 236 255
222 236 255
222 236 255
222 236 255
222 236 255
222 236 255
222 236 255
222 236 255
222 236 255
222 236 255
222 236 255
222 236 255
222 236 255
222 236 255
222 236 255
222 236 255
222 236 255
222 236 255
222 236 255
222 236 255
222 236 255
222 236 255
222 236 255
222 236 255
222 236 255
222 236 255
222 236 255
222 236 255
222 236 255
222 236 255
222 236 255
222 236 255
222 236 255
222 236 255
222 236 255
222 236 255
222 236 255
222 236 255
222 236 255
222 236 255
222 236 255
222 236 255
222 236 255
222 236 255
222 236 255
222 236 255
222 236 255
222 236 255
222 236 255
222 236 255
222 236 255
222 236 255
222 236 255
222 236 255
222 236 255
222 236 255
222 236 255
222 236 255
159 168 199
0 0 113
0 0 113
0 0 113
0 0 113
0 0 114
0 0 115
0 0 115
0 14 116
0 20 116
7 22 117
4 21 116
0 21 116
0 21 116
0 21 116
0 20 116
5 10 113
1 3 113
0 0 113
0 0 113
0 0 113
0 0 113
0 0 113
0 0 113
0 0 113
0 0 113
0 0 113
0 0 113
0 0 113
0 0 113
0 0 113
0 0 113
0 0 113
0 0 113
0 0 114
0 0 115
0 0 115
0 0 115
0 0 115
0 0 113
0 0 113
0 0 113
0 0 113
0 0 113
0 0 113
0 0 113
0 0 113
0 0 113
0 0 113
0 0 113
0 0 113
0 0 113
0 0 113
0 0 113
0 0 113
0 0 113
0 0 113
0 0 113
0 0 115
8 13 116
9 17 116
0 12 115
0 11 115
7 15 116
10 17 116
0 20 115
0 19 115
0 16 114
0 0 114
0 0 114
0 0 113
0 0 113
0 0 114
0 0 114
0 0 114
13 14 115
10 15 115
0 15 116
0 15 116
0 17 116
0 14 116
0 15 116
0 15 116
0 16 116
0 14 116
0 16 116
0 16 116
0 15 116
6 17 116
8 18 115
8 18 115
0 16 115
0 16 115
0 16 115
0 17 115
0 20 116
0 21 116
0 20 116
0 21 116
0 21 116
6 19 116
11 17 116
5 20 116
10 23 117
12 23 118
14 22 119
14 21 119
0 18 117
0 21 116
0 21 116
0 21 116
0 21 117
0 21 119
0 20 117
0 21 116
0 18 117
0 18 118
7 24 119
6 26 120
10 37 125
20 48 130
14 47 130
0 48 131
9 62 140
20 75 149
23 71 149
16 64 137
20 68 150
21 71 148
66 103 157
143 164 147
132 137 94
137 139 102
140 139 108
107 114 62
91 113 42
85 115 27
85 113 21
81 112 18
86 116 26
85 115 19
80 112 5
83 114 19
87 118 27
87 117 28
79 110 12
79 110 15
80 111 8
80 112 0
80 111 9
80 110 8
79 111 3
79 109 7
80 108 10
78 107 16
77 108 17
78 109 13
81 112 0
83 115 14
82 114 31
78 110 15
81 112 22
84 114 35
84 114 31
80 111 15
82 111 13
79 109 10
78 109 17
75 107 13
76 109 6
80 110 16
77 108 0
82 113 19
85 116 24
85 116 14
85 116 6
90 120 21
87 117 20
86 116 8
86 118 15
85 116 15
93 122 33
92 122 34
107 134 65
113 134 79
117 138 79
122 140 83
124 135 90
119 131 78
120 130 81
119 129 83
118 127 89
112 127 76
117 129 82
123 133 99
131 138 104
135 139 107
137 135 100
137 136 97
137 141 109
128 140 96
119 141 72
60 74 107
7 10 113
0 0 113
0 0 113
0 0 113
0 0 113
0 0 113
0 0 113
0 0 113
0 0 113
0 0 113
149 158 191
222 236 255
222 236 255
222 236 255
222 236 255
222 236 255
222 236 255
222 236 255
222 236 255
222 236 255
222 236 255
222 236 255
222 236 255
222 236 255
222 236 255
222 236 255
222 236 255
222 236 255
222 236 255
222 236 255
222 236 255
222 236 255
222 236 255
222 236 255
222 236 255
222 236 255
222 236 255
222 236 255
222 236 255
222 236 255
222 236 255
222 236 255
222 236 255
222 236 255
222 236 255
222 236 255
222 236 255
222 236 255
222 236 255
222 236 255
222 236 255
222 236 255
222 236 255
222 236 255
222 236 255
222 236 255
222 236 255
222 236 255
222 236 255
222 236 255
222 236 255
222 236 255
222 236 255
222 236 255
222 236 255
222 236 255
222 236 255
222 236 255
222 236 255
222 236 255
222 236 255
222 236 255
222 236 255
222 236 255
222 236 255
222 236 255
222 236 255
222 236 255
222 236 255
222 236 255
222 236 255
222 236 255
222 236 255
222 236 255
222 236 255
222 236 255
222 236 255
222 236 255
222 236 255
222 236 255
222 236 255
222 236 255
222 236 255
222 236 255
222 236 255
222 236 255
222 236 255
222 236 255
222 236 255
222 236 255
222 236 255
222 236 255
222 236 255
222 236 255
222 236 255
222 236 255
222 236 255
222 236 255
222 236 255
222 236 255
222 236 255
222 236 255
222 236 255
222 236 255
222 236 255
222 236 255
222 236 255
222 236 255
222 236 255
222 236 255
222 236 255
222 236 255
222 236 255
222 236 255
222 236 255
222 236 255
222 236 255
222 236 255
222 236 255
222 236 255
222 236 255
222 236 255
222 236 255
222 236 255
222 236 255
222 236 255
222 236 255
222 236 255
222 236 255
222 236 255
222 236 255
222 236 255
222 236 255
222 236 255
222 236 255
222 236 255
222 236 255
222 236 255
222 236 255
222 236 255
222 236 255
222 236 255
222 236 255
222 236 255
222 236 255
222 236 255
222 236 255
222 236 255
222 236 255
222 236 255
222 236 255
222 236 255
222 236 255
222 236 255
222 236 255
222 236 255
222 236 255
222 236 255
222 236 255
222 236 255
222 236 255
222 236 255
222 236 255
222 236 255
222 236 255
222 236 255
222 236 255
222 236 255
222 236 255
222 236 255
222 236 255
222 236 255
222 236 255
222 236 255
222 236 255
222 236 255
222 236 255
222 236 255
222 236 255
222 236 255
222 236 255
222 236 255
222 236 255
222 236 255
222 236 255
222 236 255
222 236 255
166 177 205
0 0 113
0 0 113
0 0 113
0 0 113
0 0 114
0 0 115
0 0 115
0 9 115
0 18 116
11 24 117
6 22 116
0 21 116
0 20 116
0 20 116
0 21 116
16 25 114
14 19 113
3 3 114
17 9 115
0 0 113
0 0 113
0 0 113
0 0 113
0 0 113
0 0 113
0 0 113
0 0 113
0 0 113
0 0 113
0 0 113
0 0 113
0 0 113
0 0 113
0 0 113
0 0 114
0 0 114
0 0 114
0 0 114
0 0 113
0 0 113
0 0 113
0 0 113
0 0 113
0 0 113
0 0 113
0 0 113
0 0 113
0 0 113
0 0 113
0 0 113
0 0 113
0 0 113
0 0 113
0 0 113
0 0 113
0 0 113
0 0 113
0 0 115
9 9 115
7 7 115
0 0 115
0 0 115
3 4 115
12 12 116
2 20 114
0 17 113
0 14 113
0 0 112
0 0 112
0 0 112
0 0 112
0 0 113
0 0 113
9 10 113
14 14 114
10 10 115
0 0 115
0 0 115
0 0 115
0 0 115
0 0 115
0 0 115
0 0 115
0 0 115
0 0 115
0 0 115
0 0 115
5 5 114
9 9 113
7 8 113
0 0 113
0 0 113
0 0 112
0 8 113
0 16 115
0 20 116
0 21 116
0 21 116
0 21 116
6 20 116
14 14 116
12 16 116
4 20 116
4 21 116
9 20 118
9 17 119
0 20 116
0 21 116
0 21 115
0 20 116
0 20 117
0 21 120
9 18 117
0 21 116
0 21 116
9 19 118
13 21 119
11 22 119
9 25 122
19 43 127
7 47 129
0 51 131
19 66 142
17 65 145
6 63 142
17 61 143
23 63 142
12 81 156
9 98 160
98 124 157
143 151 135
140 142 103
137 133 101
123 127 89
97 116 50
97 124 59
86 114 26
83 113 18
91 121 41
91 121 38
83 114 10
83 114 10
83 114 12
84 115 13
80 111 7
83 113 25
84 114 27
85 116 25
83 113 28
82 112 21
82 113 18
81 110 2
82 110 19
83 113 27
81 111 7
82 112 15
84 114 13
82 113 11
81 112 25
81 112 27
85 114 30
83 113 26
83 112 12
81 110 18
91 118 48
84 111 28
75 106 0
73 106 0
77 111 25
82 113 24
81 112 9
81 113 8
86 116 26
84 116 27
84 116 17
90 121 33
84 116 29
84 117 26
84 118 24
85 117 17
89 119 32
90 118 34
107 134 70
114 132 76
117 134 86
120 136 81
118 130 81
123 132 82
122 131 88
118 130 84
121 130 92
109 124 70
113 125 75
122 129 91
139 136 111
141 140 112
145 143 113
147 148 113
142 145 108
131 148 93
111 135 61
24 33 113
0 6 113
0 0 113
0 0 113
0 0 113
0 0 113
0 0 113
0 0 113
0 0 113
0 0 113
0 0 113
169 180 208
222 236 255
222 236 255
222 236 255
222 236 255
222 236 255
222 236 255
222 236 255
222 236 255
222 236 255
222 236 255
222 236 255
222 236 255
222 236 255
222 236 255
222 236 255
222 236 255
222 236 255
222 236 255
222 236 255
222 236 255
222 236 255
222 236 255
222 236 255
222 236 255
222 236 255
222 236 255
222 236 255
222 236 255
222 236 255
222 236 255
222 236 255
222 236 255
222 236 255
222 236 255
222 236 255
222 236 255
222 236 255
222 236 255
222 236 255
222 236 255
222 236 255
222 236 255
222 236 255
222 236 255
222 236 255
222 236 255
222 236 255
222 236 255
222 236 255
222 236 255
222 236 255
222 236 255
222 236 255
222 236 255
222 236 255
222 236 255
222 236 255
222 236 255
222 236 255
222 236 255
222 236 255
222 236 255
222 236 255
222 236 255
222 236 255
222 236 255
222 236 255
222 236 255
222 236 255
222 236 255
222 236 255
222 236 255
222 236 255
222 236 255
222 236 255
222 236 255
222 236 255
222 236 255
222 236 255
222 236 255
222 236 255
222 236 255
222 236 255
222 236 255
222 236 255
222 236 255
222 236 255
222 236 255
222 236 255
222 236 255
222 236 255
222 236 255
222 236 255
222 236 255
222 236 255
222 236 255
222 236 255
222 236 255
222 236 255
222 236 255
222 236 255
222 236 255
222 236 255
222 236 255
222 236 255
222 236 255
222 236 255
222 236 255
222 236 255
222 236 255
222 236 255
222 236 255
222 236 255
222 236 255
222 236 255
222 236 255
222 236 255
222 236 255
222 236 255
222 236 255
222 236 255
222 236 255
222 236 255
222 236 255
222 236 255
222 236 255
222 236 255
222 236 255
222 236 255
222 236 255
222 236 255
222 236 255
222 236 255
222 236 255
222 236 255
222 236 255
222 236 255
222 236 255
222 236 255
222 236 255
222 236 255
222 236 255
222 236 255
222 236 255
222 236 255
222 236 255
222 236 255
222 236 255
222 236 255
222 236 255
222 236 255
222 236 255
222 236 255
222 236 255
222 236 255
222 236 255
222 236 255
222 236 255
222 236 255
222 236 255
222 236 255
222 236 255
222 236 255
222 236 255
222 236 255
222 236 255
222 236 255
222 236 255
222 236 255
222 236 255
222 236 255
222 236 255
222 236 255
222 236 255
222 236 255
222 236 255
222 236 255
222 236 255
222 236 255
222 236 255
222 236 255
222 236 255
222 236 255
222 236 255
222 236 255
222 236 255
206 219 241
0 0 113
0 0 113
0 0 113
0 0 113
0 0 113
0 0 113
0 0 113
0 8 114
0 17 115
1 21 116
2 21 116
0 20 116
0 21 116
0 21 116
0 21 116
15 26 116
19 26 115
10 10 113
0 0 113
0 0 113
0 0 113
0 0 113
0 0 113
0 0 113
0 0 113
0 0 113
0 0 113
0 0 113
0 0 113
0 0 113
0 0 113
0 0 113
0 0 113
0 0 113
0 0 113
0 0 113
0 0 113
0 0 113
0 0 113
0 0 113
0 0 113
0 0 113
0 0 113
0 0 113
0 0 113
0 0 113
0 0 113
0 0 113
0 0 113
0 0 113
0 0 113
0 0 113
0 0 113
0 0 113
0 0 113
0 0 113
0 0 113
0 0 113
0 0 113
0 0 113
0 0 113
0 0 113
0 0 113
0 0 113
0 0 115
0 0 115
0 0 115
0 0 115
0 0 115
0 0 114
0 0 113
0 0 113
0 0 113
3 3 113
4 4 113
3 3 113
0 0 113
0 0 113
0 0 113
0 0 113
0 0 113
0 0 113
0 0 113
0 0 113
0 0 113
0 0 113
0 0 113
0 0 113
0 0 113
0 0 113
0 0 113
0 0 113
0 0 113
0 12 114
0 20 116
0 20 116
0 21 116
0 21 116
0 21 116
1 20 116
6 20 116
5 20 116
2 20 116
0 21 116
0 20 117
0 19 117
0 21 116
0 21 116
0 21 116
0 21 116
0 21 116
0 21 117
5 12 115
7 20 116
14 26 117
18 25 120
17 24 120
6 23 119
10 23 123
17 39 128
12 41 127
10 49 129
13 56 135
6 60 139
9 58 138
27 58 141
23 62 144
15 84 155
25 101 164
58 100 167
142 151 165
144 148 130
132 130 109
139 138 107
113 118 81
96 125 32
90 118 32
93 119 27
101 123 46
96 125 51
81 117 27
86 117 12
84 114 15
82 113 10
84 114 11
85 114 20
83 113 19
82 112 13
80 111 13
80 111 20
83 113 30
79 109 13
81 112 6
89 118 34
87 114 20
86 114 16
86 113 20
88 115 23
87 115 23
88 116 18
94 121 42
82 110 16
81 109 9
84 111 34
93 118 46
81 109 13
80 110 18
74 107 3
77 110 20
85 116 24
84 116 14
82 115 9
81 113 16
81 115 26
83 118 27
89 121 37
86 119 28
80 116 11
80 116 10
81 115 6
88 119 32
96 123 47
97 124 55
108 126 69
121 136 89
120 135 87
118 130 86
126 133 89
124 132 93
118 127 86
122 132 92
105 119 65
120 130 93
129 133 103
143 141 119
149 143 119
154 147 123
146 146 115
141 156 102
125 149 80
82 100 91
13 13 112
2 1 113
0 0 113
0 0 113
0 0 113
0 0 113
0 0 113
0 0 113
0 0 113
0 0 113
0 0 113
196 208 232
222 236 255
222 236 255
222 236 255
222 236 255
222 236 255
222 236 255
222 236 255
222 236 255
222 236 255
222 236 255
222 236 255
222 236 255
222 236 255
222 236 255
222 236 255
222 236 255
222 236 255
222 236 255
222 236 255
222 236 255
222 236 255
222 236 255
222 236 255
222 236 255
222 236 255
222 236 255
222 236 255
222 236 255
222 236 255
222 236 255
222 236 255
222 236 255
222 236 255
222 236 255
222 236 255
222 236 255
222 236 255
222 236 255
222 236 255
222 236 255
222 236 255
222 236 255
222 236 255
222 236 255
222 236 255
222 236 255
222 236 255
222 236 255
222 236 255
222 236 255
222 236 255
222 236 255
222 236 255
222 236 255
222 236 255
222 236 255
222 236 255
222 236 255
222 236 255
222 236 255
222 236 255
222 236 255
222 236 255
222 236 255
222 236 255
222 236 255
222 236 255
222 236 255
222 236 255
222 236 255
222 236 255
222 236 255
222 236 255
222 236 255
222 236 255
222 236 255
222 236 255
222 236 255
222 236 255
222 236 255
222 236 255
222 236 255
222 236 255
222 236 255
222 236 255
222 236 255
222 236 255
222 236 255
222 236 255
222 236 255
222 236 255
222 236 255
222 236 255
222 236 255
222 236 255
222 236 255
222 236 255
222 236 255
222 236 255
222 236 255
222 236 255
222 236 255
222 236 255
222 236 255
222 236 255
222 236 255
222 236 255
222 236 255
222 236 255
222 236 255
222 236 255
222 236 255
222 236 255
222 236 255
222 236 255
222 236 255
222 236 255
222 236 255
222 236 255
222 236 255
222 236 255
222 236 255
222 236 255
222 236 255
222 236 255
222 236 255
222 236 255
222 236 255
222 236 255
222 236 255
222 236 255
222 236 255
222 236 255
222 236 255
222 236 255
222 236 255
222 236 255
222 236 255
222 236 255
222 236 255
222 236 255
222 236 255
222 236 255
222 236 255
222 236 255
222 236 255
222 236 255
222 236 255
222 236 255
222 236 255
222 236 255
222 236 255
222 236 255
222 236 255
222 236 255
222 236 255
222 236 255
222 236 255
222 236 255
222 236 255
222 236 255
222 236 255
222 236 255
222 236 255
222 236 255
222 236 255
222 236 255
222 236 255
222 236 255
222 236 255
222 236 255
222 236 255
222 236 255
222 236 255
222 236 255
222 236 255
222 236 255
222 236 255
222 236 255
222 236 255
222 236 255
222 236 255
222 236 255
222 236 255
222 236 255
222 236 255
220 234 253
49 52 124
0 0 113
0 0 113
0 0 113
0 0 113
0 0 113
0 0 113
0 3 113
0 9 114
8 16 115
4 20 116
0 21 116
0 21 116
0 21 116
0 21 116
6 20 116
14 26 116
18 21 115
7 12 113
0 0 113
0 0 113
0 0 113
0 0 113
0 0 113
0 0 113
0 0 113
0 0 113
0 0 113
0 0 113
0 0 113
0 0 113
0 0 113
0 0 113
0 0 113
0 0 113
0 0 113
0 0 113
0 0 113
0 0 114
0 0 115
0 0 115
0 0 115
0 0 115
0 0 113
0 0 113
0 0 113
0 0 113
0 0 113
0 0 113
0 0 113
0 0 113
0 0 113
0 0 113
0 0 113
0 0 113
0 0 113
0 0 113
0 0 113
0 0 113
0 0 113
0 0 113
0 0 113
0 0 113
0 0 113
0 0 115
0 0 115
0 0 115
0 0 115
0 0 115
0 0 115
0 0 113
0 0 113
0 0 113
0 0 113
0 0 113
0 0 113
0 0 113
0 0 113
0 0 113
0 0 113
0 0 113
0 0 113
0 0 113
0 0 113
0 0 113
0 0 113
0 0 113
0 0 113
0 0 113
0 0 113
0 0 113
0 0 113
0 0 113
0 12 114
0 21 116
0 21 116
0 21 116
0 21 116
0 21 116
0 20 116
0 21 116
0 21 116
0 20 116
0 21 116
0 21 116
0 21 116
0 21 116
0 21 116
0 21 116
0 20 116
0 21 116
0 21 116
8 22 117
7 22 117
8 22 117
6 17 118
0 17 118
0 19 118
0 31 122
14 44 127
9 49 130
17 56 136
20 56 136
11 53 136
10 54 135
21 62 141
7 68 144
0 89 155
42 117 174
7 103 163
112 142 172
162 165 156
135 134 113
140 141 108
120 126 93
95 116 53
95 122 53
94 120 38
95 120 30
90 120 39
78 113 17
83 114 12
89 116 28
86 114 21
85 113 8
86 114 18
83 112 15
82 111 13
81 111 15
80 111 13
85 115 31
84 115 21
86 116 17
95 122 39
91 118 23
89 116 25
88 115 18
85 113 23
89 116 33
89 116 29
88 115 30
89 116 34
86 114 22
87 115 34
78 109 7
82 112 25
81 111 27
78 109 0
82 113 17
83 114 20
87 117 17
88 118 24
86 117 25
90 121 38
87 118 16
93 122 37
94 123 37
85 117 6
83 115 9
85 117 19
86 116 21
97 126 60
98 121 55
112 128 76
119 133 87
119 132 82
123 132 92
137 142 108
126 132 97
128 133 98
118 129 87
113 124 84
129 135 108
144 146 124
145 148 128
154 147 124
149 146 114
134 144 96
131 153 86
114 140 71
37 45 117
19 14 111
0 0 113
0 0 113
0 0 113
0 0 113
0 0 113
0 0 113
0 0 113
0 0 113
0 0 113
44 47 122
221 235 254
222 236 255
222 236 255
222 236 255
222 236 255
222 236 255
222 236 255
222 236 255
222 236 255
222 236 255
222 236 255
222 236 255
222 236 255
222 236 255
222 236 255
222 236 255
222 236 255
222 236 255
222 236 255
222 236 255
222 236 255
222 236 255
222 236 255
222 236 255
222 236 255
222 236 255
222 236 255
222 236 255
222 236 255
222 236 255
222 236 255
222 236 255
222 236 255
222 236 255
222 236 255
222 236 255
222 236 255
222 236 255
222 236 255
222 236 255
222 236 255
222 236 255
222 236 255
222 236 255
222 236 255
222 236 255
222 236 255
222 236 255
222 236 255
222 236 255
222 236 255
222 236 255
222 236 255
222 236 255
222 236 255
222 236 255
222 236 255
222 236 255
222 236 255
222 236 255
222 236 255
222 236 255
222 236 255
222 236 255
222 236 255
222 236 255
222 236 255
222 236 255
222 236 255
222 236 255
222 236 255
222 236 255
222 236 255
222 236 255
222 236 255
222 236 255
222 236 255
222 236 255
222 236 255
222 236 255
222 236 255
222 236 255
222 236 255
222 236 255
222 236 255
222 236 255
222 236 255
222 236 255
222 236 255
222 236 255
222 236 255
222 236 255
222 236 255
222 236 255
222 236 255
222 236 255
222 236 255
222 236 255
222 236 255
222 236 255
222 236 255
222 236 255
222 236 255
222 236 255
222 236 255
222 236 255
222 236 255
222 236 255
222 236 255
222 236 255
222 236 255
222 236 255
222 236 255
222 236 255
222 236 255
222 236 255
222 236 255
222 236 255
222 236 255
222 236 255
222 236 255
222 236 255
222 236 255
222 236 255
222 236 255
222 236 255
222 236 255
222 236 255
222 236 255
222 236 255
222 236 255
222 236 255
222 236 255
222 236 255
222 236 255
222 236 255
222 236 255
222 236 255
222 236 255
222 236 255
222 236 255
222 236 255
222 236 255
222 236 255
222 236 255
222 236 255
222 236 255
222 236 255
222 236 255
222 236 255
222 236 255
222 236 255
222 236 255
222 236 255
222 236 255
222 236 255
222 236 255
222 236 255
222 236 255
222 236 255
222 236 255
222 236 255
222 236 255
222 236 255
222 236 255
222 236 255
222 236 255
222 236 255
222 236 255
222 236 255
222 236 255
222 236 255
222 236 255
222 236 255
222 236 255
222 236 255
222 236 255
222 236 255
222 236 255
222 236 255
222 236 255
222 236 255
222 236 255
222 236 255
222 236 255
222 236 255
222 236 255
222 236 255
97 103 151
0 0 113
0 0 113
0 0 113
0 0 113
0 0 113
0 0 113
0 0 113
0 0 113
4 4 113
3 14 115
1 21 116
0 21 116
0 21 116
0 20 116
0 19 116
14 26 117
21 25 116
8 14 113
0 0 113
0 0 113
0 0 113
0 0 113
0 0 113
0 0 113
0 0 113
0 0 113
0 0 113
0 0 113
0 0 113
0 0 113
0 0 113
0 0 113
0 0 113
0 0 113
0 0 113
0 0 113
0 0 113
0 0 114
0 0 115
0 0 115
0 0 115
0 0 115
0 0 113
0 0 113
0 0 113
0 0 113
0 0 113
0 0 113
0 0 113
0 0 113
0 0 113
0 0 113
0 0 113
0 0 113
0 0 113
0 0 113
0 0 113
0 0 113
0 0 113
0 0 113
0 0 113
0 0 113
0 0 113
0 0 115
0 0 115
0 0 115
0 0 115
0 0 115
0 0 115
0 0 113
0 0 113
0 0 113
0 0 113
0 0 113
0 0 113
0 0 113
0 0 113
0 0 113
0 0 113
0 0 113
0 0 113
0 0 113
0 0 113
0 0 113
0 0 113
0 0 113
0 0 113
0 0 113
0 0 113
0 0 113
0 0 113
0 0 113
0 11 114
0 21 116
0 21 116
0 21 116
0 21 116
0 21 116
0 21 116
0 21 116
0 21 116
0 21 116
0 20 116
0 21 116
0 20 116
0 21 116
0 21 116
0 21 116
0 21 116
0 21 116
0 21 116
9 23 117
9 22 117
10 20 118
5 20 119
9 25 119
9 25 119
13 34 121
18 48 127
10 54 134
7 58 138
10 54 137
21 46 134
20 48 133
24 51 136
23 56 140
10 75 148
32 103 163
11 106 166
48 109 165
159 164 163
143 142 116
136 138 107
129 135 104
115 124 88
100 122 62
95 120 41
90 118 31
88 119 41
78 110 26
79 109 0
88 115 24
88 115 23
87 114 16
87 115 22
87 115 27
85 113 24
83 113 21
83 114 17
78 110 7
89 119 29
98 127 46
96 124 38
93 120 23
94 121 32
90 117 24
89 116 25
88 115 26
85 113 17
89 117 30
97 123 50
96 123 47
92 119 35
80 110 14
82 112 26
76 108 11
79 109 0
86 114 28
87 117 33
92 122 38
99 128 51
98 127 49
105 133 65
100 126 50
106 131 64
94 122 36
90 120 33
85 116 18
90 119 36
89 117 40
102 128 71
102 122 66
113 129 80
122 134 92
117 130 85
128 135 96
144 147 116
135 138 107
127 134 98
118 129 91
124 128 99
135 137 115
137 137 114
132 135 106
140 139 104
135 140 100
131 144 90
122 146 71
78 95 101
16 21 110
16 16 117
0 0 113
0 0 113
0 0 113
0 0 113
0 0 113
0 0 113
0 0 113
0 0 113
0 0 113
99 105 152
222 236 255
222 236 255
222 236 255
222 236 255
222 236 255
222 236 255
222 236 255
222 236 255
222 236 255
222 236 255
222 236 255
222 236 255
222 236 255
222 236 255
222 236 255
222 236 255
222 236 255
222 236 255
222 236 255
222 236 255
222 236 255
222 236 255
222 236 255
222 236 255
222 236 255
222 236 255
222 236 255
222 236 255
222 236 255
222 236 255
222 236 255
222 236 255
222 236 255
222 236 255
222 236 255
222 236 255
222 236 255
222 236 255
222 236 255
222 236 255
222 236 255
222 236 255
222 236 255
222 236 255
222 236 255
222 236 255
222 236 255
222 236 255
222 236 255
222 236 255
222 236 255
222 236 255
222 236 255
222 236 255
222 236 255
222 236 255
222 236 255
222 236 255
222 236 255
222 236 255
222 236 255
222 236 255
222 236 255
222 236 255
222 236 255
222 236 255
222 236 255
222 236 255
222 236 255
222 236 255
222 236 255
222 236 255
222 236 255
222 236 255
222 236 255
222 236 255
222 236 255
222 236 255
222 236 255
222 236 255
222 236 255
222 236 255
222 236 255
222 236 255
222 236 255
222 236 255
222 236 255
222 236 255
222 236 255
222 236 255
222 236 255
222 236 255
222 236 255
222 236 255
222 236 255
222 236 255
222 236 255
222 236 255
222 236 255
222 236 255
222 236 255
222 236 255
222 236 255
222 236 255
222 236 255
222 236 255
222 236 255
222 236 255
222 236 255
222 236 255
222 236 255
222 236 255
222 236 255
222 236 255
222 236 255
222 236 255
222 236 255
222 236 255
222 236 255
222 236 255
222 236 255
222 236 255
222 236 255
222 236 255
222 236 255
222 236 255
222 236 255
222 236 255
222 236 255
222 236 255
222 236 255
222 236 255
222 236 255
222 236 255
222 236 255
222 236 255
222 236 255
222 236 255
222 236 255
222 236 255
222 236 255
222 236 255
222 236 255
222 236 255
222 236 255
222 236 255
222 236 255
222 236 255
222 236 255
222 236 255
222 236 255
222 236 255
222 236 255
222 236 255
222 236 255
222 236 255
222 236 255
222 236 255
222 236 255
222 236 255
222 236 255
222 236 255
222 236 255
222 236 255
222 236 255
222 236 255
222 236 255
222 236 255
222 236 255
222 236 255
222 236 255
222 236 255
222 236 255
222 236 255
222 236 255
222 236 255
222 236 255
222 236 255
222 236 255
222 236 255
222 236 255
222 236 255
222 236 255
222 236 255
222 236 255
222 236 255
222 236 255
222 236 255
154 164 195
0 0 113
0 0 113
0 0 113
0 0 113
0 0 113
0 0 113
0 0 113
0 0 113
0 0 113
0 0 114
9 10 116
13 15 116
1 20 116
0 21 116
0 21 116
10 23 117
12 22 116
6 10 113
0 0 113
0 0 113
0 0 113
0 0 113
0 0 113
0 0 113
0 0 113
0 0 113
0 0 113
0 0 113
0 0 113
0 0 113
0 0 113
0 0 113
0 0 113
0 0 113
0 0 113
0 0 113
0 0 113
0 0 113
0 0 115
0 0 115
0 0 115
0 0 115
0 0 114
0 0 113
0 0 113
0 0 113
0 0 113
0 0 113
0 0 113
0 0 113
0 0 113
0 0 113
0 0 113
0 0 113
0 0 113
0 0 113
0 0 113
0 0 113
0 0 113
0 0 113
0 0 113
0 0 113
0 0 113
0 0 115
0 0 115
0 0 115
0 0 115
0 0 115
0 0 115
0 0 113
0 0 113
0 0 113
0 0 113
0 0 113
0 0 113
0 0 113
0 0 113
0 0 113
0 0 113
0 0 113
0 0 113
0 0 113
0 0 113
0 0 113
0 0 113
0 0 113
0 0 113
0 0 113
0 0 113
0 0 113
0 0 113
0 0 113
0 5 114
0 9 115
0 9 115
0 10 115
0 9 115
0 9 115
0 12 115
0 21 116
0 21 116
0 21 116
0 21 116
0 21 116
0 21 116
0 21 116
0 20 116
0 21 116
0 21 116
0 21 116
0 20 116
0 17 118
7 18 118
14 25 120
12 29 120
14 29 121
13 29 122
15 23 118
9 31 123
0 41 131
3 60 139
20 62 140
18 52 133
21 52 133
16 45 133
32 55 139
19 64 143
10 81 153
22 96 162
24 94 165
111 137 159
157 154 132
140 135 107
135 138 104
133 136 107
112 125 78
94 117 43
83 113 22
79 111 20
87 115 39
85 112 23
83 111 8
86 114 17
88 116 19
88 115 17
88 115 20
88 115 25
88 115 28
86 114 13
89 116 12
93 121 27
103 130 60
105 131 60
95 122 34
86 114 11
86 113 6
90 117 30
88 117 27
88 118 15
99 126 44
104 130 55
109 133 58
93 121 30
83 113 19
84 114 32
80 111 22
82 112 22
87 116 33
88 118 37
93 123 38
91 121 34
96 125 44
107 134 67
117 141 81
113 137 78
95 123 48
91 120 43
93 120 47
102 127 67
102 124 67
104 122 70
107 123 76
112 129 83
124 134 95
118 129 86
126 135 96
143 142 112
130 134 103
117 127 85
116 124 86
131 132 108
140 140 117
142 138 117
138 136 105
133 139 98
134 141 99
131 144 87
95 116 92
26 36 115
14 19 111
0 11 114
0 0 113
0 0 113
0 0 113
0 0 113
0 0 113
0 0 113
0 0 113
0 0 113
0 0 113
137 145 181
222 236 255
222 236 255
222 236 255
222 236 255
222 236 255
222 236 255
222 236 255
222 236 255
222 236 255
222 236 255
222 236 255
222 236 255
222 236 255
222 236 255
222 236 255
222 236 255
222 236 255
222 236 255
222 236 255
222 236 255
222 236 255
222 236 255
222 236 255
222 236 255
222 236 255
222 236 255
222 236 255
222 236 255
222 236 255
222 236 255
222 236 255
222 236 255
222 236 255
222 236 255
222 236 255
222 236 255
222 236 255
222 236 255
222 236 255
222 236 255
222 236 255
222 236 255
222 236 255
222 236 255
222 236 255
222 236 255
222 236 255
222 236 255
222 236 255
222 236 255
222 236 255
222 236 255
222 236 255
222 236 255
222 236 255
222 236 255
222 236 255
222 236 255
222 236 255
222 236 255
222 236 255
222 236 255
222 236 255
222 236 255
222 236 255
222 236 255
222 236 255
222 236 255
222 236 255
222 236 255
222 236 255
222 236 255
222 236 255
222 236 255
222 236 255
222 236 255
222 236 255
222 236 255
222 236 255
222 236 255
222 236 255
222 236 255
222 236 255
222 236 255
222 236 255
222 236 255
222 236 255
222 236 255
222 236 255
222 236 255
222 236 255
222 236 255
222 236 255
222 236 255
222 236 255
222 236 255
222 236 255
222 236 255
222 236 255
222 236 255
222 236 255
222 236 255
222 236 255
222 236 255
222 236 255
222 236 255
222 236 255
222 236 255
222 236 255
222 236 255
222 236 255
222 236 255
222 236 255
222 236 255
222 236 255
222 236 255
222 236 255
222 236 255
222 236 255
222 236 255
222 236 255
222 236 255
222 236 255
222 236 255
222 236 255
222 236 255
222 236 255
222 236 255
222 236 255
222 236 255
222 236 255
222 236 255
222 236 255
222 236 255
222 236 255
222 236 255
222 236 255
222 236 255
222 236 255
222 236 255
222 236 255
222 236 255
222 236 255
222 236 255
222 236 255
222 236 255
222 236 255
222 236 255
222 236 255
222 236 255
222 236 255
222 236 255
222 236 255
222 236 255
222 236 255
222 236 255
223 236 255
223 236 255
223 236 255
223 236 255
223 236 255
223 236 255
222 236 255
223 236 255
223 236 255
223 236 255
223 236 255
223 236 255
223 236 255
223 236 255
223 236 255
223 236 255
223 236 255
223 236 255
223 236 255
223 236 255
223 236 255
223 236 255
223 236 255
223 236 255
223 236 255
223 236 255
223 236 255
223 236 255
223 236 255
223 236 255
223 236 255
223 236 255
179 190 217
0 0 113
0 0 113
0 0 113
0 0 113
0 0 113
0 0 113
0 0 113
0 0 113
0 0 113
0 0 114
6 6 115
14 14 116
5 20 116
0 21 116
0 21 116
0 16 114
11 19 116
10 21 116
5 9 113
0 0 113
0 0 113
0 0 113
0 0 113
0 0 113
0 0 113
0 0 113
0 0 113
0 0 113
0 0 113
0 0 113
0 0 113
0 0 113
0 0 113
0 0 113
0 0 113
0 0 113
0 0 113
0 0 113
0 0 113
0 0 113
0 0 113
0 0 113
0 0 113
0 0 113
0 0 113
0 0 113
0 0 113
0 0 113
0 0 113
0 0 113
0 0 113
0 0 113
0 0 113
0 0 113
0 0 113
0 0 113
0 0 113
0 0 113
0 0 113
0 0 113
0 0 113
0 0 113
0 0 113
0 0 114
0 0 115
0 0 115
0 0 115
0 0 115
0 0 115
0 0 113
0 0 113
0 0 113
0 0 113
0 0 113
0 0 113
0 0 113
0 0 113
0 0 113
0 0 113
0 0 113
0 0 113
0 0 113
0 0 113
0 0 113
0 0 113
0 0 113
0 0 113
0 0 113
0 0 113
0 0 113
0 0 113
0 0 113
0 0 114
0 0 115
0 0 115
0 0 115
0 0 115
0 0 115
0 8 115
0 21 116
0 21 116
0 21 116
0 21 116
0 21 116
0 21 116
0 21 116
0 21 116
0 21 116
0 21 116
0 21 116
0 21 116
3 18 118
12 24 120
12 29 120
12 28 121
0 25 121
0 22 121
0 23 122
27 48 132
26 57 137
15 60 138
1 52 132
10 51 131
8 52 132
8 55 133
21 64 139
15 64 141
0 73 147
20 92 161
31 95 163
63 113 162
153 156 161
148 142 119
141 143 114
139 140 107
120 127 83
97 116 43
87 116 37
81 110 28
88 114 43
84 113 29
84 112 14
90 117 29
91 118 29
89 116 21
87 114 15
87 114 16
88 114 27
92 118 30
92 119 29
96 122 39
97 123 45
90 118 32
84 112 11
87 114 18
88 115 20
95 121 40
87 116 30
82 113 18
91 119 25
100 126 41
114 139 70
110 135 67
91 119 35
81 111 15
77 108 12
80 112 18
87 117 32
90 120 42
91 121 35
90 120 27
89 119 34
104 129 57
114 138 79
106 129 69
88 116 36
77 108 15
100 125 65
105 126 77
110 127 81
108 122 79
104 120 76
113 128 83
124 132 95
114 129 87
130 138 99
145 144 117
123 130 95
108 124 73
119 127 93
139 139 118
140 139 113
156 145 124
137 137 102
137 144 97
135 142 94
124 138 84
43 55 111
4 10 114
11 12 114
0 4 113
0 0 113
0 0 113
0 0 113
0 0 113
0 0 113
0 0 113
0 0 113
0 0 113
0 0 113
182 193 219
223 236 255
223 236 255
223 236 255
223 236 255
223 236 255
223 236 255
223 236 255
223 236 255
223 236 255
223 236 255
223 236 255
223 236 255
223 236 255
223 236 255
223 236 255
223 236 255
223 236 255
223 236 255
223 236 255
223 236 255
223 236 255
223 236 255
223 236 255
223 236 255
222 236 255
223 236 255
223 236 255
223 236 255
222 236 255
222 236 255
223 236 255
222 236 255
222 236 255
223 236 255
222 236 255
222 236 255
222 236 255
222 236 255
222 236 255
222 236 255
222 236 255
222 236 255
222 236 255
222 236 255
222 236 255
222 236 255
222 236 255
222 236 255
222 236 255
222 236 255
222 236 255
222 236 255
222 236 255
222 236 255
222 236 255
222 236 255
222 236 255
222 236 255
222 236 255
222 236 255
222 236 255
222 236 255
222 236 255
222 236 255
222 236 255
222 236 255
222 236 255
222 236 255
222 236 255
222 236 255
222 236 255
222 236 255
222 236 255
222 236 255
222 236 255
222 236 255
222 236 255
222 236 255
222 236 255
222 236 255
222 236 255
222 236 255
222 236 255
222 236 255
222 236 255
222 236 255
222 236 255
222 236 255
222 236 255
222 236 255
222 236 255
222 236 255
222 236 255
222 236 255
223 236 255
223 236 255
223 236 255
223 236 255
223 236 255
223 236 255
223 236 255
223 236 255
223 236 255
223 236 255
223 236 255
223 236 255
223 236 255
223 236 255
223 236 255
223 236 255
223 236 255
223 236 255
223 236 255
223 236 255
223 236 255
223 236 255
223 236 255
223 236 255
223 236 255
223 236 255
223 236 255
223 236 255
223 236 255
223 236 255
223 236 255
223 236 255
223 236 255
223 236 255
223 236 255
223 236 255
223 236 255
223 236 255
223 236 255
223 236 255
223 236 255
223 236 255
223 236 255
223 236 255
223 236 255
223 236 255
223 236 255
223 236 255
223 236 255
223 236 255
223 236 255
223 236 255
223 236 255
223 236 255
223 236 255
223 236 255
223 236 255
223 236 255
223 236 255
223 236 255
223 236 255
223 236 255
223 236 255
223 236 255
223 236 255
223 236 255
223 236 255
223 236 255
223 236 255
223 236 255
223 236 255
223 236 255
223 236 255
223 236 255
223 236 255
223 236 255
223 236 255
223 236 255
223 236 255
223 236 255
223 236 255
223 236 255
223 236 255
223 236 255
223 236 255
223 236 255
223 236 255
223 236 255
223 236 255
223 236 255
223 236 255
223 236 255
223 236 255
223 236 255
216 229 249
0 0 113
0 0 113
0 0 113
0 0 113
0 0 113
0 0 113
0 0 113
0 0 113
0 0 113
0 0 113
0 0 115
12 13 116
8 18 116
0 21 116
0 21 116
0 9 114
0 0 113
0 0 113
0 0 113
0 0 113
0 0 113
0 0 113
0 0 113
0 0 113
0 0 113
0 0 113
0 0 113
0 0 113
0 0 113
0 0 113
0 0 113
0 0 113
0 0 113
0 0 113
0 0 113
0 0 113
0 0 113
0 0 113
0 0 113
0 0 113
0 0 113
0 0 113
0 0 113
0 0 113
0 0 113
0 0 113
0 0 113
0 0 113
0 0 113
0 0 113
0 0 113
0 0 113
0 0 113
0 0 113
0 0 113
0 0 113
0 0 113
0 0 113
0 0 113
0 0 113
0 0 113
0 0 113
0 0 113
0 0 114
0 0 115
0 0 115
0 0 115
0 0 115
0 0 115
0 0 113
0 0 113
0 0 113
0 0 113
0 0 113
0 0 113
0 0 113
0 0 113
0 0 113
0 0 113
0 0 113
0 0 113
0 0 113
0 0 113
0 0 113
0 0 113
0 0 113
0 0 113
0 0 113
0 0 113
0 0 113
0 0 113
0 0 113
0 0 113
0 0 113
0 0 113
0 0 113
0 0 113
0 0 113
0 8 113
0 21 116
0 21 116
0 21 116
0 21 116
0 21 116
0 20 116
0 21 116
0 21 116
0 21 116
0 21 116
0 21 116
0 21 116
8 26 119
7 27 120
0 25 119
3 26 121
8 28 122
6 31 123
10 54 135
25 58 137
24 53 132
8 48 129
18 41 128
14 37 128
17 38 128
14 52 133
12 58 136
21 62 140
5 69 146
11 87 157
24 101 165
42 99 165
142 152 170
158 156 136
140 143 120
138 141 107
123 128 85
99 116 46
95 122 53
86 112 36
86 111 34
82 112 15
86 112 19
89 115 26
91 117 25
88 115 14
88 114 5
88 114 16
86 112 18
93 119 30
99 124 46
96 121 35
90 115 22
86 114 23
89 116 34
91 118 39
89 116 26
90 117 22
86 115 34
80 110 21
85 113 21
95 120 36
109 132 64
112 136 71
103 129 59
89 116 39
78 109 23
78 110 12
92 122 50
98 126 55
102 128 65
104 130 67
93 122 46
99 122 47
98 124 53
96 123 57
84 114 38
81 110 25
94 120 53
105 127 75
108 125 79
114 128 86
108 124 81
120 132 89
127 136 95
121 133 88
126 134 99
145 144 121
142 143 117
120 128 92
130 130 102
133 133 106
126 129 98
142 137 108
123 136 83
137 143 94
129 139 84
98 115 76
6 16 113
0 0 113
0 0 113
0 0 113
0 0 113
0 0 113
0 0 113
0 0 113
0 0 113
0 0 113
0 0 113
0 0 113
0 0 113
206 219 241
223 236 255
223 236 255
223 236 255
223 236 255
223 236 255
223 236 255
223 236 255
223 236 255
223 236 255
223 236 255
223 236 255
223 236 255
223 236 255
223 236 255
223 236 255
223 236 255
223 236 255
223 236 255
223 236 255
223 236 255
223 236 255
223 236 255
223 236 255
223 236 255
223 236 255
223 236 255
223 236 255
223 236 255
223 236 255
223 236 255
223 236 255
223 236 255
223 236 255
223 236 255
223 236 255
223 236 255
223 236 255
223 236 255
223 236 255
223 236 255
223 236 255
223 236 255
223 236 255
223 236 255
223 236 255
223 236 255
223 236 255
223 236 255
223 236 255
223 236 255
223 236 255
223 236 255
223 236 255
223 236 255
223 236 255
223 236 255
223 236 255
223 236 255
223 236 255
223 236 255
223 236 255
223 236 255
223 236 255
223 236 255
223 236 255
223 236 255
223 236 255
223 236 255
223 236 255
223 236 255
223 236 255
223 236 255
223 236 255
223 236 255
223 236 255
223 236 255
223 236 255
223 236 255
223 236 255
223 236 255
223 236 255
223 236 255
223 236 255
223 236 255
223 236 255
223 236 255
223 236 255
223 236 255
223 236 255
223 236 255
223 236 255
223 236 255
223 236 255
223 236 255
223 236 255
223 236 255
223 236 255
223 236 255
223 236 255
223 236 255
223 236 255
223 236 255
223 236 255
223 236 255
223 236 255
223 236 255
223 236 255
223 236 255
223 236 255
223 236 255
223 236 255
223 236 255
223 236 255
223 236 255
223 236 255
223 236 255
223 236 255
223 236 255
223 236 255
223 236 255
223 236 255
223 236 255
223 236 255
223 236 255
223 236 255
223 236 255
223 236 255
223 236 255
223 236 255
223 236 255
223 236 255
223 236 255
223 236 255
223 236 255
223 236 255
223 236 255
223 236 255
223 236 255
223 236 255
223 236 255
223 236 255
223 236 255
223 236 255
223 236 255
223 236 255
223 236 255
223 236 255
223 236 255
223 236 255
223 236 255
223 236 255
223 236 255
223 236 255
223 236 255
223 236 255
223 236 255
223 236 255
223 236 255
223 236 255
223 236 255
223 236 255
223 236 255
223 236 255
223 236 255
223 236 255
223 236 255
223 236 255
223 236 255
223 236 255
223 236 255
223 236 255
223 236 255
223 236 255
223 236 255
223 236 255
223 236 255
223 236 255
223 236 255
223 236 255
223 236 255
223 236 255
223 236 255
223 236 255
223 236 255
223 236 255
223 236 255
223 236 255
223 236 255
223 236 255
63 66 130
0 0 113
0 0 113
0 0 113
0 0 113
0 0 113
0 0 113
0 0 113
0 0 113
0 0 113
0 0 113
7 7 113
10 17 115
0 21 116
0 21 116
0 13 114
0 0 113
0 0 113
0 0 113
0 0 113
0 0 113
0 0 113
0 0 113
0 0 113
0 0 113
0 0 113
0 0 113
0 0 113
0 0 113
0 0 113
0 0 113
0 0 113
0 0 113
0 0 113
0 0 113
0 0 113
0 0 113
0 0 113
0 0 113
0 0 113
0 0 113
0 0 113
0 0 113
0 0 113
0 0 113
0 0 113
0 0 113
0 0 113
0 0 113
0 0 113
0 0 113
0 0 113
0 0 113
0 0 113
0 0 113
0 0 113
0 0 113
0 0 113
0 0 113
0 0 113
0 0 113
0 0 113
0 0 113
0 0 114
0 0 115
0 0 115
0 0 115
0 0 115
0 0 115
0 0 113
0 0 113
0 0 113
0 0 113
0 0 113
0 0 113
0 0 113
0 0 113
0 0 113
0 0 113
0 0 113
0 0 113
0 0 113
0 0 113
0 0 113
0 0 113
0 0 113
0 0 113
0 0 113
0 0 113
0 0 113
0 0 113
0 0 113
0 4 113
0 12 114
0 13 115
0 12 115
0 13 115
0 12 115
0 13 115
0 21 116
0 21 116
0 21 116
0 21 116
0 21 116
0 21 116
0 20 116
0 21 116
0 21 116
0 21 116
0 21 116
0 21 116
8 26 121
10 27 119
16 28 119
6 23 119
8 35 125
25 53 135
24 58 138
0 49 131
0 38 126
15 39 126
20 36 125
16 28 122
31 29 122
18 38 126
8 53 132
13 63 136
4 65 141
17 79 152
24 105 166
30 97 168
108 141 178
162 167 167
141 146 116
148 145 121
149 144 118
120 122 77
113 128 78
89 115 36
87 115 38
85 113 34
87 114 18
90 116 32
85 111 11
87 112 22
86 113 26
82 112 8
82 112 15
87 116 10
88 116 4
89 116 22
88 115 30
88 115 27
93 119 39
89 115 17
88 115 17
86 115 22
83 112 18
86 113 29
90 116 29
96 120 37
111 131 60
112 136 71
106 132 68
94 120 48
83 111 16
79 110 15
93 123 44
97 126 55
98 123 51
96 122 51
91 118 39
110 127 71
102 126 66
85 114 34
83 113 37
83 113 27
89 116 43
100 122 64
114 130 84
112 128 86
111 125 81
124 136 98
127 136 96
121 133 89
125 133 98
147 146 121
136 140 112
126 133 96
128 130 102
132 132 108
130 131 102
126 129 87
122 133 78
132 142 89
115 136 57
57 68 106
6 7 113
0 0 113
0 0 113
0 0 113
0 0 113
0 0 113
0 0 113
0 0 113
0 0 113
0 0 113
0 0 113
0 0 113
70 74 134
223 236 255
223 236 255
223 236 255
223 236 255
223 236 255
223 236 255
223 236 255
223 236 255
223 236 255
223 236 255
223 236 255
223 236 255
223 236 255
223 236 255
223 236 255
223 236 255
223 236 255
223 236 255
223 236 255
223 236 255
223 236 255
223 236 255
223 236 255
223 236 255
223 236 255
223 236 255
223 236 255
223 236 255
223 236 255
223 236 255
223 236 255
223 236 255
223 236 255
223 236 255
223 236 255
223 236 255
223 236 255
223 236 255
223 236 255
223 236 255
223 236 255
223 236 255
223 236 255
223 236 255
223 236 255
223 236 255
223 236 255
223 236 255
223 236 255
223 236 255
223 236 255
223 236 255
223 236 255
223 236 255
223 236 255
223 236 255
223 236 255
223 236 255
223 236 255
223 236 255
223 236 255
223 236 255
223 236 255
223 236 255
223 236 255
223 236 255
223 236 255
223 236 255
223 236 255
223 236 255
223 236 255
223 236 255
223 236 255
223 236 255
223 236 255
223 236 255
223 236 255
223 236 255
223 236 255
223 236 255
223 236 255
223 236 255
223 236 255
223 236 255
223 236 255
223 236 255
223 236 255
223 236 255
223 236 255
223 236 255
223 236 255
223 236 255
223 236 255
223 236 255
223 236 255
223 236 255
223 236 255
223 236 255
223 236 255
223 236 255
223 236 255
223 236 255
223 236 255
223 236 255
223 236 255
223 236 255
223 236 255
223 236 255
223 236 255
223 236 255
223 236 255
223 236 255
223 236 255
223 236 255
223 236 255
223 236 255
223 236 255
223 236 255
223 236 255
223 236 255
223 236 255
223 236 255
223 236 255
223 236 255
223 236 255
223 236 255
223 236 255
223 236 255
223 236 255
223 236 255
223 236 255
223 236 255
223 236 255
223 236 255
223 236 255
223 236 255
223 236 255
223 236 255
223 236 255
223 236 255
223 236 255
223 236 255
223 236 255
223 236 255
223 236 255
223 236 255
223 236 255
223 236 255
223 236 255
223 236 255
223 236 255
223 236 255
223 236 255
223 236 255
223 236 255
223 236 255
223 236 255
223 236 255
223 236 255
223 236 255
223 236 255
223 236 255
223 236 255
223 236 255
223 236 255
223 236 255
223 236 255
223 236 255
223 236 255
223 236 255
223 236 255
223 236 255
223 236 255
223 236 255
223 236 255
223 236 255
223 236 255
223 236 255
223 236 255
223 236 255
223 236 255
223 236 255
223 236 255
223 236 255
223 236 255
223 236 255
223 236 255
223 236 255
223 236 255
223 236 255
120 127 167
0 0 113
0 0 113
0 0 113
0 0 113
0 0 113
0 0 113
0 0 113
0 0 113
0 0 113
0 0 113
0 0 113
5 9 113
0 13 114
0 13 114
0 10 114
0 0 113
0 0 113
0 0 113
0 0 113
0 0 113
0 0 113
0 0 113
0 0 113
0 0 113
0 0 113
0 0 113
0 0 113
0 0 113
0 0 113
0 0 113
0 0 113
0 0 113
0 0 113
0 0 113
0 0 113
0 0 113
0 0 113
0 0 113
0 0 113
0 0 113
0 0 113
0 0 113
0 0 113
0 0 113
0 0 113
0 0 113
0 0 113
0 0 113
0 0 113
0 0 113
0 0 113
0 0 113
0 0 113
0 0 113
0 0 113
0 0 113
0 0 113
0 0 113
0 0 113
0 0 113
0 0 113
0 0 113
0 0 113
0 0 114
0 0 114
0 0 114
0 0 114
0 0 114
0 0 113
0 0 113
0 0 113
0 0 113
0 0 113
0 0 113
0 0 113
0 0 113
0 0 113
0 0 113
0 0 113
0 0 113
0 0 113
0 0 113
0 0 113
0 0 113
0 0 113
0 0 113
0 0 113
0 0 113
0 0 113
0 0 113
0 0 113
0 4 113
0 13 115
0 13 115
0 13 115
0 13 115
0 13 115
0 14 115
0 17 115
0 21 116
0 21 116
0 21 116
0 21 116
0 16 115
0 21 116
0 21 116
0 21 116
0 21 116
0 21 116
0 21 116
0 21 120
3 20 117
11 23 117
14 29 120
1 38 127
14 50 134
17 52 133
0 44 129
0 38 126
11 36 125
11 28 121
10 23 119
12 27 118
4 33 122
4 43 128
15 52 132
16 59 138
18 69 148
20 95 159
13 109 168
29 108 164
130 157 181
162 155 140
150 142 115
150 148 125
142 143 114
122 129 84
100 118 51
86 111 29
86 116 41
82 114 18
81 111 20
85 111 18
89 114 32
87 113 18
85 111 17
85 112 15
87 114 12
88 116 11
85 115 15
84 113 20
88 114 28
95 119 42
92 115 24
97 120 47
96 120 48
81 112 15
87 117 25
93 121 34
88 118 22
99 127 45
109 134 64
100 126 53
92 118 37
92 119 43
88 115 30
89 115 22
93 121 41
87 117 34
89 115 35
104 123 67
127 135 95
104 122 64
89 115 40
80 110 20
88 117 38
97 120 53
107 124 73
112 127 85
107 123 81
116 128 90
129 139 104
124 134 92
119 132 90
125 135 99
146 146 120
135 139 106
124 130 94
128 132 108
142 138 120
137 138 108
121 130 85
127 135 85
116 136 80
88 108 95
18 22 111
6 5 114
0 0 113
0 0 113
0 0 113
0 0 113
0 0 113
0 0 113
0 0 113
0 0 113
0 0 113
0 0 113
0 0 113
149 158 191
223 236 255
223 236 255
223 236 255
223 236 255
223 236 255
223 236 255
223 236 255
223 236 255
223 236 255
223 236 255
223 236 255
223 236 255
223 236 255
223 236 255
223 236 255
223 236 255
223 236 255
223 236 255
223 236 255
223 236 255
223 236 255
223 236 255
223 236 255
223 236 255
223 236 255
223 236 255
223 236 255
223 236 255
223 236 255
223 236 255
223 236 255
223 236 255
223 236 255
223 236 255
223 236 255
223 236 255
223 236 255
223 236 255
223 236 255
223 236 255
223 236 255
223 236 255
223 236 255
223 236 255
223 236 255
223 236 255
223 236 255
223 236 255
223 236 255
223 236 255
223 236 255
223 236 255
223 236 255
223 236 255
223 236 255
223 236 255
223 236 255
223 236 255
223 236 255
223 236 255
223 236 255
223 236 255
223 236 255
223 236 255
223 236 255
223 236 255
223 236 255
223 236 255
223 236 255
223 236 255
223 236 255
223 236 255
223 236 255
223 236 255
223 236 255
223 236 255
223 236 255
223 236 255
223 236 255
223 236 255
223 236 255
223 236 255
223 236 255
223 236 255
223 236 255
223 236 255
223 236 255
223 236 255
223 236 255
223 236 255
223 236 255
223 236 255
223 236 255
223 236 255
223 236 255
223 236 255
223 236 255
223 236 255
223 236 255
223 236 255
223 236 255
223 236 255
223 236 255
223 236 255
223 236 255
223 236 255
223 236 255
223 236 255
223 236 255
223 236 255
223 236 255
223 236 255
223 236 255
223 236 255
223 236 255
223 236 255
223 236 255
223 236 255
223 236 255
223 236 255
223 236 255
223 236 255
223 236 255
223 236 255
223 236 255
223 236 255
223 236 255
223 236 255
223 236 255
223 236 255
223 236 255
223 236 255
223 236 255
223 236 255
223 236 255
223 236 255
223 236 255
223 236 255
223 236 255
223 236 255
223 236 255
223 236 255
223 236 255
223 236 255
223 236 255
223 236 255
223 236 255
223 236 255
223 236 255
223 236 255
223 236 255
223 236 255
223 236 255
223 236 255
223 236 255
223 236 255
223 236 255
223 236 255
223 236 255
223 236 255
223 236 255
223 236 255
223 236 255
223 236 255
223 236 255
223 236 255
223 236 255
223 236 255
223 236 255
223 236 255
223 236 255
223 236 255
223 236 255
223 236 255
223 236 255
223 236 255
223 236 255
223 236 255
223 236 255
223 236 255
223 236 255
223 236 255
223 236 255
223 236 255
223 236 255
223 236 255
223 236 255
223 236 255
223 236 255
223 236 255
170 180 208
0 0 113
0 0 113
0 0 113
0 0 113
0 0 113
0 0 113
0 0 113
0 0 113
0 0 113
0 0 113
0 0 113
0 0 113
0 0 113
0 0 113
0 0 113
0 0 113
0 0 113
0 0 113
0 0 113
0 0 113
0 0 113
0 0 113
0 0 113
0 0 113
0 0 113
0 0 113
0 0 113
0 0 113
0 0 113
0 0 113
0 0 113
0 0 113
0 0 113
0 0 113
0 0 113
0 0 113
0 0 113
0 0 113
0 0 113
0 0 113
0 0 113
0 0 113
0 0 113
0 0 113
0 0 113
0 0 113
0 0 113
0 0 113
0 0 113
0 0 113
0 0 113
0 0 113
0 0 113
0 0 113
0 0 113
0 0 113
0 0 113
0 0 113
0 0 113
0 0 113
0 0 113
0 0 113
0 0 113
0 0 113
0 0 113
0 0 113
0 0 113
0 0 113
0 0 113
0 0 113
0 0 113
0 0 113
0 0 113
0 0 113
0 0 113
0 0 113
0 0 113
0 0 113
0 0 113
0 0 113
0 0 113
0 0 113
0 0 113
0 0 113
0 0 113
0 0 113
0 0 113
0 0 113
0 0 113
0 0 113
0 0 113
0 0 113
0 0 115
0 0 115
0 0 115
0 0 115
0 0 115
0 2 115
0 16 115
0 20 116
0 21 116
0 21 116
0 20 116
0 16 115
0 21 116
0 21 116
0 21 116
0 21 116
0 21 116
0 21 116
9 25 119
8 18 117
16 26 117
21 34 122
13 40 127
6 43 129
14 44 129
0 39 127
0 35 124
5 31 123
11 28 121
7 24 119
2 33 119
12 36 122
20 34 125
24 37 126
12 50 134
7 68 146
20 95 161
19 106 164
35 115 180
94 140 182
160 163 167
149 148 121
152 147 120
149 148 121
129 131 91
106 118 58
90 112 38
88 115 44
85 113 33
87 112 38
87 111 29
87 114 30
85 114 14
82 110 11
85 112 12
89 116 25
88 115 18
89 115 24
90 115 32
96 119 42
105 124 58
105 122 56
108 126 68
104 123 59
94 117 46
92 117 39
90 117 27
88 117 22
88 119 32
95 121 37
102 127 59
94 121 42
99 124 54
94 117 41
98 119 46
99 123 58
91 118 41
97 119 52
117 132 87
128 137 100
96 115 48
87 115 40
83 114 23
90 116 34
105 122 63
115 128 84
115 128 89
114 127 88
124 134 101
126 135 99
122 134 93
127 136 97
123 134 98
146 147 122
129 135 105
129 133 102
135 137 115
144 139 118
131 133 100
126 130 88
126 136 86
96 122 73
33 44 117
13 19 113
0 0 113
0 0 113
0 0 113
0 0 113
0 0 113
0 0 113
0 0 113
0 0 113
0 0 113
0 0 113
0 0 113
0 0 113
164 174 203
223 236 255
223 236 255
223 236 255
223 236 255
223 236 255
223 236 255
223 236 255
223 236 255
223 236 255
223 236 255
223 236 255
223 236 255
223 236 255
223 236 255
223 236 255
223 236 255
223 236 255
223 236 255
223 236 255
223 236 255
223 236 255
223 236 255
223 236 255
223 236 255
223 236 255
223 236 255
223 236 255
223 236 255
223 236 255
223 236 255
223 236 255
223 236 255
223 236 255
223 236 255
223 236 255
223 236 255
223 236 255
223 236 255
223 236 255
223 236 255
223 236 255
223 236 255
223 236 255
223 236 255
223 236 255
223 236 255
223 236 255
223 236 255
223 236 255
223 236 255
223 236 255
223 236 255
223 236 255
223 236 255
223 236 255
223 236 255
223 236 255
223 236 255
223 236 255
223 236 255
223 236 255
223 236 255
223 236 255
223 236 255
223 236 255
223 236 255
223 236 255
223 236 255
223 236 255
223 236 255
223 236 255
223 236 255
223 236 255
223 236 255
223 236 255
223 236 255
223 236 255
223 236 255
223 236 255
223 236 255
223 236 255
223 236 255
223 236 255
223 236 255
223 236 255
223 236 255
223 236 255
223 236 255
223 236 255
223 236 255
223 236 255
223 236 255
223 236 255
223 236 255
223 236 255
223 236 255
223 236 255
223 236 255
223 236 255
223 236 255
223 236 255
223 236 255
223 236 255
223 236 255
223 236 255
223 236 255
223 236 255
223 236 255
223 236 255
223 236 255
223 236 255
223 236 255
223 236 255
223 236 255
223 236 255
223 236 255
223 236 255
223 236 255
223 236 255
223 236 255
223 236 255
223 236 255
223 236 255
223 236 255
223 236 255
223 236 255
223 236 255
223 236 255
223 236 255
223 236 255
223 236 255
223 236 255
223 236 255
223 236 255
223 236 255
223 236 255
223 236 255
223 236 255
223 236 255
223 236 255
223 236 255
223 236 255
223 236 255
223 236 255
223 236 255
223 236 255
223 236 255
223 236 255
223 236 255
223 236 255
223 236 255
223 236 255
223 236 255
223 236 255
223 236 255
223 236 255
223 236 255
223 236 255
223 236 255
223 236 255
223 236 255
223 236 255
223 236 255
223 236 255
223 236 255
223 236 255
223 236 255
223 236 255
223 236 255
223 236 255
223 236 255
223 236 255
223 236 255
223 236 255
223 236 255
223 236 255
223 236 255
223 236 255
223 236 255
223 236 255
223 236 255
223 236 255
223 236 255
223 236 255
223 236 255
223 236 255
223 236 255
223 236 255
223 236 255
223 236 255
208 220 242
0 0 113
0 0 113
0 0 113
0 0 113
0 0 113
0 0 113
0 4 113
0 7 113
0 0 113
0 0 113
0 0 113
0 0 113
0 0 113
0 0 113
0 0 113
0 0 113
0 0 113
0 0 113
0 0 113
0 0 113
0 0 113
0 0 113
0 0 113
0 0 113
0 0 113
0 0 113
0 0 113
0 0 113
0 0 113
0 0 113
0 0 113
0 0 113
0 0 113
0 0 113
0 0 113
0 0 113
0 0 113
0 0 113
0 0 113
0 0 113
0 0 113
0 0 113
0 0 113
0 0 113
0 0 113
0 0 113
0 0 113
0 0 113
0 0 113
0 0 113
0 0 113
0 0 113
0 0 113
0 0 113
0 0 113
0 0 113
0 0 113
0 0 113
0 0 113
0 0 113
0 0 113
0 0 113
0 0 113
0 0 113
0 0 113
0 0 113
0 0 113
0 0 113
0 0 113
0 0 113
0 0 113
0 0 113
0 0 113
0 0 113
0 0 113
0 0 113
0 0 113
0 0 113
0 0 113
0 0 113
0 0 113
0 0 113
0 0 113
0 0 113
0 0 113
0 0 113
0 0 113
0 0 113
0 0 113
0 0 113
0 0 113
0 0 113
0 0 114
0 0 114
0 0 114
0 0 114
0 0 114
0 3 114
0 9 115
9 13 116
11 17 116
11 17 116
8 14 116
0 8 115
0 21 116
0 21 116
0 21 116
0 21 116
0 21 116
0 21 116
14 27 118
18 28 118
19 29 118
17 31 121
11 38 125
12 42 127
14 39 125
0 34 124
0 31 123
11 30 121
12 29 120
7 26 120
11 27 118
11 22 120
22 28 123
23 37 124
0 52 131
22 81 150
17 113 172
25 106 168
17 102 168
35 101 159
127 144 171
158 153 139
151 148 124
157 153 129
147 145 114
132 137 101
107 120 66
92 110 39
101 114 57
104 116 64
104 117 60
94 116 37
89 119 35
85 116 35
84 116 28
85 115 25
87 113 25
99 118 45
104 123 58
101 124 58
109 126 68
112 125 68
113 127 74
114 129 74
110 125 72
101 118 55
88 109 21
91 116 41
88 114 32
97 121 48
109 133 73
103 128 63
98 121 44
102 120 53
114 128 77
114 130 78
101 120 53
99 117 50
120 133 90
123 136 96
102 123 70
98 120 58
99 120 55
111 128 75
126 135 95
122 130 91
114 128 87
120 132 94
129 137 105
125 133 101
120 131 90
128 135 100
126 136 105
140 141 111
131 137 109
132 134 111
139 137 117
141 138 114
137 133 101
138 132 102
112 128 69
66 88 91
16 17 114
13 13 115
0 0 113
0 0 113
0 0 113
0 0 113
0 0 113
0 0 113
0 0 113
0 0 113
0 0 113
0 0 113
0 0 113
0 0 113
203 215 237
223 236 255
223 236 255
223 236 255
223 236 255
223 236 255
223 236 255
223 236 255
223 236 255
223 236 255
223 236 255
223 236 255
223 236 255
223 236 255
223 236 255
223 236 255
223 236 255
223 236 255
223 236 255
223 236 255
223 236 255
223 236 255
223 236 255
223 236 255
223 236 255
223 236 255
223 236 255
223 236 255
223 236 255
223 236 255
223 236 255
223 236 255
223 236 255
223 236 255
223 236 255
223 236 255
223 236 255
223 236 255
223 236 255
223 236 255
223 236 255
223 236 255
223 236 255
223 236 255
223 236 255
223 236 255
223 236 255
223 236 255
223 236 255
223 236 255
223 236 255
223 236 255
223 236 255
223 236 255
223 236 255
223 236 255
223 236 255
223 236 255
223 236 255
223 236 255
223 236 255
223 236 255
223 236 255
223 236 255
223 236 255
223 236 255
223 236 255
223 236 255
223 236 255
223 236 255
223 236 255
223 236 255
223 236 255
223 236 255
223 236 255
223 236 255
223 236 255
223 236 255
223 236 255
223 236 255
223 236 255
223 236 255
223 236 255
223 236 255
223 236 255
223 236 255
223 236 255
223 236 255
223 236 255
223 236 255
223 236 255
223 236 255
223 236 255
223 236 255
223 236 255
223 236 255
223 236 255
223 236 255
223 236 255
223 236 255
223 236 255
223 236 255
223 236 255
223 236 255
223 236 255
223 236 255
223 236 255
223 236 255
223 236 255
223 236 255
223 236 255
223 236 255
223 236 255
223 236 255
223 236 255
223 236 255
223 236 255
223 236 255
223 236 255
223 236 255
223 236 255
223 236 255
223 236 255
223 236 255
223 236 255
223 236 255
223 236 255
223 236 255
223 236 255
223 236 255
223 236 255
223 236 255
223 236 255
223 236 255
223 236 255
223 236 255
223 236 255
223 236 255
223 236 255
223 236 255
223 236 255
223 236 255
223 236 255
223 236 255
223 236 255
223 236 255
223 236 255
223 236 255
223 236 255
223 236 255
223 236 255
223 236 255
223 236 255
223 236 255
223 236 255
223 236 255
223 236 255
223 236 255
223 236 255
223 236 255
223 236 255
223 236 255
223 236 255
223 236 255
223 236 255
223 236 255
223 236 255
223 236 255
223 236 255
223 236 255
223 236 255
223 236 255
223 236 255
223 236 255
223 236 255
223 236 255
223 236 255
223 236 255
223 236 255
223 236 255
223 236 255
223 236 255
223 236 255
223 236 255
223 236 255
223 236 255
223 236 255
223 236 255
223 236 255
223 236 255
223 236 255
223 236 255
86 91 144
0 0 113
0 0 113
0 0 113
0 0 113
2 3 113
1 2 113
0 12 112
0 0 113
0 0 113
0 0 113
0 0 113
0 0 113
0 0 113
0 0 113
0 0 113
0 0 113
0 0 113
0 0 113
0 0 113
0 0 113
0 0 113
0 0 113
0 0 113
0 0 113
0 0 113
0 0 113
0 0 113
0 0 113
0 0 113
0 0 113
0 0 113
0 0 113
0 0 113
0 0 113
0 0 113
0 0 113
0 0 113
0 0 113
0 0 113
0 0 113
0 0 113
0 0 113
0 0 113
0 0 113
0 0 113
0 0 113
0 0 113
0 0 113
0 0 113
0 0 113
0 0 113
0 0 113
0 0 113
0 0 113
0 0 113
0 0 113
0 0 113
0 0 113
0 0 113
0 0 113
0 0 113
0 0 113
0 0 113
0 0 113
0 0 113
0 0 113
0 0 113
0 0 113
0 0 113
0 0 113
0 0 113
0 0 113
0 0 113
0 0 113
0 0 113
0 0 113
0 0 113
0 0 113
0 0 113
0 0 113
0 0 113
0 0 113
0 0 113
0 0 113
0 0 113
0 0 113
0 0 113
0 0 113
0 0 113
0 0 113
0 0 113
0 0 113
0 0 113
0 0 113
0 0 113
0 0 113
0 0 113
0 0 115
2 2 115
13 13 116
12 12 115
2 2 115
0 0 115
0 21 116
0 21 116
0 21 116
0 21 116
0 21 116
0 21 116
5 20 116
15 26 118
11 23 117
2 21 118
4 29 121
11 34 124
13 29 122
16 31 123
7 27 120
5 26 120
14 29 121
8 27 119
17 20 117
10 17 118
13 26 120
4 34 120
5 55 132
19 81 150
22 98 163
28 94 166
36 94 158
7 99 160
58 107 162
159 162 154
157 151 127
162 157 134
153 148 120
146 147 118
126 130 91
111 118 71
122 124 86
132 134 101
133 136 103
118 127 84
103 118 49
89 113 35
82 110 19
83 112 17
84 112 16
90 113 27
95 118 37
102 124 58
110 125 66
113 125 73
117 129 79
118 132 81
115 127 72
107 123 66
94 113 38
92 115 35
90 115 39
88 112 40
97 123 50
102 126 60
103 123 56
119 133 86
127 133 93
127 132 92
125 134 89
107 124 64
117 131 85
115 129 85
114 129 84
114 128 80
121 133 89
125 136 97
136 141 109
123 131 94
114 129 88
127 136 98
128 134 101
121 129 95
120 130 93
127 133 101
134 138 109
140 141 113
138 142 119
138 136 117
146 142 125
139 136 111
149 141 117
145 138 110
107 126 60
42 56 105
13 14 111
9 9 115
0 0 113
0 0 113
0 0 113
0 0 113
0 0 113
0 0 113
0 0 113
0 0 113
0 0 113
0 0 113
0 0 113
104 111 156
223 236 255
223 236 255
223 236 255
223 236 255
223 236 255
223 236 255
223 236 255
223 236 255
223 236 255
223 236 255
223 236 255
223 236 255
223 236 255
223 236 255
223 236 255
223 236 255
223 236 255
223 236 255
223 236 255
223 236 255
223 236 255
223 236 255
223 236 255
223 236 255
223 236 255
223 236 255
223 236 255
223 236 255
223 236 255
223 236 255
223 236 255
223 236 255
223 236 255
223 236 255
223 236 255
223 236 255
223 236 255
223 236 255
223 236 255
223 236 255
223 236 255
223 236 255
223 236 255
223 236 255
223 236 255
223 236 255
223 236 255
223 236 255
223 236 255
223 236 255
223 236 255
223 236 255
223 236 255
223 236 255
223 236 255
223 236 255
223 236 255
223 236 255
223 236 255
223 236 255
223 236 255
223 236 255
223 236 255
223 236 255
223 236 255
223 236 255
223 236 255
223 236 255
223 236 255
223 236 255
223 236 255
223 236 255
223 236 255
223 236 255
223 236 255
223 236 255
223 236 255
223 236 255
223 236 255
223 236 255
223 236 255
223 236 255
223 236 255
223 236 255
223 236 255
223 236 255
223 236 255
223 236 255
223 236 255
223 236 255
223 236 255
223 236 255
223 236 255
223 236 255
223 236 255
223 236 255
223 236 255
223 236 255
223 236 255
223 236 255
223 236 255
223 236 255
223 236 255
223 236 255
223 236 255
223 236 255
223 236 255
223 236 255
223 236 255
223 236 255
223 236 255
223 236 255
223 236 255
223 236 255
223 236 255
223 236 255
223 236 255
223 236 255
223 236 255
223 236 255
223 236 255
223 236 255
223 236 255
223 236 255
223 236 255
223 236 255
223 236 255
223 236 255
223 236 255
223 236 255
223 236 255
223 236 255
223 236 255
223 236 255
223 236 255
223 236 255
223 236 255
223 236 255
223 236 255
223 236 255
223 236 255
223 236 255
223 236 255
223 236 255
223 236 255
223 236 255
223 236 255
223 236 255
223 236 255
223 236 255
223 236 255
223 236 255
223 236 255
223 236 255
223 236 255
223 236 255
223 236 255
223 236 255
223 236 255
223 236 255
223 236 255
223 236 255
223 236 255
223 236 255
223 236 255
223 236 255
223 236 255
223 236 255
223 236 255
223 236 255
223 236 255
223 236 255
223 236 255
223 236 255
223 236 255
223 236 255
223 236 255
223 236 255
223 236 255
223 236 255
223 236 255
223 236 255
223 236 255
223 236 255
223 236 255
223 236 255
223 236 255
223 236 255
223 236 255
223 236 255
223 236 255
223 236 255
151 160 192
0 0 113
0 0 113
0 0 113
0 0 113
1 1 113
4 4 113
0 8 113
0 0 113
0 0 113
0 0 113
0 0 113
0 0 113
0 0 113
0 0 113
0 0 113
0 0 113
0 0 113
0 0 113
0 0 113
0 0 113
0 0 113
0 0 113
0 0 113
0 0 113
0 0 113
0 0 113
0 0 113
0 0 113
0 0 113
0 0 113
0 0 113
0 0 113
0 0 113
0 0 113
0 0 113
0 0 113
0 0 113
0 0 113
0 0 113
0 0 113
0 0 113
0 0 113
0 0 113
0 0 113
0 0 113
0 0 113
0 0 113
0 0 113
0 0 113
0 0 113
0 0 113
0 0 113
0 0 113
0 0 113
0 0 113
0 0 113
0 0 113
0 0 113
0 0 113
0 0 113
0 0 113
0 0 113
0 0 113
0 0 113
0 0 113
0 0 113
0 0 113
0 0 113
0 0 113
0 0 113
0 0 113
0 0 113
0 0 113
0 0 113
0 0 113
0 0 113
0 0 113
0 0 113
0 0 113
0 0 113
0 0 113
0 0 113
0 0 113
0 0 113
0 0 113
0 0 113
0 0 113
0 0 113
0 0 113
0 0 113
0 0 113
0 0 113
0 0 113
0 0 113
0 0 113
0 0 113
0 0 113
0 0 113
0 0 113
9 10 113
9 10 113
0 0 113
0 0 113
0 21 116
0 21 116
0 21 116
0 21 116
0 21 116
0 21 116
0 9 114
7 22 117
6 18 116
3 19 118
11 28 120
11 28 120
3 18 118
12 25 120
7 24 119
4 25 119
12 29 120
7 25 118
12 17 116
12 27 119
7 17 115
17 28 118
25 44 129
18 58 140
16 66 142
12 86 155
25 91 161
24 93 157
49 92 162
175 184 172
171 165 145
158 153 130
157 152 125
148 146 117
137 137 104
129 131 98
135 135 104
139 137 109
145 141 114
153 152 125
141 141 107
116 128 78
100 116 53
83 111 24
80 111 11
82 114 26
90 118 30
108 129 68
112 127 70
117 129 78
114 128 75
113 129 71
104 123 55
101 123 54
94 119 42
90 117 36
83 112 16
83 109 27
90 114 30
103 124 58
109 126 66
128 136 96
130 132 98
134 138 107
129 137 97
119 132 87
117 130 85
122 132 91
123 133 95
135 140 107
128 135 98
126 136 100
124 135 96
124 134 96
129 136 104
129 137 104
130 138 104
126 134 100
126 133 102
134 138 111
139 140 114
143 142 117
136 139 114
140 137 120
145 140 122
138 134 105
148 140 116
133 136 98
99 122 66
18 29 116
12 14 114
0 2 112
0 0 113
0 0 113
0 0 113
0 0 113
0 0 113
0 0 113
0 0 113
0 0 113
0 0 113
0 0 113
0 0 113
128 136 173
223 236 255
223 236 255
223 236 255
223 236 255
223 236 255
223 236 255
223 236 255
223 236 255
223 236 255
223 236 255
223 236 255
223 236 255
223 236 255
223 236 255
223 236 255
223 236 255
223 236 255
223 236 255
223 236 255
223 236 255
223 236 255
223 236 255
223 236 255
223 236 255
223 236 255
223 236 255
223 236 255
223 236 255
223 236 255
223 236 255
223 236 255
223 236 255
223 236 255
223 236 255
223 236 255
223 236 255
223 236 255
223 236 255
223 236 255
223 236 255
223 236 255
223 236 255
223 236 255
223 236 255
223 236 255
223 236 255
223 236 255
223 236 255
223 236 255
223 236 255
223 236 255
223 236 255
223 236 255
223 236 255
223 236 255
223 236 255
223 236 255
223 236 255
223 236 255
223 236 255
223 236 255
223 236 255
223 236 255
223 236 255
223 236 255
223 236 255
223 236 255
223 236 255
223 236 255
223 236 255
223 236 255
223 236 255
223 236 255
223 236 255
223 236 255
223 236 255
223 236 255
223 236 255
223 236 255
223 236 255
223 236 255
223 236 255
223 236 255
223 236 255
223 236 255
223 236 255
223 236 255
223 236 255
223 236 255
223 236 255
223 236 255
223 236 255
223 236 255
223 236 255
223 236 255
223 236 255
223 236 255
223 236 255
223 236 255
223 236 255
223 236 255
223 236 255
223 236 255
223 236 255
223 236 255
223 236 255
223 236 255
223 236 255
223 236 255
223 236 255
223 236 255
223 236 255
223 236 255
223 236 255
223 236 255
223 236 255
223 236 255
223 236 255
223 236 255
223 236 255
223 236 255
223 236 255
223 236 255
223 236 255
223 236 255
223 236 255
223 236 255
223 236 255
223 236 255
223 236 255
223 236 255
223 236 255
223 236 255
223 236 255
223 236 255
223 236 255
223 236 255
223 237 255
223 236 255
223 237 255
223 237 255
223 237 255
223 237 255
223 237 255
223 237 255
223 237 255
223 237 255
223 237 255
223 237 255
223 237 255
223 237 255
223 237 255
223 237 255
223 237 255
223 237 255
223 237 255
223 237 255
223 237 255
223 237 255
223 237 255
223 237 255
223 237 255
223 237 255
223 237 255
223 237 255
223 237 255
223 237 255
223 237 255
223 237 255
223 237 255
223 237 255
223 237 255
223 237 255
223 237 255
223 237 255
223 237 255
223 237 255
223 237 255
223 237 255
223 237 255
223 237 255
223 237 255
223 237 255
223 237 255
223 237 255
223 237 255
223 237 255
223 237 255
223 237 255
223 237 255
223 237 255
223 237 255
185 196 221
0 0 113
0 0 113
0 0 113
0 0 113
0 0 113
0 3 113
0 0 113
0 0 113
0 0 113
0 0 113
0 0 113
0 0 113
0 0 113
0 0 113
0 0 113
0 0 113
0 0 113
0 0 113
0 0 113
0 0 113
0 0 113
0 0 113
0 0 113
0 0 113
0 0 113
0 0 113
0 0 113
0 0 113
0 0 113
0 0 113
0 0 113
0 0 113
0 0 113
0 0 113
0 0 113
0 0 113
0 0 113
0 0 113
0 0 113
0 0 113
0 0 113
0 0 113
0 0 113
0 0 113
0 0 113
0 0 113
0 0 113
0 0 113
0 0 113
0 0 113
0 0 113
0 0 113
0 0 113
0 0 113
0 0 113
0 0 113
0 0 113
0 0 113
0 0 113
0 0 113
0 0 113
0 0 113
0 0 113
0 0 113
0 0 113
0 0 113
0 0 113
0 0 113
0 0 113
0 0 113
0 0 113
0 0 113
0 0 113
0 0 114
0 0 115
0 0 115
0 0 115
0 0 115
0 0 115
0 0 113
0 0 113
0 0 113
0 0 113
0 0 113
0 0 113
0 0 113
0 0 113
0 0 113
0 0 113
0 0 113
0 0 113
0 0 113
0 0 113
0 0 113
0 0 113
0 0 113
0 0 113
0 0 113
0 0 113
0 0 113
0 0 113
0 0 113
0 0 113
0 11 114
0 11 114
0 12 114
0 11 114
0 11 114
0 12 114
0 19 116
0 21 116
0 20 116
4 22 117
7 24 118
3 19 118
3 18 117
7 21 117
4 21 117
0 21 117
4 22 117
3 21 116
0 15 116
12 23 117
18 20 115
17 24 118
17 41 128
14 51 135
11 63 141
17 79 152
16 85 155
24 82 157
50 87 147
170 184 191
187 188 174
161 162 142
160 155 130
157 149 125
147 146 118
141 140 111
149 146 120
149 147 123
147 146 121
153 149 122
160 155 128
150 146 122
123 125 96
88 109 42
92 113 42
78 107 24
91 117 33
111 131 70
107 126 65
111 129 66
113 131 73
108 127 65
95 119 40
90 119 35
83 115 16
85 117 24
84 114 15
85 111 13
92 115 36
108 128 69
110 127 67
126 134 91
125 133 95
123 134 91
125 138 94
126 138 97
126 137 99
128 137 100
131 137 104
135 140 109
129 136 101
126 137 99
122 133 95
127 134 96
133 140 109
126 134 98
128 137 103
128 135 103
132 137 106
139 141 113
146 146 121
141 142 114
128 132 103
137 137 116
135 136 111
126 130 92
135 136 100
125 136 84
88 114 78
15 23 118
14 15 115
0 0 112
0 0 113
0 0 113
0 0 113
0 0 113
0 0 113
0 0 113
0 0 113
0 0 113
0 0 113
0 0 113
0 0 113
186 198 223
223 237 255
223 237 255
223 237 255
223 237 255
223 237 255
223 237 255
223 237 255
223 237 255
223 237 255
223 237 255
223 237 255
223 237 255
223 237 255
223 237 255
223 237 255
223 237 255
223 237 255
223 237 255
223 237 255
223 237 255
223 237 255
223 237 255
223 237 255
223 237 255
223 237 255
223 237 255
223 237 255
223 237 255
223 237 255
223 237 255
223 237 255
223 237 255
223 237 255
223 237 255
223 237 255
223 237 255
223 237 255
223 237 255
223 237 255
223 237 255
223 237 255
223 237 255
223 237 255
223 237 255
223 237 255
223 237 255
223 237 255
223 237 255
223 237 255
223 237 255
223 236 255
223 236 255
223 237 255
223 236 255
223 237 255
223 236 255
223 236 255
223 236 255
223 236 255
223 236 255
223 236 255
223 236 255
223 236 255
223 236 255
223 236 255
223 236 255
223 236 255
223 236 255
223 236 255
223 236 255
223 236 255
223 236 255
223 236 255
223 236 255
223 236 255
223 236 255
223 236 255
223 236 255
223 236 255
223 236 255
223 236 255
223 236 255
223 236 255
223 236 255
223 236 255
223 236 255
223 236 255
223 236 255
223 236 255
223 236 255
223 236 255
223 236 255
223 236 255
223 236 255
223 236 255
223 236 255
223 237 255
223 237 255
223 237 255
223 237 255
223 237 255
223 237 255
223 237 255
223 237 255
223 237 255
223 237 255
223 237 255
223 237 255
223 237 255
223 237 255
223 237 255
223 237 255
223 237 255
223 237 255
223 237 255
223 237 255
223 237 255
223 237 255
223 237 255
223 237 255
223 237 255
223 237 255
223 237 255
223 237 255
223 237 255
223 237 255
223 237 255
223 237 255
223 237 255
223 237 255
223 237 255
223 237 255
223 237 255
223 237 255
223 237 255
223 237 255
223 237 255
223 237 255
223 237 255
223 237 255
223 237 255
223 237 255
223 237 255
223 237 255
223 237 255
223 237 255
223 237 255
223 237 255
223 237 255
223 237 255
223 237 255
223 237 255
223 237 255
223 237 255
223 237 255
223 237 255
223 237 255
223 237 255
223 237 255
223 237 255
223 237 255
223 237 255
223 237 255
223 237 255
223 237 255
223 237 255
223 237 255
223 237 255
223 237 255
223 237 255
223 237 255
223 237 255
223 237 255
223 237 255
223 237 255
223 237 255
223 237 255
223 237 255
223 237 255
223 237 255
223 237 255
223 237 255
223 237 255
223 237 255
223 237 255
223 237 255
223 237 255
223 237 255
223 237 255
223 237 255
223 237 255
223 237 255
221 234 253
59 62 128
0 0 113
0 0 113
0 0 113
0 0 113
8 13 113
6 8 113
0 0 113
0 0 113
0 0 113
0 0 113
0 0 113
0 0 113
0 0 113
0 0 113
0 0 113
0 0 113
0 0 113
0 0 113
0 0 113
0 0 113
0 0 113
0 0 113
0 0 113
0 0 113
0 0 113
0 0 113
0 0 113
0 0 113
0 0 113
0 0 113
0 0 113
0 0 113
0 0 113
0 0 113
0 0 113
0 0 113
0 0 113
0 0 113
0 0 113
0 0 113
0 0 113
0 0 113
0 0 113
0 0 113
0 0 113
0 0 113
0 0 113
0 0 113
0 0 113
0 0 113
0 0 113
0 0 113
0 0 113
0 0 113
0 0 113
0 0 113
0 0 113
0 0 113
0 0 113
0 0 113
0 0 113
0 0 113
0 0 113
0 0 113
0 0 113
0 0 113
0 0 113
0 0 113
0 0 113
0 0 113
0 0 113
0 0 113
0 0 114
0 0 114
0 0 114
0 0 115
0 0 114
0 0 114
0 0 113
0 0 113
0 0 113
0 0 113
0 0 113
0 0 113
0 0 113
0 0 113
0 0 113
0 0 113
0 0 113
0 0 113
0 0 113
0 0 113
0 0 113
0 0 113
0 0 113
0 0 113
0 0 113
0 0 113
0 0 113
0 0 113
0 0 113
0 0 113
0 0 113
0 0 113
0 0 113
0 0 113
0 0 113
0 0 113
0 21 114
0 21 116
0 21 116
0 21 116
0 21 116
0 20 116
0 20 116
0 19 116
0 19 116
0 19 116
0 19 116
0 20 116
0 23 118
8 20 116
11 15 116
0 23 119
0 39 127
12 56 135
17 69 144
16 69 148
0 72 142
14 69 146
33 76 150
96 113 155
180 179 178
185 178 163
172 164 145
158 153 122
162 156 127
165 160 134
167 163 137
159 156 130
153 148 116
155 147 112
159 155 127
156 153 128
145 146 110
118 120 73
100 117 53
86 110 33
86 112 25
96 121 53
95 119 48
102 125 52
111 130 71
108 128 68
94 119 39
86 115 14
81 113 10
83 113 13
85 114 22
87 115 28
95 119 45
110 131 72
113 132 77
115 132 76
118 134 80
117 134 82
118 133 83
123 134 91
124 132 94
126 135 102
133 140 111
136 140 110
129 139 108
126 136 104
129 137 104
130 137 103
134 141 107
129 139 103
124 135 99
128 136 102
137 137 105
144 144 118
142 142 113
135 138 110
132 136 112
141 140 120
127 131 101
122 132 88
120 131 83
122 139 80
77 101 95
0 18 113
10 14 114
0 0 113
0 0 113
0 0 113
0 0 113
0 0 113
0 0 113
0 0 113
0 0 113
0 0 113
0 0 113
0 0 113
22 23 115
221 234 253
223 237 255
223 237 255
223 237 255
223 237 255
223 237 255
223 237 255
223 237 255
223 237 255
223 237 255
223 237 255
223 237 255
223 237 255
223 237 255
223 237 255
223 237 255
223 237 255
223 237 255
223 237 255
223 237 255
223 237 255
223 237 255
223 237 255
223 237 255
223 237 255
223 237 255
223 237 255
223 237 255
223 237 255
223 237 255
223 237 255
223 237 255
223 237 255
223 237 255
223 237 255
223 237 255
223 237 255
223 237 255
223 237 255
223 237 255
223 237 255
223 237 255
223 237 255
223 237 255
223 237 255
223 237 255
223 237 255
223 237 255
223 237 255
223 237 255
223 237 255
223 237 255
223 237 255
223 237 255
223 237 255
223 237 255
223 237 255
223 237 255
223 237 255
223 237 255
223 237 255
223 237 255
223 237 255
223 237 255
223 237 255
223 237 255
223 237 255
223 237 255
223 237 255
223 237 255
223 237 255
223 237 255
223 237 255
223 237 255
223 237 255
223 237 255
223 237 255
223 237 255
223 237 255
223 237 255
223 237 255
223 237 255
223 237 255
223 237 255
223 237 255
223 237 255
223 237 255
223 237 255
223 237 255
223 237 255
223 237 255
223 237 255
223 237 255
223 237 255
223 237 255
223 237 255
223 237 255
223 237 255
223 237 255
223 237 255
223 237 255
223 237 255
223 237 255
223 237 255
223 237 255
223 237 255
223 237 255
223 237 255
223 237 255
223 237 255
223 237 255
223 237 255
223 237 255
223 237 255
223 237 255
223 237 255
223 237 255
223 237 255
223 237 255
223 237 255
223 237 255
223 237 255
223 237 255
223 237 255
223 237 255
223 237 255
223 237 255
223 237 255
223 237 255
223 237 255
223 237 255
223 237 255
223 237 255
223 237 255
223 237 255
223 237 255
223 237 255
223 237 255
223 237 255
223 237 255
223 237 255
223 237 255
223 237 255
223 237 255
223 237 255
223 237 255
223 237 255
223 237 255
223 237 255
223 237 255
223 237 255
223 237 255
223 237 255
223 237 255
223 237 255
223 237 255
223 237 255
223 237 255
223 237 255
223 237 255
223 237 255
223 237 255
223 237 255
223 237 255
223 237 255
223 237 255
223 237 255
223 237 255
223 237 255
223 237 255
223 237 255
223 237 255
223 237 255
223 237 255
223 237 255
223 237 255
223 237 255
223 237 255
223 237 255
223 237 255
223 237 255
223 237 255
223 237 255
223 237 255
223 237 255
223 237 255
223 237 255
223 237 255
223 237 255
223 237 255
223 237 255
223 237 255
223 237 255
223 237 255
126 134 172
0 0 113
0 0 113
0 0 113
0 0 113
10 12 113
15 19 114
0 0 112
0 0 113
0 0 113
0 0 113
0 0 113
0 0 113
0 0 113
0 0 113
0 0 113
0 0 113
0 0 113
0 0 113
0 0 113
0 0 113
0 0 113
0 0 113
0 0 113
0 0 113
0 0 113
0 0 113
0 0 113
0 0 113
0 0 113
0 0 113
0 0 113
0 0 113
0 0 113
0 0 113
0 0 113
0 0 113
0 0 113
0 0 113
0 0 113
0 0 113
0 0 113
0 0 113
0 0 113
0 0 113
0 0 113
0 0 113
0 0 113
0 0 113
0 0 113
0 0 113
0 0 113
0 0 113
0 0 113
0 0 113
0 0 113
0 0 113
0 0 113
0 0 113
0 0 113
0 0 113
0 0 113
0 0 113
0 0 113
0 0 113
0 0 113
0 0 113
0 0 113
0 0 113
0 0 113
0 0 113
0 0 113
0 0 113
0 0 113
0 0 113
0 0 113
0 0 113
0 0 113
0 0 113
0 0 113
0 0 113
0 0 113
0 0 113
0 0 113
0 0 113
0 0 113
0 0 113
0 0 113
0 0 113
0 0 113
0 0 113
0 0 113
0 0 113
0 0 113
0 0 113
0 0 113
0 0 113
0 0 113
0 0 113
0 0 113
0 0 113
0 0 113
0 0 113
0 0 113
0 0 113
0 0 113
0 0 113
0 0 113
0 0 113
0 21 114
0 21 114
0 21 115
0 21 116
0 21 116
0 21 116
0 15 115
0 14 115
0 15 115
0 14 115
0 15 115
0 17 116
0 28 119
0 23 117
0 19 116
0 25 120
0 41 127
11 56 136
14 64 148
28 68 151
11 64 139
13 58 135
27 73 150
28 83 159
97 122 167
188 184 174
192 184 156
161 156 138
154 152 130
162 156 128
172 163 134
170 161 132
157 151 121
156 151 122
160 154 127
140 145 146
143 148 133
134 133 97
86 113 45
88 121 24
87 118 35
77 109 15
86 114 29
100 125 57
103 125 61
101 124 57
99 123 53
89 118 35
86 115 21
86 113 22
92 116 36
98 119 45
104 124 59
108 127 67
118 136 83
126 143 97
123 141 94
112 129 77
119 131 89
129 137 100
125 135 97
126 138 102
128 136 101
133 139 110
127 135 105
130 137 105
137 143 112
138 144 111
130 140 105
130 142 107
127 136 98
137 140 105
143 143 115
143 141 114
143 143 114
142 143 116
136 137 110
136 136 111
122 128 94
121 131 89
116 131 77
118 137 73
52 67 108
11 15 113
4 9 113
0 0 113
0 0 113
0 0 113
0 0 113
0 0 113
0 0 113
0 0 113
0 0 113
0 0 113
0 0 113
0 0 113
122 129 169
223 237 255
223 237 255
223 237 255
223 237 255
223 237 255
223 237 255
223 237 255
223 237 255
223 237 255
223 237 255
223 237 255
223 237 255
223 237 255
223 237 255
223 237 255
223 237 255
223 237 255
223 237 255
223 237 255
223 237 255
223 237 255
223 237 255
223 237 255
223 237 255
223 237 255
223 237 255
223 237 255
223 237 255
223 237 255
223 237 255
223 237 255
223 237 255
223 237 255
223 237 255
223 237 255
223 237 255
223 237 255
223 237 255
223 237 255
223 237 255
223 237 255
223 237 255
223 237 255
223 237 255
223 237 255
223 237 255
223 237 255
223 237 255
223 237 255
223 237 255
223 237 255
223 237 255
223 237 255
223 237 255
223 237 255
223 237 255
223 237 255
223 237 255
223 237 255
223 237 255
223 237 255
223 237 255
223 237 255
223 237 255
223 237 255
223 237 255
223 237 255
223 237 255
223 237 255
223 237 255
223 237 255
223 237 255
223 237 255
223 237 255
223 237 255
223 237 255
223 237 255
223 237 255
223 237 255
223 237 255
223 237 255
223 237 255
223 237 255
223 237 255
223 237 255
223 237 255
223 237 255
223 237 255
223 237 255
223 237 255
223 237 255
223 237 255
223 237 255
223 237 255
223 237 255
223 237 255
223 237 255
223 237 255
223 237 255
223 237 255
223 237 255
223 237 255
223 237 255
223 237 255
223 237 255
223 237 255
223 237 255
223 237 255
223 237 255
223 237 255
223 237 255
223 237 255
223 237 255
223 237 255
223 237 255
223 237 255
223 237 255
223 237 255
223 237 255
223 237 255
223 237 255
223 237 255
223 237 255
223 237 255
223 237 255
223 237 255
223 237 255
223 237 255
223 237 255
223 237 255
223 237 255
223 237 255
223 237 255
223 237 255
223 237 255
223 237 255
223 237 255
223 237 255
223 237 255
223 237 255
223 237 255
223 237 255
223 237 255
223 237 255
223 237 255
223 237 255
223 237 255
223 237 255
223 237 255
223 237 255
223 237 255
223 237 255
223 237 255
223 237 255
223 237 255
223 237 255
223 237 255
223 237 255
223 237 255
223 237 255
223 237 255
223 237 255
223 237 255
223 237 255
223 237 255
223 237 255
223 237 255
223 237 255
223 237 255
223 237 255
223 237 255
223 237 255
223 237 255
223 237 255
223 237 255
223 237 255
223 237 255
223 237 255
223 237 255
223 237 255
223 237 255
223 237 255
223 237 255
223 237 255
223 237 255
223 237 255
223 237 255
223 237 255
223 237 255
223 237 255
223 237 255
223 237 255
223 237 255
223 237 255
170 180 208
0 0 113
0 0 113
0 0 113
0 0 113
0 0 113
0 20 113
11 17 112
0 0 113
0 0 113
0 0 113
0 0 113
0 0 113
0 0 113
0 0 113
0 0 113
0 0 113
0 0 113
0 0 113
0 0 113
0 0 113
0 0 113
0 0 113
0 0 113
0 0 113
0 0 113
0 0 113
0 0 113
0 0 113
0 0 113
0 0 113
0 0 113
0 0 113
0 0 113
0 0 113
0 0 113
0 0 113
0 0 113
0 0 113
0 0 113
0 0 113
0 0 113
0 0 113
0 0 113
0 0 113
0 0 113
0 0 113
0 0 113
0 0 113
0 0 113
0 0 113
0 0 113
0 0 113
0 0 113
0 0 113
0 0 113
0 0 113
0 0 113
0 0 113
0 0 113
0 0 113
0 0 113
0 0 113
0 0 113
0 0 113
0 0 113
0 0 113
0 0 113
0 0 113
0 0 113
0 0 113
0 0 113
0 0 113
0 0 113
0 0 113
0 0 113
0 0 113
0 0 113
0 0 113
0 0 113
0 0 113
0 0 113
0 0 113
0 0 113
0 0 113
0 0 113
0 0 113
0 0 113
0 0 113
0 0 113
0 0 113
0 0 113
0 0 113
0 0 113
0 0 113
0 0 113
0 0 113
0 0 113
0 0 113
0 0 113
0 0 113
0 0 113
0 0 113
0 0 113
0 0 113
0 0 113
0 0 113
0 0 113
0 0 113
0 10 113
0 10 113
0 11 113
0 10 115
0 9 115
1 11 115
0 7 113
0 6 113
2 7 113
2 8 113
3 8 114
3 11 114
0 26 117
1 25 117
13 28 120
10 31 122
0 40 126
6 51 134
0 56 141
15 53 135
22 50 138
29 64 144
8 63 138
35 78 148
34 88 152
89 122 166
150 153 163
178 170 152
185 173 154
165 162 149
161 158 142
159 153 133
170 159 134
165 158 135
160 156 132
119 134 150
77 122 164
132 135 140
124 130 92
87 116 27
88 114 37
79 108 31
76 107 18
97 124 49
102 126 60
95 121 39
96 123 50
91 120 37
91 116 29
97 119 47
105 121 54
108 123 59
106 122 55
111 127 64
114 130 71
126 139 96
124 139 98
118 133 90
123 136 95
119 132 90
115 129 81
123 137 96
125 135 97
131 138 107
130 137 108
138 141 111
136 142 112
134 141 108
131 141 103
129 141 102
134 141 101
137 140 105
143 143 116
141 142 117
138 140 113
140 142 115
132 136 106
127 132 102
121 129 93
124 132 92
122 137 79
103 122 73
22 25 117
18 16 114
3 7 112
0 0 113
0 0 113
0 0 113
0 0 113
0 0 113
0 0 113
0 0 113
0 0 113
0 0 113
0 0 113
0 0 113
176 186 213
223 237 255
223 237 255
223 237 255
223 237 255
223 237 255
223 237 255
223 237 255
223 237 255
223 237 255
223 237 255
223 237 255
223 237 255
223 237 255
223 237 255
223 237 255
223 237 255
223 237 255
223 237 255
223 237 255
223 237 255
223 237 255
223 237 255
223 237 255
223 237 255
223 237 255
223 237 255
223 237 255
223 237 255
223 237 255
223 237 255
223 237 255
223 237 255
223 237 255
223 237 255
223 237 255
223 237 255
223 237 255
223 237 255
223 237 255
223 237 255
223 237 255
223 237 255
223 237 255
223 237 255
223 237 255
223 237 255
223 237 255
223 237 255
223 237 255
223 237 255
223 237 255
223 237 255
223 237 255
223 237 255
223 237 255
223 237 255
223 237 255
223 237 255
223 237 255
223 237 255
223 237 255
223 237 255
223 237 255
223 237 255
223 237 255
223 237 255
223 237 255
223 237 255
223 237 255
223 237 255
223 237 255
223 237 255
223 237 255
223 237 255
223 237 255
223 237 255
223 237 255
223 237 255
223 237 255
223 237 255
223 237 255
223 237 255
223 237 255
223 237 255
223 237 255
223 237 255
223 237 255
223 237 255
223 237 255
223 237 255
223 237 255
223 237 255
223 237 255
223 237 255
223 237 255
223 237 255
223 237 255
223 237 255
223 237 255
223 237 255
223 237 255
223 237 255
223 237 255
223 237 255
223 237 255
223 237 255
223 237 255
223 237 255
223 237 255
223 237 255
223 237 255
223 237 255
223 237 255
223 237 255
223 237 255
223 237 255
223 237 255
223 237 255
223 237 255
223 237 255
223 237 255
223 237 255
223 237 255
223 237 255
223 237 255
223 237 255
223 237 255
223 237 255
223 237 255
223 237 255
223 237 255
223 237 255
223 237 255
223 237 255
223 237 255
223 237 255
223 237 255
223 237 255
223 237 255
223 237 255
223 237 255
223 237 255
223 237 255
223 237 255
223 237 255
223 237 255
223 237 255
223 237 255
223 237 255
223 237 255
223 237 255
223 237 255
223 237 255
223 237 255
223 237 255
223 237 255
223 237 255
223 237 255
223 237 255
223 237 255
223 237 255
223 237 255
223 237 255
223 237 255
223 237 255
223 237 255
223 237 255
223 237 255
223 237 255
223 237 255
223 237 255
223 237 255
223 237 255
223 237 255
223 237 255
223 237 255
223 237 255
223 237 255
223 237 255
223 237 255
223 237 255
223 237 255
223 237 255
223 237 255
223 237 255
223 237 255
223 237 255
223 237 255
223 237 255
223 237 255
223 237 255
223 237 255
223 237 255
223 237 255
222 235 254
31 33 117
0 0 113
0 0 113
0 0 113
0 0 113
1 9 114
19 26 111
29 34 112
0 0 113
0 0 113
0 0 113
0 0 113
0 0 113
0 0 113
0 0 113
0 0 113
0 0 113
0 0 113
0 0 113
0 0 113
0 0 113
0 0 113
0 0 113
0 0 113
0 0 113
0 0 113
0 0 113
0 0 113
0 0 113
0 0 113
0 0 113
0 0 113
0 0 113
0 0 113
0 0 113
0 0 113
0 0 113
0 0 113
0 0 113
0 0 113
0 0 113
0 0 113
0 0 113
0 0 113
0 0 113
0 0 113
0 0 113
0 0 113
0 0 113
0 0 113
0 0 113
0 0 113
0 0 113
0 0 113
0 0 113
0 0 113
0 0 113
0 0 113
0 0 113
0 0 113
0 0 113
0 0 113
0 0 113
0 0 113
0 0 113
0 0 113
0 0 113
0 0 113
0 0 113
0 0 113
0 0 113
0 0 113
0 0 113
0 0 113
0 0 113
0 0 113
0 0 113
0 0 113
0 0 113
0 0 113
0 0 113
0 0 113
0 0 113
0 0 113
0 0 113
0 0 113
0 0 113
0 0 113
0 0 113
0 0 113
0 0 113
0 0 113
0 0 113
0 0 113
0 0 113
0 0 113
0 0 113
0 0 113
0 0 113
0 0 113
0 0 113
0 0 113
0 0 113
0 0 113
0 0 113
0 0 113
0 0 113
0 0 113
0 0 113
0 0 113
0 0 113
0 0 114
0 0 115
4 4 115
12 13 114
12 12 114
11 12 114
12 12 114
11 12 114
11 15 114
0 22 117
10 20 119
18 25 121
18 33 123
10 38 125
11 45 126
0 52 123
21 56 129
23 52 140
5 49 136
20 68 144
14 83 155
26 91 158
32 83 156
48 83 153
139 135 157
171 170 172
207 198 183
204 198 185
178 174 161
168 160 139
172 164 142
168 162 136
163 154 131
120 140 149
123 142 145
149 148 107
103 114 68
88 106 32
80 103 32
78 108 21
89 119 34
94 122 42
89 118 21
96 125 45
98 126 51
99 123 46
104 125 56
104 123 54
109 127 63
104 123 53
105 123 55
110 126 62
110 122 68
113 130 80
109 128 72
112 130 77
108 125 70
116 132 81
124 139 95
127 138 99
133 139 108
138 141 113
136 140 112
137 142 112
138 143 112
137 146 110
133 144 104
138 144 106
139 141 108
140 141 113
143 143 116
141 141 113
137 140 108
136 136 106
123 127 91
126 132 94
116 135 75
127 142 82
79 102 99
14 16 115
9 12 114
4 8 112
0 0 113
0 0 113
0 0 113
0 0 113
0 0 113
0 0 113
0 0 113
0 0 113
0 0 113
0 0 113
31 33 117
214 227 247
223 237 255
223 237 255
223 237 255
223 237 255
223 237 255
223 237 255
223 237 255
223 237 255
223 237 255
223 237 255
223 237 255
223 237 255
223 237 255
223 237 255
223 237 255
223 237 255
223 237 255
223 237 255
223 237 255
223 237 255
223 237 255
223 237 255
223 237 255
223 237 255
223 237 255
223 237 255
223 237 255
223 237 255
223 237 255
223 237 255
223 237 255
223 237 255
223 237 255
223 237 255
223 237 255
223 237 255
223 237 255
223 237 255
223 237 255
223 237 255
223 237 255
223 237 255
223 237 255
223 237 255
223 237 255
223 237 255
223 237 255
223 237 255
223 237 255
223 237 255
223 237 255
223 237 255
223 237 255
223 237 255
223 237 255
223 237 255
223 237 255
223 237 255
223 237 255
223 237 255
223 237 255
223 237 255
223 237 255
223 237 255
223 237 255
223 237 255
223 237 255
223 237 255
223 237 255
223 237 255
223 237 255
223 237 255
223 237 255
223 237 255
223 237 255
223 237 255
223 237 255
223 237 255
223 237 255
223 237 255
223 237 255
223 237 255
223 237 255
223 237 255
223 237 255
223 237 255
223 237 255
223 237 255
223 237 255
223 237 255
223 237 255
223 237 255
223 237 255
223 237 255
223 237 255
223 237 255
223 237 255
223 237 255
223 237 255
223 237 255
223 237 255
223 237 255
223 237 255
223 237 255
223 237 255
223 237 255
223 237 255
223 237 255
223 237 255
223 237 255
223 237 255
223 237 255
223 237 255
223 237 255
223 237 255
223 237 255
223 237 255
223 237 255
223 237 255
223 237 255
223 237 255
223 237 255
223 237 255
223 237 255
223 237 255
223 237 255
223 237 255
223 237 255
223 237 255
223 237 255
223 237 255
223 237 255
223 237 255
223 237 255
223 237 255
223 237 255
223 237 255
223 237 255
223 237 255
223 237 255
223 237 255
223 237 255
223 237 255
223 237 255
223 237 255
223 237 255
223 237 255
223 237 255
223 237 255
223 237 255
223 237 255
223 237 255
223 237 255
223 237 255
223 237 255
223 237 255
223 237 255
223 237 255
223 237 255
223 237 255
223 237 255
223 237 255
223 237 255
223 237 255
223 237 255
223 237 255
223 237 255
223 237 255
223 237 255
223 237 255
223 237 255
223 237 255
223 237 255
223 237 255
223 237 255
223 237 255
223 237 255
223 237 255
223 237 255
223 237 255
223 237 255
223 237 255
223 237 255
223 237 255
223 237 255
223 237 255
223 237 255
223 237 255
223 237 255
223 237 255
223 237 255
223 237 255
223 237 255
223 237 255
223 237 255
136 144 179
0 0 113
0 0 113
0 0 113
0 0 113
0 0 113
9 12 113
20 25 109
0 0 113
0 0 113
0 0 113
0 0 113
0 0 113
0 0 113
0 0 113
0 0 113
0 0 113
0 0 113
0 0 113
0 0 113
0 0 113
0 0 113
0 0 113
0 0 113
0 0 113
0 0 113
0 0 113
0 0 113
0 0 113
0 0 113
0 0 113
0 0 113
0 0 113
0 0 113
0 0 113
0 0 113
0 0 113
0 0 113
0 0 113
0 0 113
0 0 113
0 0 113
0 0 113
0 0 113
0 0 113
0 0 113
0 0 113
0 0 113
0 0 113
0 0 113
0 0 113
0 0 113
0 0 113
0 0 113
0 0 113
0 0 113
0 0 113
0 0 113
0 0 113
0 0 113
0 0 113
0 0 113
0 0 113
0 0 113
0 0 113
0 0 113
0 0 113
0 0 113
0 0 113
0 0 113
0 0 113
0 0 113
0 0 113
0 0 113
0 0 113
0 0 113
0 0 113
0 0 113
0 0 113
0 0 113
0 0 113
0 0 113
0 0 113
0 0 113
0 0 113
0 0 113
0 0 113
0 0 113
0 0 113
0 0 113
0 0 113
0 0 113
0 0 113
0 0 113
0 0 113
0 0 113
0 0 113
0 0 113
0 0 113
0 0 113
0 0 113
0 0 113
0 0 113
0 0 113
0 0 113
0 0 113
0 0 113
0 2 113
0 8 112
0 0 113
0 0 113
0 0 113
0 0 114
0 0 114
0 0 113
0 0 113
0 0 113
0 0 113
0 0 113
4 10 114
7 19 118
1 10 118
11 17 119
17 26 122
19 34 124
19 41 129
8 41 131
16 48 136
17 51 134
3 56 121
5 56 139
1 71 150
19 78 151
22 62 141
33 59 140
21 57 136
57 85 150
127 160 181
181 184 181
206 199 183
183 182 169
172 166 144
177 171 149
171 161 134
171 158 144
165 163 140
172 162 136
137 133 105
117 122 84
115 127 94
88 111 41
88 119 25
88 122 25
93 123 32
107 133 65
115 137 74
118 134 76
110 125 61
103 123 55
106 125 53
101 121 46
100 120 39
106 124 54
101 117 53
100 117 65
101 122 65
105 126 59
114 128 81
123 134 94
130 138 102
137 142 112
140 143 116
138 142 114
135 140 110
140 142 117
143 144 117
138 143 110
133 142 104
134 141 104
142 143 112
139 139 110
141 141 113
135 136 106
137 138 108
127 131 98
119 126 89
119 127 82
125 142 87
122 138 79
54 77 123
8 25 114
6 15 113
0 0 113
0 0 113
0 0 113
0 0 113
0 0 113
0 0 113
0 0 113
0 0 113
0 0 113
0 0 113
0 0 113
136 144 179
223 237 255
223 237 255
223 237 255
223 237 255
223 237 255
223 237 255
223 237 255
223 237 255
223 237 255
223 237 255
223 237 255
223 237 255
223 237 255
223 237 255
223 237 255
223 237 255
223 237 255
223 237 255
223 237 255
223 237 255
223 237 255
223 237 255
223 237 255
223 237 255
223 237 255
223 237 255
223 237 255
223 237 255
223 237 255
223 237 255
223 237 255
223 237 255
223 237 255
223 237 255
223 237 255
223 237 255
223 237 255
223 237 255
223 237 255
223 237 255
223 237 255
223 237 255
223 237 255
223 237 255
223 237 255
223 237 255
223 237 255
223 237 255
223 237 255
223 237 255
223 237 255
223 237 255
223 237 255
223 237 255
223 237 255
223 237 255
223 237 255
223 237 255
223 237 255
223 237 255
223 237 255
223 237 255
223 237 255
223 237 255
223 237 255
223 237 255
223 237 255
223 237 255
223 237 255
223 237 255
223 237 255
223 237 255
223 237 255
223 237 255
223 237 255
223 237 255
223 237 255
223 237 255
223 237 255
223 237 255
223 237 255
223 237 255
223 237 255
223 237 255
223 237 255
223 237 255
223 237 255
223 237 255
223 237 255
223 237 255
223 237 255
223 237 255
223 237 255
223 237 255
223 237 255
223 237 255
223 237 255
223 237 255
223 237 255
223 237 255
223 237 255
223 237 255
223 237 255
223 237 255
223 237 255
223 237 255
223 237 255
223 237 255
223 237 255
223 237 255
223 237 255
223 237 255
223 237 255
223 237 255
223 237 255
223 237 255
223 237 255
223 237 255
223 237 255
223 237 255
223 237 255
223 237 255
223 237 255
223 237 255
223 237 255
223 237 255
223 237 255
223 237 255
223 237 255
223 237 255
223 237 255
223 237 255
223 237 255
223 237 255
223 237 255
223 237 255
223 237 255
223 237 255
223 237 255
223 237 255
223 237 255
223 237 255
223 237 255
223 237 255
223 237 255
223 237 255
223 237 255
223 237 255
223 237 255
223 237 255
223 237 255
223 237 255
223 237 255
223 237 255
223 237 255
223 237 255
223 237 255
223 237 255
223 237 255
223 237 255
223 237 255
223 237 255
223 237 255
223 237 255
223 237 255
223 237 255
223 237 255
223 237 255
223 237 255
223 237 255
223 237 255
223 237 255
223 237 255
223 237 255
223 237 255
223 237 255
223 237 255
223 237 255
223 237 255
223 237 255
223 237 255
223 237 255
223 237 255
223 237 255
223 237 255
223 237 255
223 237 255
223 237 255
223 237 255
223 237 255
223 237 255
223 237 255
223 237 255
223 237 255
223 237 255
223 237 255
183 194 219
0 0 113
0 0 113
0 0 113
0 0 113
0 0 113
9 11 113
4 0 115
0 0 113
0 0 113
0 0 113
0 0 113
0 0 113
0 0 113
0 0 113
0 0 113
0 0 113
0 0 113
0 0 113
0 0 113
0 0 113
0 0 113
0 0 113
0 0 113
0 0 113
0 0 113
0 0 113
0 0 113
0 0 113
0 0 113
0 0 113
0 0 113
0 0 113
0 0 113
0 0 113
0 0 113
0 0 113
0 0 113
0 0 113
0 0 113
0 0 113
0 0 113
0 0 113
0 0 113
0 0 113
0 0 113
0 0 113
0 0 113
0 0 113
0 0 113
0 0 113
0 0 113
0 0 113
0 0 113
0 0 113
0 0 113
0 0 113
0 0 113
0 0 113
0 0 113
0 0 113
0 0 113
0 0 113
0 0 113
0 0 113
0 0 113
0 0 113
0 0 113
0 0 113
0 0 113
0 0 113
0 0 113
0 0 113
0 0 113
0 0 113
0 0 113
0 0 113
0 0 113
0 0 113
0 0 113
0 0 113
0 0 113
0 0 113
0 0 113
0 0 113
0 0 113
0 0 113
0 0 113
0 0 113
0 0 113
0 0 113
0 0 113
0 0 113
0 0 113
0 0 113
0 0 113
0 0 113
0 0 113
0 0 113
0 0 113
0 0 113
0 0 113
0 0 113
0 0 113
0 0 113
0 0 113
0 0 113
0 1 113
0 5 113
0 0 113
0 0 113
0 0 113
0 0 113
0 0 113
0 0 113
0 0 113
0 0 113
0 0 113
0 0 113
3 12 114
4 19 116
0 19 116
0 17 117
4 16 119
7 19 119
11 26 120
7 32 123
19 39 126
21 43 127
17 45 127
11 41 127
9 53 138
30 73 149
16 63 142
0 56 137
0 52 134
30 65 142
31 92 160
71 120 171
152 164 179
203 195 191
186 176 161
170 163 141
178 167 145
184 171 146
181 172 150
185 174 153
169 160 137
147 142 116
149 147 125
134 137 104
105 120 64
88 116 27
99 125 42
116 138 74
124 142 89
132 145 98
125 140 89
106 128 59
104 126 49
98 119 41
96 117 33
98 119 42
97 116 52
86 108 33
103 124 71
122 136 95
129 139 106
124 133 95
131 139 106
134 140 107
135 139 111
135 140 112
136 141 112
141 143 117
139 138 110
140 143 112
137 145 109
132 139 104
140 142 113
143 143 113
141 142 112
139 139 108
134 134 104
119 128 91
123 131 95
131 135 95
134 144 87
92 112 102
15 34 123
17 18 113
12 4 114
0 0 113
0 0 113
0 0 113
0 0 113
0 0 113
0 0 113
0 0 113
0 0 113
0 0 113
0 0 113
0 0 113
189 201 225
223 237 255
223 237 255
223 237 255
223 237 255
223 237 255
223 237 255
223 237 255
223 237 255
223 237 255
223 237 255
223 237 255
223 237 255
223 237 255
223 237 255
223 237 255
223 237 255
223 237 255
223 237 255
223 237 255
223 237 255
223 237 255
223 237 255
223 237 255
223 237 255
223 237 255
223 237 255
223 237 255
223 237 255
223 237 255
223 237 255
223 237 255
223 237 255
223 237 255
223 237 255
223 237 255
223 237 255
223 237 255
223 237 255
223 237 255
223 237 255
223 237 255
223 237 255
223 237 255
223 237 255
223 237 255
223 237 255
223 237 255
223 237 255
223 237 255
223 237 255
223 237 255
223 237 255
223 237 255
223 237 255
223 237 255
223 237 255
223 237 255
223 237 255
223 237 255
223 237 255
223 237 255
223 237 255
223 237 255
223 237 255
223 237 255
223 237 255
223 237 255
223 237 255
223 237 255
223 237 255
223 237 255
223 237 255
223 237 255
223 237 255
223 237 255
223 237 255
223 237 255
223 237 255
223 237 255
223 237 255
223 237 255
223 237 255
223 237 255
223 237 255
223 237 255
223 237 255
223 237 255
223 237 255
223 237 255
223 237 255
223 237 255
223 237 255
223 237 255
223 237 255
223 237 255
223 237 255
223 237 255
223 237 255
223 237 255
223 237 255
223 237 255
223 237 255
223 237 255
223 237 255
223 237 255
223 237 255
223 237 255
223 237 255
223 237 255
223 237 255
223 237 255
223 237 255
223 237 255
223 237 255
223 237 255
223 237 255
223 237 255
223 237 255
223 237 255
223 237 255
223 237 255
223 237 255
223 237 255
223 237 255
223 237 255
223 237 255
223 237 255
223 237 255
223 237 255
223 237 255
223 237 255
223 237 255
223 237 255
223 237 255
223 237 255
223 237 255
223 237 255
223 237 255
223 237 255
223 237 255
223 237 255
223 237 255
223 237 255
223 237 255
223 237 255
223 237 255
223 237 255
223 237 255
223 237 255
223 237 255
223 237 255
223 237 255
223 237 255
223 237 255
223 237 255
223 237 255
223 237 255
223 237 255
223 237 255
223 237 255
223 237 255
223 237 255
223 237 255
223 237 255
223 237 255
223 237 255
223 237 255
223 237 255
223 237 255
223 237 255
223 237 255
223 237 255
223 237 255
223 237 255
223 237 255
223 237 255
223 237 255
223 237 255
223 237 255
223 237 255
223 237 255
223 237 255
223 237 255
223 237 255
223 237 255
223 237 255
223 237 255
223 237 255
223 237 255
223 237 255
223 237 255
223 237 255
223 237 255
223 237 255
223 237 255
223 237 255
220 233 252
77 82 138
0 0 113
0 0 113
0 0 113
0 0 113
6 6 113
11 13 115
6 7 114
0 0 113
0 0 113
0 0 113
0 0 113
0 0 113
0 0 113
0 0 113
0 0 113
0 0 113
0 0 113
0 0 113
0 0 113
0 0 113
0 0 113
0 0 113
0 0 113
0 0 113
0 0 113
0 0 113
0 0 113
0 0 113
0 0 113
0 0 113
0 0 113
0 0 113
0 0 113
0 0 113
0 0 113
0 0 113
0 0 113
0 0 113
0 0 113
0 0 113
0 0 113
0 0 113
0 0 113
0 0 113
0 0 113
0 0 113
0 0 113
0 0 113
0 0 113
0 0 113
0 0 113
0 0 113
0 0 113
0 0 113
0 0 113
0 0 113
0 0 113
0 0 113
0 0 113
0 0 113
0 0 113
0 0 113
0 0 113
0 0 113
0 0 113
0 0 113
0 0 113
0 0 113
0 0 113
0 0 113
0 0 113
0 0 113
0 0 113
0 0 113
0 0 113
0 0 113
0 0 113
0 0 113
0 0 113
0 0 113
0 0 113
0 0 113
0 0 113
0 0 113
0 0 113
0 0 113
0 0 113
0 0 113
0 0 113
0 0 113
0 0 113
0 0 113
0 0 113
0 0 113
0 0 113
0 0 113
0 0 113
0 0 113
0 0 113
0 0 113
0 0 113
0 0 113
0 0 113
0 0 113
0 0 113
0 0 113
0 0 113
0 0 113
0 0 113
0 0 113
0 0 113
0 0 113
0 0 113
0 0 113
0 0 113
0 0 113
0 0 113
0 0 114
0 0 115
0 16 116
0 21 116
0 19 117
0 15 118
0 19 119
0 25 120
0 29 122
0 31 123
0 37 125
0 38 125
11 48 132
21 59 137
7 51 133
15 55 134
8 49 131
14 57 137
25 71 147
18 80 148
52 92 155
168 169 168
202 189 168
185 174 155
177 165 145
186 175 152
187 178 158
187 176 162
193 184 165
175 167 144
166 154 135
163 154 138
144 141 122
123 129 93
103 121 57
102 121 51
132 146 100
127 140 92
114 133 76
107 128 54
105 127 55
102 122 57
95 115 37
94 117 42
96 119 49
94 120 52
101 119 72
120 128 98
127 135 107
128 137 103
131 140 106
128 135 100
135 138 109
136 141 113
134 139 111
139 142 115
141 139 114
135 138 107
133 140 105
132 137 103
140 142 109
140 141 109
142 143 109
140 139 111
137 139 109
113 126 87
134 136 98
138 139 106
122 135 84
51 77 121
18 21 119
15 5 113
8 0 113
0 0 113
0 0 113
0 0 113
0 0 113
0 0 113
0 0 113
0 0 113
0 0 113
0 0 113
0 0 113
44 47 122
220 233 252
223 237 255
223 237 255
223 237 255
223 237 255
223 237 255
223 237 255
223 237 255
223 237 255
223 237 255
223 237 255
223 237 255
223 237 255
223 237 255
223 237 255
223 237 255
223 237 255
223 237 255
223 237 255
223 237 255
223 237 255
223 237 255
223 237 255
223 237 255
223 237 255
223 237 255
223 237 255
223 237 255
223 237 255
223 237 255
223 237 255
223 237 255
223 237 255
223 237 255
223 237 255
223 237 255
223 237 255
223 237 255
223 237 255
223 237 255
223 237 255
223 237 255
223 237 255
223 237 255
223 237 255
223 237 255
223 237 255
223 237 255
223 237 255
223 237 255
223 237 255
223 237 255
223 237 255
223 237 255
223 237 255
223 237 255
223 237 255
223 237 255
223 237 255
223 237 255
223 237 255
223 237 255
223 237 255
223 237 255
223 237 255
223 237 255
223 237 255
223 237 255
223 237 255
223 237 255
223 237 255
223 237 255
223 237 255
223 237 255
223 237 255
223 237 255
223 237 255
223 237 255
223 237 255
223 237 255
223 237 255
223 237 255
223 237 255
223 237 255
223 237 255
223 237 255
223 237 255
223 237 255
223 237 255
223 237 255
223 237 255
223 237 255
223 237 255
223 237 255
223 237 255
223 237 255
223 237 255
223 237 255
223 237 255
223 237 255
223 237 255
223 237 255
223 237 255
223 237 255
223 237 255
223 237 255
223 237 255
223 237 255
223 237 255
223 237 255
223 237 255
223 237 255
223 237 255
223 237 255
223 237 255
223 237 255
223 237 255
223 237 255
223 237 255
223 237 255
223 237 255
223 237 255
223 237 255
223 237 255
223 237 255
223 237 255
223 237 255
223 237 255
223 237 255
223 237 255
223 237 255
223 237 255
223 237 255
223 237 255
223 237 255
223 237 255
223 237 255
223 237 255
223 237 255
223 237 255
223 237 255
223 237 255
223 237 255
223 237 255
223 237 255
223 237 255
223 237 255
223 237 255
223 237 255
223 237 255
223 237 255
223 237 255
223 237 255
223 237 255
223 237 255
223 237 255
223 237 255
223 237 255
223 237 255
223 237 255
223 237 255
223 237 255
223 237 255
223 237 255
223 237 255
223 237 255
223 237 255
223 237 255
223 237 255
223 237 255
223 237 255
223 237 255
223 237 255
223 237 255
223 237 255
223 237 255
223 237 255
223 237 255
223 237 255
223 237 255
223 237 255
223 237 255
223 237 255
223 237 255
223 237 255
223 237 255
223 237 255
223 237 255
223 237 255
223 237 255
223 237 255
223 237 255
223 237 255
223 237 255
223 237 255
223 237 255
223 237 255
223 237 255
171 182 209
0 0 113
0 0 113
0 0 113
0 0 113
0 0 113
5 8 113
0 4 113
0 0 113
0 0 113
0 0 113
0 0 113
0 0 113
0 0 113
0 0 113
0 0 113
0 0 113
0 0 113
0 0 113
0 0 113
0 0 113
0 0 113
0 0 113
0 0 113
0 0 113
0 0 113
0 0 113
0 0 113
0 0 113
0 0 113
0 0 113
0 0 113
0 0 113
0 0 113
0 0 113
0 0 113
0 0 113
0 0 113
0 0 113
0 0 113
0 0 113
0 0 113
0 0 113
0 0 113
0 0 113
0 0 113
0 0 113
0 0 113
0 0 113
0 0 113
0 0 113
0 0 113
0 0 113
0 0 113
0 0 113
0 0 113
0 0 113
0 0 113
0 0 113
0 0 113
0 0 113
0 0 113
0 0 113
0 0 113
0 0 113
0 0 113
0 0 113
0 0 113
0 0 113
0 0 113
0 0 113
0 0 113
0 0 113
0 0 113
0 0 113
0 0 113
0 0 113
0 0 113
0 0 113
0 0 113
0 0 113
0 0 113
0 0 113
0 0 113
0 0 113
0 0 113
0 0 113
0 0 113
0 0 113
0 0 113
0 0 113
0 0 113
0 0 113
0 0 113
0 0 113
0 0 113
0 0 113
0 0 113
0 0 113
0 0 113
0 0 113
0 0 113
0 0 113
0 0 113
0 0 113
0 0 113
0 0 113
0 0 113
0 0 113
0 0 113
0 0 113
0 0 113
0 0 113
0 0 113
0 0 113
0 0 113
0 0 113
0 0 113
0 0 113
0 0 115
0 3 115
0 17 116
0 21 116
0 19 117
10 25 119
12 29 120
12 29 120
8 32 123
11 36 125
6 38 125
19 46 128
15 44 128
5 40 127
18 54 134
19 57 136
25 55 138
30 57 132
16 49 132
20 52 130
58 84 149
143 153 170
206 195 181
185 173 153
177 166 135
184 175 152
188 173 150
201 188 168
180 168 145
166 159 136
150 144 115
135 133 102
131 134 102
117 129 84
105 123 68
125 136 89
115 129 75
107 128 62
103 124 51
109 128 67
110 129 75
102 122 56
95 120 44
96 120 45
94 118 53
100 114 67
121 127 99
125 134 101
127 138 102
133 143 110
134 141 109
139 143 114
138 143 114
138 142 110
136 139 109
134 136 107
135 139 106
139 143 111
135 138 104
140 142 109
138 141 108
141 143 113
143 143 115
130 134 101
116 128 86
132 136 99
128 132 93
114 130 98
32 53 127
13 19 116
5 14 114
0 0 113
0 0 113
0 0 113
0 0 113
0 0 113
0 0 113
0 0 113
0 0 113
0 0 113
0 0 113
0 0 113
148 157 189
223 237 255
223 237 255
223 237 255
223 237 255
223 237 255
223 237 255
223 237 255
223 237 255
223 237 255
223 237 255
223 237 255
223 237 255
223 237 255
223 237 255
223 237 255
223 237 255
223 237 255
223 237 255
223 237 255
223 237 255
223 237 255
223 237 255
223 237 255
223 237 255
223 237 255
223 237 255
223 237 255
223 237 255
223 237 255
223 237 255
223 237 255
223 237 255
223 237 255
223 237 255
223 237 255
223 237 255
223 237 255
223 237 255
223 237 255
223 237 255
223 237 255
223 237 255
223 237 255
223 237 255
223 237 255
223 237 255
223 237 255
223 237 255
223 237 255
223 237 255
223 237 255
223 237 255
223 237 255
223 237 255
223 237 255
223 237 255
223 237 255
223 237 255
223 237 255
223 237 255
223 237 255
223 237 255
223 237 255
223 237 255
223 237 255
223 237 255
223 237 255
223 237 255
223 237 255
223 237 255
223 237 255
223 237 255
223 237 255
223 237 255
223 237 255
223 237 255
223 237 255
223 237 255
223 237 255
223 237 255
223 237 255
223 237 255
223 237 255
223 237 255
223 237 255
223 237 255
223 237 255
223 237 255
223 237 255
223 237 255
223 237 255
223 237 255
223 237 255
223 237 255
223 237 255
223 237 255
223 237 255
223 237 255
223 237 255
223 237 255
223 237 255
223 237 255
223 237 255
223 237 255
223 237 255
223 237 255
223 237 255
223 237 255
223 237 255
223 237 255
223 237 255
223 237 255
223 237 255
223 237 255
223 237 255
223 237 255
223 237 255
223 237 255
223 237 255
223 237 255
223 237 255
223 237 255
223 237 255
223 237 255
223 237 255
223 237 255
223 237 255
223 237 255
223 237 255
223 237 255
223 237 255
223 237 255
223 237 255
223 237 255
223 237 255
223 237 255
223 237 255
223 237 255
223 237 255
223 237 255
223 237 255
223 237 255
223 237 255
223 237 255
223 237 255
223 237 255
223 237 255
223 237 255
223 237 255
223 237 255
223 237 255
223 237 255
223 237 255
223 237 255
223 237 255
223 237 255
223 237 255
223 237 255
223 237 255
223 237 255
223 237 255
223 237 255
223 237 255
223 237 255
223 237 255
223 237 255
223 237 255
223 237 255
223 237 255
223 237 255
223 237 255
223 237 255
223 237 255
223 237 255
223 237 255
223 237 255
223 237 255
223 237 255
223 237 255
223 237 255
223 237 255
223 237 255
223 237 255
223 237 255
223 237 255
223 237 255
223 237 255
223 237 255
223 237 255
223 237 255
223 237 255
223 237 255
223 237 255
223 237 255
223 237 255
223 237 255
223 237 255
223 237 255
205 217 238
0 0 113
0 0 113
0 0 113
0 0 113
0 0 113
0 0 113
0 0 113
0 0 113
0 0 113
0 0 113
0 0 113
0 0 113
0 0 113
0 0 113
0 0 113
0 0 113
0 0 113
0 0 113
0 0 113
0 0 113
0 0 113
0 0 113
0 0 113
0 0 113
0 0 113
0 0 113
0 0 113
0 0 113
0 0 113
0 0 113
0 0 113
0 0 113
0 0 113
0 0 113
0 0 113
0 0 113
0 0 113
0 0 113
0 0 113
0 0 113
0 0 113
0 0 113
0 0 113
0 0 113
0 0 113
0 0 113
0 0 113
0 0 113
0 0 113
0 0 113
0 0 113
0 0 113
0 0 113
0 0 113
0 0 113
0 0 113
0 0 113
0 0 113
0 0 113
0 0 113
0 0 113
0 0 113
0 0 113
0 0 113
0 0 113
0 0 113
0 0 113
0 0 113
0 0 113
0 0 113
0 0 113
0 0 113
0 0 113
0 0 113
0 0 113
0 0 113
0 0 113
0 0 113
0 0 113
0 0 113
0 0 113
0 0 113
0 0 113
0 0 113
0 0 113
0 0 113
0 0 113
0 0 113
0 0 113
0 0 113
0 0 113
0 0 113
0 0 113
0 0 113
0 0 113
0 0 113
0 0 113
0 0 113
0 0 113
0 0 113
0 0 113
0 0 113
0 0 113
0 0 113
0 0 113
0 0 113
0 0 113
0 0 113
0 0 113
0 0 113
0 0 113
0 0 113
0 0 113
0 0 113
0 0 113
0 0 113
0 0 113
0 0 113
0 0 113
0 0 113
0 12 115
0 20 116
0 21 116
0 16 115
4 21 117
12 28 120
16 32 121
6 31 123
5 30 123
11 43 127
0 42 128
0 46 130
0 52 134
10 55 137
28 54 132
32 37 129
25 36 128
32 43 130
35 46 131
83 110 162
197 190 180
184 171 153
186 178 148
198 190 166
200 189 164
180 179 139
172 171 134
168 161 137
161 155 133
140 138 115
135 135 108
106 118 66
115 128 80
126 131 90
118 128 82
114 130 74
110 127 63
113 130 73
110 129 77
105 128 62
96 122 48
102 121 55
110 127 78
121 132 96
128 136 107
124 135 100
128 139 101
133 142 105
141 145 114
139 144 114
137 142 112
136 143 113
135 142 110
135 140 108
137 141 106
140 142 109
142 144 112
140 142 110
136 138 106
141 143 110
138 139 104
122 127 88
118 126 85
125 134 96
125 132 89
62 81 118
5 11 115
5 8 116
1 4 114
0 0 113
0 0 113
0 0 113
0 0 113
0 0 113
0 0 113
0 0 113
0 0 113
0 0 113
0 0 113
0 0 113
208 221 242
223 237 255
223 237 255
223 237 255
223 237 255
223 237 255
223 237 255
223 237 255
223 237 255
223 237 255
223 237 255
223 237 255
223 237 255
223 237 255
223 237 255
223 237 255
223 237 255
223 237 255
223 237 255
223 237 255
223 237 255
223 237 255
223 237 255
223 237 255
223 237 255
223 237 255
223 237 255
223 237 255
223 237 255
223 237 255
223 237 255
223 237 255
223 237 255
223 237 255
223 237 255
223 237 255
223 237 255
223 237 255
223 237 255
223 237 255
223 237 255
223 237 255
223 237 255
223 237 255
223 237 255
223 237 255
223 237 255
223 237 255
223 237 255
223 237 255
223 237 255
223 237 255
223 237 255
223 237 255
223 237 255
223 237 255
223 237 255
223 237 255
223 237 255
223 237 255
223 237 255
223 237 255
223 237 255
223 237 255
223 237 255
223 237 255
223 237 255
223 237 255
223 237 255
223 237 255
223 237 255
223 237 255
223 237 255
223 237 255
223 237 255
223 237 255
223 237 255
223 237 255
223 237 255
223 237 255
223 237 255
223 237 255
223 237 255
223 237 255
223 237 255
223 237 255
223 237 255
223 237 255
223 237 255
223 237 255
223 237 255
223 237 255
223 237 255
223 237 255
223 237 255
223 237 255
223 237 255
223 237 255
223 237 255
223 237 255
223 237 255
223 237 255
223 237 255
223 237 255
223 237 255
223 237 255
223 237 255
223 237 255
223 237 255
223 237 255
223 237 255
223 237 255
223 237 255
223 237 255
223 237 255
223 237 255
223 237 255
223 237 255
223 237 255
223 237 255
223 237 255
223 237 255
223 237 255
223 237 255
223 237 255
223 237 255
223 237 255
223 237 255
223 237 255
223 237 255
223 237 255
223 237 255
223 237 255
223 237 255
223 237 255
223 237 255
223 237 255
223 237 255
223 237 255
223 237 255
223 237 255
223 237 255
223 237 255
223 237 255
223 237 255
223 237 255
223 237 255
223 237 255
223 237 255
223 237 255
223 237 255
224 237 255
224 237 255
224 237 255
224 237 255
224 237 255
224 237 255
224 237 255
224 237 255
224 237 255
224 237 255
224 237 255
224 237 255
224 237 255
224 237 255
224 237 255
224 237 255
224 237 255
224 237 255
224 237 255
224 237 255
224 237 255
224 237 255
224 237 255
224 237 255
224 237 255
224 237 255
224 237 255
224 237 255
224 237 255
224 237 255
224 237 255
224 237 255
224 237 255
224 237 255
224 237 255
224 237 255
224 237 255
224 237 255
224 237 255
224 237 255
224 237 255
224 237 255
224 237 255
224 237 255
224 237 255
224 237 255
224 237 255
224 237 255
224 237 255
105 111 156
0 0 113
0 0 113
0 0 113
0 0 113
0 0 113
0 0 113
0 0 113
0 0 113
0 0 113
0 0 113
0 0 113
0 0 113
0 0 113
0 0 113
0 0 113
0 0 113
0 0 113
0 0 113
0 0 113
0 0 113
0 0 113
0 0 113
0 0 113
0 0 113
0 0 113
0 0 113
0 0 113
0 0 113
0 0 113
0 0 113
0 0 113
0 0 113
0 0 113
0 0 113
0 0 113
0 0 113
0 0 113
0 0 113
0 0 113
0 0 113
0 0 113
0 0 113
0 0 113
0 0 113
0 0 113
0 0 113
0 0 113
0 0 113
0 0 113
0 0 113
0 0 113
0 0 113
0 0 113
0 0 113
0 0 113
0 0 113
0 0 113
0 0 113
0 0 113
0 0 113
0 0 113
0 0 113
0 0 113
0 0 113
0 0 113
0 0 113
0 0 113
0 0 113
0 0 113
0 0 113
0 0 113
0 0 113
0 0 113
0 0 113
0 0 113
0 0 113
0 0 113
0 0 113
0 0 113
0 0 113
0 0 113
0 0 113
0 0 113
0 0 113
0 0 113
0 0 113
0 0 113
0 0 113
0 0 113
0 0 113
0 0 113
0 0 113
0 0 113
0 0 113
0 0 113
0 0 113
0 0 113
0 0 113
0 0 113
0 0 113
0 0 113
0 0 113
0 0 113
0 0 113
0 0 113
0 0 113
0 0 113
0 0 113
0 0 113
0 0 113
0 0 113
0 0 113
0 0 113
0 0 113
0 0 113
0 0 113
0 0 113
0 0 113
0 0 113
0 0 114
4 14 116
6 19 116
7 17 115
8 21 116
14 26 118
14 30 121
16 31 121
5 32 123
0 39 126
11 42 128
13 44 128
2 42 128
4 41 127
6 35 124
23 38 124
27 37 123
19 40 129
12 42 128
94 97 148
188 181 171
174 160 147
182 171 140
181 167 136
202 191 163
199 195 166
187 180 156
179 169 151
172 161 140
161 156 134
137 137 108
106 121 70
123 132 90
132 132 95
124 131 89
119 130 81
116 130 73
112 129 72
108 128 70
103 128 56
98 122 49
122 135 88
124 135 94
112 126 77
113 124 82
118 131 89
127 138 101
137 143 109
140 144 114
136 143 111
139 145 112
138 145 113
139 144 113
138 144 112
138 142 109
133 139 103
133 139 102
137 140 106
137 141 107
132 138 100
124 131 90
123 130 89
128 133 101
120 132 97
91 105 108
21 24 116
0 0 115
0 0 115
0 0 113
0 0 113
0 0 113
0 0 113
0 0 113
0 0 113
0 0 113
0 0 113
0 0 113
0 0 113
0 0 113
128 136 173
224 237 255
224 237 255
224 237 255
224 237 255
224 237 255
224 237 255
224 237 255
224 237 255
224 237 255
224 237 255
224 237 255
224 237 255
224 237 255
224 237 255
224 237 255
224 237 255
224 237 255
224 237 255
224 237 255
224 237 255
224 237 255
224 237 255
224 237 255
224 237 255
224 237 255
224 237 255
224 237 255
224 237 255
224 237 255
224 237 255
224 237 255
224 237 255
224 237 255
224 237 255
224 237 255
224 237 255
224 237 255
224 237 255
224 237 255
224 237 255
224 237 255
224 237 255
224 237 255
224 237 255
223 237 255
224 237 255
223 237 255
223 237 255
223 237 255
223 237 255
223 237 255
223 237 255
223 237 255
223 237 255
223 237 255
223 237 255
223 237 255
223 237 255
223 237 255
223 237 255
223 237 255
223 237 255
223 237 255
223 237 255
223 237 255
223 237 255
223 237 255
223 237 255
223 237 255
223 237 255
223 237 255
223 237 255
223 237 255
223 237 255
223 237 255
223 237 255
223 237 255
223 237 255
223 237 255
223 237 255
223 237 255
223 237 255
223 237 255
223 237 255
223 237 255
223 237 255
223 237 255
223 237 255
223 237 255
223 237 255
223 237 255
223 237 255
223 237 255
223 237 255
223 237 255
223 237 255
223 237 255
223 237 255
223 237 255
223 237 255
224 237 255
224 237 255
224 237 255
224 237 255
224 237 255
224 237 255
224 237 255
224 237 255
224 237 255
224 237 255
224 237 255
224 237 255
224 237 255
224 237 255
224 237 255
224 237 255
224 237 255
224 237 255
224 237 255
224 237 255
224 237 255
224 237 255
224 237 255
224 237 255
224 237 255
224 237 255
224 237 255
224 237 255
224 237 255
224 237 255
224 237 255
224 237 255
224 237 255
224 237 255
224 237 255
224 237 255
224 237 255
224 237 255
224 237 255
224 237 255
224 237 255
224 237 255
224 237 255
224 237 255
224 237 255
224 237 255
224 237 255
224 237 255
224 237 255
224 237 255
224 237 255
224 237 255
224 237 255
224 237 255
224 237 255
224 237 255
224 237 255
224 237 255
224 237 255
224 237 255
224 237 255
224 237 255
224 237 255
224 237 255
224 237 255
224 237 255
224 237 255
224 237 255
224 237 255
224 237 255
224 237 255
224 237 255
224 237 255
224 237 255
224 237 255
224 237 255
224 237 255
224 237 255
224 237 255
224 237 255
224 237 255
224 237 255
224 237 255
224 237 255
224 237 255
224 237 255
224 237 255
224 237 255
224 237 255
224 237 255
224 237 255
224 237 255
224 237 255
224 237 255
224 237 255
224 237 255
224 237 255
224 237 255
224 237 255
224 237 255
182 192 218
0 0 113
0 0 113
0 0 113
0 0 113
0 0 113
0 0 113
0 0 113
0 0 113
0 0 113
0 0 113
0 0 113
0 0 113
0 0 113
0 0 113
0 0 113
0 0 113
0 0 113
0 0 113
0 0 113
0 0 113
0 0 113
0 0 113
0 0 113
0 0 113
0 0 113
0 0 113
0 0 113
0 0 113
0 0 113
0 0 113
0 0 113
0 0 113
0 0 113
0 0 113
0 0 113
0 0 113
0 0 113
0 0 113
0 0 113
0 0 113
0 0 113
0 0 113
0 0 113
0 0 113
0 0 113
0 0 113
0 0 113
0 0 113
0 0 113
0 0 113
0 0 113
0 0 113
0 0 113
0 0 113
0 0 113
0 0 113
0 0 113
0 0 113
0 0 113
0 0 113
0 0 113
0 0 113
0 0 113
0 0 113
0 0 113
0 0 113
0 0 113
0 0 113
0 0 113
0 0 113
0 0 113
0 0 113
0 0 113
0 0 113
0 0 113
0 0 113
0 0 113
0 0 113
0 0 113
0 0 113
0 0 113
0 0 113
0 0 113
0 0 113
0 0 113
0 0 113
0 0 113
0 0 113
0 0 113
0 0 113
0 0 113
0 0 113
0 0 113
0 0 113
0 0 113
0 0 113
0 0 113
0 0 113
0 0 113
0 0 113
0 0 113
0 0 113
0 0 113
0 0 113
0 0 113
0 0 113
0 0 113
0 0 113
0 0 113
0 0 113
0 0 113
0 0 113
0 0 113
0 0 113
0 0 113
0 0 113
12 0 113
4 0 113
0 0 113
0 0 113
2 2 115
10 12 116
13 16 114
9 20 116
7 22 117
8 23 119
11 27 120
16 32 122
9 31 123
0 30 122
0 30 121
12 31 121
19 33 121
28 35 128
0 37 123
11 42 123
22 39 128
21 47 138
104 112 155
194 190 185
175 163 151
185 169 149
176 166 148
185 171 147
193 179 164
189 180 163
178 171 151
176 167 147
161 157 128
125 129 94
116 127 82
127 132 94
137 136 109
129 130 100
121 131 91
117 129 80
106 124 63
102 123 58
99 125 47
110 129 68
129 139 102
117 130 87
113 133 82
116 131 89
128 139 98
134 141 104
139 143 112
137 141 110
134 143 106
132 141 100
132 144 106
142 149 115
142 148 115
136 141 105
125 135 95
129 136 99
139 142 107
135 140 106
129 135 98
124 132 93
127 134 97
124 133 88
115 132 108
51 61 117
6 0 115
0 0 115
0 0 115
0 0 113
0 0 113
0 0 113
0 0 113
0 0 113
0 0 113
0 0 113
0 0 113
0 0 113
0 0 113
0 0 113
191 202 226
224 237 255
224 237 255
224 237 255
224 237 255
224 237 255
224 237 255
224 237 255
224 237 255
224 237 255
224 237 255
224 237 255
224 237 255
224 237 255
224 237 255
224 237 255
224 237 255
224 237 255
224 237 255
224 237 255
224 237 255
224 237 255
224 237 255
224 237 255
224 237 255
224 237 255
224 237 255
224 237 255
224 237 255
224 237 255
224 237 255
224 237 255
224 237 255
224 237 255
224 237 255
224 237 255
224 237 255
224 237 255
224 237 255
224 237 255
224 237 255
224 237 255
224 237 255
224 237 255
224 237 255
224 237 255
224 237 255
224 237 255
224 237 255
224 237 255
224 237 255
224 237 255
224 237 255
224 237 255
224 237 255
224 237 255
224 237 255
224 237 255
224 237 255
224 237 255
224 237 255
224 237 255
224 237 255
224 237 255
224 237 255
224 237 255
224 237 255
224 237 255
224 237 255
224 237 255
224 237 255
224 237 255
224 237 255
224 237 255
224 237 255
224 237 255
224 237 255
224 237 255
224 237 255
224 237 255
224 237 255
224 237 255
224 237 255
224 237 255
224 237 255
224 237 255
224 237 255
224 237 255
224 237 255
224 237 255
224 237 255
224 237 255
224 237 255
224 237 255
224 237 255
224 237 255
224 237 255
224 237 255
224 237 255
224 237 255
224 237 255
224 237 255
224 237 255
224 237 255
224 237 255
224 237 255
224 237 255
224 237 255
224 237 255
224 237 255
224 237 255
224 237 255
224 237 255
224 237 255
224 237 255
224 237 255
224 237 255
224 237 255
224 237 255
224 237 255
224 237 255
224 237 255
224 237 255
224 237 255
224 237 255
224 237 255
224 237 255
224 237 255
224 237 255
224 237 255
224 237 255
224 237 255
224 237 255
224 237 255
224 237 255
224 237 255
224 237 255
224 237 255
224 237 255
224 237 255
224 237 255
224 237 255
224 237 255
224 237 255
224 237 255
224 237 255
224 237 255
224 237 255
224 237 255
224 237 255
224 237 255
224 237 255
224 237 255
224 237 255
224 237 255
224 237 255
224 237 255
224 237 255
224 237 255
224 237 255
224 237 255
224 237 255
224 237 255
224 237 255
224 237 255
224 237 255
224 237 255
224 237 255
224 237 255
224 237 255
224 237 255
224 237 255
224 237 255
224 237 255
224 237 255
224 237 255
224 237 255
224 237 255
224 237 255
224 237 255
224 237 255
224 237 255
224 237 255
224 237 255
224 237 255
224 237 255
224 237 255
224 237 255
224 237 255
224 237 255
224 237 255
224 237 255
224 237 255
224 237 255
224 237 255
224 237 255
224 237 255
224 237 255
224 237 255
224 237 255
224 237 255
223 236 254
95 100 149
0 0 113
0 0 113
0 0 113
0 0 113
0 0 113
0 0 113
0 0 113
0 0 113
0 0 113
0 0 113
0 0 113
0 0 113
0 0 113
0 0 113
0 0 113
0 0 113
0 0 113
0 0 113
0 0 113
0 0 113
0 0 113
0 0 113
0 0 113
0 0 113
0 0 113
0 0 113
0 0 113
0 0 113
0 0 113
0 0 113
0 0 113
0 0 113
0 0 113
0 0 113
0 0 113
0 0 113
0 0 113
0 0 113
0 0 113
0 0 113
0 0 113
0 0 113
0 0 113
0 0 113
0 0 113
0 0 113
0 0 113
0 0 113
0 0 113
0 0 113
0 0 113
0 0 113
0 0 113
0 0 113
0 0 113
0 0 113
0 0 113
0 0 113
0 0 113
0 0 113
0 0 113
0 0 113
0 0 113
0 0 113
0 0 113
0 0 113
0 0 113
0 0 113
0 0 113
0 0 113
0 0 113
0 0 113
0 0 113
0 0 113
0 0 113
0 0 113
0 0 113
0 0 113
0 0 113
0 0 113
0 0 113
0 0 113
0 0 113
0 0 113
0 0 113
0 0 113
0 0 113
0 0 113
0 0 113
0 0 113
0 0 113
0 0 113
0 0 113
0 0 113
0 0 113
0 0 113
0 0 113
0 0 113
0 0 113
0 0 113
0 0 113
0 0 113
0 0 113
0 0 113
0 0 113
0 0 113
0 0 113
0 0 113
0 0 113
0 0 113
0 0 113
0 0 113
0 0 113
0 0 113
0 0 113
0 0 113
0 0 113
0 0 113
0 0 113
0 0 113
0 0 113
0 19 114
8 23 116
13 24 118
14 23 120
11 26 120
12 27 120
6 28 122
0 28 122
0 30 123
0 33 124
0 36 125
0 37 126
0 44 129
18 49 131
16 44 131
13 54 140
107 119 158
202 194 186
189 178 165
201 186 173
189 181 167
185 171 154
199 186 175
190 178 157
160 153 126
171 161 140
156 152 123
115 123 83
116 129 87
124 131 97
131 132 106
136 140 114
124 131 91
116 127 77
109 127 71
103 124 64
97 127 49
111 131 74
120 133 92
110 128 77
121 139 93
124 137 95
130 140 101
137 144 110
135 140 106
138 145 109
130 141 97
131 142 97
129 143 97
141 149 111
141 146 112
127 138 96
122 136 92
130 139 100
134 139 103
136 140 106
133 137 103
127 132 95
132 138 106
137 140 109
80 95 134
19 17 114
0 0 115
0 0 115
0 0 114
0 0 113
0 0 113
0 0 113
0 0 113
0 0 113
0 0 113
0 0 113
0 0 113
0 0 113
0 0 113
77 82 138
224 237 255
224 237 255
224 237 255
224 237 255
224 237 255
224 237 255
224 237 255
224 237 255
224 237 255
224 237 255
224 237 255
224 237 255
224 237 255
224 237 255
224 237 255
224 237 255
224 237 255
224 237 255
224 237 255
224 237 255
224 237 255
224 237 255
224 237 255
224 237 255
224 237 255
224 237 255
224 237 255
224 237 255
224 237 255
224 237 255
224 237 255
224 237 255
224 237 255
224 237 255
224 237 255
224 237 255
224 237 255
224 237 255
224 237 255
224 237 255
224 237 255
224 237 255
224 237 255
224 237 255
224 237 255
224 237 255
224 237 255
224 237 255
224 237 255
224 237 255
224 237 255
224 237 255
224 237 255
224 237 255
224 237 255
224 237 255
224 237 255
224 237 255
224 237 255
224 237 255
224 237 255
224 237 255
224 237 255
224 237 255
224 237 255
224 237 255
224 237 255
224 237 255
224 237 255
224 237 255
224 237 255
224 237 255
224 237 255
224 237 255
224 237 255
224 237 255
224 237 255
224 237 255
224 237 255
224 237 255
224 237 255
224 237 255
224 237 255
224 237 255
224 237 255
224 237 255
224 237 255
224 237 255
224 237 255
224 237 255
224 237 255
224 237 255
224 237 255
224 237 255
224 237 255
224 237 255
224 237 255
224 237 255
224 237 255
224 237 255
224 237 255
224 237 255
224 237 255
224 237 255
224 237 255
224 237 255
224 237 255
224 237 255
224 237 255
224 237 255
224 237 255
224 237 255
224 237 255
224 237 255
224 237 255
224 237 255
224 237 255
224 237 255
224 237 255
224 237 255
224 237 255
224 237 255
224 237 255
224 237 255
224 237 255
224 237 255
224 237 255
224 237 255
224 237 255
224 237 255
224 237 255
224 237 255
224 237 255
224 237 255
224 237 255
224 237 255
224 237 255
224 237 255
224 237 255
224 237 255
224 237 255
224 237 255
224 237 255
224 237 255
224 237 255
224 237 255
224 237 255
224 237 255
224 237 255
224 237 255
224 237 255
224 237 255
224 237 255
224 237 255
224 237 255
224 237 255
224 237 255
224 237 255
224 237 255
224 237 255
224 237 255
224 237 255
224 237 255
224 237 255
224 237 255
224 237 255
224 237 255
224 237 255
224 237 255
224 237 255
224 237 255
224 237 255
224 237 255
224 237 255
224 237 255
224 237 255
224 237 255
224 237 255
224 237 255
224 237 255
224 237 255
224 237 255
224 237 255
224 237 255
224 237 255
224 237 255
224 237 255
224 237 255
224 237 255
224 237 255
224 237 255
224 237 255
224 237 255
224 237 255
224 237 255
224 237 255
224 237 255
224 237 255
224 237 255
224 237 255
224 237 255
224 237 255
164 174 203
0 0 113
0 0 113
0 0 113
0 0 113
0 0 113
0 0 113
0 0 113
0 0 113
0 0 113
0 0 113
0 0 113
0 0 113
0 0 113
0 0 113
0 0 113
0 0 113
0 0 113
0 0 113
0 0 113
0 0 113
0 0 113
0 0 113
0 0 113
0 0 113
0 0 113
0 0 113
0 0 113
0 0 113
0 0 113
0 0 113
0 0 113
0 0 113
0 0 113
0 0 113
0 0 113
0 0 113
0 0 113
0 0 113
0 0 113
0 0 113
0 0 113
0 0 113
0 0 113
0 0 113
0 0 113
0 0 113
0 0 113
0 0 113
0 0 113
0 0 113
0 0 113
0 0 113
0 0 113
0 0 113
0 0 113
0 0 113
0 0 113
0 0 113
0 0 113
0 0 113
0 0 113
0 0 113
0 0 113
0 0 113
0 0 113
0 0 113
0 0 113
0 0 113
0 0 113
0 0 113
0 0 113
0 0 113
0 0 113
0 0 113
0 0 113
0 0 113
0 0 113
0 0 113
0 0 113
0 0 113
0 0 113
0 0 113
0 0 113
0 0 113
0 0 113
0 0 113
0 0 113
0 0 113
0 0 113
0 0 113
0 0 113
0 0 113
0 0 113
0 0 113
0 0 113
0 0 113
0 0 113
0 0 113
0 0 113
0 0 113
0 0 113
0 0 113
0 0 113
0 0 113
0 0 113
0 0 113
0 0 113
0 0 113
0 0 113
0 0 113
0 0 113
0 0 113
0 0 113
0 0 113
0 0 113
0 0 113
0 0 113
0 0 113
0 0 113
0 0 113
1 0 113
3 8 112
9 14 115
14 25 117
18 30 120
16 33 121
5 32 122
3 30 123
6 37 125
13 41 126
15 43 127
15 42 127
15 41 125
1 43 127
15 56 132
7 54 133
18 69 147
120 131 165
199 183 170
190 175 162
194 181 159
193 185 170
201 193 183
216 203 193
195 184 168
159 153 127
167 158 136
139 136 107
111 121 77
117 128 87
122 127 93
125 128 104
130 134 104
124 131 91
117 128 81
112 129 80
107 128 76
108 132 71
117 133 85
118 132 87
117 133 84
125 140 96
125 137 93
131 141 102
132 140 101
131 138 95
133 144 100
129 140 92
134 147 103
130 144 98
133 143 99
138 143 105
120 135 93
122 134 94
130 138 97
134 141 104
133 138 103
128 133 96
126 134 96
129 138 97
130 141 114
47 60 136
16 16 112
0 0 115
0 0 115
0 0 113
0 0 113
0 0 113
0 0 113
0 0 113
0 0 113
0 0 113
0 0 113
0 0 113
0 0 113
0 0 113
161 171 200
224 237 255
224 237 255
224 237 255
224 237 255
224 237 255
224 237 255
224 237 255
224 237 255
224 237 255
224 237 255
224 237 255
224 237 255
224 237 255
224 237 255
224 237 255
224 237 255
224 237 255
224 237 255
224 237 255
224 237 255
224 237 255
224 237 255
224 237 255
224 237 255
224 237 255
224 237 255
224 237 255
224 237 255
224 237 255
224 237 255
224 237 255
224 237 255
224 237 255
224 237 255
224 237 255
224 237 255
224 237 255
224 237 255
224 237 255
224 237 255
224 237 255
224 237 255
224 237 255
224 237 255
224 237 255
224 237 255
224 237 255
224 237 255
224 237 255
224 237 255
224 237 255
224 237 255
224 237 255
224 237 255
224 237 255
224 237 255
224 237 255
224 237 255
224 237 255
224 237 255
224 237 255
224 237 255
224 237 255
224 237 255
224 237 255
224 237 255
224 237 255
224 237 255
224 237 255
224 237 255
224 237 255
224 237 255
224 237 255
224 237 255
224 237 255
224 237 255
224 237 255
224 237 255
224 237 255
224 237 255
224 237 255
224 237 255
224 237 255
224 237 255
224 237 255
224 237 255
224 237 255
224 237 255
224 237 255
224 237 255
224 237 255
224 237 255
224 237 255
224 237 255
224 237 255
224 237 255
224 237 255
224 237 255
224 237 255
224 237 255
224 237 255
224 237 255
224 237 255
224 237 255
224 237 255
224 237 255
224 237 255
224 237 255
224 237 255
224 237 255
224 237 255
224 237 255
224 237 255
224 237 255
224 237 255
224 237 255
224 237 255
224 237 255
224 237 255
224 237 255
224 237 255
224 237 255
224 237 255
224 237 255
224 237 255
224 237 255
224 237 255
224 237 255
224 237 255
224 237 255
224 237 255
224 237 255
224 237 255
224 237 255
224 237 255
224 237 255
224 237 255
224 237 255
224 237 255
224 237 255
224 237 255
224 237 255
224 237 255
224 237 255
224 237 255
224 237 255
224 237 255
224 237 255
224 237 255
224 237 255
224 237 255
224 237 255
224 237 255
224 237 255
224 237 255
224 237 255
224 237 255
224 237 255
224 237 255
224 237 255
224 237 255
224 237 255
224 237 255
224 237 255
224 237 255
224 237 255
224 237 255
224 237 255
224 237 255
224 237 255
224 237 255
224 237 255
224 237 255
224 237 255
224 237 255
224 237 255
224 237 255
224 237 255
224 237 255
224 237 255
224 237 255
224 237 255
224 237 255
224 237 255
224 237 255
224 237 255
224 237 255
224 237 255
224 237 255
224 237 255
224 237 255
224 237 255
224 237 255
224 237 255
224 237 255
224 237 255
224 237 255
224 237 255
224 237 255
224 237 255
224 237 255
224 237 255
216 229 248
59 62 128
0 0 113
0 0 113
0 0 113
0 0 113
0 0 113
0 0 113
0 0 113
0 0 113
0 0 113
0 0 113
0 0 113
0 0 113
0 0 113
0 0 113
0 0 113
0 0 113
0 0 113
0 0 113
0 0 113
0 0 113
0 0 113
0 0 113
0 0 113
0 0 113
0 0 113
0 0 113
0 0 113
0 0 113
0 0 113
0 0 113
0 0 113
0 0 113
0 0 113
0 0 113
0 0 113
0 0 113
0 0 113
0 0 113
0 0 113
0 0 113
0 0 113
0 0 113
0 0 113
0 0 113
0 0 113
0 0 113
0 0 113
0 0 113
0 0 113
0 0 113
0 0 113
0 0 113
0 0 113
0 0 113
0 0 113
0 0 113
0 0 113
0 0 113
0 0 113
0 0 113
0 0 113
0 0 113
0 0 113
0 0 113
0 0 113
0 0 113
0 0 113
0 0 113
0 0 113
0 0 113
0 0 113
0 0 113
0 0 113
0 0 113
0 0 113
0 0 113
0 0 113
0 0 113
0 0 113
0 0 113
0 0 113
0 0 113
0 0 113
0 0 113
0 0 113
0 0 113
0 0 113
0 0 113
0 0 113
0 0 113
0 0 113
0 0 113
0 0 113
0 0 113
0 0 113
0 0 113
0 0 113
0 0 113
0 0 113
0 0 113
0 0 113
0 0 113
0 0 113
0 0 113
0 0 113
0 0 113
0 0 113
0 0 113
0 0 113
0 0 113
0 0 113
0 0 113
0 0 113
0 0 113
0 0 113
0 0 113
0 0 113
0 0 113
0 0 113
6 0 113
18 0 112
13 10 114
9 20 116
11 27 118
8 34 121
0 33 122
4 33 124
12 41 126
14 42 127
14 42 127
16 40 125
15 35 124
0 35 125
0 45 128
20 58 137
22 69 148
147 148 167
211 196 184
189 177 165
189 172 153
196 184 165
192 183 168
206 189 177
183 172 152
169 162 136
168 158 137
142 143 117
112 120 78
119 128 90
125 129 98
126 128 103
128 132 101
124 132 92
113 126 76
113 129 79
111 130 77
111 130 74
120 134 90
123 136 93
122 136 91
123 137 92
128 141 98
126 137 91
131 143 96
132 143 95
127 140 94
137 148 109
135 147 103
136 147 107
131 142 103
130 138 99
126 137 100
124 136 96
124 135 91
128 136 98
120 129 90
118 130 88
112 126 78
106 123 105
58 69 134
17 22 115
12 5 114
0 0 114
0 0 114
0 0 113
0 0 113
0 0 113
0 0 113
0 0 113
0 0 113
0 0 113
0 0 113
0 0 113
0 0 113
59 62 128
215 227 247
224 237 255
224 237 255
224 237 255
224 237 255
224 237 255
224 237 255
224 237 255
224 237 255
224 237 255
224 237 255
224 237 255
224 237 255
224 237 255
224 237 255
224 237 255
224 237 255
224 237 255
224 237 255
224 237 255
224 237 255
224 237 255
224 237 255
224 237 255
224 237 255
224 237 255
224 237 255
224 237 255
224 237 255
224 237 255
224 237 255
224 237 255
224 237 255
224 237 255
224 237 255
224 237 255
224 237 255
224 237 255
224 237 255
224 237 255
224 237 255
224 237 255
224 237 255
224 237 255
224 237 255
224 237 255
224 237 255
224 237 255
224 237 255
224 237 255
224 237 255
224 237 255
224 237 255
224 237 255
224 237 255
224 237 255
224 237 255
224 237 255
224 237 255
224 237 255
224 237 255
224 237 255
224 237 255
224 237 255
224 237 255
224 237 255
224 237 255
224 237 255
224 237 255
224 237 255
224 237 255
224 237 255
224 237 255
224 237 255
224 237 255
224 237 255
224 237 255
224 237 255
224 237 255
224 237 255
224 237 255
224 237 255
224 237 255
224 237 255
224 237 255
224 237 255
224 237 255
224 237 255
224 237 255
224 237 255
224 237 255
224 237 255
224 237 255
224 237 255
224 237 255
224 237 255
224 237 255
224 237 255
224 237 255
224 237 255
224 237 255
224 237 255
224 237 255
224 237 255
224 237 255
224 237 255
224 237 255
224 237 255
224 237 255
224 237 255
224 237 255
224 237 255
224 237 255
224 237 255
224 237 255
224 237 255
224 237 255
224 237 255
224 237 255
224 237 255
224 237 255
224 237 255
224 237 255
224 237 255
224 237 255
224 237 255
224 237 255
224 237 255
224 237 255
224 237 255
224 237 255
224 237 255
224 237 255
224 237 255
224 237 255
224 237 255
224 237 255
224 237 255
224 237 255
224 237 255
224 237 255
224 237 255
224 237 255
224 237 255
224 237 255
224 237 255
224 237 255
224 237 255
224 237 255
224 237 255
224 237 255
224 237 255
224 237 255
224 237 255
224 237 255
224 237 255
224 237 255
224 237 255
224 237 255
224 237 255
224 237 255
224 237 255
224 237 255
224 237 255
224 237 255
224 237 255
224 237 255
224 237 255
224 237 255
224 237 255
224 237 255
224 237 255
224 237 255
224 237 255
224 237 255
224 237 255
224 237 255
224 237 255
224 237 255
224 237 255
224 237 255
224 237 255
224 237 255
224 237 255
224 237 255
224 237 255
224 237 255
224 237 255
224 237 255
224 237 255
224 237 255
224 237 255
224 237 255
224 237 255
224 237 255
224 237 255
224 237 255
224 237 255
224 237 255
224 237 255
224 237 255
224 237 255
224 237 255
224 237 255
153 162 193
0 0 113
0 0 113
0 0 113
0 0 113
0 0 113
0 0 113
0 0 113
0 0 113
0 0 113
0 0 113
0 0 113
0 0 113
0 0 113
0 0 113
0 0 113
0 0 113
0 0 113
0 0 113
0 0 113
0 0 113
0 0 113
0 0 113
0 0 113
0 0 113
0 0 113
0 0 113
0 0 113
0 0 113
0 0 113
0 0 113
0 0 113
0 0 113
0 0 113
0 0 113
0 0 113
0 0 113
0 0 113
0 0 113
0 0 113
0 0 113
0 0 113
0 0 113
0 0 113
0 0 113
0 0 113
0 0 113
0 0 113
0 0 113
0 0 113
0 0 113
0 0 113
0 0 113
0 0 113
0 0 113
0 0 113
0 0 113
0 0 113
0 0 113
0 0 113
0 0 113
0 0 113
0 0 113
0 0 113
0 0 113
0 0 113
0 0 113
0 0 113
0 0 113
0 0 113
0 0 113
0 0 113
0 0 113
0 0 113
0 0 113
0 0 113
0 0 113
0 0 113
0 0 113
0 0 113
0 0 113
0 0 113
0 0 113
0 0 113
0 0 113
0 0 113
0 0 113
0 0 113
0 0 113
0 0 113
0 0 113
0 0 113
0 0 113
0 0 113
0 0 113
0 0 113
0 0 113
0 0 113
0 0 113
0 0 113
0 0 113
0 0 113
0 0 113
0 0 113
0 0 113
0 0 113
0 0 113
0 0 113
0 0 113
0 0 113
0 0 113
0 0 113
0 0 113
0 0 113
0 0 113
0 0 113
0 0 113
0 0 113
0 0 113
0 0 113
9 0 113
20 0 113
6 3 113
5 15 115
2 22 117
4 23 118
0 26 121
4 30 123
2 33 124
0 35 124
0 34 124
12 33 124
20 37 126
10 40 128
15 40 126
25 49 133
34 56 139
162 155 165
213 204 195
192 183 175
183 170 157
193 178 162
194 179 163
189 175 162
180 169 144
181 169 145
167 162 142
118 125 87
106 118 69
119 128 89
127 131 99
126 131 101
124 130 97
122 130 89
124 137 93
127 140 94
113 131 77
103 123 65
112 129 82
117 133 82
119 134 83
125 139 98
126 140 96
128 142 94
133 147 95
127 141 91
132 145 104
141 149 113
133 143 100
127 140 96
127 139 97
125 134 96
129 139 99
129 136 99
123 133 90
117 131 87
108 122 82
106 129 105
97 116 106
56 65 121
16 19 119
10 13 113
0 0 113
0 0 113
0 0 113
0 0 113
0 0 113
0 0 113
0 0 113
0 0 113
0 0 113
0 0 113
0 0 113
0 0 113
0 0 113
153 162 193
224 237 255
224 237 255
224 237 255
224 237 255
224 237 255
224 237 255
224 237 255
224 237 255
224 237 255
224 237 255
224 237 255
224 237 255
224 237 255
224 237 255
224 237 255
224 237 255
224 237 255
224 237 255
224 237 255
224 237 255
224 237 255
224 237 255
224 237 255
224 237 255
224 237 255
224 237 255
224 237 255
224 237 255
224 237 255
224 237 255
224 237 255
224 237 255
224 237 255
224 237 255
224 237 255
224 237 255
224 237 255
224 237 255
224 237 255
224 237 255
224 237 255
224 237 255
224 237 255
224 237 255
224 237 255
224 237 255
224 237 255
224 237 255
224 237 255
224 237 255
224 237 255
224 237 255
224 237 255
224 237 255
224 237 255
224 237 255
224 237 255
224 237 255
224 237 255
224 237 255
224 237 255
224 237 255
224 237 255
224 237 255
224 237 255
224 237 255
224 237 255
224 237 255
224 237 255
224 237 255
224 237 255
224 237 255
224 237 255
224 237 255
224 237 255
224 237 255
224 237 255
224 237 255
224 237 255
224 237 255
224 237 255
224 237 255
224 237 255
224 237 255
224 237 255
224 237 255
224 237 255
224 237 255
224 237 255
224 237 255
224 237 255
224 237 255
224 237 255
224 237 255
224 237 255
224 237 255
224 237 255
224 237 255
224 237 255
224 237 255
224 237 255
224 237 255
224 237 255
224 237 255
224 237 255
224 237 255
224 237 255
224 237 255
224 237 255
224 237 255
224 237 255
224 237 255
224 237 255
224 237 255
224 237 255
224 237 255
224 237 255
224 237 255
224 237 255
224 237 255
224 237 255
224 237 255
224 237 255
224 237 255
224 237 255
224 237 255
224 237 255
224 237 255
224 237 255
224 237 255
224 237 255
224 237 255
224 237 255
224 237 255
224 237 255
224 237 255
224 237 255
224 237 255
224 237 255
224 237 255
224 237 255
224 237 255
224 237 255
224 237 255
224 237 255
224 237 255
224 237 255
224 237 255
224 237 255
224 237 255
224 237 255
224 237 255
224 237 255
224 237 255
224 237 255
224 237 255
224 237 255
224 237 255
224 237 255
224 237 255
224 237 255
224 237 255
224 237 255
224 237 255
224 237 255
224 237 255
224 237 255
224 237 255
224 237 255
224 237 255
224 237 255
224 237 255
224 237 255
224 237 255
224 237 255
224 237 255
224 237 255
224 237 255
224 237 255
224 237 255
224 237 255
224 237 255
224 237 255
224 237 255
224 237 255
224 237 255
224 237 255
224 237 255
224 237 255
224 237 255
224 237 255
224 237 255
224 237 255
224 237 255
224 237 255
224 237 255
224 237 255
224 237 255
224 237 255
224 237 255
224 237 255
224 237 255
224 237 255
224 237 255
214 226 246
22 23 115
0 0 113
0 0 113
0 0 113
0 0 113
0 0 113
0 0 113
0 0 113
0 0 113
0 0 113
0 0 113
0 0 113
0 0 113
0 0 113
0 0 113
0 0 113
0 0 113
0 0 113
0 0 113
0 0 113
0 0 113
0 0 113
0 0 113
0 0 113
0 0 113
0 0 113
0 0 113
0 0 113
0 0 113
0 0 113
0 0 113
0 0 113
0 0 113
0 0 113
0 0 113
0 0 113
0 0 113
0 0 113
0 0 113
0 0 113
0 0 113
0 0 113
0 0 113
0 0 113
0 0 113
0 0 113
0 0 113
0 0 113
0 0 113
0 0 113
0 0 113
0 0 113
0 0 113
0 0 113
0 0 113
0 0 113
0 0 113
0 0 113
0 0 113
0 0 113
0 0 113
0 0 113
0 0 113
0 0 113
0 0 113
0 0 113
0 0 113
0 0 113
0 0 113
0 0 113
0 0 113
0 0 113
0 0 113
0 0 113
0 0 113
0 0 113
0 0 113
0 0 113
0 0 113
0 0 113
0 0 113
0 0 113
0 0 113
0 0 113
0 0 113
0 0 113
0 0 113
0 0 113
0 0 113
0 0 113
0 0 113
0 0 113
0 0 113
0 0 113
0 0 113
0 0 113
0 0 113
0 0 113
0 0 113
0 0 113
0 0 113
0 0 113
0 0 113
0 0 113
0 0 113
0 0 113
0 0 113
0 0 113
0 0 113
0 0 113
0 0 113
0 0 113
0 0 113
0 0 113
0 0 113
0 0 113
0 0 113
0 0 113
0 0 113
7 10 113
14 19 113
3 4 113
0 6 114
4 14 115
8 19 116
6 24 118
13 28 120
11 29 120
11 33 123
13 33 123
14 40 125
3 47 130
0 47 130
14 42 127
16 45 130
71 81 143
185 173 168
201 193 188
203 191 185
180 174 163
196 179 168
195 178 163
185 174 157
192 181 159
192 180 162
137 135 103
94 112 56
112 127 83
120 131 91
128 137 102
122 131 95
122 130 93
120 130 87
133 146 108
130 143 100
106 127 74
103 125 73
107 127 74
112 131 83
111 129 83
124 138 96
130 142 95
129 144 95
128 142 90
142 151 110
138 147 108
127 140 98
117 132 85
119 134 81
127 138 96
127 137 94
132 143 100
125 139 92
118 131 82
97 113 94
47 64 116
50 61 127
31 38 119
21 27 120
12 17 111
0 0 114
0 0 113
0 0 113
0 0 113
0 0 113
0 0 113
0 0 113
0 0 113
0 0 113
0 0 113
0 0 113
0 0 113
0 0 113
22 23 115
216 229 248
224 237 255
224 237 255
224 237 255
224 237 255
224 237 255
224 237 255
224 237 255
224 237 255
224 237 255
224 237 255
224 237 255
224 237 255
224 237 255
224 237 255
224 237 255
224 237 255
224 237 255
224 237 255
224 237 255
224 237 255
224 237 255
224 237 255
224 237 255
224 237 255
224 237 255
224 237 255
224 237 255
224 237 255
224 237 255
224 237 255
224 237 255
224 237 255
224 237 255
224 237 255
224 237 255
224 237 255
224 237 255
224 237 255
224 237 255
224 237 255
224 237 255
224 237 255
224 237 255
224 237 255
224 237 255
224 237 255
224 237 255
224 237 255
224 237 255
224 237 255
224 237 255
224 237 255
224 237 255
224 237 255
224 237 255
224 237 255
224 237 255
224 237 255
224 237 255
224 237 255
224 237 255
224 237 255
224 237 255
224 237 255
224 237 255
224 237 255
224 237 255
224 237 255
224 237 255
224 237 255
224 237 255
224 237 255
224 237 255
224 237 255
224 237 255
224 237 255
224 237 255
224 237 255
224 237 255
224 237 255
224 237 255
224 237 255
224 237 255
224 237 255
224 237 255
224 237 255
224 237 255
224 237 255
224 237 255
224 237 255
224 237 255
224 237 255
224 237 255
224 237 255
224 237 255
224 237 255
224 237 255
224 237 255
224 237 255
224 237 255
224 237 255
224 237 255
224 237 255
224 237 255
224 237 255
224 237 255
224 237 255
224 237 255
224 237 255
224 237 255
224 237 255
224 237 255
224 237 255
224 237 255
224 237 255
224 237 255
224 237 255
224 237 255
224 237 255
224 237 255
224 237 255
224 237 255
224 237 255
224 237 255
224 237 255
224 237 255
224 237 255
224 237 255
224 237 255
224 237 255
224 237 255
224 237 255
224 237 255
224 237 255
224 237 255
224 237 255
224 237 255
224 237 255
224 237 255
224 237 255
224 237 255
224 237 255
224 237 255
224 237 255
224 237 255
224 237 255
224 237 255
224 237 255
224 237 255
224 237 255
224 237 255
224 237 255
224 237 255
224 237 255
224 237 255
224 237 255
224 237 255
224 237 255
224 237 255
224 237 255
224 237 255
224 237 255
224 237 255
224 237 255
224 237 255
224 237 255
224 237 255
224 237 255
224 237 255
224 237 255
224 237 255
224 237 255
224 237 255
224 237 255
224 237 255
224 237 255
224 237 255
224 237 255
224 237 255
224 237 255
224 237 255
224 237 255
224 237 255
224 237 255
224 237 255
224 237 255
224 237 255
224 237 255
224 237 255
224 237 255
224 237 255
224 237 255
224 237 255
224 237 255
224 237 255
224 237 255
224 237 255
224 237 255
224 237 255
224 237 255
224 237 255
224 237 255
224 237 255
224 237 255
224 237 255
147 155 188
0 0 113
0 0 113
0 0 113
0 0 113
0 0 113
0 0 113
0 0 113
0 0 113
0 0 113
0 0 113
0 0 113
0 0 113
0 0 113
0 0 113
0 0 113
0 0 113
0 0 113
0 0 113
0 0 113
0 0 113
0 0 113
0 0 113
0 0 113
0 0 113
0 0 113
0 0 113
0 0 113
0 0 113
0 0 113
0 0 113
0 0 113
0 0 113
0 0 113
0 0 113
0 0 113
0 0 113
0 0 113
0 0 113
0 0 113
0 0 113
0 0 113
0 0 113
0 0 113
0 0 113
0 0 113
0 0 113
0 0 113
0 0 113
0 0 113
0 0 113
0 0 113
0 0 113
0 0 113
0 0 113
0 0 113
0 0 113
0 0 113
0 0 113
0 0 113
0 0 113
0 0 113
0 0 113
0 0 113
0 0 113
0 0 113
0 0 113
0 0 113
0 0 113
0 0 113
0 0 113
0 0 113
0 0 113
0 0 113
0 0 113
0 0 113
0 0 113
0 0 113
0 0 113
0 0 113
0 0 113
0 0 113
0 0 113
0 0 113
0 0 113
0 0 113
0 0 113
0 0 113
0 0 113
0 0 113
0 0 113
0 0 113
0 0 113
0 0 113
0 0 113
0 0 113
0 0 113
0 0 113
0 0 113
0 0 113
0 0 113
0 0 113
0 0 113
0 0 113
0 0 113
0 0 113
0 0 113
0 0 113
0 0 113
0 0 113
0 0 113
0 0 113
0 0 113
0 0 113
0 0 113
0 0 113
0 0 113
0 0 113
0 0 113
4 6 113
9 14 113
0 0 113
0 12 115
4 17 116
8 19 116
4 18 116
10 24 118
12 29 119
11 32 121
12 37 122
12 42 128
18 50 133
4 51 127
21 53 132
9 68 148
119 122 150
195 184 176
196 187 177
191 179 174
189 175 169
194 180 166
199 185 171
191 181 162
198 184 163
181 171 149
112 118 76
108 126 75
125 136 98
129 134 98
131 138 102
123 134 94
119 130 85
116 129 83
120 133 89
117 132 86
112 129 80
107 124 71
114 131 86
113 129 84
113 129 80
130 142 99
133 144 99
132 143 93
134 146 101
132 144 101
124 137 93
116 133 90
119 136 91
122 136 87
125 135 91
123 134 89
117 129 91
116 130 93
70 99 105
20 54 126
15 36 119
19 24 117
13 20 119
11 18 114
11 14 112
3 3 113
0 0 113
0 0 113
0 0 113
0 0 113
0 0 113
0 0 113
0 0 113
0 0 113
0 0 113
0 0 113
0 0 113
0 0 113
148 157 189
224 237 255
224 237 255
224 237 255
224 237 255
224 237 255
224 237 255
224 237 255
224 237 255
224 237 255
224 237 255
224 237 255
224 237 255
224 237 255
224 237 255
224 237 255
224 237 255
224 237 255
224 237 255
224 237 255
224 237 255
224 237 255
224 237 255
224 237 255
224 237 255
224 237 255
224 237 255
224 237 255
224 237 255
224 237 255
224 237 255
224 237 255
224 237 255
224 237 255
224 237 255
224 237 255
224 237 255
224 237 255
224 237 255
224 237 255
224 237 255
224 237 255
224 237 255
224 237 255
224 237 255
224 237 255
224 237 255
224 237 255
224 237 255
224 237 255
224 237 255
224 237 255
224 237 255
224 237 255
224 237 255
224 237 255
224 237 255
224 237 255
224 237 255
224 237 255
224 237 255
224 237 255
224 237 255
224 237 255
224 237 255
224 237 255
224 237 255
224 237 255
224 237 255
224 237 255
224 237 255
224 237 255
224 237 255
224 237 255
224 237 255
224 237 255
224 237 255
224 237 255
224 237 255
224 237 255
224 237 255
224 237 255
224 237 255
224 237 255
224 237 255
224 237 255
224 237 255
224 237 255
224 237 255
224 237 255
224 237 255
224 237 255
224 237 255
224 237 255
224 237 255
224 237 255
224 237 255
224 237 255
224 237 255
224 237 255
224 237 255
224 237 255
224 237 255
224 237 255
224 237 255
224 237 255
224 237 255
224 237 255
224 237 255
224 237 255
224 237 255
224 237 255
224 237 255
224 237 255
224 237 255
224 237 255
224 237 255
224 237 255
224 237 255
224 237 255
224 237 255
224 237 255
224 237 255
224 237 255
224 237 255
224 237 255
224 237 255
224 237 255
224 237 255
224 237 255
224 237 255
224 237 255
224 237 255
224 237 255
224 237 255
224 237 255
224 237 255
224 237 255
224 237 255
224 237 255
224 237 255
224 237 255
224 237 255
224 237 255
224 237 255
224 237 255
224 237 255
224 237 255
224 237 255
224 237 255
224 237 255
224 237 255
224 237 255
224 237 255
224 237 255
224 237 255
224 237 255
224 237 255
224 237 255
224 237 255
224 237 255
224 237 255
224 237 255
224 237 255
224 237 255
224 237 255
224 237 255
224 237 255
224 237 255
224 237 255
224 237 255
224 237 255
224 237 255
224 237 255
224 237 255
224 237 255
224 237 255
224 237 255
224 237 255
224 237 255
224 237 255
224 237 255
224 237 255
224 237 255
224 237 255
224 237 255
224 237 255
224 237 255
224 237 255
224 237 255
224 237 255
224 237 255
224 237 255
224 237 255
224 237 255
224 237 255
224 237 255
224 237 255
224 237 255
224 237 255
224 237 255
224 237 255
224 237 255
224 237 255
224 237 255
224 237 255
224 237 255
211 224 244
0 0 113
0 0 113
0 0 113
0 0 113
0 0 113
0 0 113
0 0 113
0 0 113
0 0 113
0 0 113
0 0 113
0 0 113
0 0 113
0 0 113
0 0 113
0 0 113
0 0 113
0 0 113
0 0 113
0 0 113
0 0 113
0 0 113
0 0 113
0 0 113
0 0 113
0 0 113
0 0 113
0 0 113
0 0 113
0 0 113
0 0 113
0 0 113
0 0 113
0 0 113
0 0 113
0 0 113
0 0 113
0 0 113
0 0 113
0 0 113
0 0 113
0 0 113
0 0 113
0 0 113
0 0 113
0 0 113
0 0 113
0 0 113
0 0 113
0 0 113
0 0 113
0 0 113
0 0 113
0 0 113
0 0 113
0 0 113
0 0 113
0 0 113
0 0 113
0 0 113
0 0 113
0 0 113
0 0 113
0 0 113
0 0 113
0 0 113
0 0 113
0 0 113
0 0 113
0 0 113
0 0 113
0 0 113
0 0 113
0 0 113
0 0 113
0 0 113
0 0 113
0 0 113
0 0 113
0 0 113
0 0 113
0 0 113
0 0 113
0 0 113
0 0 113
0 0 113
0 0 113
0 0 113
0 0 113
0 0 113
0 0 113
0 0 113
0 0 113
0 0 113
0 0 113
0 0 113
0 0 113
0 0 113
0 0 113
0 0 113
0 0 113
0 0 113
0 0 113
0 0 113
0 0 113
0 0 113
0 0 113
0 0 113
0 0 113
0 0 113
0 0 113
0 0 113
0 0 113
0 0 113
0 0 113
0 0 113
0 0 113
0 0 113
0 0 113
0 0 113
0 0 113
0 19 116
0 21 116
0 21 116
0 18 116
12 25 117
8 27 119
0 32 120
6 37 122
12 46 124
19 44 132
15 42 126
23 48 139
61 91 158
163 165 170
199 186 174
191 178 165
192 179 170
197 186 180
194 180 170
200 188 174
195 184 167
200 188 171
159 155 130
105 117 66
124 136 100
130 135 101
129 132 100
128 133 98
120 134 90
114 129 82
115 131 85
123 139 99
115 131 86
114 132 86
109 127 72
115 131 78
112 129 76
111 128 73
126 139 91
128 140 96
135 147 103
136 148 105
120 135 88
117 135 90
111 129 82
108 126 76
113 128 77
109 124 70
99 117 51
67 96 93
33 63 128
17 46 129
18 17 116
13 14 118
14 22 115
12 15 116
6 9 111
11 12 113
0 0 113
0 0 113
0 0 113
0 0 113
0 0 113
0 0 113
0 0 113
0 0 113
0 0 113
0 0 113
0 0 113
0 0 113
38 41 120
204 216 237
224 237 255
224 237 255
224 237 255
224 237 255
224 237 255
224 237 255
224 237 255
224 237 255
224 237 255
224 237 255
224 237 255
224 237 255
224 237 255
224 237 255
224 237 255
224 237 255
224 237 255
224 237 255
224 237 255
224 237 255
224 237 255
224 237 255
224 237 255
224 237 255
224 237 255
224 237 255
224 237 255
224 237 255
224 237 255
224 237 255
224 237 255
224 237 255
224 237 255
224 237 255
224 237 255
224 237 255
224 237 255
224 237 255
224 237 255
224 237 255
224 237 255
224 237 255
224 237 255
224 237 255
224 237 255
224 237 255
224 237 255
224 237 255
224 237 255
224 237 255
224 237 255
224 237 255
224 237 255
224 237 255
224 237 255
224 237 255
224 237 255
224 237 255
224 237 255
224 237 255
224 237 255
224 237 255
224 237 255
224 237 255
224 237 255
224 237 255
224 237 255
224 237 255
224 237 255
224 237 255
224 237 255
224 237 255
224 237 255
224 237 255
224 237 255
224 237 255
224 237 255
224 237 255
224 237 255
224 237 255
224 237 255
224 237 255
224 237 255
224 237 255
224 237 255
224 237 255
224 237 255
224 237 255
224 237 255
224 237 255
224 237 255
224 237 255
224 237 255
224 237 255
224 237 255
224 237 255
224 237 255
224 237 255
224 237 255
224 237 255
224 237 255
224 237 255
224 237 255
224 237 255
224 237 255
224 237 255
224 237 255
224 237 255
224 237 255
224 237 255
224 237 255
224 237 255
224 237 255
224 237 255
224 237 255
224 237 255
224 237 255
224 237 255
224 237 255
224 237 255
224 237 255
224 237 255
224 237 255
224 237 255
224 237 255
224 237 255
224 237 255
224 237 255
224 237 255
224 237 255
224 237 255
224 237 255
224 237 255
224 237 255
224 237 255
224 237 255
224 237 255
224 237 255
224 237 255
224 237 255
224 237 255
224 237 255
224 237 255
224 237 255
224 237 255
224 237 255
224 237 255
224 237 255
224 237 255
224 237 255
224 237 255
224 237 255
224 237 255
224 237 255
224 237 255
224 237 255
224 237 255
224 237 255
224 237 255
224 237 255
224 237 255
224 237 255
224 237 255
224 237 255
224 237 255
224 237 255
224 237 255
224 237 255
224 237 255
224 237 255
224 237 255
224 237 255
224 237 255
224 237 255
224 237 255
224 237 255
224 237 255
224 237 255
224 237 255
224 237 255
224 237 255
224 237 255
224 237 255
224 237 255
224 237 255
224 237 255
224 237 255
224 237 255
224 237 255
224 237 255
224 237 255
224 237 255
224 237 255
224 237 255
224 237 255
224 237 255
224 237 255
224 237 255
224 237 255
224 237 255
224 237 255
224 237 255
224 237 255
224 237 255
224 237 255
224 237 255
224 237 255
142 150 184
0 0 113
0 0 113
0 0 113
0 0 113
0 0 113
0 0 113
0 0 113
0 0 113
0 0 113
0 0 113
0 0 113
0 0 113
0 0 113
0 0 113
0 0 113
0 0 113
0 0 113
0 0 113
0 0 113
0 0 113
0 0 113
0 0 113
0 0 113
0 0 113
0 0 113
0 0 113
0 0 113
0 0 113
0 0 113
0 0 113
0 0 113
0 0 113
0 0 113
0 0 113
0 0 113
0 0 113
0 0 113
0 0 113
0 0 113
0 0 113
0 0 113
0 0 113
0 0 113
0 0 113
0 0 113
0 0 113
0 0 113
0 0 113
0 0 113
0 0 113
0 0 113
0 0 113
0 0 113
0 0 113
0 0 113
0 0 113
0 0 113
0 0 113
0 0 113
0 0 113
0 0 113
0 0 113
0 0 113
0 0 113
0 0 113
0 0 113
0 0 113
0 0 113
0 0 113
0 0 113
0 0 113
0 0 113
0 0 113
0 0 113
0 0 113
0 0 113
0 0 113
0 0 113
0 0 113
0 0 113
0 0 113
0 0 113
0 0 113
0 0 113
0 0 113
0 0 113
0 0 113
0 0 113
0 0 113
0 0 113
0 0 113
0 0 113
0 0 113
0 0 113
0 0 113
0 0 113
0 0 113
0 0 113
0 0 113
0 0 113
0 0 113
0 0 113
0 0 113
0 0 113
0 0 113
0 0 113
0 0 113
0 0 113
0 0 113
0 0 113
0 0 113
0 0 113
0 0 113
0 0 113
0 0 113
0 0 113
0 0 113
0 0 113
0 0 113
0 0 113
0 19 116
0 21 116
0 21 116
0 21 116
11 25 118
0 25 119
0 32 121
0 31 122
20 42 126
4 32 126
34 48 130
15 47 123
74 88 143
183 175 172
199 187 174
193 178 165
196 184 172
191 179 171
193 176 166
196 183 169
196 182 166
184 173 154
113 117 70
106 120 74
116 127 87
127 136 104
128 136 102
120 131 91
111 127 78
108 126 74
107 124 76
117 134 93
109 129 79
104 127 73
109 131 77
111 132 79
109 131 73
105 126 67
114 132 81
121 136 87
126 140 93
121 136 89
116 133 86
117 133 85
105 122 65
109 125 79
94 114 43
91 116 63
52 94 119
27 49 125
22 23 121
12 25 118
19 27 119
16 18 112
11 15 112
13 17 112
9 10 114
1 7 112
0 0 113
0 0 113
0 0 113
0 0 113
0 0 113
0 0 113
0 0 113
0 0 113
0 0 113
0 0 113
0 0 113
0 0 113
153 162 193
224 237 255
224 237 255
224 237 255
224 237 255
224 237 255
224 237 255
224 237 255
224 237 255
224 237 255
224 237 255
224 237 255
224 237 255
224 237 255
224 237 255
224 237 255
224 237 255
224 237 255
224 237 255
224 237 255
224 237 255
224 237 255
224 237 255
224 237 255
224 237 255
224 237 255
224 237 255
224 237 255
224 237 255
224 237 255
224 237 255
224 237 255
224 237 255
224 237 255
224 237 255
224 237 255
224 237 255
224 237 255
224 237 255
224 237 255
224 237 255
224 237 255
224 237 255
224 237 255
224 237 255
224 237 255
224 237 255
224 237 255
224 237 255
224 237 255
224 237 255
224 237 255
224 237 255
224 237 255
224 237 255
224 237 255
224 237 255
224 237 255
224 237 255
224 237 255
224 237 255
224 237 255
224 237 255
224 237 255
224 237 255
224 237 255
224 237 255
224 237 255
224 237 255
224 237 255
224 237 255
224 237 255
224 237 255
224 237 255
224 237 255
224 237 255
224 237 255
224 237 255
224 237 255
224 237 255
224 237 255
224 237 255
224 237 255
224 237 255
224 237 255
224 237 255
224 237 255
224 237 255
224 237 255
224 237 255
224 237 255
224 237 255
224 237 255
224 237 255
224 237 255
224 237 255
224 237 255
224 237 255
224 237 255
224 237 255
224 237 255
224 237 255
224 237 255
224 237 255
224 237 255
224 237 255
224 237 255
224 237 255
224 237 255
224 237 255
224 237 255
224 237 255
224 237 255
224 237 255
224 237 255
224 237 255
224 237 255
224 237 255
224 237 255
224 237 255
224 237 255
224 237 255
224 237 255
224 237 255
224 237 255
224 237 255
224 237 255
224 237 255
224 237 255
224 237 255
224 237 255
224 237 255
224 237 255
224 237 255
224 237 255
224 237 255
224 237 255
224 237 255
224 237 255
224 237 255
224 237 255
224 237 255
224 237 255
224 237 255
224 237 255
224 237 255
224 237 255
224 237 255
224 237 255
224 237 255
224 237 255
224 237 255
224 237 255
224 237 255
224 237 255
224 237 255
224 237 255
224 237 255
224 237 255
224 237 255
224 237 255
224 237 255
224 237 255
224 237 255
224 237 255
224 237 255
224 237 255
224 237 255
224 237 255
224 237 255
224 237 255
224 237 255
224 237 255
224 237 255
224 237 255
224 237 255
224 237 255
224 237 255
224 237 255
224 237 255
224 237 255
224 237 255
224 237 255
224 237 255
224 237 255
224 237 255
224 237 255
224 237 255
224 237 255
224 237 255
224 237 255
224 237 255
224 237 255
224 237 255
224 237 255
224 237 255
224 237 255
224 237 255
224 237 255
224 237 255
224 237 255
224 237 255
224 237 255
224 237 255
224 237 255
224 237 255
224 237 255
224 237 255
224 237 255
214 226 246
63 67 130
0 0 113
0 0 113
0 0 113
0 0 113
0 0 113
0 0 113
0 0 113
0 0 113
0 0 113
0 0 113
0 0 113
0 0 113
0 0 113
0 0 113
0 0 113
0 0 113
0 0 113
0 0 113
0 0 113
0 0 113
0 0 113
0 0 113
0 0 113
0 0 113
0 0 113
0 0 113
0 0 113
0 0 113
0 0 113
0 0 113
0 0 113
0 0 113
0 0 113
0 0 113
0 0 113
0 0 113
0 0 113
0 0 113
0 0 113
0 0 113
0 0 113
0 0 113
0 0 113
0 0 113
0 0 113
0 0 113
0 0 113
0 0 113
0 0 113
0 0 113
0 0 113
0 0 113
0 0 113
0 0 113
0 0 113
0 0 113
0 0 113
0 0 113
0 0 113
0 0 113
0 0 113
0 0 113
0 0 113
0 0 113
0 0 113
0 0 113
0 0 113
0 0 113
0 0 113
0 0 113
0 0 113
0 0 113
0 0 113
0 0 113
0 0 113
0 0 113
0 0 113
0 0 113
0 0 113
0 0 113
0 0 113
0 0 113
0 0 113
0 0 113
0 0 113
0 0 113
0 0 113
0 0 113
0 0 113
0 0 113
0 0 113
0 0 113
0 0 113
0 0 113
0 0 113
0 0 113
0 0 113
0 0 113
0 0 113
0 0 113
0 0 113
0 0 113
0 0 113
0 0 113
0 0 113
0 0 113
0 0 113
0 0 113
0 0 113
0 0 113
0 0 113
0 0 113
0 0 113
0 0 113
0 0 113
0 0 113
0 0 113
0 0 113
0 4 113
0 21 116
0 21 116
0 21 116
0 21 116
1 22 117
6 27 120
0 31 123
5 32 123
17 38 124
9 44 129
24 43 129
21 44 128
96 100 140
198 187 176
205 192 179
196 182 169
190 175 163
188 176 168
196 182 175
194 181 167
175 164 147
149 145 123
115 126 86
101 116 64
119 132 89
115 127 81
115 128 85
116 129 86
113 128 83
109 125 77
104 122 70
105 125 72
106 128 76
105 127 72
108 130 77
111 131 77
110 130 72
109 128 76
114 131 88
116 132 87
118 134 89
114 131 85
115 132 80
110 124 68
116 129 81
101 119 71
84 114 49
61 95 97
17 40 123
0 28 120
11 19 115
9 22 117
0 17 112
8 5 113
3 3 113
0 0 113
0 0 113
0 0 113
0 0 113
0 0 113
0 0 113
0 0 113
0 0 113
0 0 113
0 0 113
0 0 113
0 0 113
0 0 113
0 0 113
44 47 122
217 230 249
224 237 255
224 237 255
224 237 255
224 237 255
224 237 255
224 237 255
224 237 255
224 237 255
224 237 255
224 237 255
224 237 255
224 237 255
224 237 255
224 237 255
224 237 255
224 237 255
224 237 255
224 237 255
224 237 255
224 237 255
224 237 255
224 237 255
224 237 255
224 237 255
224 237 255
224 237 255
224 237 255
224 237 255
224 237 255
224 237 255
224 237 255
224 237 255
224 237 255
224 237 255
224 237 255
224 237 255
224 237 255
224 237 255
224 237 255
224 237 255
224 237 255
224 237 255
224 237 255
224 237 255
224 237 255
224 237 255
224 237 255
224 237 255
224 237 255
224 237 255
224 237 255
224 237 255
224 237 255
224 237 255
224 237 255
224 237 255
224 237 255
224 237 255
224 237 255
224 237 255
224 237 255
224 237 255
224 237 255
224 237 255
224 237 255
224 237 255
224 237 255
224 237 255
224 237 255
224 237 255
224 237 255
224 237 255
224 237 255
224 237 255
224 237 255
224 237 255
224 237 255
224 237 255
224 237 255
224 237 255
224 237 255
224 237 255
224 237 255
224 237 255
224 237 255
224 237 255
224 237 255
224 237 255
224 237 255
224 237 255
224 237 255
224 237 255
224 237 255
224 237 255
224 237 255
224 237 255
224 237 255
224 237 255
224 237 255
224 237 255
224 237 255
224 237 255
224 237 255
224 237 255
224 237 255
224 237 255
224 237 255
224 237 255
224 237 255
224 237 255
224 237 255
224 237 255
224 237 255
224 237 255
224 237 255
224 237 255
224 237 255
224 237 255
224 237 255
224 237 255
224 237 255
224 237 255
224 237 255
224 237 255
224 237 255
224 237 255
224 237 255
224 237 255
224 237 255
224 237 255
224 237 255
224 237 255
224 237 255
224 237 255
224 237 255
224 237 255
224 237 255
224 237 255
224 237 255
224 237 255
224 237 255
224 237 255
224 237 255
224 237 255
224 237 255
224 237 255
224 237 255
224 237 255
224 237 255
224 237 255
224 237 255
224 237 255
224 237 255
224 237 255
224 237 255
224 237 255
224 237 255
224 237 255
224 237 255
224 237 255
224 237 255
224 237 255
224 237 255
224 237 255
224 237 255
224 237 255
224 237 255
224 237 255
224 237 255
224 237 255
224 237 255
224 237 255
224 237 255
224 237 255
224 237 255
224 237 255
224 237 255
224 237 255
224 237 255
224 237 255
224 237 255
224 237 255
224 237 255
224 237 255
224 237 255
224 237 255
224 237 255
224 237 255
224 237 255
224 237 255
224 237 255
224 237 255
224 237 255
224 237 255
224 237 255
224 237 255
224 237 255
224 237 255
224 237 255
224 237 255
224 237 255
224 237 255
224 237 255
224 237 255
224 237 255
224 237 255
224 237 255
224 237 255
224 237 255
163 173 201
0 0 113
0 0 113
0 0 113
0 0 113
0 0 113
0 0 113
0 0 113
0 0 113
0 0 113
0 0 113
0 0 113
0 0 113
0 0 113
0 0 113
0 0 113
0 0 113
0 0 113
0 0 113
0 0 113
0 0 113
0 0 113
0 0 113
0 0 113
0 0 113
0 0 113
0 0 113
0 0 113
0 0 113
0 0 113
0 0 113
0 0 113
0 0 113
0 0 113
0 0 113
0 0 113
0 0 113
0 0 113
0 0 113
0 0 113
0 0 113
0 0 113
0 0 113
0 0 113
0 0 113
0 0 113
0 0 113
0 0 113
0 0 113
0 0 113
0 0 113
0 0 113
0 0 113
0 0 113
0 0 113
0 0 113
0 0 113
0 0 113
0 0 113
0 0 113
0 0 113
0 0 113
0 0 113
0 0 113
0 0 113
0 0 113
0 0 113
0 0 113
0 0 113
0 0 113
0 0 113
0 0 113
0 0 113
0 0 113
0 0 113
0 0 113
0 0 113
0 0 113
0 0 113
0 0 113
0 0 113
0 0 113
0 0 113
0 0 113
0 0 113
0 0 113
0 0 113
0 0 113
0 0 113
0 0 113
0 0 113
0 0 113
0 0 113
0 0 113
0 0 113
0 0 113
0 0 113
0 0 113
0 0 113
0 0 113
0 0 113
0 0 113
0 0 113
0 0 113
0 0 113
0 0 113
0 0 113
0 0 113
0 0 113
0 0 113
0 0 113
0 0 113
0 0 113
0 0 113
0 0 113
0 0 113
0 0 113
0 0 113
0 0 113
0 7 113
0 21 116
0 21 116
0 21 116
0 18 116
0 21 118
11 30 122
9 35 125
9 37 124
16 46 129
8 56 134
19 47 133
23 51 140
126 127 152
191 176 164
198 184 168
193 177 164
183 167 160
193 183 174
200 183 173
189 178 163
164 156 137
126 129 103
108 120 75
121 133 94
121 132 88
116 128 80
115 127 81
111 123 79
117 128 85
110 126 77
106 126 74
100 122 64
105 125 74
116 132 85
117 134 88
116 131 81
114 131 85
112 128 78
111 129 78
108 125 73
117 132 87
113 129 83
111 127 82
105 120 70
112 122 79
104 121 72
60 107 114
12 51 132
0 29 121
0 21 116
0 21 116
0 18 116
2 7 114
7 8 113
0 0 113
0 0 113
0 0 113
0 0 113
0 0 113
0 0 113
0 0 113
0 0 113
0 0 113
0 0 113
0 0 113
0 0 113
0 0 113
0 0 113
0 0 113
162 171 200
224 237 255
224 237 255
224 237 255
224 237 255
224 237 255
224 237 255
224 237 255
224 237 255
224 237 255
224 237 255
224 237 255
224 237 255
224 237 255
224 237 255
224 237 255
224 237 255
224 237 255
224 237 255
224 237 255
224 237 255
224 237 255
224 237 255
224 237 255
224 237 255
224 237 255
224 237 255
224 237 255
224 237 255
224 237 255
224 237 255
224 237 255
224 237 255
224 237 255
224 237 255
224 237 255
224 237 255
224 237 255
224 237 255
224 237 255
224 237 255
224 237 255
224 237 255
224 237 255
224 237 255
224 237 255
224 237 255
224 237 255
224 237 255
224 237 255
224 237 255
224 237 255
224 237 255
224 237 255
224 237 255
224 237 255
224 237 255
224 237 255
224 237 255
224 237 255
224 237 255
224 237 255
224 237 255
224 237 255
224 237 255
224 237 255
224 237 255
224 237 255
224 237 255
224 237 255
224 237 255
224 237 255
224 237 255
224 237 255
224 237 255
224 237 255
224 237 255
224 237 255
224 237 255
224 237 255
224 237 255
224 237 255
224 237 255
224 237 255
224 237 255
224 237 255
224 237 255
224 237 255
224 237 255
224 237 255
224 237 255
224 237 255
224 237 255
224 237 255
224 237 255
224 237 255
224 237 255
224 237 255
224 237 255
224 237 255
224 237 255
224 237 255
224 237 255
224 237 255
224 237 255
224 237 255
224 237 255
224 237 255
224 237 255
224 237 255
224 237 255
224 237 255
224 237 255
224 237 255
224 237 255
224 237 255
224 237 255
224 237 255
224 237 255
224 237 255
224 237 255
224 237 255
224 237 255
224 237 255
224 237 255
224 237 255
224 237 255
224 237 255
224 237 255
224 237 255
224 237 255
224 237 255
224 237 255
224 237 255
224 237 255
224 237 255
224 237 255
224 237 255
224 237 255
224 237 255
224 237 255
224 237 255
224 237 255
224 237 255
224 237 255
224 237 255
224 237 255
224 237 255
224 237 255
224 237 255
224 237 255
224 237 255
224 237 255
224 237 255
224 237 255
224 237 255
224 237 255
224 237 255
224 237 255
224 237 255
224 237 255
224 237 255
224 237 255
224 237 255
224 237 255
224 237 255
224 237 255
224 237 255
224 237 255
224 237 255
224 237 255
224 237 255
224 237 255
224 237 255
224 237 255
224 237 255
224 237 255
224 237 255
224 237 255
224 237 255
224 237 255
224 237 255
224 237 255
224 237 255
224 237 255
224 237 255
224 237 255
224 237 255
224 237 255
224 237 255
224 237 255
224 237 255
224 237 255
224 237 255
224 237 255
224 237 255
224 237 255
224 237 255
224 237 255
224 237 255
224 237 255
224 237 255
224 237 255
224 237 255
224 237 255
224 237 255
224 237 255
224 237 255
224 237 255
224 237 255
224 237 255
217 230 249
87 92 144
0 0 113
0 0 113
0 0 113
0 0 113
0 0 113
0 0 113
0 0 113
0 0 113
0 0 113
0 0 113
0 0 113
0 0 113
0 0 113
0 0 113
0 0 113
0 0 113
0 0 113
0 0 113
0 0 113
0 0 113
0 0 113
0 0 113
0 0 113
0 0 113
0 0 113
0 0 113
0 0 113
0 0 113
0 0 113
0 0 113
0 0 113
0 0 113
0 0 113
0 0 113
0 0 113
0 0 113
0 0 113
0 0 113
0 0 113
0 0 113
0 0 113
0 0 113
0 0 113
0 0 113
0 0 113
0 0 113
0 0 113
0 0 113
0 0 113
0 0 113
0 0 113
0 0 113
0 0 113
0 0 113
0 0 113
8 9 113
8 8 113
0 0 113
0 0 113
7 8 113
6 6 113
0 0 113
0 0 113
0 0 113
0 0 113
0 0 113
0 0 113
0 0 113
0 0 113
0 0 113
0 0 113
0 0 113
0 0 113
0 0 113
0 0 113
0 0 113
0 0 113
0 0 113
0 0 113
0 0 113
0 0 113
0 0 113
0 0 113
0 0 113
0 0 113
0 0 113
0 0 113
0 0 113
0 0 113
0 0 113
0 0 113
0 0 113
0 0 113
0 0 113
0 0 113
0 0 113
0 0 113
0 0 113
0 0 113
0 0 113
0 0 113
0 0 113
0 0 113
0 0 113
0 0 113
0 0 113
0 0 113
0 0 113
0 0 113
0 0 113
0 0 113
0 0 113
0 0 113
0 0 113
0 0 113
0 0 113
0 0 113
0 10 114
0 20 117
0 21 117
0 21 116
0 16 116
0 22 119
16 34 124
14 36 126
18 39 128
18 47 133
14 56 133
22 54 133
6 55 132
135 122 144
186 169 153
189 173 155
188 173 158
178 166 156
186 174 162
199 188 177
180 168 149
160 152 134
119 125 93
120 131 93
122 132 89
119 131 89
115 128 84
115 126 79
107 122 74
117 128 87
117 131 91
106 124 75
111 129 83
108 126 78
114 130 85
118 131 88
117 130 85
113 129 82
115 132 86
97 116 54
110 128 78
120 134 94
111 125 79
99 114 59
108 121 76
106 118 77
93 115 78
26 66 134
7 36 124
0 22 117
0 21 116
5 20 116
7 19 116
11 17 116
6 7 114
0 0 113
0 0 113
0 0 113
0 0 113
0 0 113
0 0 113
0 0 113
0 0 113
0 0 113
0 0 113
0 0 113
0 0 113
0 0 113
0 0 113
77 82 138
216 229 248
224 237 255
224 237 255
224 237 255
224 237 255
224 237 255
224 237 255
224 237 255
224 237 255
224 237 255
224 237 255
224 237 255
224 237 255
224 237 255
224 237 255
224 237 255
224 237 255
224 237 255
224 237 255
224 237 255
224 237 255
224 237 255
224 237 255
224 237 255
224 237 255
224 237 255
224 237 255
224 237 255
224 237 255
224 237 255
224 237 255
224 237 255
224 237 255
224 237 255
224 237 255
224 237 255
224 237 255
224 237 255
224 237 255
224 237 255
224 237 255
224 237 255
224 237 255
224 237 255
224 237 255
224 237 255
224 237 255
224 237 255
224 237 255
224 237 255
224 237 255
224 237 255
224 237 255
224 237 255
224 237 255
224 237 255
224 237 255
224 237 255
224 237 255
224 237 255
224 237 255
224 237 255
224 237 255
224 237 255
224 237 255
224 237 255
224 237 255
224 237 255
224 237 255
224 237 255
224 237 255
224 237 255
224 237 255
224 237 255
224 237 255
224 237 255
224 237 255
224 237 255
224 237 255
224 237 255
224 237 255
224 237 255
224 237 255
224 237 255
224 237 255
224 237 255
224 237 255
224 237 255
224 237 255
224 237 255
224 237 255
224 237 255
224 237 255
224 237 255
224 237 255
224 237 255
224 237 255
224 237 255
224 237 255
224 237 255
224 237 255
224 237 255
224 237 255
224 237 255
224 237 255
224 237 255
224 237 255
224 237 255
224 237 255
224 237 255
224 237 255
224 237 255
224 237 255
224 237 255
224 237 255
224 237 255
224 237 255
224 237 255
224 237 255
224 237 255
224 237 255
224 237 255
224 237 255
224 237 255
224 237 255
224 237 255
224 237 255
224 237 255
224 237 255
224 237 255
224 237 255
224 237 255
224 237 255
224 237 255
224 237 255
224 237 255
224 237 255
224 237 255
224 237 255
224 237 255
224 237 255
224 237 255
224 237 255
224 237 255
224 237 255
224 237 255
224 237 255
224 237 255
224 237 255
224 237 255
224 237 255
224 237 255
224 237 255
224 237 255
224 237 255
224 237 255
224 237 255
224 237 255
224 237 255
224 237 255
224 237 255
224 237 255
224 237 255
224 237 255
224 237 255
224 237 255
224 237 255
224 237 255
224 237 255
224 237 255
224 237 255
224 237 255
224 237 255
224 237 255
224 237 255
224 237 255
224 237 255
224 237 255
224 237 255
224 237 255
224 237 255
224 237 255
224 237 255
224 237 255
224 237 255
224 237 255
224 237 255
224 237 255
224 237 255
224 237 255
224 237 255
224 237 255
224 237 255
224 237 255
224 237 255
224 237 255
224 237 255
224 237 255
224 237 255
224 237 255
224 237 255
224 237 255
224 237 255
224 237 255
224 237 255
224 237 255
224 237 255
224 237 255
224 237 255
224 237 255
224 237 255
224 237 255
194 205 228
0 0 113
0 0 113
0 0 113
0 0 113
0 0 113
0 0 113
0 0 113
0 0 113
0 0 113
0 0 113
0 0 113
0 0 113
0 0 113
0 0 113
0 0 113
0 0 113
0 0 113
0 0 113
0 0 113
0 0 113
0 0 113
0 0 113
0 0 113
0 0 113
0 0 113
0 0 113
0 0 113
0 0 113
0 0 113
0 0 113
0 0 113
0 0 113
0 0 113
0 0 113
0 0 113
0 0 113
0 0 113
0 0 113
0 0 113
0 0 113
0 0 113
0 0 113
0 0 113
0 0 113
0 0 113
0 0 113
0 0 113
0 0 113
0 0 113
0 0 113
0 0 113
0 0 113
0 0 113
0 0 113
0 0 113
5 5 113
5 5 113
0 0 113
0 0 113
12 13 114
10 11 113
0 0 113
0 0 113
0 0 113
0 0 113
0 0 113
0 0 113
0 0 113
0 0 113
0 0 113
0 0 113
0 0 113
0 0 113
0 0 113
0 0 113
0 0 113
0 0 113
0 0 113
0 0 113
0 0 113
0 0 113
0 0 113
0 0 113
0 0 113
0 0 113
0 0 113
0 0 113
0 0 113
0 0 113
0 0 113
0 0 113
0 0 113
0 0 113
0 0 113
0 0 113
0 0 113
0 0 113
0 0 113
0 0 113
0 0 113
0 0 113
0 0 113
0 0 113
0 0 113
0 0 113
0 0 113
0 0 113
0 0 113
0 0 113
0 0 113
0 0 113
0 0 113
0 0 113
0 0 113
0 0 113
0 0 113
0 3 114
0 19 116
0 17 118
0 24 119
0 24 117
0 23 118
0 24 121
6 32 124
13 36 126
21 35 126
9 47 129
11 50 128
22 53 136
59 81 142
173 159 155
176 160 139
179 163 147
175 165 151
185 172 165
184 173 165
193 181 172
178 167 149
155 146 123
121 126 90
122 134 94
121 133 93
116 129 85
116 129 86
117 129 87
112 124 81
115 125 87
119 132 92
121 135 95
122 137 99
114 130 87
114 128 84
120 132 92
114 129 84
113 129 83
109 126 77
94 114 49
114 130 86
121 132 92
111 122 79
102 115 66
100 117 65
93 114 51
74 105 113
8 48 129
0 24 119
0 21 116
3 20 116
13 13 116
9 18 116
0 17 116
0 2 113
0 0 113
0 0 113
0 0 113
0 0 113
0 0 113
0 0 113
0 0 113
0 0 113
0 0 113
0 0 113
0 0 113
0 0 113
0 0 113
0 0 113
178 188 214
224 237 255
224 237 255
224 237 255
224 237 255
224 237 255
224 237 255
224 237 255
224 237 255
224 237 255
224 237 255
224 237 255
224 237 255
224 237 255
224 237 255
224 237 255
224 237 255
224 237 255
224 237 255
224 237 255
224 237 255
224 237 255
224 237 255
224 237 255
224 237 255
224 237 255
224 237 255
224 237 255
224 237 255
224 237 255
224 237 255
224 237 255
224 237 255
224 237 255
224 237 255
224 237 255
224 237 255
224 237 255
224 237 255
224 237 255
224 237 255
224 237 255
224 237 255
224 237 255
224 237 255
224 237 255
224 237 255
224 237 255
224 237 255
224 237 255
224 237 255
224 237 255
224 237 255
224 237 255
224 237 255
224 237 255
224 237 255
224 237 255
224 237 255
224 237 255
224 237 255
224 237 255
224 237 255
224 237 255
224 237 255
224 237 255
224 237 255
224 237 255
224 237 255
224 237 255
224 237 255
224 237 255
224 237 255
224 237 255
224 237 255
224 237 255
224 237 255
224 237 255
224 237 255
224 237 255
224 237 255
224 237 255
224 237 255
224 237 255
224 237 255
224 237 255
224 237 255
224 237 255
224 237 255
224 237 255
224 237 255
224 237 255
224 237 255
224 237 255
224 237 255
224 237 255
224 237 255
224 237 255
224 237 255
224 237 255
224 237 255
224 237 255
224 237 255
224 237 255
224 237 255
224 237 255
224 237 255
224 237 255
224 237 255
224 237 255
224 237 255
224 237 255
224 237 255
224 237 255
224 237 255
224 237 255
224 237 255
224 237 255
224 237 255
224 237 255
224 237 255
224 237 255
224 237 255
224 237 255
224 237 255
224 237 255
224 237 255
224 237 255
224 237 255
224 237 255
224 237 255
224 237 255
224 237 255
224 237 255
224 237 255
224 237 255
224 237 255
224 237 255
224 237 255
224 237 255
224 237 255
224 237 255
224 237 255
224 237 255
224 237 255
224 237 255
224 237 255
224 237 255
224 237 255
224 237 255
224 237 255
224 237 255
224 237 255
224 237 255
224 237 255
224 237 255
224 237 255
224 237 255
224 237 255
224 237 255
224 237 255
224 237 255
224 237 255
224 237 255
224 237 255
224 237 255
224 237 255
224 237 255
224 237 255
224 237 255
224 237 255
224 237 255
224 237 255
224 237 255
224 237 255
224 237 255
224 237 255
224 237 255
224 237 255
224 237 255
224 237 255
224 237 255
224 237 255
224 237 255
224 237 255
224 237 255
224 237 255
224 237 255
224 237 255
224 237 255
224 237 255
224 237 255
224 237 255
224 237 255
224 237 255
224 237 255
224 237 255
224 237 255
224 237 255
224 237 255
224 237 255
224 237 255
224 237 255
224 237 255
224 237 255
224 237 255
224 237 255
224 237 255
224 237 255
224 237 255
224 237 255
224 237 255
224 237 255
223 236 254
116 123 164
0 0 113
0 0 113
0 0 113
0 0 113
0 0 113
0 0 113
0 0 113
0 0 113
0 0 113
0 0 113
0 0 113
0 0 113
0 0 113
0 0 113
0 0 113
0 0 113
0 0 113
0 0 113
0 0 113
0 0 113
0 0 113
0 0 113
0 0 113
0 0 113
0 0 113
0 0 113
0 0 113
0 0 113
0 0 113
0 0 113
0 0 113
0 0 113
0 0 113
0 0 113
0 0 113
0 0 113
0 0 113
0 0 113
0 0 113
0 0 113
0 0 113
0 0 113
0 0 113
0 0 113
0 0 113
0 0 113
0 0 113
0 0 113
0 0 113
0 0 113
0 0 113
0 0 113
0 0 113
0 0 113
6 6 113
5 5 113
0 0 112
0 0 113
0 0 113
8 8 113
0 0 113
0 0 113
0 0 113
0 0 113
0 0 113
0 0 113
0 0 113
0 0 113
0 0 113
0 0 113
0 0 113
0 0 113
0 0 113
0 0 113
0 0 113
0 0 113
0 0 113
0 0 113
0 0 113
0 0 113
0 0 113
0 0 113
0 0 113
0 0 113
0 0 113
0 0 113
0 0 113
0 0 113
0 0 113
0 0 113
0 0 113
0 0 113
0 0 113
0 0 113
0 0 113
0 0 113
0 0 113
0 0 113
0 0 113
0 0 113
0 0 113
0 0 113
0 0 113
0 0 113
0 0 113
0 0 113
0 0 113
0 0 113
0 0 113
0 0 113
0 0 113
0 0 113
0 0 113
0 0 113
0 0 113
0 8 115
5 19 117
7 26 120
11 29 120
11 30 121
12 30 121
12 31 123
7 29 122
0 33 123
14 32 124
0 46 125
20 55 132
15 50 138
105 104 135
179 168 150
183 171 154
196 182 171
182 175 168
188 177 172
198 189 181
195 183 170
178 171 150
140 139 108
119 131 89
126 137 99
117 130 85
116 130 88
116 129 87
123 134 97
124 133 99
127 137 105
121 135 98
118 130 90
118 132 90
113 127 84
111 124 81
120 132 95
116 133 88
109 126 75
101 119 64
104 122 70
115 128 85
114 126 83
111 122 78
107 120 75
100 118 59
96 119 67
60 97 129
8 31 123
5 18 116
4 20 116
0 13 115
8 10 116
0 15 118
0 3 115
0 0 113
5 0 113
0 0 113
0 0 113
0 0 113
0 0 113
0 0 113
0 0 113
0 0 113
0 0 113
0 0 113
0 0 113
0 0 113
0 0 113
105 111 156
223 236 254
224 237 255
224 237 255
224 237 255
224 237 255
224 237 255
224 237 255
224 237 255
224 237 255
224 237 255
224 237 255
224 237 255
224 237 255
224 237 255
224 237 255
224 237 255
224 237 255
224 237 255
224 237 255
224 237 255
224 237 255
224 237 255
224 237 255
224 237 255
224 237 255
224 237 255
224 237 255
224 237 255
224 237 255
224 237 255
224 237 255
224 237 255
224 237 255
224 237 255
224 237 255
224 237 255
224 237 255
224 237 255
224 237 255
224 237 255
224 237 255
224 237 255
224 237 255
224 237 255
224 237 255
224 237 255
224 237 255
224 237 255
224 237 255
224 237 255
224 237 255
224 237 255
224 237 255
224 237 255
224 237 255
224 237 255
224 237 255
224 237 255
224 237 255
224 237 255
224 237 255
224 237 255
224 237 255
224 237 255
224 237 255
224 237 255
224 237 255
224 237 255
224 237 255
224 237 255
224 237 255
224 237 255
224 237 255
224 237 255
224 237 255
224 237 255
224 237 255
224 237 255
224 237 255
224 237 255
224 237 255
224 237 255
224 237 255
224 237 255
224 237 255
224 237 255
224 237 255
224 237 255
224 237 255
224 237 255
224 237 255
224 237 255
224 237 255
224 237 255
224 237 255
224 237 255
224 237 255
224 237 255
224 237 255
224 237 255
224 237 255
224 237 255
224 237 255
224 237 255
224 237 255
224 237 255
224 237 255
224 237 255
224 237 255
224 237 255
224 237 255
224 237 255
224 237 255
224 237 255
224 237 255
224 237 255
224 237 255
224 237 255
224 237 255
224 237 255
224 237 255
224 237 255
224 237 255
224 237 255
224 237 255
224 237 255
224 237 255
224 237 255
224 237 255
224 237 255
224 237 255
224 237 255
224 237 255
224 237 255
224 237 255
224 237 255
224 237 255
224 237 255
224 237 255
224 237 255
224 237 255
224 237 255
224 237 255
224 237 255
224 237 255
224 237 255
224 237 255
224 237 255
224 237 255
224 237 255
224 237 255
224 237 255
224 237 255
224 237 255
224 237 255
224 237 255
224 237 255
224 237 255
224 237 255
224 237 255
224 237 255
224 237 255
224 237 255
224 237 255
224 237 255
224 237 255
224 237 255
224 237 255
224 237 255
224 237 255
224 237 255
224 237 255
224 237 255
224 237 255
224 237 255
224 237 255
224 237 255
224 237 255
224 237 255
224 237 255
224 237 255
224 237 255
224 237 255
224 237 255
224 237 255
224 237 255
224 237 255
224 237 255
224 237 255
224 237 255
224 237 255
224 237 255
224 237 255
224 237 255
224 237 255
224 237 255
224 237 255
224 237 255
224 237 255
224 237 255
224 237 255
224 237 255
224 237 255
224 237 255
224 237 255
224 237 255
224 237 255
224 237 255
224 237 255
224 237 255
224 237 255
224 237 255
224 237 255
224 237 255
201 212 234
22 23 115
0 0 113
0 0 113
0 0 113
0 0 113
0 0 113
0 0 113
0 0 113
0 0 113
0 0 113
0 0 113
0 0 113
0 0 113
0 0 113
0 0 113
0 0 113
0 0 113
0 0 113
0 0 113
0 0 113
0 0 113
0 0 113
0 0 113
0 0 113
0 0 113
0 0 113
0 0 113
0 0 113
0 0 113
0 0 113
0 0 113
0 0 113
0 0 113
0 0 113
0 0 113
0 0 113
0 0 113
0 0 113
0 0 113
0 0 113
0 0 113
0 0 113
0 0 113
0 0 113
0 0 113
0 0 113
0 0 113
0 0 113
0 0 113
0 0 113
0 0 113
0 0 113
0 0 113
0 0 113
6 6 113
19 19 115
12 13 114
0 0 113
0 0 112
0 0 112
0 0 113
0 0 113
0 0 113
0 0 113
0 0 113
0 0 113
0 0 113
0 0 113
0 0 113
0 0 113
0 0 113
0 0 113
0 0 113
0 0 113
0 0 113
0 0 113
0 0 113
0 0 113
0 0 113
0 0 113
0 0 113
0 0 113
0 0 113
0 0 113
0 0 113
0 0 113
0 0 113
0 0 113
0 0 113
0 0 113
0 0 113
0 0 113
0 0 113
0 0 113
0 0 113
0 0 113
0 0 113
0 0 113
0 0 113
0 0 113
0 0 113
0 0 113
0 0 113
0 0 113
0 0 113
0 0 113
0 0 113
0 0 113
0 0 113
0 0 113
0 0 113
0 0 113
0 0 113
0 0 113
0 0 114
0 18 116
7 22 119
16 31 121
18 32 123
8 34 124
15 37 125
0 36 125
3 37 125
8 40 126
16 43 128
8 46 128
17 55 134
46 62 139
160 154 151
185 172 155
175 161 149
191 182 177
186 181 175
182 174 163
190 184 173
180 174 156
159 157 132
117 134 92
129 141 103
124 135 96
119 132 91
116 130 90
121 132 93
128 137 106
133 140 111
122 134 94
118 134 89
120 133 92
118 130 88
115 128 85
112 125 83
114 128 84
115 129 81
109 124 73
118 133 88
119 134 92
121 137 95
117 131 88
116 126 84
112 120 78
101 116 70
89 114 79
18 52 130
7 22 117
7 16 115
3 21 116
7 9 115
4 6 116
11 13 116
6 7 113
0 0 113
6 0 113
0 0 113
0 0 113
0 0 113
0 0 113
0 0 113
0 0 113
0 0 113
0 0 113
0 0 113
0 0 113
0 0 113
38 41 120
203 215 236
224 237 255
224 237 255
224 237 255
224 237 255
224 237 255
224 237 255
224 237 255
224 237 255
224 237 255
224 237 255
224 237 255
224 237 255
224 237 255
224 237 255
224 237 255
224 237 255
224 237 255
224 237 255
224 237 255
224 237 255
224 237 255
224 237 255
224 237 255
224 237 255
224 237 255
224 237 255
224 237 255
224 237 255
224 237 255
224 237 255
224 237 255
224 237 255
224 237 255
224 237 255
224 237 255
224 237 255
224 237 255
224 237 255
224 237 255
224 237 255
224 237 255
224 237 255
224 237 255
224 237 255
224 237 255
224 237 255
224 237 255
224 237 255
224 237 255
224 237 255
224 237 255
224 237 255
224 237 255
224 237 255
224 237 255
224 237 255
224 237 255
224 237 255
224 237 255
224 237 255
224 237 255
224 237 255
224 237 255
224 237 255
224 237 255
224 237 255
224 237 255
224 237 255
224 237 255
224 237 255
224 237 255
224 237 255
224 237 255
224 237 255
224 237 255
224 237 255
224 237 255
224 237 255
224 237 255
224 237 255
224 237 255
224 237 255
224 237 255
224 237 255
224 237 255
224 237 255
224 237 255
224 237 255
224 237 255
224 237 255
224 237 255
224 237 255
224 237 255
224 237 255
224 237 255
224 237 255
224 237 255
224 237 255
224 237 255
224 237 255
224 237 255
224 237 255
224 237 255
224 237 255
224 237 255
224 237 255
224 237 255
224 237 255
224 237 255
224 237 255
224 237 255
224 237 255
224 237 255
224 237 255
224 237 255
224 237 255
224 237 255
224 237 255
224 237 255
224 237 255
224 237 255
224 237 255
224 237 255
224 237 255
224 237 255
224 237 255
224 237 255
224 237 255
224 237 255
224 237 255
224 237 255
224 237 255
224 237 255
224 237 255
224 237 255
224 237 255
224 237 255
224 237 255
224 237 255
224 237 255
224 237 255
224 237 255
224 237 255
224 237 255
224 237 255
224 237 255
224 237 255
224 237 255
224 237 255
224 237 255
224 237 255
224 237 255
224 237 255
224 237 255
224 237 255
224 237 255
224 237 255
224 237 255
224 237 255
224 237 255
224 237 255
224 237 255
224 237 255
224 237 255
224 237 255
224 237 255
224 237 255
224 237 255
224 237 255
224 237 255
224 237 255
224 237 255
224 237 255
224 237 255
224 237 255
224 237 255
224 237 255
224 237 255
224 237 255
224 237 255
224 237 255
224 237 255
224 237 255
224 237 255
224 237 255
224 237 255
224 237 255
224 237 255
224 237 255
224 237 255
224 237 255
224 237 255
224 237 255
224 237 255
224 237 255
224 237 255
224 237 255
224 237 255
224 237 255
224 237 255
224 237 255
224 237 255
224 237 255
224 237 255
224 237 255
224 237 255
224 237 255
224 237 255
224 237 255
224 237 255
224 237 255
224 237 255
224 237 255
224 237 255
224 237 255
145 154 187
0 0 113
0 0 113
0 0 113
0 0 113
0 0 113
0 0 113
0 0 113
0 0 113
0 0 113
0 0 113
0 0 113
0 0 113
0 0 113
0 0 113
0 0 113
0 0 113
0 0 113
0 0 113
0 0 113
0 0 113
0 0 113
0 0 113
0 0 113
0 0 113
0 0 113
0 0 113
0 0 113
0 0 113
0 0 113
0 0 113
0 0 113
0 0 113
0 0 113
0 0 113
0 0 113
0 0 113
0 0 113
0 0 113
0 0 113
0 0 113
0 0 113
0 0 113
0 0 113
0 0 113
0 0 113
0 0 113
0 0 113
0 0 113
0 0 113
0 0 113
0 0 113
0 0 113
0 0 113
2 2 113
16 17 114
11 12 114
0 0 113
0 0 112
0 0 112
0 0 113
0 0 113
0 0 113
0 0 113
0 0 113
0 0 113
0 0 113
0 0 113
0 0 113
0 0 113
0 0 113
0 0 113
0 0 113
0 0 113
0 0 113
0 0 113
0 0 113
0 0 113
0 0 113
0 0 113
0 0 113
0 0 113
0 0 113
0 0 113
0 0 113
0 0 113
0 0 113
0 0 113
0 0 113
0 0 113
0 0 113
0 0 113
0 0 113
0 0 113
0 0 113
0 0 113
0 0 113
0 0 113
0 0 113
0 0 113
0 0 113
0 0 113
0 0 113
0 0 113
0 0 113
0 0 113
0 0 113
0 0 113
0 0 113
0 0 113
0 0 113
0 0 113
0 0 113
0 6 114
0 16 116
9 21 118
14 28 120
16 32 122
7 34 124
9 41 126
14 45 128
8 46 130
10 51 132
9 54 134
25 58 137
17 59 136
11 57 136
94 96 143
189 181 166
177 166 151
183 172 166
193 188 187
180 172 165
186 177 164
164 157 139
171 163 143
131 135 99
121 135 96
126 137 100
131 140 104
124 134 97
120 130 90
127 136 101
130 136 106
125 134 99
109 127 78
112 130 82
118 131 89
117 129 87
105 117 65
95 108 54
119 130 85
124 135 91
123 137 94
120 138 93
122 141 94
121 140 96
121 131 94
126 131 97
114 123 76
101 121 79
64 86 123
14 31 122
10 24 117
0 21 116
7 20 116
7 13 116
2 15 116
7 20 116
4 14 115
0 0 113
0 0 113
0 0 113
0 0 113
0 0 113
0 0 113
0 0 113
0 0 113
0 0 113
0 0 113
0 0 113
0 0 113
3 3 113
154 163 193
224 237 255
224 237 255
224 237 255
224 237 255
224 237 255
224 237 255
224 237 255
224 237 255
224 237 255
224 237 255
224 237 255
224 237 255
224 237 255
224 237 255
224 237 255
224 237 255
224 237 255
224 237 255
224 237 255
224 237 255
224 237 255
224 237 255
224 237 255
224 237 255
224 237 255
224 237 255
224 237 255
224 237 255
224 237 255
224 237 255
224 237 255
224 237 255
224 237 255
224 237 255
224 237 255
224 237 255
224 237 255
224 237 255
224 237 255
224 237 255
224 237 255
224 237 255
224 237 255
224 237 255
224 237 255
224 237 255
224 237 255
224 237 255
224 237 255
224 237 255
224 237 255
224 237 255
224 237 255
224 237 255
224 237 255
224 237 255
224 237 255
224 237 255
224 237 255
224 237 255
224 237 255
224 237 255
224 237 255
224 237 255
224 237 255
224 237 255
224 237 255
224 237 255
224 237 255
224 237 255
224 237 255
224 237 255
224 237 255
224 237 255
224 237 255
224 237 255
224 237 255
224 237 255
224 237 255
224 237 255
224 237 255
224 237 255
224 237 255
224 237 255
224 237 255
224 237 255
224 237 255
224 237 255
224 237 255
224 237 255
224 237 255
224 237 255
224 237 255
224 237 255
224 237 255
224 237 255
224 237 255
224 237 255
224 237 255
224 237 255
224 237 255
224 237 255
224 237 255
224 237 255
224 237 255
224 237 255
224 237 255
224 237 255
224 237 255
224 237 255
224 237 255
224 237 255
224 237 255
224 237 255
224 237 255
224 237 255
224 237 255
224 237 255
224 237 255
224 237 255
224 237 255
224 237 255
224 237 255
224 237 255
224 237 255
224 237 255
224 237 255
224 237 255
224 237 255
224 237 255
224 237 255
224 237 255
224 237 255
224 237 255
224 237 255
224 237 255
224 237 255
224 237 255
224 237 255
224 237 255
224 237 255
224 237 255
224 237 255
224 237 255
224 237 255
224 237 255
224 237 255
224 237 255
224 237 255
224 237 255
224 237 255
224 237 255
224 237 255
224 237 255
224 237 255
224 237 255
224 237 255
224 237 255
224 237 255
224 237 255
224 237 255
224 237 255
224 237 255
224 237 255
224 237 255
224 237 255
224 237 255
224 237 255
224 237 255
224 237 255
224 237 255
224 237 255
224 237 255
224 237 255
224 237 255
224 237 255
224 237 255
224 237 255
224 237 255
224 237 255
224 237 255
224 237 255
224 237 255
224 237 255
224 237 255
224 237 255
224 237 255
224 237 255
224 237 255
224 237 255
224 237 255
224 237 255
224 237 255
224 237 255
224 237 255
224 237 255
224 237 255
224 237 255
224 237 255
224 237 255
224 237 255
224 237 255
224 237 255
224 237 255
224 237 255
224 237 255
224 237 255
224 237 255
224 237 255
224 237 255
224 237 255
224 237 255
224 237 255
224 237 255
224 237 255
224 237 255
215 228 247
87 92 144
0 0 113
0 0 113
0 0 113
0 0 113
0 0 113
0 0 113
0 0 113
0 0 113
0 0 113
0 0 113
0 0 113
0 0 113
0 0 113
0 0 113
0 0 113
0 0 113
0 0 113
0 0 113
0 0 113
0 0 113
0 0 113
0 0 113
0 0 113
0 0 113
0 0 113
0 0 113
0 0 113
0 0 113
0 0 113
0 0 113
0 0 113
0 0 113
0 0 113
0 0 113
0 0 113
0 0 113
0 0 113
0 0 113
0 0 113
0 0 113
0 0 113
0 0 113
0 0 113
0 0 113
0 0 113
0 0 113
0 0 113
0 0 113
0 0 113
0 0 113
0 0 113
0 0 113
0 0 113
3 3 113
1 2 113
0 0 112
0 0 113
0 0 113
0 0 113
0 0 113
0 0 113
0 0 113
0 0 113
0 0 113
0 0 113
0 0 113
0 0 113
0 0 113
0 0 113
0 0 113
0 0 113
0 0 113
0 0 113
0 0 113
0 0 113
0 0 113
0 0 113
0 0 113
0 0 113
0 0 113
0 0 113
0 0 113
0 0 113
0 0 113
0 0 113
0 0 113
0 0 113
0 0 113
0 0 113
0 0 113
0 0 113
0 0 113
0 0 113
0 0 113
0 0 113
0 0 113
0 0 113
0 0 113
0 0 113
0 0 113
0 0 113
0 0 113
0 0 113
0 0 113
0 0 113
0 0 113
0 0 113
0 0 113
0 0 113
0 0 113
0 0 113
0 15 115
4 21 117
9 23 119
16 30 121
11 33 124
4 34 124
6 37 125
6 41 129
12 52 133
6 57 137
5 58 137
10 54 137
22 63 140
34 59 135
146 142 150
187 177 161
176 171 158
188 182 181
181 175 165
166 154 143
169 159 142
198 185 174
189 181 166
121 130 91
127 137 103
129 135 104
134 141 111
122 133 94
122 133 97
129 137 108
128 137 104
100 115 64
107 123 76
119 133 93
119 130 89
110 122 80
105 117 72
120 126 86
132 138 98
130 140 103
130 142 102
127 144 100
119 140 95
112 130 87
106 122 79
111 121 87
100 119 80
61 83 131
19 38 124
13 26 117
0 21 116
0 21 116
0 21 116
0 20 116
0 21 116
0 21 116
0 13 114
0 0 113
0 0 113
0 0 113
0 0 113
0 0 113
0 0 113
0 0 113
0 0 113
0 0 113
0 0 113
0 0 113
2 2 113
71 75 134
215 228 247
224 237 255
224 237 255
224 237 255
224 237 255
224 237 255
224 237 255
224 237 255
224 237 255
224 237 255
224 237 255
224 237 255
224 237 255
224 237 255
224 237 255
224 237 255
224 237 255
224 237 255
224 237 255
224 237 255
224 237 255
224 237 255
224 237 255
224 237 255
224 237 255
224 237 255
224 237 255
224 237 255
224 237 255
224 237 255
224 237 255
224 237 255
224 237 255
224 237 255
224 237 255
224 237 255
224 237 255
224 237 255
224 237 255
224 237 255
224 237 255
224 237 255
224 237 255
224 237 255
224 237 255
224 237 255
224 237 255
224 237 255
224 237 255
224 237 255
224 237 255
224 237 255
224 237 255
224 237 255
224 237 255
224 237 255
224 237 255
224 237 255
224 237 255
224 237 255
224 237 255
224 237 255
224 237 255
224 237 255
224 237 255
224 237 255
224 237 255
224 237 255
224 237 255
224 237 255
224 237 255
224 237 255
224 237 255
224 237 255
224 237 255
224 237 255
224 237 255
224 237 255
224 237 255
224 237 255
224 237 255
224 237 255
224 237 255
224 237 255
224 237 255
224 237 255
224 237 255
224 237 255
224 237 255
224 237 255
224 237 255
224 237 255
224 237 255
224 237 255
224 237 255
224 237 255
224 237 255
224 237 255
224 237 255
224 237 255
224 237 255
224 237 255
224 237 255
224 237 255
224 237 255
224 237 255
224 237 255
224 237 255
224 237 255
224 237 255
224 237 255
224 237 255
224 237 255
224 237 255
224 237 255
224 237 255
224 237 255
224 237 255
224 237 255
224 237 255
224 237 255
224 237 255
224 237 255
224 237 255
224 237 255
224 237 255
224 237 255
224 237 255
224 237 255
224 237 255
224 237 255
224 237 255
224 237 255
224 237 255
224 237 255
224 237 255
224 237 255
224 237 255
224 237 255
224 237 255
224 237 255
224 237 255
224 237 255
224 237 255
224 237 255
224 237 255
224 237 255
224 237 255
224 237 255
224 237 255
224 237 255
224 237 255
224 237 255
224 237 255
224 237 255
224 237 255
224 237 255
224 237 255
224 237 255
224 237 255
224 237 255
224 237 255
224 237 255
224 237 255
224 237 255
224 237 255
225 237 255
225 237 255
225 237 255
224 237 255
225 237 255
225 237 255
225 237 255
225 237 255
225 237 255
225 237 255
225 237 255
225 237 255
225 237 255
225 237 255
225 237 255
225 237 255
225 237 255
225 237 255
225 237 255
225 237 255
225 237 255
225 237 255
225 237 255
225 237 255
225 237 255
225 237 255
225 237 255
225 237 255
225 237 255
225 237 255
225 237 255
225 237 255
225 237 255
225 237 255
225 237 255
225 237 255
225 237 255
225 237 255
225 237 255
225 237 255
225 237 255
225 237 255
225 237 255
225 237 255
225 237 255
225 237 255
225 237 255
225 237 255
225 237 255
225 237 255
225 237 255
225 237 255
192 203 226
31 33 117
0 0 113
0 0 113
0 0 113
0 0 113
0 0 113
0 0 113
0 0 113
0 0 113
0 0 113
0 0 113
0 0 113
0 0 113
0 0 113
0 0 113
0 0 113
0 0 113
0 0 113
0 0 113
0 0 113
0 0 113
0 0 113
0 0 113
0 0 113
0 0 113
0 0 113
0 0 113
0 0 113
0 0 113
0 0 113
0 0 113
0 0 113
0 0 113
0 0 113
0 0 113
0 0 113
0 0 113
0 0 113
0 0 113
0 0 113
0 0 113
0 0 113
0 0 113
0 0 113
0 0 113
0 0 113
0 0 113
0 0 113
0 0 113
0 0 113
0 0 113
0 0 113
0 0 113
0 0 113
0 0 113
0 0 113
0 0 113
0 0 113
0 0 113
0 0 113
0 0 113
0 0 113
0 0 113
0 0 113
0 0 113
0 0 113
0 0 113
0 0 113
0 0 113
0 0 113
0 0 113
0 0 113
0 0 113
0 0 113
0 0 113
0 0 113
0 0 113
0 0 113
0 0 113
0 0 113
0 0 113
0 0 113
0 0 113
0 0 113
0 0 113
0 0 113
0 0 113
0 0 113
0 0 113
0 0 113
0 0 113
0 0 113
0 0 113
0 0 113
0 0 113
0 0 113
0 0 113
0 0 113
0 0 113
0 0 113
0 0 113
0 0 113
0 0 113
0 0 113
0 0 113
0 0 113
0 0 113
0 0 113
0 10 114
0 20 116
0 20 116
14 21 116
9 23 117
3 21 117
1 23 119
8 28 120
17 31 123
21 32 124
12 36 125
9 44 128
8 50 132
7 56 134
18 55 137
13 60 139
81 82 129
167 157 142
178 166 152
190 181 175
185 171 160
170 160 144
167 154 140
165 158 140
182 169 157
143 145 121
124 133 100
123 134 98
134 139 105
130 137 103
120 132 94
130 140 105
136 143 112
127 135 101
107 121 76
123 137 100
121 132 93
125 135 99
129 137 102
124 130 93
131 135 98
137 142 105
133 139 100
132 141 100
120 138 94
110 123 76
111 124 73
106 122 65
99 119 74
44 71 132
17 38 129
10 21 117
6 22 116
0 21 116
0 21 116
2 21 116
1 21 116
0 21 116
0 21 116
0 12 114
0 0 113
0 0 113
0 0 113
0 0 113
3 0 113
0 0 113
0 0 113
0 0 113
0 0 113
0 0 113
0 0 113
0 0 113
190 201 225
225 237 255
225 237 255
225 237 255
225 237 255
225 237 255
225 237 255
225 237 255
225 237 255
225 237 255
225 237 255
225 237 255
225 237 255
225 237 255
225 237 255
225 237 255
225 237 255
225 237 255
225 237 255
225 237 255
225 237 255
225 237 255
225 237 255
225 237 255
225 237 255
225 237 255
225 237 255
225 237 255
225 237 255
225 237 255
225 237 255
225 237 255
225 237 255
225 237 255
225 237 255
225 237 255
225 237 255
225 237 255
225 237 255
225 237 255
225 237 255
225 237 255
225 237 255
225 237 255
225 237 255
225 237 255
225 237 255
225 237 255
225 237 255
225 237 255
225 237 255
225 237 255
224 237 255
224 237 255
224 237 255
224 237 255
224 237 255
224 237 255
224 237 255
224 237 255
224 237 255
224 237 255
224 237 255
224 237 255
224 237 255
224 237 255
224 237 255
224 237 255
224 237 255
224 237 255
224 237 255
224 237 255
224 237 255
224 237 255
224 237 255
224 237 255
224 237 255
224 237 255
224 237 255
224 237 255
224 237 255
224 237 255
224 237 255
224 237 255
224 237 255
224 237 255
224 237 255
224 237 255
224 237 255
224 237 255
224 237 255
224 237 255
224 237 255
224 237 255
224 237 255
224 237 255
224 237 255
224 237 255
224 237 255
224 237 255
224 237 255
224 237 255
224 237 255
224 237 255
224 237 255
224 237 255
224 237 255
224 237 255
224 237 255
224 237 255
224 237 255
224 237 255
224 237 255
224 237 255
224 237 255
224 237 255
224 237 255
224 237 255
224 237 255
224 237 255
224 237 255
224 237 255
224 237 255
224 237 255
225 237 255
225 237 255
225 237 255
225 237 255
225 237 255
225 237 255
225 237 255
225 237 255
225 237 255
225 237 255
225 237 255
225 237 255
225 237 255
225 237 255
225 237 255
225 237 255
225 237 255
225 237 255
225 237 255
225 237 255
225 237 255
225 237 255
225 237 255
225 237 255
225 237 255
225 237 255
225 237 255
225 237 255
225 237 255
225 237 255
225 237 255
225 237 255
225 237 255
225 237 255
225 237 255
225 237 255
225 237 255
225 237 255
225 237 255
225 237 255
225 237 255
225 237 255
225 237 255
225 237 255
225 237 255
225 237 255
225 237 255
225 237 255
225 237 255
225 237 255
225 237 255
225 237 255
225 237 255
225 237 255
225 237 255
225 237 255
225 237 255
225 237 255
225 237 255
225 237 255
225 237 255
225 237 255
225 237 255
225 237 255
225 237 255
225 237 255
225 237 255
225 237 255
225 237 255
225 237 255
225 237 255
225 237 255
225 237 255
225 237 255
225 237 255
225 237 255
225 237 255
225 237 255
225 237 255
225 237 255
225 237 255
225 237 255
225 237 255
225 237 255
225 237 255
225 237 255
225 237 255
225 237 255
225 237 255
225 237 255
225 237 255
225 237 255
225 237 255
225 237 255
225 237 255
225 237 255
142 150 184
0 0 113
0 0 113
0 0 113
0 0 113
0 0 113
0 0 113
0 0 113
0 0 113
0 0 113
0 0 113
0 0 113
0 0 113
0 0 113
0 0 113
0 0 113
0 0 113
0 0 113
0 0 113
0 0 113
0 0 113
0 0 113
0 0 113
0 0 113
0 0 113
0 0 113
0 0 113
0 0 113
0 0 113
0 0 113
0 0 113
0 0 113
0 0 113
0 0 113
0 0 113
0 0 113
0 0 113
0 0 113
0 0 113
0 0 113
0 0 113
0 0 113
0 0 113
0 0 113
0 0 113
0 0 113
0 0 113
0 0 113
0 0 113
0 0 113
0 0 113
0 0 113
0 0 113
0 0 113
0 0 113
0 0 113
0 0 113
0 0 113
0 0 113
0 0 113
0 0 113
0 0 113
0 0 113
0 0 113
0 0 113
0 0 113
0 0 113
0 0 113
0 0 113
0 0 113
0 0 113
0 0 113
0 0 113
0 0 113
0 0 113
0 0 113
0 0 113
0 0 113
0 0 113
0 0 113
0 0 113
0 0 113
0 0 113
0 0 113
0 0 113
0 0 113
0 0 113
0 0 113
0 0 113
0 0 113
0 0 113
0 0 113
0 0 113
0 0 113
0 0 113
0 0 113
0 0 113
0 0 113
0 0 113
0 0 113
0 0 113
0 0 113
0 0 113
0 0 113
0 0 113
0 0 113
0 0 113
0 0 113
0 13 114
0 21 116
0 21 116
6 22 116
0 21 116
0 22 118
3 25 119
6 31 122
15 34 124
6 37 124
8 41 126
8 50 131
13 55 134
25 58 140
22 54 136
38 60 141
135 137 136
178 166 149
187 178 172
192 187 180
172 164 148
166 157 143
157 149 125
151 148 128
136 137 114
146 143 125
127 135 101
131 137 99
140 144 112
126 132 99
109 122 82
121 134 97
133 139 105
122 130 91
124 136 101
123 135 95
121 131 90
133 141 110
131 136 98
132 136 100
133 137 100
136 141 104
130 137 98
128 138 95
123 134 90
123 133 89
114 136 93
112 140 118
63 92 135
12 38 124
13 24 117
0 21 116
12 25 117
4 21 116
0 21 116
11 24 117
3 21 116
0 21 116
0 21 116
6 17 116
8 8 115
2 5 114
7 7 115
3 0 114
5 0 113
0 0 113
0 0 113
0 0 113
0 0 113
0 0 113
2 2 113
140 148 182
225 237 255
225 237 255
225 237 255
225 237 255
225 237 255
225 237 255
225 237 255
225 237 255
225 237 255
225 237 255
225 237 255
225 237 255
225 237 255
225 237 255
225 237 255
225 237 255
225 237 255
225 237 255
225 237 255
225 237 255
225 237 255
225 237 255
225 237 255
225 237 255
225 237 255
225 237 255
225 237 255
225 237 255
225 237 255
225 237 255
225 237 255
225 237 255
225 237 255
225 237 255
225 237 255
225 237 255
225 237 255
225 237 255
225 237 255
225 237 255
225 237 255
225 237 255
225 237 255
225 237 255
225 237 255
225 237 255
225 237 255
225 237 255
225 237 255
225 237 255
225 237 255
225 237 255
225 237 255
225 237 255
225 237 255
225 237 255
225 237 255
225 237 255
225 237 255
225 237 255
225 237 255
225 237 255
225 237 255
225 237 255
225 237 255
225 237 255
225 237 255
225 237 255
225 237 255
225 237 255
225 237 255
225 237 255
225 237 255
225 237 255
225 237 255
225 237 255
225 237 255
225 237 255
225 237 255
225 237 255
225 237 255
225 237 255
225 237 255
225 237 255
225 237 255
225 237 255
225 237 255
225 237 255
225 237 255
225 237 255
225 237 255
225 237 255
225 237 255
225 237 255
225 237 255
225 237 255
225 237 255
224 237 255
224 237 255
224 237 255
224 237 255
224 237 255
224 237 255
224 237 255
224 237 255
224 237 255
224 237 255
224 237 255
224 237 255
224 237 255
225 237 255
225 237 255
225 237 255
225 237 255
225 237 255
225 237 255
225 237 255
225 237 255
225 237 255
225 237 255
225 237 255
225 237 255
225 237 255
225 237 255
225 237 255
225 237 255
225 237 255
225 237 255
225 237 255
225 237 255
225 237 255
225 237 255
225 237 255
225 237 255
225 237 255
225 237 255
225 237 255
225 237 255
225 237 255
225 237 255
225 237 255
225 237 255
225 237 255
225 237 255
225 237 255
225 237 255
225 237 255
225 237 255
225 237 255
225 237 255
225 237 255
225 237 255
225 237 255
225 237 255
225 237 255
225 237 255
225 237 255
225 237 255
225 237 255
225 237 255
225 237 255
225 237 255
225 237 255
225 237 255
225 237 255
225 237 255
225 237 255
225 237 255
225 237 255
225 237 255
225 237 255
225 237 255
225 237 255
225 237 255
225 237 255
225 237 255
225 237 255
225 237 255
225 237 255
225 237 255
225 237 255
225 237 255
225 237 255
225 237 255
225 237 255
225 237 255
225 237 255
225 237 255
225 237 255
225 237 255
225 237 255
225 237 255
225 237 255
225 237 255
225 237 255
225 237 255
225 237 255
225 237 255
225 237 255
225 237 255
225 237 255
225 237 255
225 237 255
225 237 255
225 237 255
225 237 255
225 237 255
225 237 255
225 237 255
225 237 255
225 237 255
225 237 255
225 237 255
225 237 255
225 237 255
225 237 255
225 237 255
225 237 255
225 237 255
225 237 255
213 225 245
59 62 128
0 0 113
0 0 113
0 0 113
0 0 113
0 0 113
0 0 113
0 0 113
0 0 113
0 0 113
0 0 113
0 0 113
0 0 113
0 0 113
0 0 113
0 0 113
0 0 113
0 0 113
0 0 113
0 0 113
0 0 113
0 0 113
0 0 113
0 0 113
0 0 113
0 0 113
0 0 113
0 0 113
0 0 113
0 0 113
0 0 113
0 0 113
0 0 113
0 0 113
0 0 113
0 0 113
0 0 113
0 0 113
0 0 113
0 0 113
0 0 113
0 0 113
0 0 113
0 0 113
0 0 113
0 0 113
0 0 113
0 0 113
0 0 113
0 0 113
0 0 113
0 0 113
0 0 113
0 0 113
0 0 113
0 0 113
0 0 113
0 0 113
0 0 113
0 0 113
0 0 113
0 0 113
0 0 113
0 0 113
0 0 113
0 0 113
0 0 113
0 0 113
0 0 113
0 0 113
0 0 113
0 0 113
0 0 113
0 0 113
0 0 113
0 0 113
0 0 113
0 0 113
0 0 113
0 0 113
0 0 113
0 0 113
0 0 113
0 0 113
0 0 113
0 0 113
0 0 113
0 0 113
0 0 113
0 0 113
0 0 113
0 0 113
0 0 113
0 0 113
0 0 113
0 0 113
0 0 113
0 0 113
0 0 113
0 0 113
0 0 113
0 0 113
0 0 113
0 0 113
0 0 113
0 0 113
0 0 113
0 16 115
0 21 116
0 21 116
0 21 116
0 21 117
5 27 120
9 31 122
8 35 124
9 38 125
0 41 126
0 46 128
4 52 132
10 57 135
16 60 139
20 62 138
27 56 141
133 130 124
170 159 140
190 184 182
183 175 163
158 149 131
190 172 164
173 158 142
153 148 126
144 145 123
149 141 118
147 146 115
137 140 104
136 140 111
125 133 103
92 109 56
130 142 105
139 146 113
130 139 104
123 136 98
115 128 86
126 136 100
132 140 104
135 139 101
136 140 105
133 140 103
132 138 99
130 139 100
123 136 91
120 134 78
112 131 91
93 161 159
80 127 147
16 49 131
24 20 116
10 18 118
4 22 116
8 23 117
2 21 116
1 20 116
5 19 116
0 21 116
0 21 116
1 21 116
10 18 116
8 13 116
2 17 116
2 8 115
7 7 114
9 12 116
6 12 115
5 12 114
3 4 114
0 0 113
0 0 113
78 82 139
220 233 251
225 237 255
225 237 255
225 237 255
225 237 255
225 237 255
225 237 255
225 237 255
225 237 255
225 237 255
225 237 255
225 237 255
225 237 255
225 237 255
225 237 255
225 237 255
225 237 255
225 237 255
225 237 255
225 237 255
225 237 255
225 237 255
225 237 255
225 237 255
225 237 255
225 237 255
225 237 255
225 237 255
225 237 255
225 237 255
225 237 255
225 237 255
225 237 255
225 237 255
225 237 255
225 237 255
225 237 255
225 237 255
225 237 255
225 237 255
225 237 255
225 237 255
225 237 255
225 237 255
225 237 255
225 237 255
225 237 255
225 237 255
225 237 255
225 237 255
225 237 255
225 237 255
225 237 255
225 237 255
225 237 255
225 237 255
225 237 255
225 237 255
225 237 255
225 237 255
225 237 255
225 237 255
225 237 255
225 237 255
225 237 255
225 237 255
225 237 255
225 237 255
225 237 255
225 237 255
225 237 255
225 237 255
225 237 255
225 237 255
225 237 255
225 237 255
225 237 255
225 237 255
225 237 255
225 237 255
225 237 255
225 237 255
225 237 255
225 237 255
225 237 255
225 237 255
225 237 255
225 237 255
225 237 255
225 237 255
225 237 255
225 237 255
225 237 255
225 237 255
225 237 255
225 237 255
225 237 255
225 237 255
225 237 255
225 237 255
225 237 255
225 237 255
225 237 255
225 237 255
225 237 255
225 237 255
225 237 255
225 237 255
225 237 255
225 237 255
225 237 255
225 237 255
225 237 255
225 237 255
225 237 255
225 237 255
225 237 255
225 237 255
225 237 255
225 237 255
225 237 255
225 237 255
225 237 255
225 237 255
225 237 255
225 237 255
225 237 255
225 237 255
225 237 255
225 237 255
225 237 255
225 237 255
225 237 255
225 237 255
225 237 255
225 237 255
225 237 255
225 237 255
225 237 255
225 237 255
225 237 255
225 237 255
225 237 255
225 237 255
225 237 255
225 237 255
225 237 255
225 237 255
225 237 255
225 237 255
225 237 255
225 237 255
225 237 255
225 237 255
225 237 255
225 237 255
225 237 255
225 237 255
225 237 255
225 237 255
225 237 255
225 237 255
225 237 255
225 237 255
225 237 255
225 237 255
225 237 255
225 237 255
225 237 255
225 237 255
225 237 255
225 237 255
225 237 255
225 237 255
225 237 255
225 237 255
225 237 255
225 237 255
225 237 255
225 237 255
225 237 255
225 237 255
225 237 255
225 237 255
225 237 255
225 237 255
225 237 255
225 237 255
225 237 255
225 237 255
225 237 255
225 237 255
225 237 255
225 237 255
225 237 255
225 237 255
225 237 255
225 237 255
225 237 255
225 237 255
225 237 255
225 237 255
225 237 255
225 237 255
225 237 255
225 238 255
225 237 255
225 237 255
225 238 255
225 237 255
225 238 255
225 238 255
225 238 255
225 238 255
225 238 255
225 238 255
225 238 255
225 238 255
225 238 255
225 238 255
225 238 255
225 238 255
192 203 226
0 0 113
0 0 113
0 0 113
0 0 113
0 0 113
0 0 113
0 0 113
0 0 113
0 0 113
0 0 113
0 0 113
0 0 113
0 0 113
0 0 113
0 0 113
0 0 113
0 0 113
0 0 113
0 0 113
0 0 113
0 0 113
0 0 113
0 0 113
0 0 113
0 0 113
0 0 113
0 0 113
0 0 113
0 0 113
0 0 113
0 0 113
0 0 113
0 0 113
0 0 113
0 0 113
0 0 113
0 0 113
0 0 113
0 0 113
0 0 113
0 0 113
0 0 113
0 0 113
0 0 113
0 0 113
0 0 113
0 0 113
0 0 113
0 0 113
0 0 113
0 0 113
0 0 113
0 0 113
0 0 113
0 0 113
0 0 113
0 0 113
0 0 113
0 0 113
0 0 113
0 0 113
0 0 113
0 0 113
0 0 113
0 0 113
0 0 113
0 0 113
0 0 113
0 0 113
0 0 113
0 0 113
0 0 113
0 0 113
0 0 113
0 0 113
0 0 113
0 0 113
0 0 113
0 0 113
0 0 113
0 0 113
0 0 113
0 0 113
0 0 113
0 0 113
0 0 113
0 0 113
0 0 113
0 0 113
0 0 113
0 0 113
0 0 113
0 0 113
0 0 113
0 0 113
0 0 113
0 0 113
0 0 113
0 0 113
0 0 113
0 0 113
0 0 113
0 0 113
0 0 113
0 0 113
0 0 113
0 18 115
0 21 116
0 21 116
0 21 117
2 25 119
10 28 120
4 33 123
11 36 124
0 40 125
6 42 127
0 47 130
8 51 133
11 54 135
13 59 140
15 58 136
71 90 133
147 142 133
168 161 145
191 186 175
169 163 147
166 163 141
185 171 156
150 144 125
153 146 127
133 136 107
138 140 112
136 138 108
135 139 108
141 146 116
119 134 92
110 131 86
137 150 117
139 148 116
132 142 108
119 133 94
123 136 100
129 140 104
134 140 103
141 146 113
137 144 109
129 138 99
127 137 97
126 138 98
121 133 89
123 134 90
99 151 152
71 122 149
13 49 132
9 22 118
12 19 118
7 20 117
0 21 116
0 21 116
0 21 116
0 21 116
0 21 116
0 21 116
0 21 116
0 21 116
0 21 116
0 19 116
0 20 116
0 8 114
5 20 116
1 21 116
2 21 116
11 15 116
0 0 114
0 0 113
5 12 114
197 209 231
225 238 255
225 238 255
225 238 255
225 238 255
225 238 255
225 238 255
225 238 255
225 238 255
225 238 255
225 238 255
225 238 255
225 238 255
225 238 255
225 238 255
225 238 255
225 238 255
225 237 255
225 237 255
225 237 255
225 237 255
225 237 255
225 237 255
225 237 255
225 237 255
225 237 255
225 237 255
225 237 255
225 237 255
225 237 255
225 237 255
225 237 255
225 237 255
225 237 255
225 237 255
225 237 255
225 237 255
225 237 255
225 237 255
225 237 255
225 237 255
225 237 255
225 237 255
225 237 255
225 237 255
225 237 255
225 237 255
225 237 255
225 237 255
225 237 255
225 237 255
225 237 255
225 237 255
225 237 255
225 237 255
225 237 255
225 237 255
225 237 255
225 237 255
225 237 255
225 237 255
225 237 255
225 237 255
225 237 255
225 237 255
225 237 255
225 237 255
225 237 255
225 237 255
225 237 255
225 237 255
225 237 255
225 237 255
225 237 255
225 237 255
225 237 255
225 237 255
225 237 255
225 237 255
225 237 255
225 237 255
225 237 255
225 237 255
225 237 255
225 237 255
225 237 255
225 237 255
225 237 255
225 237 255
225 237 255
225 237 255
225 237 255
225 237 255
225 237 255
225 237 255
225 237 255
225 237 255
225 237 255
225 237 255
225 237 255
225 237 255
225 237 255
225 237 255
225 237 255
225 237 255
225 237 255
225 237 255
225 237 255
225 237 255
225 237 255
225 237 255
225 237 255
225 237 255
225 237 255
225 237 255
225 237 255
225 237 255
225 237 255
225 237 255
225 237 255
225 237 255
225 237 255
225 237 255
225 237 255
225 237 255
225 237 255
225 237 255
225 237 255
225 237 255
225 237 255
225 237 255
225 237 255
225 237 255
225 237 255
225 237 255
225 237 255
225 237 255
225 237 255
225 237 255
225 237 255
225 237 255
225 237 255
225 237 255
225 237 255
225 237 255
225 237 255
225 237 255
225 237 255
225 237 255
225 237 255
225 237 255
225 237 255
225 237 255
225 237 255
225 237 255
225 237 255
225 238 255
225 238 255
225 238 255
225 238 255
225 238 255
225 238 255
225 238 255
225 238 255
225 238 255
225 238 255
225 238 255
225 238 255
225 238 255
225 238 255
225 238 255
225 238 255
225 238 255
225 238 255
225 238 255
225 238 255
225 238 255
225 238 255
225 238 255
225 238 255
225 238 255
225 238 255
225 238 255
225 238 255
225 238 255
225 238 255
225 238 255
225 238 255
225 238 255
225 238 255
225 238 255
225 238 255
225 238 255
225 238 255
225 238 255
225 238 255
225 238 255
225 238 255
225 238 255
225 238 255
225 238 255
225 238 255
225 238 255
225 238 255
225 238 255
225 238 255
225 238 255
225 238 255
225 238 255
225 238 255
225 238 255
225 238 255
225 238 255
225 238 255
225 238 255
225 238 255
225 238 255
225 238 255
225 238 255
225 238 255
225 238 255
225 238 255
225 238 255
225 238 255
159 168 197
0 0 113
0 0 113
0 0 113
4 4 113
0 0 113
0 0 113
0 0 113
0 0 113
0 0 113
0 0 113
0 0 113
0 0 113
0 0 113
0 0 113
0 0 113
0 0 113
0 0 113
0 0 113
0 0 113
0 0 113
0 0 113
0 0 113
0 0 113
0 0 113
0 0 113
0 0 113
0 0 113
0 0 113
0 0 113
0 0 113
0 0 113
0 0 113
0 0 113
0 0 113
0 0 113
0 0 113
0 0 113
0 0 113
0 0 113
0 0 113
0 0 113
0 0 113
0 0 113
0 0 113
0 0 113
0 0 113
0 0 113
0 0 113
0 0 113
0 0 113
0 0 113
0 0 113
0 0 113
0 0 113
0 0 113
0 0 113
0 0 113
0 0 113
0 0 113
0 0 113
0 0 113
0 0 113
0 0 113
0 0 113
0 0 113
0 0 113
0 0 113
0 0 113
0 0 113
0 0 113
0 0 113
0 0 113
0 0 113
0 0 113
0 0 113
0 0 113
0 0 113
0 0 113
0 0 113
0 0 113
0 0 113
0 0 113
0 0 113
0 0 113
0 0 113
0 0 113
0 0 113
0 0 113
0 0 113
0 0 113
0 0 113
0 0 113
0 0 113
0 0 113
0 0 113
0 0 113
0 0 113
0 0 113
0 0 113
0 0 113
0 0 113
0 0 113
0 0 113
0 0 113
0 0 113
0 19 116
0 21 116
4 21 116
6 25 118
8 27 120
7 30 122
0 34 124
7 37 125
2 40 126
11 43 128
0 45 130
6 48 133
11 53 136
19 55 140
31 64 143
119 132 117
152 144 124
195 188 178
180 165 151
166 155 140
182 178 160
185 174 162
147 141 123
147 144 125
132 136 107
128 134 104
136 137 109
143 147 117
151 152 121
147 153 118
139 149 115
141 153 117
139 149 116
131 140 107
127 137 100
127 138 101
129 140 101
138 144 107
140 149 110
126 136 98
130 142 104
126 139 98
123 136 96
114 133 83
95 147 135
54 120 163
20 62 139
13 24 120
10 25 115
7 20 116
0 21 116
0 21 116
0 21 116
0 21 116
0 21 116
0 21 116
0 21 116
0 21 116
0 21 116
0 21 116
0 21 116
0 18 115
0 18 115
0 21 116
0 21 116
7 20 116
6 11 116
6 18 116
7 16 116
162 172 201
225 238 255
225 238 255
225 238 255
225 238 255
225 238 255
225 238 255
225 238 255
225 238 255
225 238 255
225 238 255
225 238 255
225 238 255
225 238 255
225 238 255
225 238 255
225 238 255
225 238 255
225 238 255
225 238 255
225 238 255
225 238 255
225 238 255
225 238 255
225 238 255
225 238 255
225 238 255
225 238 255
225 238 255
225 238 255
225 238 255
225 238 255
225 238 255
225 238 255
225 238 255
225 238 255
225 238 255
225 238 255
225 238 255
225 238 255
225 238 255
225 238 255
225 238 255
225 238 255
225 238 255
225 238 255
225 238 255
225 238 255
225 238 255
225 238 255
225 238 255
225 238 255
225 238 255
225 238 255
225 238 255
225 238 255
225 238 255
225 238 255
225 238 255
225 238 255
225 238 255
225 238 255
225 238 255
225 238 255
225 238 255
225 238 255
225 238 255
225 238 255
225 238 255
225 238 255
225 238 255
225 237 255
225 237 255
225 237 255
225 237 255
225 237 255
225 237 255
225 237 255
225 237 255
225 237 255
225 237 255
225 237 255
225 237 255
225 237 255
225 237 255
225 237 255
225 237 255
225 237 255
225 237 255
225 237 255
225 237 255
225 237 255
225 237 255
225 237 255
225 237 255
225 237 255
225 237 255
225 237 255
225 237 255
225 237 255
225 237 255
225 237 255
225 237 255
225 237 255
225 237 255
225 237 255
225 237 255
225 237 255
225 237 255
225 237 255
225 237 255
225 237 255
225 237 255
225 237 255
225 237 255
225 237 255
225 238 255
225 237 255
225 237 255
225 238 255
225 238 255
225 238 255
225 238 255
225 238 255
225 238 255
225 238 255
225 238 255
225 238 255
225 238 255
225 238 255
225 238 255
225 238 255
225 238 255
225 238 255
225 238 255
225 238 255
225 238 255
225 238 255
225 238 255
225 238 255
225 238 255
225 238 255
225 238 255
225 238 255
225 238 255
225 238 255
225 238 255
225 238 255
225 238 255
225 238 255
225 238 255
225 238 255
225 238 255
225 238 255
225 238 255
225 238 255
225 238 255
225 238 255
225 238 255
225 238 255
225 238 255
225 238 255
225 238 255
225 238 255
225 238 255
225 238 255
225 238 255
225 238 255
225 238 255
225 238 255
225 238 255
225 238 255
225 238 255
225 238 255
225 238 255
225 238 255
225 238 255
225 238 255
225 238 255
225 238 255
225 238 255
225 238 255
225 238 255
225 238 255
225 238 255
225 238 255
225 238 255
225 238 255
225 238 255
225 238 255
225 238 255
225 238 255
225 238 255
225 238 255
225 238 255
225 238 255
225 238 255
225 238 255
225 238 255
225 238 255
225 238 255
225 238 255
225 238 255
225 238 255
225 238 255
225 238 255
225 238 255
225 238 255
225 238 255
225 238 255
225 238 255
225 238 255
225 238 255
225 238 255
225 238 255
225 238 255
225 238 255
225 238 255
225 238 255
225 238 255
225 238 255
225 238 255
225 238 255
225 238 255
225 238 255
224 236 254
103 109 154
0 0 113
0 0 113
2 2 113
2 2 113
4 5 113
0 0 113
0 0 113
0 0 113
0 0 113
0 0 113
0 0 113
0 0 113
0 0 113
0 0 113
0 0 113
0 0 113
0 0 113
0 0 113
0 0 113
0 0 113
0 0 113
0 0 113
0 0 113
0 0 113
0 0 113
0 0 113
0 0 113
0 0 113
0 0 113
0 0 113
0 0 113
0 0 113
0 0 113
0 0 113
0 0 113
0 0 113
0 0 113
0 0 113
0 0 113
0 0 113
0 0 113
0 0 113
0 0 113
0 0 113
0 0 113
0 0 113
0 0 113
0 0 113
0 0 113
0 0 113
0 0 113
0 0 113
0 0 113
0 0 113
0 0 113
0 0 113
0 0 113
0 0 113
0 0 113
0 0 113
0 0 113
0 0 113
0 0 113
0 0 113
0 0 113
0 0 113
0 0 113
0 0 113
0 0 113
0 0 113
0 0 113
0 0 113
0 0 113
0 0 113
0 0 113
0 0 113
0 0 113
0 0 113
0 0 113
0 0 113
0 0 113
0 0 113
0 0 113
0 0 113
6 6 113
12 12 114
0 0 113
0 0 113
0 0 113
0 0 113
0 0 113
0 0 113
0 0 113
0 0 113
0 0 113
0 0 113
0 0 113
0 0 113
0 0 113
0 0 113
0 0 113
14 0 113
19 0 113
12 0 114
0 12 116
1 19 117
11 26 120
11 30 122
18 32 122
4 34 124
6 38 126
0 46 130
12 53 134
14 51 133
6 49 132
11 55 136
11 60 136
13 60 142
20 66 150
128 135 119
170 166 154
207 204 203
176 163 147
149 145 118
172 165 145
172 162 144
167 163 147
142 141 119
132 135 109
138 140 114
146 147 122
157 157 132
150 153 120
148 154 124
145 152 122
140 151 117
135 146 107
134 145 109
130 140 102
129 140 106
129 140 99
134 144 101
132 146 105
121 134 92
120 136 94
126 140 101
128 137 91
113 135 116
47 109 162
28 69 148
8 37 125
10 17 115
4 24 117
0 20 117
0 21 117
0 22 118
5 23 118
0 24 119
0 20 118
0 21 116
0 21 116
0 21 116
0 21 116
1 21 116
2 21 116
0 19 115
0 19 116
0 21 116
0 21 116
5 17 116
0 19 116
2 21 116
98 105 153
223 235 253
225 238 255
225 238 255
225 238 255
225 238 255
225 238 255
225 238 255
225 238 255
225 238 255
225 238 255
225 238 255
225 238 255
225 238 255
225 238 255
225 238 255
225 238 255
225 238 255
225 238 255
225 238 255
225 238 255
225 238 255
225 238 255
225 238 255
225 238 255
225 238 255
225 238 255
225 238 255
225 238 255
225 238 255
225 238 255
225 238 255
225 238 255
225 238 255
225 238 255
225 238 255
225 238 255
225 238 255
225 238 255
225 238 255
225 238 255
225 238 255
225 238 255
225 238 255
225 238 255
225 238 255
225 238 255
225 238 255
225 238 255
225 238 255
225 238 255
225 238 255
225 238 255
225 238 255
225 238 255
225 238 255
225 238 255
225 238 255
225 238 255
225 238 255
225 238 255
225 238 255
225 238 255
225 238 255
225 238 255
225 238 255
225 238 255
225 238 255
225 238 255
225 238 255
225 238 255
225 238 255
225 238 255
225 238 255
225 238 255
225 238 255
225 238 255
225 238 255
225 238 255
225 238 255
225 238 255
225 238 255
225 238 255
225 238 255
225 238 255
225 238 255
225 238 255
225 238 255
225 238 255
225 238 255
225 238 255
225 238 255
225 238 255
225 238 255
225 238 255
225 238 255
225 238 255
225 238 255
225 238 255
225 238 255
225 238 255
225 238 255
225 238 255
225 238 255
225 238 255
225 238 255
225 238 255
225 238 255
225 238 255
225 238 255
225 237 255
225 237 255
225 237 255
225 237 255
225 238 255
225 238 255
225 238 255
225 238 255
225 238 255
225 238 255
225 238 255
225 238 255
225 238 255
225 238 255
225 238 255
225 238 255
225 238 255
225 238 255
225 238 255
225 238 255
225 238 255
225 238 255
225 238 255
225 238 255
225 238 255
225 238 255
225 238 255
225 238 255
225 238 255
225 238 255
225 238 255
225 238 255
225 238 255
225 238 255
225 238 255
225 238 255
225 238 255
225 238 255
225 238 255
225 238 255
225 238 255
225 238 255
225 238 255
225 238 255
225 238 255
225 238 255
225 238 255
225 238 255
225 238 255
225 238 255
225 238 255
225 238 255
225 238 255
225 238 255
225 238 255
225 238 255
225 238 255
225 238 255
225 238 255
225 238 255
225 238 255
225 238 255
225 238 255
225 238 255
225 238 255
225 238 255
225 238 255
225 238 255
225 238 255
225 238 255
225 238 255
225 238 255
225 238 255
225 238 255
225 238 255
225 238 255
225 238 255
225 238 255
225 238 255
225 238 255
225 238 255
225 238 255
225 238 255
225 238 255
225 238 255
225 238 255
225 238 255
225 238 255
225 238 255
225 238 255
225 238 255
225 238 255
225 238 255
225 238 255
225 238 255
225 238 255
225 238 255
225 238 255
225 238 255
225 238 255
225 238 255
225 238 255
225 238 255
225 238 255
225 238 255
225 238 255
225 238 255
225 238 255
225 238 255
225 238 255
225 238 255
225 238 255
225 238 255
225 238 255
225 238 255
225 238 255
225 238 255
211 223 243
45 47 122
0 0 114
0 0 114
0 0 113
0 0 113
0 0 113
0 0 113
0 0 113
0 0 113
0 0 113
0 0 113
0 0 113
0 0 113
0 0 113
0 0 113
0 0 113
0 0 113
0 0 113
0 0 113
0 0 113
0 0 113
0 0 113
0 0 113
0 0 113
0 0 113
0 0 113
0 0 113
0 0 113
0 0 113
0 0 113
0 0 113
0 0 113
0 0 113
0 0 113
0 0 113
0 0 113
0 0 113
0 0 113
0 0 113
0 0 113
0 0 113
0 0 113
0 0 113
0 0 113
0 0 113
0 0 113
0 0 113
0 0 113
0 0 113
0 0 113
0 0 113
0 0 113
0 0 113
0 0 113
0 0 113
0 0 113
0 0 113
0 0 113
0 0 113
0 0 113
0 0 113
0 0 113
0 0 113
0 0 113
0 0 113
0 0 113
0 0 113
0 0 113
0 0 113
0 0 113
0 0 113
0 0 113
0 0 113
0 0 113
0 0 113
0 0 113
0 0 113
0 0 113
0 0 113
0 0 113
0 0 113
0 0 113
0 0 113
0 0 113
0 0 113
0 0 113
0 0 113
0 0 113
0 0 113
0 0 113
0 0 113
0 0 113
0 0 113
0 0 113
0 0 113
0 0 113
0 13 114
0 15 115
0 15 115
0 14 114
0 16 115
10 10 114
10 2 115
0 5 116
0 22 119
4 28 121
13 36 124
14 37 125
12 34 124
3 37 125
11 45 129
12 56 135
3 60 137
6 57 135
5 57 136
9 60 139
9 62 140
23 66 142
46 72 139
122 127 115
169 168 156
200 198 197
172 162 146
160 155 129
181 173 157
180 173 158
157 152 133
139 138 113
136 136 111
140 140 114
148 145 118
158 158 133
147 153 124
150 155 127
145 153 122
140 150 114
128 140 95
138 150 111
137 147 107
126 141 99
129 141 97
134 145 108
128 141 100
124 138 94
124 140 99
117 133 90
108 130 100
51 119 161
28 72 150
22 52 130
11 24 120
7 25 118
5 21 119
0 25 119
0 26 119
8 28 120
13 31 121
7 25 119
8 21 118
7 19 118
0 20 118
4 22 117
4 24 118
4 21 116
4 20 116
0 18 116
0 21 116
0 21 116
0 21 116
8 18 116
0 21 116
59 66 132
218 230 249
225 238 255
225 238 255
225 238 255
225 238 255
225 238 255
225 238 255
225 238 255
225 238 255
225 238 255
225 238 255
225 238 255
225 238 255
225 238 255
225 238 255
225 238 255
225 238 255
225 238 255
225 238 255
225 238 255
225 238 255
225 238 255
225 238 255
225 238 255
225 238 255
225 238 255
225 238 255
225 238 255
225 238 255
225 238 255
225 238 255
225 238 255
225 238 255
225 238 255
225 238 255
225 238 255
225 238 255
225 238 255
225 238 255
225 238 255
225 238 255
225 238 255
225 238 255
225 238 255
225 238 255
225 238 255
225 238 255
225 238 255
225 238 255
225 238 255
225 238 255
225 238 255
225 238 255
225 238 255
225 238 255
225 238 255
225 238 255
225 238 255
225 238 255
225 238 255
225 238 255
225 238 255
225 238 255
225 238 255
225 238 255
225 238 255
225 238 255
225 238 255
225 238 255
225 238 255
225 238 255
225 238 255
225 238 255
225 238 255
225 238 255
225 238 255
225 238 255
225 238 255
225 238 255
225 238 255
225 238 255
225 238 255
225 238 255
225 238 255
225 238 255
225 238 255
225 238 255
225 238 255
225 238 255
225 238 255
225 238 255
225 238 255
225 238 255
225 238 255
225 238 255
225 238 255
225 238 255
225 238 255
225 238 255
225 238 255
225 238 255
225 238 255
225 238 255
225 238 255
225 238 255
225 238 255
225 238 255
225 238 255
225 238 255
225 238 255
225 238 255
225 238 255
225 238 255
225 238 255
225 238 255
225 238 255
225 238 255
225 238 255
225 238 255
225 238 255
225 238 255
225 238 255
225 238 255
225 238 255
225 238 255
225 238 255
225 238 255
225 238 255
225 238 255
225 238 255
225 238 255
225 238 255
225 238 255
225 238 255
225 238 255
225 238 255
225 238 255
225 238 255
225 238 255
225 238 255
225 238 255
225 238 255
225 238 255
225 238 255
225 238 255
225 238 255
225 238 255
225 238 255
225 238 255
225 238 255
225 238 255
225 238 255
225 238 255
225 238 255
225 238 255
225 238 255
225 238 255
225 238 255
225 238 255
225 238 255
225 238 255
225 238 255
225 238 255
225 238 255
225 238 255
225 238 255
225 238 255
225 238 255
225 238 255
225 238 255
225 238 255
225 238 255
225 238 255
225 238 255
225 238 255
225 238 255
225 238 255
225 238 255
225 238 255
225 238 255
225 238 255
225 238 255
225 238 255
225 238 255
225 238 255
225 238 255
225 238 255
225 238 255
225 238 255
225 238 255
225 238 255
225 238 255
225 238 255
225 238 255
225 238 255
225 238 255
225 238 255
225 238 255
225 238 255
225 238 255
225 238 255
225 238 255
225 238 255
225 238 255
225 238 255
225 238 255
225 238 255
225 238 255
225 238 255
225 238 255
225 238 255
225 238 255
225 238 255
225 238 255
225 238 255
225 238 255
225 238 255
225 238 255
225 238 255
225 238 255
225 238 255
225 238 255
225 238 255
225 238 255
225 238 255
225 238 255
225 238 255
225 238 255
192 203 226
22 23 115
0 9 114
0 6 115
0 0 114
0 0 113
0 0 113
0 0 113
0 0 113
0 0 113
0 0 113
0 0 113
0 0 113
0 0 113
0 0 113
0 0 113
0 0 113
0 0 113
0 0 113
0 0 113
0 0 113
0 0 113
0 0 113
0 0 113
0 0 113
0 0 113
0 0 113
0 0 113
0 0 113
0 0 113
0 0 113
0 0 113
0 0 113
0 0 113
0 0 113
0 0 113
0 0 113
0 0 113
0 0 113
0 0 113
0 0 113
0 0 113
0 0 113
0 0 113
0 0 113
0 0 113
0 0 113
0 0 113
0 0 113
0 0 113
0 0 113
0 0 113
0 0 113
0 0 113
0 0 113
0 0 113
0 0 113
0 0 113
0 0 113
0 0 113
0 0 113
0 0 113
0 0 113
0 0 113
0 0 113
0 0 113
0 0 113
0 0 113
0 0 113
0 0 113
0 0 113
0 0 113
0 0 113
0 0 113
0 0 113
0 0 113
0 0 113
0 0 113
0 0 113
0 0 113
4 6 113
11 16 115
11 16 115
7 12 114
0 7 113
0 8 114
0 0 114
0 0 114
0 0 114
0 0 114
0 0 113
0 6 113
0 8 114
0 7 113
0 8 113
0 8 114
0 17 115
0 21 116
0 21 116
0 21 116
0 20 116
0 14 117
0 14 118
0 23 120
0 30 123
0 37 125
11 44 127
12 41 126
4 36 124
0 40 127
17 52 133
20 60 139
17 61 139
16 60 138
16 60 139
20 65 143
13 68 145
11 66 141
53 84 137
121 126 93
168 170 164
206 207 213
164 157 140
165 158 140
162 154 138
164 157 140
138 136 112
144 142 118
150 145 123
148 147 123
160 156 134
154 155 131
146 152 124
149 154 127
146 153 122
140 150 110
107 119 54
121 133 87
129 145 110
125 143 100
132 143 102
137 146 107
135 146 105
127 141 100
118 134 91
103 125 97
53 124 159
22 82 150
18 51 133
0 32 121
7 27 120
8 26 120
5 24 119
5 27 120
0 32 123
3 36 124
12 33 122
7 24 119
12 23 119
8 23 119
12 21 120
1 23 117
0 24 117
0 21 116
0 21 116
0 21 116
0 20 117
0 20 116
0 21 116
1 21 116
2 23 117
188 199 224
225 238 255
225 238 255
225 238 255
225 238 255
225 238 255
225 238 255
225 238 255
225 238 255
225 238 255
225 238 255
225 238 255
225 238 255
225 238 255
225 238 255
225 238 255
225 238 255
225 238 255
225 238 255
225 238 255
225 238 255
225 238 255
225 238 255
225 238 255
225 238 255
225 238 255
225 238 255
225 238 255
225 238 255
225 238 255
225 238 255
225 238 255
225 238 255
225 238 255
225 238 255
225 238 255
225 238 255
225 238 255
225 238 255
225 238 255
225 238 255
225 238 255
225 238 255
225 238 255
225 238 255
225 238 255
225 238 255
225 238 255
225 238 255
225 238 255
225 238 255
225 238 255
225 238 255
225 238 255
225 238 255
225 238 255
225 238 255
225 238 255
225 238 255
225 238 255
225 238 255
225 238 255
225 238 255
225 238 255
225 238 255
225 238 255
225 238 255
225 238 255
225 238 255
225 238 255
225 238 255
225 238 255
225 238 255
225 238 255
225 238 255
225 238 255
225 238 255
225 238 255
225 238 255
225 238 255
225 238 255
225 238 255
225 238 255
225 238 255
225 238 255
225 238 255
225 238 255
225 238 255
225 238 255
225 238 255
225 238 255
225 238 255
225 238 255
225 238 255
225 238 255
225 238 255
225 238 255
225 238 255
225 238 255
225 238 255
225 238 255
225 238 255
225 238 255
225 238 255
225 238 255
225 238 255
225 238 255
225 238 255
225 238 255
225 238 255
225 238 255
225 238 255
225 238 255
225 238 255
225 238 255
225 238 255
225 238 255
225 238 255
225 238 255
225 238 255
225 238 255
225 238 255
225 238 255
225 238 255
225 238 255
225 238 255
225 238 255
225 238 255
225 238 255
225 238 255
225 238 255
225 238 255
225 238 255
225 238 255
225 238 255
225 238 255
225 238 255
225 238 255
225 238 255
225 238 255
225 238 255
225 238 255
225 238 255
225 238 255
225 238 255
225 238 255
225 238 255
225 238 255
225 238 255
225 238 255
225 238 255
225 238 255
225 238 255
225 238 255
225 238 255
225 238 255
225 238 255
225 238 255
225 238 255
225 238 255
225 238 255
225 238 255
225 238 255
225 238 255
225 238 255
225 238 255
225 238 255
225 238 255
225 238 255
225 238 255
225 238 255
225 238 255
225 238 255
225 238 255
225 238 255
225 238 255
225 238 255
225 238 255
225 238 255
225 238 255
225 238 255
225 238 255
225 238 255
225 238 255
225 238 255
225 238 255
225 238 255
225 238 255
225 238 255
225 238 255
225 238 255
225 238 255
225 238 255
225 238 255
225 238 255
225 238 255
225 238 255
225 238 255
225 238 255
225 238 255
225 238 255
225 238 255
225 238 255
225 238 255
225 238 255
225 238 255
225 238 255
225 238 255
225 238 255
225 238 255
225 238 255
225 238 255
225 238 255
225 238 255
225 238 255
225 238 255
225 238 255
225 238 255
225 238 255
225 238 255
225 238 255
225 238 255
225 238 255
225 238 255
225 238 255
225 238 255
225 238 255
225 238 255
225 238 255
225 238 255
151 159 191
7 11 115
4 16 116
0 8 115
0 16 115
0 12 114
0 0 113
0 0 113
0 0 113
0 0 113
2 2 113
7 7 113
0 0 113
0 0 113
0 0 113
0 0 113
0 0 113
0 0 113
0 0 113
0 0 113
0 0 113
0 0 113
0 0 113
0 0 113
0 0 113
5 0 113
10 0 113
0 0 113
0 0 113
0 2 113
0 0 113
0 0 113
0 0 113
0 0 113
0 0 113
0 0 113
0 0 113
0 0 113
0 0 113
0 0 113
0 0 113
0 0 113
0 0 113
0 0 113
0 0 113
0 0 113
0 0 113
0 0 113
0 0 113
0 0 113
0 0 113
0 0 113
0 0 113
0 0 113
0 0 113
0 0 113
0 0 113
0 0 113
0 0 113
0 0 113
0 0 113
0 0 113
0 0 113
0 0 113
0 0 113
0 0 113
0 0 113
0 0 113
0 0 113
0 0 113
0 0 113
0 0 113
0 0 113
0 0 113
0 2 113
0 8 113
0 8 113
0 8 113
0 6 113
0 6 113
0 21 116
0 21 116
0 20 116
0 19 116
0 20 116
0 6 115
0 8 115
0 7 115
0 7 115
0 5 115
0 18 116
0 19 116
0 19 116
0 19 116
0 20 116
0 18 116
4 22 116
5 22 116
7 22 116
0 19 116
0 16 117
6 20 119
5 29 121
0 33 123
0 40 125
0 42 127
2 43 127
0 44 127
0 47 130
7 53 135
16 60 141
17 62 141
13 63 140
0 65 142
7 75 147
14 77 150
17 71 149
81 111 115
120 127 89
179 185 185
204 206 213
147 144 119
153 149 130
147 145 126
146 143 120
132 137 110
150 146 124
159 154 132
154 153 129
159 154 130
151 149 122
143 149 119
144 149 118
142 148 114
140 151 110
127 139 94
107 120 76
115 142 107
134 146 97
139 146 105
132 147 101
131 143 100
121 138 94
103 133 121
27 113 167
21 83 151
10 45 130
8 32 122
6 28 121
13 33 122
11 31 121
10 29 121
6 32 123
8 38 125
0 34 124
6 30 122
4 28 121
2 31 122
11 34 124
9 20 120
0 26 120
0 21 117
3 22 117
0 21 116
9 20 118
11 21 119
3 21 117
7 20 118
8 21 119
167 178 206
225 238 255
225 238 255
225 238 255
225 238 255
225 238 255
225 238 255
225 238 255
225 238 255
225 238 255
225 238 255
225 238 255
225 238 255
225 238 255
225 238 255
225 238 255
225 238 255
225 238 255
225 238 255
225 238 255
225 238 255
225 238 255
225 238 255
225 238 255
225 238 255
225 238 255
225 238 255
225 238 255
225 238 255
225 238 255
225 238 255
225 238 255
225 238 255
225 238 255
225 238 255
225 238 255
225 238 255
225 238 255
225 238 255
225 238 255
225 238 255
225 238 255
225 238 255
225 238 255
225 238 255
225 238 255
225 238 255
225 238 255
225 238 255
225 238 255
225 238 255
225 238 255
225 238 255
225 238 255
225 238 255
225 238 255
225 238 255
225 238 255
225 238 255
225 238 255
225 238 255
225 238 255
225 238 255
225 238 255
225 238 255
225 238 255
225 238 255
225 238 255
225 238 255
225 238 255
225 238 255
225 238 255
225 238 255
225 238 255
225 238 255
225 238 255
225 238 255
225 238 255
225 238 255
225 238 255
225 238 255
225 238 255
225 238 255
225 238 255
225 238 255
225 238 255
225 238 255
225 238 255
225 238 255
225 238 255
225 238 255
225 238 255
225 238 255
225 238 255
225 238 255
225 238 255
225 238 255
225 238 255
225 238 255
225 238 255
225 238 255
225 238 255
225 238 255
225 238 255
225 238 255
225 238 255
225 238 255
225 238 255
225 238 255
225 238 255
225 238 255
225 238 255
225 238 255
225 238 255
225 238 255
225 238 255
225 238 255
225 238 255
225 238 255
225 238 255
225 238 255
225 238 255
225 238 255
225 238 255
225 238 255
225 238 255
225 238 255
225 238 255
225 238 255
225 238 255
225 238 255
225 238 255
225 238 255
225 238 255
225 238 255
225 238 255
225 238 255
225 238 255
225 238 255
225 238 255
225 238 255
225 238 255
225 238 255
225 238 255
225 238 255
225 238 255
225 238 255
225 238 255
225 238 255
225 238 255
225 238 255
225 238 255
225 238 255
225 238 255
225 238 255
225 238 255
225 238 255
225 238 255
225 238 255
225 238 255
225 238 255
225 238 255
225 238 255
225 238 255
225 238 255
225 238 255
225 238 255
225 238 255
225 238 255
225 238 255
225 238 255
225 238 255
225 238 255
225 238 255
225 238 255
225 238 255
225 238 255
225 238 255
225 238 255
225 238 255
225 238 255
225 238 255
225 238 255
225 238 255
225 238 255
225 238 255
225 238 255
225 238 255
225 238 255
225 238 255
225 238 255
225 238 255
225 238 255
225 238 255
225 238 255
225 238 255
225 238 255
225 238 255
225 238 255
225 238 255
225 238 255
225 238 255
225 238 255
225 238 255
225 238 255
225 238 255
225 238 255
225 238 255
225 238 255
225 238 255
225 238 255
225 238 255
225 238 255
225 238 255
225 238 255
225 238 255
225 238 255
225 238 255
225 238 255
225 238 255
225 238 255
225 238 255
225 238 255
225 238 255
225 238 255
225 238 255
225 238 255
225 238 255
225 238 255
225 238 255
225 238 255
224 237 254
125 133 172
4 21 116
0 21 116
0 19 116
0 13 114
0 3 113
0 0 113
0 0 113
0 0 113
2 2 114
13 13 115
4 4 113
0 0 113
0 0 113
0 0 113
0 0 113
0 0 113
0 0 113
0 0 113
0 0 113
0 0 113
0 0 113
0 0 113
0 0 113
0 0 113
0 0 113
0 0 113
0 6 113
0 14 115
0 4 113
0 0 113
0 0 113
0 0 113
0 0 113
0 0 113
0 0 113
0 0 113
0 0 113
0 0 113
0 0 113
0 0 113
0 0 113
0 0 113
0 0 113
0 0 113
0 0 113
0 0 113
0 0 113
0 0 113
0 0 113
0 0 113
0 0 113
0 0 113
0 0 113
0 0 113
0 0 113
0 0 113
0 0 113
0 0 113
0 0 113
0 0 113
0 0 113
0 0 113
0 0 113
0 0 113
0 0 113
0 0 113
0 0 113
0 0 113
2 0 113
0 0 113
0 0 113
0 0 113
0 1 113
0 21 116
0 21 116
0 21 116
0 21 116
0 21 116
0 18 116
0 20 116
0 21 116
0 21 116
0 21 116
0 21 116
0 21 116
0 21 116
0 21 116
0 21 116
11 24 117
10 24 117
11 24 117
11 24 117
10 24 117
7 22 116
13 25 117
18 28 118
14 26 117
7 22 117
9 21 117
13 25 118
15 32 121
10 36 123
8 40 125
4 43 128
10 46 128
14 49 130
3 50 132
0 57 136
8 65 143
14 71 146
8 77 148
2 83 151
16 91 155
20 78 154
55 90 140
108 129 86
127 131 103
195 202 209
202 203 202
145 140 120
147 144 119
143 141 125
141 138 117
143 145 118
158 151 132
155 152 128
154 152 127
143 144 113
139 144 111
130 138 104
136 145 114
136 145 108
136 147 105
131 143 103
124 137 104
90 159 166
103 156 148
118 140 102
119 138 102
119 138 105
93 138 131
43 107 163
5 73 146
13 42 130
19 27 122
2 31 123
5 37 125
11 41 126
8 35 124
0 34 124
3 35 124
2 40 126
0 38 125
2 35 124
0 39 125
2 43 127
9 40 126
14 30 121
3 25 120
2 21 118
8 24 118
5 24 118
8 23 119
12 27 120
14 28 121
14 30 122
127 137 177
224 237 255
225 238 255
225 238 255
225 238 255
225 238 255
225 238 255
225 238 255
225 238 255
225 238 255
225 238 255
225 238 255
225 238 255
225 238 255
225 238 255
225 238 255
225 238 255
225 238 255
225 238 255
225 238 255
225 238 255
225 238 255
225 238 255
225 238 255
225 238 255
225 238 255
225 238 255
225 238 255
225 238 255
225 238 255
225 238 255
225 238 255
225 238 255
225 238 255
225 238 255
225 238 255
225 238 255
225 238 255
225 238 255
225 238 255
225 238 255
225 238 255
225 238 255
225 238 255
225 238 255
225 238 255
225 238 255
225 238 255
225 238 255
225 238 255
225 238 255
225 238 255
225 238 255
225 238 255
225 238 255
225 238 255
225 238 255
225 238 255
225 238 255
225 238 255
225 238 255
225 238 255
225 238 255
225 238 255
225 238 255
225 238 255
225 238 255
225 238 255
225 238 255
225 238 255
225 238 255
225 238 255
225 238 255
225 238 255
225 238 255
225 238 255
225 238 255
225 238 255
225 238 255
225 238 255
225 238 255
225 238 255
225 238 255
225 238 255
225 238 255
225 238 255
225 238 255
225 238 255
225 238 255
225 238 255
225 238 255
225 238 255
225 238 255
225 238 255
225 238 255
225 238 255
225 238 255
225 238 255
225 238 255
225 238 255
225 238 255
225 238 255
225 238 255
225 238 255
225 238 255
225 238 255
225 238 255
225 238 255
225 238 255
225 238 255
225 238 255
225 238 255
225 238 255
225 238 255
225 238 255
225 238 255
225 238 255
225 238 255
225 238 255
225 238 255
225 238 255
225 238 255
225 238 255
225 238 255
225 238 255
225 238 255
225 238 255
225 238 255
225 238 255
225 238 255
225 238 255
225 238 255
225 238 255
225 238 255
225 238 255
225 238 255
225 238 255
225 238 255
225 238 255
225 238 255
225 238 255
225 238 255
225 238 255
225 238 255
225 238 255
225 238 255
225 238 255
225 238 255
225 238 255
225 238 255
225 238 255
225 238 255
225 238 255
225 238 255
225 238 255
225 238 255
225 238 255
225 238 255
225 238 255
225 238 255
225 238 255
225 238 255
225 238 255
225 238 255
225 238 255
225 238 255
225 238 255
225 238 255
225 238 255
225 238 255
225 238 255
225 238 255
225 238 255
225 238 255
225 238 255
225 238 255
225 238 255
225 238 255
225 238 255
225 238 255
225 238 255
225 238 255
225 238 255
225 238 255
225 238 255
225 238 255
225 238 255
225 238 255
225 238 255
225 238 255
225 238 255
225 238 255
225 238 255
225 238 255
225 238 255
225 238 255
225 238 255
225 238 255
225 238 255
225 238 255
225 238 255
225 238 255
225 238 255
225 238 255
225 238 255
225 238 255
225 238 255
225 238 255
225 238 255
225 238 255
225 238 255
225 238 255
225 238 255
225 238 255
225 238 255
225 238 255
225 238 255
225 238 255
225 238 255
225 238 255
225 238 255
225 238 255
225 238 255
225 238 255
225 238 255
225 238 255
225 238 255
225 238 255
225 238 255
225 238 255
225 238 255
225 238 255
225 238 255
219 232 250
90 97 148
0 21 116
0 21 116
0 17 116
0 0 114
0 0 114
0 0 113
0 0 113
0 0 114
8 8 114
12 13 115
0 0 113
0 0 113
0 0 113
0 0 113
0 0 113
0 0 113
0 0 113
0 0 113
0 0 113
0 0 113
0 0 113
0 0 113
0 0 113
0 0 113
0 0 113
0 10 114
0 21 116
0 17 115
0 14 114
0 12 114
0 8 113
0 6 113
0 0 113
0 0 113
0 0 113
0 0 113
0 0 113
0 0 113
0 0 113
0 0 113
0 0 113
0 0 113
0 0 113
0 0 113
0 0 113
0 0 113
0 0 113
0 0 113
0 0 113
0 0 113
0 0 113
0 0 113
0 0 113
0 0 113
0 0 113
0 0 113
0 0 113
0 0 115
0 0 115
0 0 115
0 0 115
0 0 115
0 0 115
0 0 115
0 0 115
0 0 115
0 0 115
11 0 113
0 0 113
7 8 114
11 12 116
12 16 116
0 21 116
0 21 116
0 21 116
0 16 118
0 15 118
0 17 115
0 17 116
0 20 116
0 21 116
0 21 116
0 21 116
0 21 116
0 21 116
0 21 116
0 21 116
2 21 116
3 21 116
2 21 116
1 21 116
2 21 116
0 15 118
12 21 119
11 29 120
9 27 120
0 25 119
0 32 120
18 34 123
20 34 124
18 35 126
14 40 126
13 39 126
0 43 127
13 44 128
10 51 132
10 65 140
12 70 147
11 78 152
12 92 159
15 91 158
24 91 157
16 74 153
96 122 96
113 126 85
153 160 151
223 229 238
171 168 153
151 145 128
145 144 121
143 140 126
145 144 123
151 149 126
149 145 126
150 152 127
145 148 119
138 145 109
132 143 107
113 126 83
115 127 84
125 137 94
127 139 95
125 138 96
126 143 101
105 144 132
46 154 188
61 159 184
29 146 182
47 122 169
9 105 165
15 72 144
5 47 129
13 35 122
4 31 122
0 33 124
12 42 126
12 40 126
5 35 124
0 34 124
3 38 125
11 43 127
9 41 127
12 44 128
2 48 130
3 51 131
9 40 125
13 31 122
5 23 119
5 26 120
11 30 121
9 28 120
7 30 121
9 33 123
7 33 123
90 102 154
218 231 250
225 238 255
225 238 255
225 238 255
225 238 255
225 238 255
225 238 255
225 238 255
225 238 255
225 238 255
225 238 255
225 238 255
225 238 255
225 238 255
225 238 255
225 238 255
225 238 255
225 238 255
225 238 255
225 238 255
225 238 255
225 238 255
225 238 255
225 238 255
225 238 255
225 238 255
225 238 255
225 238 255
225 238 255
225 238 255
225 238 255
225 238 255
225 238 255
225 238 255
225 238 255
225 238 255
225 238 255
225 238 255
225 238 255
225 238 255
225 238 255
225 238 255
225 238 255
225 238 255
225 238 255
225 238 255
225 238 255
225 238 255
225 238 255
225 238 255
225 238 255
225 238 255
225 238 255
225 238 255
225 238 255
225 238 255
225 238 255
225 238 255
225 238 255
225 238 255
225 238 255
225 238 255
225 238 255
225 238 255
225 238 255
225 238 255
225 238 255
225 238 255
225 238 255
225 238 255
225 238 255
225 238 255
225 238 255
225 238 255
225 238 255
225 238 255
225 238 255
225 238 255
225 238 255
225 238 255
225 238 255
225 238 255
225 238 255
225 238 255
225 238 255
225 238 255
225 238 255
225 238 255
225 238 255
225 238 255
225 238 255
225 238 255
225 238 255
225 238 255
225 238 255
225 238 255
225 238 255
225 238 255
225 238 255
225 238 255
225 238 255
225 238 255
225 238 255
225 238 255
225 238 255
225 238 255
225 238 255
225 238 255
225 238 255
225 238 255
225 238 255
225 238 255
225 238 255
225 238 255
225 238 255
225 238 255
225 238 255
225 238 255
225 238 255
225 238 255
225 238 255
225 238 255
225 238 255
225 238 255
225 238 255
225 238 255
225 238 255
225 238 255
225 238 255
225 238 255
225 238 255
225 238 255
225 238 255
225 238 255
225 238 255
225 238 255
225 238 255
225 238 255
225 238 255
225 238 255
225 238 255
225 238 255
225 238 255
225 238 255
225 238 255
225 238 255
225 238 255
225 238 255
225 238 255
225 238 255
225 238 255
225 238 255
225 238 255
225 238 255
225 238 255
225 238 255
225 238 255
225 238 255
225 238 255
225 238 255
225 238 255
225 238 255
225 238 255
225 238 255
225 238 255
225 238 255
225 238 255
225 238 255
225 238 255
225 238 255
225 238 255
225 238 255
225 238 255
225 238 255
225 238 255
225 238 255
225 238 255
225 238 255
225 238 255
225 238 255
225 238 255
225 238 255
225 238 255
225 238 255
225 238 255
225 238 255
225 238 255
225 238 255
225 238 255
225 238 255
225 238 255
225 238 255
225 238 255
225 238 255
225 238 255
225 238 255
225 238 255
225 238 255
225 238 255
225 238 255
225 238 255
225 238 255
225 238 255
225 238 255
225 238 255
225 238 255
225 238 255
225 238 255
225 238 255
225 238 255
225 238 255
225 238 255
225 238 255
225 238 255
225 238 255
225 238 255
225 238 255
225 238 255
225 238 255
225 238 255
225 238 255
225 238 255
225 238 255
225 238 255
225 238 255
225 238 255
225 238 255
225 238 255
225 238 255
225 238 255
225 238 255
225 238 255
225 238 255
225 238 255
216 228 247
55 61 129
4 21 116
0 21 116
0 18 116
0 14 116
0 11 115
8 9 115
6 6 115
6 6 114
6 6 114
6 6 113
0 0 113
0 0 113
0 0 113
0 0 113
0 0 113
0 0 113
0 0 113
0 0 113
0 0 113
0 0 113
0 0 113
0 0 113
0 0 113
0 0 113
0 12 115
0 21 116
4 22 116
3 21 116
0 21 116
0 21 116
0 17 115
0 0 113
0 0 113
0 0 113
0 0 113
0 0 113
0 0 113
0 0 113
0 0 113
0 0 113
0 0 113
0 0 113
0 0 113
0 0 113
0 0 113
0 0 113
0 0 113
0 0 113
0 0 113
0 0 113
0 0 113
0 0 113
0 0 113
0 0 113
0 0 113
0 0 113
0 0 114
0 0 115
0 0 115
0 0 115
0 0 115
0 0 115
0 0 115
0 0 115
0 0 115
0 0 115
0 0 113
0 0 113
0 4 114
2 13 115
3 15 115
0 21 116
0 21 116
0 21 116
0 16 118
0 15 118
6 22 116
2 21 116
0 21 116
0 21 116
0 21 116
0 21 116
0 21 116
0 21 116
0 21 116
0 21 116
0 21 116
0 21 116
0 21 116
0 21 116
0 20 116
9 18 119
14 23 120
14 30 121
11 28 120
0 27 120
0 33 120
20 34 123
14 33 123
2 36 125
13 41 127
17 42 130
0 45 130
17 46 132
18 56 138
18 70 144
4 69 146
18 85 155
13 92 158
21 86 156
21 80 155
52 87 129
108 129 68
115 125 87
209 216 223
194 196 194
163 155 130
146 141 118
143 143 122
147 145 126
148 144 119
148 144 121
142 142 116
143 147 118
138 145 112
132 143 106
126 139 100
117 130 89
113 128 85
120 134 91
119 133 89
117 129 83
118 133 89
101 158 144
47 167 191
35 139 179
35 110 170
21 85 154
21 62 142
8 44 129
11 37 122
12 32 123
15 31 121
3 36 125
9 43 127
9 44 128
4 41 127
6 42 127
7 45 129
10 48 131
3 45 129
6 51 133
9 54 135
10 48 130
9 38 125
6 33 122
8 24 118
10 28 120
8 34 124
2 33 124
7 39 125
6 41 126
67 83 144
205 217 239
225 238 255
225 238 255
225 238 255
225 238 255
225 238 255
225 238 255
225 238 255
225 238 255
225 238 255
225 238 255
225 238 255
225 238 255
225 238 255
225 238 255
225 238 255
225 238 255
225 238 255
225 238 255
225 238 255
225 238 255
225 238 255
225 238 255
225 238 255
225 238 255
225 238 255
225 238 255
225 238 255
225 238 255
225 238 255
225 238 255
225 238 255
225 238 255
225 238 255
225 238 255
225 238 255
225 238 255
225 238 255
225 238 255
225 238 255
225 238 255
225 238 255
225 238 255
225 238 255
225 238 255
225 238 255
225 238 255
225 238 255
225 238 255
225 238 255
225 238 255
225 238 255
225 238 255
225 238 255
225 238 255
225 238 255
225 238 255
225 238 255
225 238 255
225 238 255
225 238 255
225 238 255
225 238 255
225 238 255
225 238 255
225 238 255
225 238 255
225 238 255
225 238 255
225 238 255
225 238 255
225 238 255
225 238 255
225 238 255
225 238 255
225 238 255
225 238 255
225 238 255
225 238 255
225 238 255
225 238 255
225 238 255
225 238 255
225 238 255
225 238 255
225 238 255
225 238 255
225 238 255
225 238 255
225 238 255
225 238 255
225 238 255
225 238 255
225 238 255
225 238 255
225 238 255
225 238 255
225 238 255
225 238 255
225 238 255
225 238 255
225 238 255
225 238 255
225 238 255
225 238 255
225 238 255
225 238 255
225 238 255
225 238 255
225 238 255
225 238 255
225 238 255
225 238 255
225 238 255
225 238 255
225 238 255
225 238 255
225 238 255
225 238 255
225 238 255
225 238 255
225 238 255
225 238 255
225 238 255
225 238 255
225 238 255
225 238 255
225 238 255
225 238 255
225 238 255
225 238 255
225 238 255
225 238 255
225 238 255
225 238 255
225 238 255
225 238 255
225 238 255
225 238 255
225 238 255
225 238 255
225 238 255
225 238 255
225 238 255
225 238 255
225 238 255
225 238 255
225 238 255
225 238 255
225 238 255
225 238 255
225 238 255
225 238 255
225 238 255
225 238 255
225 238 255
225 238 255
225 238 255
225 238 255
225 238 255
225 238 255
225 238 255
225 238 255
225 238 255
225 238 255
225 238 255
225 238 255
225 238 255
225 238 255
225 238 255
225 238 255
225 238 255
225 238 255
225 238 255
225 238 255
225 238 255
225 238 255
225 238 255
225 238 255
225 238 255
225 238 255
225 238 255
225 238 255
225 238 255
225 238 255
225 238 255
225 238 255
225 238 255
225 238 255
225 238 255
225 238 255
225 238 255
225 238 255
225 238 255
225 238 255
225 238 255
225 238 255
225 238 255
225 238 255
225 238 255
225 238 255
225 238 255
225 238 255
225 238 255
225 238 255
225 238 255
225 238 255
225 238 255
225 238 255
225 238 255
225 238 255
225 238 255
225 238 255
225 238 255
225 238 255
225 238 255
225 238 255
225 238 255
225 238 255
225 238 255
225 238 255
225 238 255
225 238 255
225 238 255
225 238 255
225 238 255
225 238 255
225 238 255
225 238 255
225 238 255
225 238 255
225 238 255
225 238 255
225 238 255
225 238 255
225 238 255
201 213 235
45 53 127
3 22 117
0 21 116
0 21 116
0 21 116
2 21 116
4 19 116
9 19 116
2 12 115
0 6 115
0 4 115
0 0 115
0 0 114
0 0 113
0 0 113
0 0 113
0 0 113
0 0 114
0 0 115
0 0 115
0 6 115
0 18 115
0 17 115
0 16 115
9 15 116
1 20 116
8 23 117
9 25 117
1 22 116
1 21 116
0 21 116
0 10 114
0 0 113
0 0 113
0 0 113
0 0 113
0 0 113
0 0 113
0 0 113
0 0 114
0 0 114
0 0 114
0 0 114
0 0 113
0 0 113
0 0 113
0 0 113
0 0 113
0 0 113
0 0 113
0 0 113
0 0 113
0 0 113
0 0 113
0 0 113
0 0 113
0 0 113
0 0 115
0 0 115
0 0 115
0 0 115
0 0 115
0 0 115
0 0 115
0 0 115
0 0 115
11 11 114
12 13 114
10 15 114
0 19 116
0 19 116
0 21 116
0 21 116
0 21 116
0 16 118
0 15 118
13 25 117
7 23 116
0 21 116
0 21 116
0 21 116
0 21 116
0 21 116
0 21 116
0 21 116
0 21 116
0 21 116
0 21 116
0 21 116
0 21 116
0 21 117
5 16 119
12 22 119
9 28 120
5 26 120
0 28 120
11 32 121
20 34 124
8 35 124
10 42 126
17 53 133
9 57 135
2 57 135
7 56 137
6 66 141
8 70 145
2 71 148
13 84 154
0 80 151
2 69 147
37 74 137
90 116 70
111 123 78
176 184 180
227 233 244
169 166 147
164 156 132
152 149 125
146 145 124
154 151 131
152 147 125
138 139 115
137 140 114
139 143 112
138 145 114
139 148 113
130 139 102
118 130 91
115 126 84
107 121 73
110 126 81
109 126 74
114 131 84
94 146 140
34 125 175
16 102 163
19 86 152
11 62 139
15 51 133
12 45 129
17 44 128
9 35 124
15 36 124
6 40 127
9 51 133
11 52 134
6 50 131
5 48 131
12 52 134
5 49 130
11 51 133
10 53 134
7 50 133
10 42 127
2 43 128
0 35 123
2 30 121
10 36 125
7 38 125
8 43 127
5 44 127
32 56 133
206 219 240
225 238 255
225 238 255
225 238 255
225 238 255
225 238 255
225 238 255
225 238 255
225 238 255
225 238 255
225 238 255
225 238 255
225 238 255
225 238 255
225 238 255
225 238 255
225 238 255
225 238 255
225 238 255
225 238 255
225 238 255
225 238 255
225 238 255
225 238 255
225 238 255
225 238 255
225 238 255
225 238 255
225 238 255
225 238 255
225 238 255
225 238 255
225 238 255
225 238 255
225 238 255
225 238 255
225 238 255
225 238 255
225 238 255
225 238 255
225 238 255
225 238 255
225 238 255
225 238 255
225 238 255
225 238 255
225 238 255
225 238 255
225 238 255
225 238 255
225 238 255
225 238 255
225 238 255
225 238 255
225 238 255
225 238 255
225 238 255
225 238 255
225 238 255
225 238 255
225 238 255
225 238 255
225 238 255
225 238 255
225 238 255
225 238 255
225 238 255
225 238 255
225 238 255
225 238 255
225 238 255
225 238 255
225 238 255
225 238 255
225 238 255
225 238 255
225 238 255
225 238 255
225 238 255
225 238 255
225 238 255
225 238 255
225 238 255
225 238 255
225 238 255
225 238 255
225 238 255
225 238 255
225 238 255
225 238 255
225 238 255
225 238 255
225 238 255
225 238 255
225 238 255
225 238 255
225 238 255
225 238 255
225 238 255
225 238 255
225 238 255
225 238 255
225 238 255
225 238 255
225 238 255
225 238 255
225 238 255
225 238 255
225 238 255
225 238 255
225 238 255
225 238 255
225 238 255
225 238 255
225 238 255
225 238 255
225 238 255
225 238 255
225 238 255
225 238 255
225 238 255
225 238 255
225 238 255
225 238 255
225 238 255
225 238 255
225 238 255
225 238 255
225 238 255
225 238 255
225 238 255
225 238 255
225 238 255
225 238 255
225 238 255
225 238 255
225 238 255
225 238 255
225 238 255
225 238 255
225 238 255
225 238 255
225 238 255
225 238 255
225 238 255
225 238 255
225 238 255
225 238 255
225 238 255
225 238 255
225 238 255
225 238 255
225 238 255
225 238 255
225 238 255
225 238 255
225 238 255
225 238 255
225 238 255
225 238 255
225 238 255
225 238 255
225 238 255
225 238 255
225 238 255
225 238 255
225 238 255
225 238 255
225 238 255
225 238 255
225 238 255
225 238 255
225 238 255
225 238 255
225 238 255
225 238 255
225 238 255
225 238 255
225 238 255
225 238 255
225 238 255
225 238 255
225 238 255
225 238 255
225 238 255
225 238 255
225 238 255
225 238 255
225 238 255
225 238 255
225 238 255
225 238 255
225 238 255
225 238 255
225 238 255
225 238 255
225 238 255
225 238 255
225 238 255
225 238 255
225 238 255
225 238 255
225 238 255
225 238 255
225 238 255
225 238 255
225 238 255
225 238 255
225 238 255
225 238 255
225 238 255
225 238 255
225 238 255
225 238 255
225 238 255
225 238 255
225 238 255
225 238 255
225 238 255
225 238 255
225 238 255
225 238 255
225 238 255
225 238 255
225 238 255
225 238 255
225 238 255
225 238 255
225 238 255
225 238 255
225 238 255
225 238 255
225 238 255
225 238 255
225 238 255
225 238 255
225 238 255
225 238 255
194 205 228
7 27 119
6 23 117
7 21 117
2 21 116
5 21 117
0 21 116
0 20 116
0 21 116
0 20 116
0 18 116
0 21 116
0 19 116
0 7 115
0 0 114
0 4 114
0 10 114
0 7 113
0 4 115
0 0 115
0 0 115
0 18 116
0 21 116
0 21 116
9 18 116
9 19 116
0 21 116
13 26 117
5 26 117
6 23 117
0 20 116
8 14 115
10 11 115
0 0 115
8 8 115
11 12 114
2 3 113
2 2 113
10 10 113
7 12 115
0 9 115
0 6 115
0 0 115
0 0 114
0 0 113
0 0 113
0 0 113
2 2 113
1 1 113
0 0 113
0 0 113
0 0 113
0 0 113
0 0 113
0 0 113
0 0 113
0 0 113
0 0 115
0 0 115
0 0 115
0 0 115
0 0 115
0 0 115
0 0 115
0 0 115
0 0 115
6 6 114
10 14 114
3 21 114
0 21 116
0 21 116
0 21 116
0 21 116
0 21 116
0 16 118
0 15 118
0 20 116
0 21 116
0 21 116
0 21 116
0 21 116
0 21 116
0 21 116
0 21 116
0 21 116
0 22 117
0 26 119
0 26 119
0 26 119
0 26 119
4 25 119
11 19 119
8 22 119
0 26 119
2 26 120
2 29 120
14 31 121
16 34 124
5 37 125
5 45 127
13 54 133
0 59 135
14 59 136
18 56 137
12 64 141
6 68 145
4 69 147
11 80 152
7 73 147
32 67 141
81 108 92
110 125 71
145 152 145
219 226 235
207 209 212
165 159 139
162 154 129
155 151 129
149 148 125
151 147 123
145 141 116
133 134 109
134 137 109
138 142 114
139 145 116
139 145 112
139 146 110
134 144 109
123 134 97
121 134 94
117 134 92
116 132 84
113 131 88
71 121 144
16 101 162
3 74 147
22 65 142
5 53 132
0 46 129
7 52 132
11 51 132
3 42 127
0 46 128
9 53 132
12 54 134
14 52 133
2 49 131
8 53 134
9 51 133
10 50 132
7 51 133
8 54 135
6 43 128
11 47 129
2 48 130
9 44 128
4 38 126
3 46 128
6 46 130
7 47 129
24 55 133
196 209 232
225 238 255
225 238 255
225 238 255
225 238 255
225 238 255
225 238 255
225 238 255
225 238 255
225 238 255
225 238 255
225 238 255
225 238 255
225 238 255
225 238 255
225 238 255
225 238 255
225 238 255
225 238 255
225 238 255
225 238 255
225 238 255
225 238 255
225 238 255
225 238 255
225 238 255
225 238 255
225 238 255
225 238 255
225 238 255
225 238 255
225 238 255
225 238 255
225 238 255
225 238 255
225 238 255
225 238 255
225 238 255
225 238 255
225 238 255
225 238 255
225 238 255
225 238 255
225 238 255
225 238 255
225 238 255
225 238 255
225 238 255
225 238 255
225 238 255
225 238 255
225 238 255
225 238 255
225 238 255
225 238 255
225 238 255
225 238 255
225 238 255
225 238 255
225 238 255
225 238 255
225 238 255
225 238 255
225 238 255
225 238 255
225 238 255
225 238 255
225 238 255
225 238 255
225 238 255
225 238 255
225 238 255
225 238 255
225 238 255
225 238 255
225 238 255
225 238 255
225 238 255
225 238 255
225 238 255
225 238 255
225 238 255
225 238 255
225 238 255
225 238 255
225 238 255
225 238 255
225 238 255
225 238 255
225 238 255
225 238 255
225 238 255
225 238 255
225 238 255
225 238 255
225 238 255
225 238 255
225 238 255
225 238 255
225 238 255
225 238 255
225 238 255
225 238 255
225 238 255
225 238 255
225 238 255
225 238 255
225 238 255
225 238 255
225 238 255
225 238 255
225 238 255
225 238 255
225 238 255
225 238 255
225 238 255
225 238 255
225 238 255
225 238 255
225 238 255
225 238 255
225 238 255
225 238 255
225 238 255
225 238 255
225 238 255
225 238 255
225 238 255
225 238 255
225 238 255
225 238 255
225 238 255
225 238 255
225 238 255
225 238 255
225 238 255
225 238 255
225 238 255
225 238 255
225 238 255
225 238 255
225 238 255
225 238 255
225 238 255
225 238 255
225 238 255
225 238 255
225 238 255
225 238 255
225 238 255
225 238 255
225 238 255
225 238 255
225 238 255
225 238 255
225 238 255
225 238 255
225 238 255
225 238 255
225 238 255
225 238 255
225 238 255
225 238 255
225 238 255
225 238 255
225 238 255
225 238 255
225 238 255
225 238 255
225 238 255
225 238 255
225 238 255
225 238 255
225 238 255
225 238 255
225 238 255
225 238 255
225 238 255
225 238 255
225 238 255
225 238 255
225 238 255
225 238 255
225 238 255
225 238 255
225 238 255
225 238 255
225 238 255
225 238 255
225 238 255
225 238 255
225 238 255
225 238 255
225 238 255
225 238 255
225 238 255
225 238 255
225 238 255
225 238 255
225 238 255
225 238 255
225 238 255
225 238 255
225 238 255
225 238 255
225 238 255
225 238 255
225 238 255
225 238 255
225 238 255
225 238 255
225 238 255
225 238 255
225 238 255
225 238 255
225 238 255
225 238 255
225 238 255
225 238 255
225 238 255
225 238 255
225 238 255
225 238 255
225 238 255
225 238 255
225 238 255
225 238 255
225 238 255
225 238 255
225 238 255
225 238 255
225 238 255
225 238 255
225 238 255
225 238 255
225 238 255
225 238 255
225 238 255
225 238 255
225 238 255
190 201 225
22 36 122
10 24 119
8 23 119
9 22 118
3 21 117
0 21 116
0 20 116
0 23 117
4 22 116
7 22 116
0 21 116
0 18 116
0 11 115
0 10 115
0 19 116
0 21 116
0 21 116
0 20 116
0 19 116
0 19 116
0 21 116
0 21 116
2 21 116
12 17 116
3 21 116
9 23 117
10 25 117
0 22 116
0 21 116
1 21 116
13 15 116
4 4 115
4 4 115
14 14 116
13 13 114
7 8 113
6 6 113
12 14 114
0 20 116
0 17 116
5 5 115
0 0 113
0 0 113
0 0 113
0 0 113
13 13 114
6 20 116
0 21 116
0 13 114
0 0 113
8 0 113
6 0 113
0 0 113
0 0 114
11 12 115
6 7 115
9 9 116
12 12 116
11 12 116
9 9 116
0 0 115
0 0 115
0 0 115
0 0 115
0 7 115
0 10 114
0 11 114
0 16 116
0 16 116
0 19 116
0 21 116
0 21 116
0 18 117
0 17 118
0 16 116
0 16 115
0 17 115
0 19 116
0 19 116
0 21 116
0 21 116
0 21 116
0 21 116
0 22 117
0 26 119
0 26 119
3 26 120
6 28 120
8 27 120
12 23 119
7 25 119
0 26 119
7 28 120
7 30 121
13 34 123
9 34 124
1 33 124
16 41 127
15 45 131
5 50 132
13 56 136
15 56 138
18 61 142
15 62 138
0 79 144
20 82 157
25 77 146
73 98 100
104 120 81
111 122 84
199 204 212
199 200 200
169 166 153
158 149 128
153 147 123
148 145 124
140 138 113
149 146 122
140 138 112
135 137 111
137 139 115
135 140 104
136 137 108
135 142 111
138 148 108
129 141 99
125 139 100
127 138 101
122 136 100
113 133 100
65 120 152
15 88 159
12 75 149
10 66 142
19 56 136
9 52 130
1 54 132
11 57 136
15 56 135
9 52 133
10 53 133
15 55 134
0 49 132
6 51 132
0 53 134
6 56 135
9 53 133
12 51 134
12 54 135
15 53 135
12 49 131
7 50 131
8 52 132
12 50 132
8 49 131
11 51 133
7 50 131
12 53 133
182 195 221
225 238 255
225 238 255
225 238 255
225 238 255
225 238 255
225 238 255
225 238 255
225 238 255
225 238 255
225 238 255
225 238 255
225 238 255
225 238 255
225 238 255
225 238 255
225 238 255
225 238 255
225 238 255
225 238 255
225 238 255
225 238 255
225 238 255
225 238 255
225 238 255
225 238 255
225 238 255
225 238 255
225 238 255
225 238 255
225 238 255
225 238 255
225 238 255
225 238 255
225 238 255
225 238 255
225 238 255
225 238 255
225 238 255
225 238 255
225 238 255
225 238 255
225 238 255
225 238 255
225 238 255
225 238 255
225 238 255
225 238 255
225 238 255
225 238 255
225 238 255
225 238 255
225 238 255
225 238 255
225 238 255
225 238 255
225 238 255
225 238 255
225 238 255
225 238 255
225 238 255
225 238 255
225 238 255
225 238 255
225 238 255
225 238 255
225 238 255
225 238 255
225 238 255
225 238 255
225 238 255
225 238 255
225 238 255
225 238 255
225 238 255
225 238 255
225 238 255
225 238 255
225 238 255
225 238 255
225 238 255
225 238 255
225 238 255
225 238 255
225 238 255
225 238 255
225 238 255
225 238 255
225 238 255
225 238 255
225 238 255
225 238 255
225 238 255
225 238 255
225 238 255
225 238 255
225 238 255
225 238 255
225 238 255
225 238 255
225 238 255
225 238 255
225 238 255
225 238 255
225 238 255
225 238 255
225 238 255
225 238 255
225 238 255
225 238 255
225 238 255
225 238 255
225 238 255
225 238 255
225 238 255
225 238 255
225 238 255
225 238 255
225 238 255
225 238 255
225 238 255
225 238 255
225 238 255
225 238 255
225 238 255
225 238 255
225 238 255
225 238 255
225 238 255
225 238 255
225 238 255
225 238 255
225 238 255
225 238 255
225 238 255
225 238 255
225 238 255
225 238 255
225 238 255
225 238 255
225 238 255
225 238 255
225 238 255
225 238 255
225 238 255
225 238 255
225 238 255
225 238 255
225 238 255
225 238 255
225 238 255
225 238 255
225 238 255
225 238 255
225 238 255
225 238 255
225 238 255
225 238 255
225 238 255
225 238 255
225 238 255
225 238 255
225 238 255
225 238 255
225 238 255
225 238 255
225 238 255
225 238 255
225 238 255
225 238 255
225 238 255
225 238 255
225 238 255
225 238 255
225 238 255
225 238 255
225 238 255
225 238 255
225 238 255
225 238 255
225 238 255
225 238 255
225 238 255
225 238 255
225 238 255
225 238 255
225 238 255
225 238 255
225 238 255
225 238 255
225 238 255
225 238 255
225 238 255
225 238 255
225 238 255
225 238 255
225 238 255
225 238 255
225 238 255
225 238 255
225 238 255
225 238 255
225 238 255
225 238 255
225 238 255
225 238 255
225 238 255
225 238 255
225 238 255
225 238 255
225 238 255
225 238 255
225 238 255
225 238 255
225 238 255
225 238 255
225 238 255
225 238 255
225 238 255
225 238 255
225 238 255
225 238 255
225 238 255
225 238 255
225 238 255
225 238 255
225 238 255
225 238 255
225 238 255
225 238 255
225 238 255
225 238 255
225 238 255
225 238 255
225 238 255
225 238 255
225 238 255
225 238 255
225 238 255
225 238 255
225 238 255
225 238 255
167 178 207
7 25 119
2 24 119
1 25 118
0 21 116
0 21 116
0 21 116
0 22 117
5 25 117
3 22 116
0 18 117
9 19 116
12 19 116
3 18 116
4 16 116
0 21 116
0 21 116
0 21 116
0 21 116
0 21 116
0 21 116
0 21 116
0 21 116
9 19 116
9 18 116
0 21 116
13 25 117
4 22 116
0 21 116
0 21 116
9 19 116
11 11 116
0 0 115
11 11 116
14 15 115
14 15 115
6 7 114
4 4 114
2 19 116
0 21 116
11 16 116
10 10 114
0 0 113
0 0 113
0 0 113
9 9 113
11 17 115
0 21 116
0 18 115
0 0 113
0 0 113
0 0 113
2 2 113
1 10 115
7 19 116
0 13 115
7 8 115
14 14 116
13 14 116
0 0 115
0 0 115
0 0 115
0 0 115
0 0 115
0 0 115
0 0 115
0 0 115
0 0 115
0 0 115
0 16 116
0 21 116
0 21 116
0 21 116
0 21 116
0 20 116
0 20 116
0 20 116
0 20 116
0 20 116
0 21 116
0 21 116
0 21 116
0 21 116
0 22 116
0 25 117
0 25 118
2 26 119
2 27 120
9 27 120
5 25 119
0 26 119
0 26 119
7 30 120
0 31 122
2 33 123
1 33 124
0 34 124
7 40 126
13 44 127
0 50 131
0 55 134
2 59 138
16 59 140
17 61 144
9 78 151
18 86 155
56 94 104
90 108 65
103 115 74
144 152 140
194 198 199
156 151 132
160 150 130
167 156 136
155 149 126
148 143 121
146 144 123
141 140 116
133 135 107
125 132 103
133 137 109
131 142 106
140 147 114
143 144 108
136 142 111
128 136 102
129 135 102
127 134 103
113 133 109
50 104 149
20 83 151
15 65 146
10 63 141
13 57 137
16 53 133
0 51 132
12 52 134
12 53 135
5 58 137
8 55 135
8 52 133
8 52 134
7 51 132
7 56 136
3 57 136
8 53 134
9 53 133
8 51 132
11 60 138
10 59 139
4 58 137
12 58 137
12 57 136
15 54 135
9 55 136
7 52 135
6 55 135
169 181 211
225 238 255
225 238 255
225 238 255
225 238 255
225 238 255
225 238 255
225 238 255
225 238 255
225 238 255
225 238 255
225 238 255
225 238 255
225 238 255
225 238 255
225 238 255
225 238 255
225 238 255
225 238 255
225 238 255
225 238 255
225 238 255
225 238 255
225 238 255
225 238 255
225 238 255
225 238 255
225 238 255
225 238 255
225 238 255
225 238 255
225 238 255
225 238 255
225 238 255
225 238 255
225 238 255
225 238 255
225 238 255
225 238 255
225 238 255
225 238 255
225 238 255
225 238 255
225 238 255
225 238 255
225 238 255
225 238 255
225 238 255
225 238 255
225 238 255
225 238 255
225 238 255
225 238 255
225 238 255
225 238 255
225 238 255
225 238 255
225 238 255
225 238 255
225 238 255
225 238 255
225 238 255
225 238 255
225 238 255
225 238 255
225 238 255
225 238 255
225 238 255
225 238 255
225 238 255
225 238 255
225 238 255
225 238 255
225 238 255
225 238 255
225 238 255
225 238 255
225 238 255
225 238 255
225 238 255
225 238 255
225 238 255
225 238 255
225 238 255
225 238 255
225 238 255
225 238 255
225 238 255
225 238 255
225 238 255
225 238 255
225 238 255
225 238 255
225 238 255
225 238 255
225 238 255
225 238 255
225 238 255
225 238 255
225 238 255
225 238 255
225 238 255
225 238 255
225 238 255
225 238 255
225 238 255
225 238 255
225 238 255
225 238 255
225 238 255
225 238 255
225 238 255
225 238 255
225 238 255
225 238 255
225 238 255
225 238 255
225 238 255
225 238 255
225 238 255
225 238 255
225 238 255
225 238 255
225 238 255
225 238 255
225 238 255
225 238 255
225 238 255
225 238 255
225 238 255
225 238 255
225 238 255
225 238 255
225 238 255
225 238 255
225 238 255
225 238 255
225 238 255
225 238 255
225 238 255
225 238 255
225 238 255
225 238 255
225 238 255
225 238 255
225 238 255
225 238 255
225 238 255
225 238 255
225 238 255
225 238 255
225 238 255
225 238 255
225 238 255
225 238 255
225 238 255
225 238 255
225 238 255
225 238 255
225 238 255
225 238 255
225 238 255
225 238 255
225 238 255
225 238 255
225 238 255
225 238 255
225 238 255
225 238 255
225 238 255
225 238 255
225 238 255
225 238 255
225 238 255
225 238 255
225 238 255
225 238 255
225 238 255
225 238 255
225 238 255
225 238 255
225 238 255
225 238 255
225 238 255
225 238 255
225 238 255
225 238 255
225 238 255
225 238 255
225 238 255
225 238 255
225 238 255
225 238 255
225 238 255
225 238 255
225 238 255
225 238 255
225 238 255
225 238 255
225 238 255
225 238 255
225 238 255
225 238 255
225 238 255
225 238 255
225 238 255
225 238 255
225 238 255
225 238 255
225 238 255
225 238 255
225 238 255
225 238 255
225 238 255
225 238 255
225 238 255
225 238 255
225 238 255
225 238 255
225 238 255
225 238 255
225 238 255
225 238 255
225 238 255
225 238 255
225 238 255
225 238 255
225 238 255
225 238 255
225 238 255
225 238 255
225 238 255
225 238 255
225 238 255
225 238 255
225 238 255
225 238 255
225 238 255
225 238 255
225 238 255
225 238 255
225 238 255
225 238 255
225 238 255
158 168 199
7 27 120
10 28 121
9 24 119
5 21 117
3 22 116
0 20 116
0 22 118
5 26 119
10 21 119
8 21 118
10 19 117
11 21 117
14 25 118
10 20 117
0 21 116
0 21 116
0 20 116
0 21 116
0 21 116
0 18 116
0 18 116
2 20 117
13 18 117
2 21 116
8 23 117
11 25 117
0 22 116
0 21 116
3 21 116
13 15 116
2 2 115
6 6 115
12 13 116
11 11 116
14 14 116
10 11 116
0 12 115
0 21 116
8 19 116
10 11 115
3 4 114
0 0 115
0 0 115
6 6 115
13 16 116
0 21 116
0 21 116
0 3 113
0 0 113
0 0 113
9 10 113
8 19 115
0 21 116
0 17 116
14 14 116
20 21 117
19 20 117
11 11 116
7 7 115
9 9 116
8 8 115
8 8 115
6 7 115
0 11 115
0 10 115
0 10 115
0 11 115
0 17 116
0 21 116
0 21 116
0 21 116
0 21 116
0 21 116
0 21 116
0 21 116
0 21 116
0 21 116
0 21 116
0 21 116
0 21 116
0 21 116
0 21 116
0 21 116
0 21 117
0 23 119
0 26 119
10 24 119
3 26 119
0 26 119
10 28 120
11 32 121
12 36 124
5 34 124
0 37 125
13 42 126
13 42 127
10 42 127
0 46 129
0 49 132
15 55 135
16 58 134
25 61 142
25 84 148
30 81 150
80 102 75
100 113 69
107 117 80
166 172 170
173 173 163
159 153 131
161 149 127
163 153 131
154 148 126
144 139 117
139 138 118
137 137 115
133 138 112
124 133 100
117 126 98
128 141 104
132 149 117
138 146 111
128 138 113
115 134 124
80 118 138
67 101 154
36 91 154
19 78 154
4 71 145
10 64 141
21 59 138
10 52 134
9 50 132
7 48 131
14 51 134
9 56 136
12 61 140
14 61 140
5 55 135
9 53 136
11 57 136
4 58 137
16 60 138
14 59 138
4 58 137
2 59 139
7 65 143
2 65 143
4 62 140
13 63 140
8 59 138
6 59 138
9 60 138
8 57 136
158 170 202
225 238 255
225 238 255
225 238 255
225 238 255
225 238 255
225 238 255
225 238 255
225 238 255
225 238 255
225 238 255
225 238 255
225 238 255
225 238 255
225 238 255
225 238 255
225 238 255
225 238 255
225 238 255
225 238 255
225 238 255
225 238 255
225 238 255
225 238 255
225 238 255
225 238 255
225 238 255
225 238 255
225 238 255
225 238 255
225 238 255
225 238 255
225 238 255
225 238 255
225 238 255
225 238 255
225 238 255
225 238 255
225 238 255
225 238 255
225 238 255
225 238 255
225 238 255
225 238 255
225 238 255
225 238 255
225 238 255
225 238 255
225 238 255
225 238 255
225 238 255
225 238 255
225 238 255
225 238 255
225 238 255
225 238 255
225 238 255
225 238 255
225 238 255
225 238 255
225 238 255
225 238 255
225 238 255
225 238 255
225 238 255
225 238 255
225 238 255
225 238 255
225 238 255
225 238 255
225 238 255
225 238 255
225 238 255
225 238 255
225 238 255
225 238 255
225 238 255
225 238 255
225 238 255
225 238 255
225 238 255
225 238 255
225 238 255
225 238 255
225 238 255
225 238 255
225 238 255
225 238 255
225 238 255
225 238 255
225 238 255
225 238 255
225 238 255
225 238 255
225 238 255
225 238 255
225 238 255
225 238 255
225 238 255
225 238 255
225 238 255
225 238 255
225 238 255
225 238 255
225 238 255
225 238 255
225 238 255
225 238 255
225 238 255
225 238 255
225 238 255
225 238 255
225 238 255
225 238 255
225 238 255
225 238 255
225 238 255
225 238 255
225 238 255
225 238 255
225 238 255
225 238 255
225 238 255
225 238 255
225 238 255
225 238 255
225 238 255
225 238 255
225 238 255
225 238 255
225 238 255
225 238 255
225 238 255
225 238 255
225 238 255
225 238 255
225 238 255
225 238 255
225 238 255
225 238 255
225 238 255
225 238 255
225 238 255
225 238 255
225 238 255
225 238 255
225 238 255
225 238 255
225 238 255
225 238 255
225 238 255
225 238 255
225 238 255
225 238 255
225 238 255
225 238 255
225 238 255
225 238 255
225 238 255
225 238 255
225 238 255
225 238 255
225 238 255
225 238 255
225 238 255
225 238 255
225 238 255
225 238 255
225 238 255
225 238 255
225 238 255
225 238 255
225 238 255
225 238 255
225 238 255
225 238 255
225 238 255
225 238 255
225 238 255
225 238 255
225 238 255
225 238 255
225 238 255
225 238 255
225 238 255
225 238 255
225 238 255
225 238 255
225 238 255
225 238 255
225 238 255
225 238 255
225 238 255
225 238 255
225 238 255
225 238 255
225 238 255
225 238 255
225 238 255
225 238 255
225 238 255
225 238 255
225 238 255
225 238 255
225 238 255
225 238 255
225 238 255
225 238 255
225 238 255
225 238 255
225 238 255
225 238 255
225 238 255
225 238 255
225 238 255
225 238 255
225 238 255
225 238 255
225 238 255
225 238 255
225 238 255
225 238 255
225 238 255
225 238 255
225 238 255
225 238 255
225 238 255
225 238 255
225 238 255
225 238 255
225 238 255
225 238 255
225 238 255
225 238 255
225 238 255
225 238 255
225 238 255
225 238 255
225 238 255
225 238 255
225 238 255
225 238 255
225 238 255
225 238 255
225 238 255
226 238 255
163 173 203
7 27 120
14 30 122
13 28 121
10 25 117
13 25 117
5 22 116
9 27 119
9 29 120
10 24 120
7 25 120
10 24 119
12 23 118
7 22 116
0 21 116
0 21 117
0 19 117
0 21 116
0 21 116
0 21 116
11 24 117
13 20 119
13 21 119
2 21 116
0 19 118
10 28 121
12 26 118
10 24 117
0 20 116
7 15 116
7 7 115
10 10 116
13 14 116
7 10 115
8 10 115
11 11 116
7 8 115
0 18 116
0 15 115
0 3 115
0 0 113
0 0 115
0 0 115
0 0 115
12 13 116
7 20 116
0 21 116
0 12 114
0 0 113
0 3 113
5 11 113
5 22 115
6 22 116
0 17 116
2 2 115
3 3 115
6 6 115
5 5 115
11 11 115
14 15 116
14 15 116
14 15 116
14 15 116
1 21 116
0 21 116
0 21 116
0 21 116
0 21 116
0 21 116
0 21 116
0 21 116
0 21 116
0 21 116
0 21 116
0 21 116
0 21 116
0 21 116
0 21 116
0 21 116
0 21 116
0 21 116
0 21 116
0 21 116
0 18 117
5 19 119
1 25 119
10 24 119
0 26 119
5 27 120
14 30 120
13 35 121
5 32 123
0 36 124
0 37 125
10 41 126
16 46 128
6 47 129
8 47 130
4 48 132
14 57 136
15 62 139
17 63 148
7 69 148
38 77 146
90 114 83
115 127 91
124 135 113
183 188 191
179 178 169
160 153 132
167 156 136
158 152 131
149 145 122
143 140 116
138 136 114
134 134 110
130 132 107
123 130 104
120 127 97
137 144 108
89 146 158
39 116 166
22 88 157
25 91 160
14 88 156
13 80 153
22 75 149
10 75 148
9 67 143
16 61 140
19 61 139
5 58 136
9 55 131
2 52 131
14 57 136
5 61 139
17 66 142
12 65 141
10 61 140
16 61 139
8 55 136
2 59 139
8 62 140
9 62 140
7 63 142
10 67 144
7 67 145
5 65 143
1 65 142
6 63 140
8 62 140
8 61 139
11 59 137
161 174 205
226 238 255
225 238 255
225 238 255
225 238 255
225 238 255
225 238 255
225 238 255
225 238 255
225 238 255
225 238 255
225 238 255
225 238 255
225 238 255
225 238 255
225 238 255
225 238 255
225 238 255
225 238 255
225 238 255
225 238 255
225 238 255
225 238 255
225 238 255
225 238 255
225 238 255
225 238 255
225 238 255
225 238 255
225 238 255
225 238 255
225 238 255
225 238 255
225 238 255
225 238 255
225 238 255
225 238 255
225 238 255
225 238 255
225 238 255
225 238 255
225 238 255
225 238 255
225 238 255
225 238 255
225 238 255
225 238 255
225 238 255
225 238 255
225 238 255
225 238 255
225 238 255
225 238 255
225 238 255
225 238 255
225 238 255
225 238 255
225 238 255
225 238 255
225 238 255
225 238 255
225 238 255
225 238 255
225 238 255
225 238 255
225 238 255
225 238 255
225 238 255
225 238 255
225 238 255
225 238 255
225 238 255
225 238 255
225 238 255
225 238 255
225 238 255
225 238 255
225 238 255
225 238 255
225 238 255
225 238 255
225 238 255
225 238 255
225 238 255
225 238 255
225 238 255
225 238 255
225 238 255
225 238 255
225 238 255
225 238 255
225 238 255
225 238 255
225 238 255
225 238 255
225 238 255
225 238 255
225 238 255
225 238 255
225 238 255
225 238 255
225 238 255
225 238 255
225 238 255
225 238 255
225 238 255
225 238 255
225 238 255
225 238 255
225 238 255
225 238 255
225 238 255
225 238 255
225 238 255
225 238 255
225 238 255
225 238 255
225 238 255
225 238 255
225 238 255
225 238 255
225 238 255
225 238 255
225 238 255
225 238 255
225 238 255
225 238 255
225 238 255
225 238 255
225 238 255
225 238 255
225 238 255
225 238 255
225 238 255
225 238 255
225 238 255
225 238 255
225 238 255
225 238 255
225 238 255
225 238 255
225 238 255
225 238 255
225 238 255
225 238 255
225 238 255
225 238 255
225 238 255
225 238 255
225 238 255
225 238 255
225 238 255
225 238 255
225 238 255
225 238 255
225 238 255
225 238 255
225 238 255
225 238 255
225 238 255
225 238 255
225 238 255
225 238 255
225 238 255
225 238 255
225 238 255
225 238 255
225 238 255
225 238 255
225 238 255
225 238 255
225 238 255
225 238 255
225 238 255
225 238 255
225 238 255
225 238 255
225 238 255
225 238 255
225 238 255
225 238 255
225 238 255
225 238 255
225 238 255
225 238 255
225 238 255
225 238 255
225 238 255
225 238 255
225 238 255
225 238 255
225 238 255
225 238 255
225 238 255
225 238 255
226 238 255
226 238 255
226 238 255
226 238 255
226 238 255
226 238 255
226 238 255
226 238 255
226 238 255
226 238 255
226 238 255
226 238 255
226 238 255
226 238 255
226 238 255
226 238 255
226 238 255
226 238 255
226 238 255
226 238 255
226 238 255
226 238 255
226 238 255
226 238 255
226 238 255
226 238 255
226 238 255
226 238 255
226 238 255
226 238 255
226 238 255
226 238 255
226 238 255
226 238 255
226 238 255
226 238 255
226 238 255
226 238 255
226 238 255
226 238 255
226 238 255
226 238 255
226 238 255
226 238 255
226 238 255
226 238 255
226 238 255
226 238 255
226 238 255
226 238 255
226 238 255
226 238 255
226 238 255
146 156 190
14 30 121
17 34 123
7 28 121
6 24 119
5 22 117
7 23 116
13 31 121
10 30 120
10 28 120
9 29 122
6 34 123
3 30 121
7 25 118
8 24 119
6 27 120
8 26 119
0 22 117
0 21 117
2 16 117
5 15 118
7 14 118
3 19 117
0 21 116
1 23 118
13 28 119
11 24 117
0 21 116
4 21 116
10 19 116
10 18 116
5 14 116
2 12 115
0 11 115
0 0 115
0 0 115
0 0 115
0 0 115
0 0 115
0 0 115
0 0 115
0 0 115
0 0 115
5 5 115
3 9 115
0 11 114
6 11 114
11 11 114
11 13 114
6 20 115
8 19 115
6 18 116
5 20 116
11 18 116
4 12 115
0 14 115
0 12 115
8 15 116
12 17 116
12 17 116
12 16 116
13 17 116
4 21 116
0 21 116
0 21 116
0 21 116
0 21 116
0 21 116
0 21 116
0 21 116
0 21 116
0 21 116
0 21 116
0 21 116
0 21 116
2 21 116
0 21 116
0 21 116
0 21 116
0 21 116
2 21 116
3 21 116
9 20 118
14 21 119
7 25 119
10 24 119
1 26 119
11 28 120
16 31 121
14 35 122
6 36 124
12 42 125
8 41 126
18 46 128
17 53 132
12 52 132
5 48 132
1 50 133
14 59 136
9 60 140
13 69 137
11 63 135
43 81 142
90 112 88
106 122 88
136 142 132
157 155 153
151 149 125
153 148 125
150 144 122
158 152 131
159 153 129
146 143 123
141 138 118
133 134 111
128 132 106
121 128 101
125 133 106
115 146 137
46 127 167
18 87 157
9 85 155
13 88 155
14 84 154
3 76 149
18 77 149
8 65 142
2 61 139
10 63 141
0 66 143
13 60 138
9 50 131
6 56 136
0 62 139
0 65 140
7 62 141
2 65 143
10 64 143
12 64 141
1 63 140
10 63 141
6 63 140
8 64 141
9 65 142
3 66 144
2 66 143
6 66 143
10 65 142
9 60 138
9 60 139
9 58 137
166 179 209
226 238 255
226 238 255
226 238 255
226 238 255
226 238 255
226 238 255
226 238 255
226 238 255
226 238 255
226 238 255
226 238 255
226 238 255
226 238 255
226 238 255
226 238 255
226 238 255
226 238 255
226 238 255
226 238 255
226 238 255
226 238 255
226 238 255
226 238 255
226 238 255
226 238 255
226 238 255
226 238 255
226 238 255
226 238 255
226 238 255
226 238 255
226 238 255
226 238 255
226 238 255
226 238 255
226 238 255
226 238 255
226 238 255
226 238 255
226 238 255
226 238 255
226 238 255
226 238 255
226 238 255
226 238 255
226 238 255
226 238 255
226 238 255
226 238 255
226 238 255
226 238 255
226 238 255
225 238 255
226 238 255
225 238 255
225 238 255
225 238 255
225 238 255
225 238 255
225 238 255
225 238 255
225 238 255
225 238 255
225 238 255
225 238 255
225 238 255
225 238 255
225 238 255
225 238 255
225 238 255
225 238 255
225 238 255
225 238 255
225 238 255
225 238 255
225 238 255
225 238 255
225 238 255
225 238 255
225 238 255
225 238 255
225 238 255
225 238 255
225 238 255
225 238 255
225 238 255
225 238 255
225 238 255
225 238 255
225 238 255
225 238 255
225 238 255
225 238 255
225 238 255
225 238 255
225 238 255
225 238 255
225 238 255
225 238 255
225 238 255
225 238 255
225 238 255
225 238 255
225 238 255
225 238 255
225 238 255
225 238 255
225 238 255
225 238 255
225 238 255
225 238 255
225 238 255
225 238 255
225 238 255
225 238 255
225 238 255
225 238 255
225 238 255
225 238 255
225 238 255
225 238 255
225 238 255
225 238 255
225 238 255
225 238 255
225 238 255
225 238 255
225 238 255
225 238 255
225 238 255
225 238 255
225 238 255
225 238 255
225 238 255
225 238 255
225 238 255
225 238 255
225 238 255
225 238 255
225 238 255
225 238 255
225 238 255
225 238 255
225 238 255
225 238 255
225 238 255
225 238 255
225 238 255
225 238 255
225 238 255
225 238 255
225 238 255
225 238 255
225 238 255
225 238 255
225 238 255
225 238 255
226 238 255
226 238 255
226 238 255
226 238 255
226 238 255
226 238 255
226 238 255
226 238 255
226 238 255
226 238 255
226 238 255
226 238 255
226 238 255
226 238 255
226 238 255
226 238 255
226 238 255
226 238 255
226 238 255
226 238 255
226 238 255
226 238 255
226 238 255
226 238 255
226 238 255
226 238 255
226 238 255
226 238 255
226 238 255
226 238 255
226 238 255
226 238 255
226 238 255
226 238 255
226 238 255
226 238 255
226 238 255
226 238 255
226 238 255
226 238 255
226 238 255
226 238 255
226 238 255
226 238 255
226 238 255
226 238 255
226 238 255
226 238 255
226 238 255
226 238 255
226 238 255
226 238 255
226 238 255
226 238 255
226 238 255
226 238 255
226 238 255
226 238 255
226 238 255
226 238 255
226 238 255
226 238 255
226 238 255
226 238 255
226 238 255
226 238 255
226 238 255
226 238 255
226 238 255
226 238 255
226 238 255
226 238 255
226 238 255
226 238 255
226 238 255
226 238 255
226 238 255
226 238 255
226 238 255
226 238 255
226 238 255
226 238 255
226 238 255
226 238 255
226 238 255
226 238 255
226 238 255
226 238 255
226 238 255
226 238 255
226 238 255
226 238 255
172 182 210
10 30 121
8 34 124
4 28 121
8 29 120
7 24 117
3 23 118
5 32 121
10 30 120
12 31 122
11 38 125
9 42 126
4 31 123
14 30 121
17 33 122
12 29 120
5 26 119
0 21 118
0 24 119
9 20 119
13 20 119
3 20 116
0 21 116
0 21 116
0 23 117
14 27 118
4 22 116
5 22 116
14 26 117
9 23 117
0 20 116
0 15 115
0 15 115
0 5 115
0 0 115
0 0 115
2 2 115
2 2 115
0 0 115
0 0 115
0 0 115
0 0 115
0 0 115
0 0 115
0 0 115
0 0 114
10 11 115
14 15 115
4 21 116
0 18 116
0 17 115
2 20 116
3 21 116
0 21 116
0 21 116
0 21 116
0 21 116
0 21 116
0 21 116
0 21 116
0 21 116
0 21 116
0 21 116
0 21 116
0 21 116
0 21 116
0 21 116
0 21 116
0 21 116
0 21 116
0 21 116
0 21 116
0 21 116
4 22 116
10 24 117
0 21 116
0 21 116
0 21 116
0 21 116
5 22 117
9 24 119
10 24 119
9 24 120
12 26 120
6 26 120
6 27 120
15 30 121
17 32 121
17 34 122
12 36 125
9 39 126
4 40 126
5 44 127
7 51 133
4 52 133
0 50 133
9 52 134
17 54 138
13 60 138
2 60 145
17 64 138
63 96 80
102 120 77
115 131 121
162 167 164
138 133 106
148 141 115
150 141 118
155 144 122
158 147 125
155 147 125
152 147 120
148 142 115
129 135 116
128 138 105
127 136 102
129 139 115
68 123 153
11 88 156
12 90 158
9 93 159
16 87 156
5 84 153
14 79 149
10 66 143
16 66 142
8 63 141
8 68 144
1 66 144
14 54 136
16 57 138
7 65 141
0 67 141
10 66 141
4 66 142
8 65 141
15 66 143
1 66 141
8 61 139
11 63 141
15 69 143
10 66 143
8 68 144
9 65 143
7 63 142
10 62 141
9 55 136
9 58 137
12 58 137
156 170 202
226 238 255
226 238 255
226 238 255
226 238 255
226 238 255
226 238 255
226 238 255
226 238 255
226 238 255
226 238 255
226 238 255
226 238 255
226 238 255
226 238 255
226 238 255
226 238 255
226 238 255
226 238 255
226 238 255
226 238 255
226 238 255
226 238 255
226 238 255
226 238 255
226 238 255
226 238 255
226 238 255
226 238 255
226 238 255
226 238 255
226 238 255
226 238 255
226 238 255
226 238 255
226 238 255
226 238 255
226 238 255
226 238 255
226 238 255
226 238 255
226 238 255
226 238 255
226 238 255
226 238 255
226 238 255
226 238 255
226 238 255
226 238 255
226 238 255
226 238 255
226 238 255
226 238 255
226 238 255
226 238 255
226 238 255
226 238 255
226 238 255
226 238 255
226 238 255
226 238 255
226 238 255
226 238 255
226 238 255
226 238 255
226 238 255
226 238 255
226 238 255
226 238 255
226 238 255
226 238 255
226 238 255
226 238 255
226 238 255
226 238 255
226 238 255
226 238 255
226 238 255
226 238 255
226 238 255
226 238 255
226 238 255
226 238 255
226 238 255
226 238 255
226 238 255
226 238 255
226 238 255
226 238 255
226 238 255
226 238 255
226 238 255
226 238 255
226 238 255
225 238 255
225 238 255
225 238 255
225 238 255
225 238 255
225 238 255
225 238 255
225 238 255
225 238 255
225 238 255
225 238 255
225 238 255
225 238 255
225 238 255
225 238 255
225 238 255
225 238 255
225 238 255
225 238 255
225 238 255
225 238 255
225 238 255
225 238 255
225 238 255
225 238 255
225 238 255
225 238 255
225 238 255
225 238 255
225 238 255
225 238 255
225 238 255
225 238 255
225 238 255
226 238 255
226 238 255
226 238 255
226 238 255
226 238 255
226 238 255
226 238 255
226 238 255
226 238 255
226 238 255
226 238 255
226 238 255
226 238 255
226 238 255
226 238 255
226 238 255
226 238 255
226 238 255
226 238 255
226 238 255
226 238 255
226 238 255
226 238 255
226 238 255
226 238 255
226 238 255
226 238 255
226 238 255
226 238 255
226 238 255
226 238 255
226 238 255
226 238 255
226 238 255
226 238 255
226 238 255
226 238 255
226 238 255
226 238 255
226 238 255
226 238 255
226 238 255
226 238 255
226 238 255
226 238 255
226 238 255
226 238 255
226 238 255
226 238 255
226 238 255
226 238 255
226 238 255
226 238 255
226 238 255
226 238 255
226 238 255
226 238 255
226 238 255
226 238 255
226 238 255
226 238 255
226 238 255
226 238 255
226 238 255
226 238 255
226 238 255
226 238 255
226 238 255
226 238 255
226 238 255
226 238 255
226 238 255
226 238 255
226 238 255
226 238 255
226 238 255
226 238 255
226 238 255
226 238 255
226 238 255
226 238 255
226 238 255
226 238 255
226 238 255
226 238 255
226 238 255
226 238 255
226 238 255
226 238 255
226 238 255
226 238 255
226 238 255
226 238 255
226 238 255
226 238 255
226 238 255
226 238 255
226 238 255
226 238 255
226 238 255
226 238 255
226 238 255
226 238 255
226 238 255
226 238 255
226 238 255
226 238 255
226 238 255
226 238 255
226 238 255
226 238 255
226 238 255
226 238 255
226 238 255
226 238 255
226 238 255
226 238 255
226 238 255
226 238 255
226 238 255
226 238 255
226 238 255
226 238 255
226 238 255
169 179 208
25 41 125
8 35 125
13 33 123
9 32 122
4 26 120
5 26 120
5 33 121
7 28 120
10 29 121
10 42 127
12 39 126
7 35 124
12 39 126
6 33 123
12 26 120
10 27 120
11 28 120
7 26 119
10 23 119
4 22 118
0 21 117
0 21 116
0 21 116
2 21 116
3 21 116
0 21 116
7 23 117
8 23 117
1 21 116
0 21 116
0 19 116
0 12 115
0 0 115
0 0 115
11 11 116
14 15 116
14 14 116
14 14 116
7 18 116
0 18 116
0 19 116
0 18 116
0 14 115
0 12 115
0 12 115
3 12 115
5 17 116
0 21 116
8 23 117
4 22 116
0 18 116
0 21 116
0 21 116
0 21 116
0 21 116
0 21 116
0 21 116
0 21 116
0 21 116
0 21 116
0 21 116
0 21 116
0 21 116
0 21 116
0 21 116
0 21 116
0 21 116
0 21 116
0 21 116
0 21 116
0 21 116
0 21 116
0 21 116
0 18 117
0 18 117
0 18 117
0 18 117
1 23 119
2 26 120
10 28 120
14 30 120
14 30 121
6 31 120
9 32 121
10 33 121
10 35 121
11 35 122
13 36 125
8 39 126
0 39 125
0 42 127
0 48 131
4 50 133
8 53 134
13 55 134
18 55 135
11 61 142
6 65 137
56 85 101
110 130 88
107 127 100
163 175 177
156 158 149
145 136 117
150 143 121
151 143 120
153 144 121
150 142 117
148 139 122
148 145 122
145 141 130
67 82 141
73 92 144
76 114 140
60 104 153
23 86 153
14 86 156
11 89 157
8 88 156
19 83 153
13 74 148
18 64 142
11 70 146
11 67 144
9 63 141
12 76 148
4 66 141
8 62 140
4 64 143
3 68 145
9 67 145
10 67 144
4 66 143
6 65 143
11 64 143
13 66 142
11 64 140
16 67 144
9 71 146
6 66 144
5 60 139
13 62 140
7 60 139
9 54 135
8 59 138
7 60 138
178 190 218
226 238 255
226 238 255
226 238 255
226 238 255
226 238 255
226 238 255
226 238 255
226 238 255
226 238 255
226 238 255
226 238 255
226 238 255
226 238 255
226 238 255
226 238 255
226 238 255
226 238 255
226 238 255
226 238 255
226 238 255
226 238 255
226 238 255
226 238 255
226 238 255
226 238 255
226 238 255
226 238 255
226 238 255
226 238 255
226 238 255
226 238 255
226 238 255
226 238 255
226 238 255
226 238 255
226 238 255
226 238 255
226 238 255
226 238 255
226 238 255
226 238 255
226 238 255
226 238 255
226 238 255
226 238 255
226 238 255
226 238 255
226 238 255
226 238 255
226 238 255
226 238 255
226 238 255
226 238 255
226 238 255
226 238 255
226 238 255
226 238 255
226 238 255
226 238 255
226 238 255
226 238 255
226 238 255
226 238 255
226 238 255
226 238 255
226 238 255
226 238 255
226 238 255
226 238 255
226 238 255
226 238 255
226 238 255
226 238 255
226 238 255
226 238 255
226 238 255
226 238 255
226 238 255
226 238 255
226 238 255
226 238 255
226 238 255
226 238 255
226 238 255
226 238 255
226 238 255
226 238 255
226 238 255
226 238 255
226 238 255
226 238 255
226 238 255
226 238 255
226 238 255
226 238 255
226 238 255
226 238 255
226 238 255
226 238 255
226 238 255
226 238 255
226 238 255
226 238 255
226 238 255
226 238 255
226 238 255
226 238 255
226 238 255
226 238 255
226 238 255
226 238 255
226 238 255
226 238 255
226 238 255
226 238 255
226 238 255
226 238 255
226 238 255
226 238 255
226 238 255
226 238 255
226 238 255
226 238 255
226 238 255
226 238 255
225 238 255
226 238 255
226 238 255
226 238 255
226 238 255
226 238 255
226 238 255
226 238 255
226 238 255
226 238 255
226 238 255
226 238 255
226 238 255
226 238 255
226 238 255
226 238 255
226 238 255
226 238 255
226 238 255
226 238 255
226 238 255
226 238 255
226 238 255
226 238 255
226 238 255
226 238 255
226 238 255
226 238 255
226 238 255
226 238 255
226 238 255
226 238 255
226 238 255
226 238 255
226 238 255
226 238 255
226 238 255
226 238 255
226 238 255
226 238 255
226 238 255
226 238 255
226 238 255
226 238 255
226 238 255
226 238 255
226 238 255
226 238 255
226 238 255
226 238 255
226 238 255
226 238 255
226 238 255
226 238 255
226 238 255
226 238 255
226 238 255
226 238 255
226 238 255
226 238 255
226 238 255
226 238 255
226 238 255
226 238 255
226 238 255
226 238 255
226 238 255
226 238 255
226 238 255
226 238 255
226 238 255
226 238 255
226 238 255
226 238 255
226 238 255
226 238 255
226 238 255
226 238 255
226 238 255
226 238 255
226 238 255
226 238 255
226 238 255
226 238 255
226 238 255
226 238 255
226 238 255
226 238 255
226 238 255
226 238 255
226 238 255
226 238 255
226 238 255
226 238 255
226 238 255
226 238 255
226 238 255
226 238 255
226 238 255
226 238 255
226 238 255
226 238 255
226 238 255
226 238 255
226 238 255
226 238 255
226 238 255
226 238 255
226 238 255
226 238 255
226 238 255
226 238 255
226 238 255
226 238 255
226 238 255
226 238 255
226 238 255
226 238 255
226 238 255
226 238 255
226 238 255
226 238 255
226 238 255
226 238 255
226 238 255
226 238 255
226 238 255
226 238 255
179 190 216
33 48 127
8 39 125
3 34 124
5 32 123
8 27 120
1 30 120
7 36 121
11 28 120
9 28 121
8 43 127
4 36 123
6 43 127
14 44 128
8 36 124
8 29 120
11 29 120
2 24 119
12 28 119
4 27 121
0 26 120
4 22 117
0 21 116
0 21 116
0 22 117
0 19 118
9 19 116
0 21 115
3 21 116
0 21 116
0 21 116
0 18 116
0 12 115
0 10 115
6 9 115
14 16 116
14 15 116
14 15 116
12 17 116
0 21 116
0 21 116
0 21 116
0 20 116
0 20 116
0 21 116
0 21 116
0 21 116
0 21 116
8 23 117
6 22 116
0 21 116
0 21 116
0 21 116
0 21 116
0 21 116
0 21 116
0 21 116
0 21 116
0 21 116
0 21 116
0 21 116
0 21 116
0 21 116
0 21 116
0 21 116
0 21 116
0 21 116
0 21 116
0 20 117
0 19 117
1 18 117
9 20 118
10 21 118
0 22 119
0 20 119
0 21 119
0 22 119
10 25 120
14 30 121
14 30 121
15 30 121
17 32 121
1 34 122
0 34 123
0 35 123
0 35 123
0 34 123
10 36 125
4 40 126
7 42 126
9 46 128
8 47 130
5 49 131
9 52 134
4 53 134
18 64 141
6 66 147
21 68 139
69 102 93
76 112 99
126 144 133
169 175 178
166 163 149
157 147 127
156 148 125
162 155 133
150 143 122
145 140 115
154 143 122
158 149 129
132 132 129
48 80 140
42 93 152
25 85 153
8 80 152
7 80 151
16 84 154
17 83 153
9 78 149
18 64 142
18 68 145
9 76 149
9 75 150
10 69 146
8 68 145
14 65 143
9 69 143
8 69 146
8 70 146
12 71 147
3 67 145
0 66 143
6 67 143
13 69 145
14 65 143
14 70 145
11 81 150
14 73 146
12 67 143
9 62 139
1 58 137
5 59 137
10 60 138
8 56 135
46 76 146
182 195 221
226 238 255
226 238 255
226 238 255
226 238 255
226 238 255
226 238 255
226 238 255
226 238 255
226 238 255
226 238 255
226 238 255
226 238 255
226 238 255
226 238 255
226 238 255
226 238 255
226 238 255
226 238 255
226 238 255
226 238 255
226 238 255
226 238 255
226 238 255
226 238 255
226 238 255
226 238 255
226 238 255
226 238 255
226 238 255
226 238 255
226 238 255
226 238 255
226 238 255
226 238 255
226 238 255
226 238 255
226 238 255
226 238 255
226 238 255
226 238 255
226 238 255
226 238 255
226 238 255
226 238 255
226 238 255
226 238 255
226 238 255
226 238 255
226 238 255
226 238 255
226 238 255
226 238 255
226 238 255
226 238 255
226 238 255
226 238 255
226 238 255
226 238 255
226 238 255
226 238 255
226 238 255
226 238 255
226 238 255
226 238 255
226 238 255
226 238 255
226 238 255
226 238 255
226 238 255
226 238 255
226 238 255
226 238 255
226 238 255
226 238 255
226 238 255
226 238 255
226 238 255
226 238 255
226 238 255
226 238 255
226 238 255
226 238 255
226 238 255
226 238 255
226 238 255
226 238 255
226 238 255
226 238 255
226 238 255
226 238 255
226 238 255
226 238 255
226 238 255
226 238 255
226 238 255
226 238 255
226 238 255
226 238 255
226 238 255
226 238 255
226 238 255
226 238 255
226 238 255
226 238 255
226 238 255
226 238 255
226 238 255
226 238 255
226 238 255
226 238 255
226 238 255
226 238 255
226 238 255
226 238 255
226 238 255
226 238 255
226 238 255
226 238 255
226 238 255
226 238 255
226 238 255
226 238 255
226 238 255
226 238 255
226 238 255
226 238 255
226 238 255
226 238 255
226 238 255
226 238 255
226 238 255
226 238 255
226 238 255
226 238 255
226 238 255
226 238 255
226 238 255
226 238 255
226 238 255
226 238 255
226 238 255
226 238 255
226 238 255
226 238 255
226 238 255
226 238 255
226 238 255
226 238 255
226 238 255
226 238 255
226 238 255
226 238 255
226 238 255
226 238 255
226 238 255
226 238 255
226 238 255
226 238 255
226 238 255
226 238 255
226 238 255
226 238 255
226 238 255
226 238 255
226 238 255
226 238 255
226 238 255
226 238 255
226 238 255
226 238 255
226 238 255
226 238 255
226 238 255
226 238 255
226 238 255
226 238 255
226 238 255
226 238 255
226 238 255
226 238 255
226 238 255
226 238 255
226 238 255
226 238 255
226 238 255
226 238 255
226 238 255
226 238 255
226 238 255
226 238 255
226 238 255
226 238 255
226 238 255
226 238 255
226 238 255
226 238 255
226 238 255
226 238 255
226 238 255
226 238 255
226 238 255
226 238 255
226 238 255
226 238 255
226 238 255
226 238 255
226 238 255
226 238 255
226 238 255
226 238 255
226 238 255
226 238 255
226 238 255
226 238 255
226 238 255
226 238 255
226 238 255
226 238 255
226 238 255
226 238 255
226 238 255
226 238 255
226 238 255
226 238 255
226 238 255
226 238 255
226 238 255
226 238 255
226 238 255
226 238 255
226 238 255
226 238 255
226 238 255
226 238 255
226 238 255
226 238 255
226 238 255
226 238 255
226 238 255
226 238 255
226 238 255
226 238 255
226 238 255
226 238 255
226 238 255
226 238 255
226 238 255
226 238 255
226 238 255
226 238 255
226 238 255
226 238 255
226 238 255
226 238 255
226 238 255
197 208 231
64 79 142
10 43 127
11 33 122
14 31 121
16 29 120
11 32 121
9 33 121
5 28 120
11 35 123
7 40 126
12 37 125
10 40 126
9 39 125
8 33 122
20 33 121
10 28 120
6 26 119
10 29 121
4 32 123
2 27 120
0 22 117
4 22 116
14 26 117
5 25 119
8 20 117
8 23 117
8 25 117
2 21 117
14 26 117
6 22 116
0 20 116
0 21 116
0 21 116
6 22 116
0 21 116
0 21 116
4 21 116
0 21 116
0 21 116
0 21 116
0 21 116
0 21 116
0 21 116
0 21 116
0 21 116
7 22 116
0 20 116
7 21 117
6 19 117
0 16 117
6 21 117
9 22 117
5 22 116
7 22 116
6 22 117
2 23 117
9 25 118
6 22 117
3 21 116
7 22 116
0 21 116
4 22 116
0 21 116
0 21 116
0 21 116
0 21 116
8 21 118
11 20 119
14 21 119
14 21 119
14 21 119
10 28 120
10 28 120
10 28 120
10 28 120
10 31 120
10 32 121
11 32 121
13 35 122
13 34 122
2 33 124
0 34 124
0 34 124
6 34 124
7 36 124
9 37 125
2 38 125
1 39 125
7 45 127
8 45 128
5 46 130
0 51 133
1 55 136
4 68 144
14 70 145
44 85 123
53 93 113
66 102 131
185 197 203
155 154 140
154 147 124
160 150 126
164 155 131
171 163 142
156 149 128
157 149 124
152 144 121
150 145 124
99 110 136
108 124 139
44 88 150
16 70 145
10 77 148
17 82 152
9 78 150
11 67 143
3 64 141
6 72 147
4 80 153
0 81 152
8 74 148
14 70 146
9 65 144
4 70 146
7 77 150
7 71 147
2 69 146
12 72 147
6 67 144
6 64 143
7 69 144
16 71 147
15 68 145
15 72 147
18 71 145
15 66 142
14 64 141
16 68 143
14 58 138
11 65 142
13 61 139
76 96 154
192 204 229
226 238 255
226 238 255
226 238 255
226 238 255
226 238 255
226 238 255
226 238 255
226 238 255
226 238 255
226 238 255
226 238 255
226 238 255
226 238 255
226 238 255
226 238 255
226 238 255
226 238 255
226 238 255
226 238 255
226 238 255
226 238 255
226 238 255
226 238 255
226 238 255
226 238 255
226 238 255
226 238 255
226 238 255
226 238 255
226 238 255
226 238 255
226 238 255
226 238 255
226 238 255
226 238 255
226 238 255
226 238 255
226 238 255
226 238 255
226 238 255
226 238 255
226 238 255
226 238 255
226 238 255
226 238 255
226 238 255
226 238 255
226 238 255
226 238 255
226 238 255
226 238 255
226 238 255
226 238 255
226 238 255
226 238 255
226 238 255
226 238 255
226 238 255
226 238 255
226 238 255
226 238 255
226 238 255
226 238 255
226 238 255
226 238 255
226 238 255
226 238 255
226 238 255
226 238 255
226 238 255
226 238 255
226 238 255
226 238 255
226 238 255
226 238 255
226 238 255
226 238 255
226 238 255
226 238 255
226 238 255
226 238 255
226 238 255
226 238 255
226 238 255
226 238 255
226 238 255
226 238 255
226 238 255
226 238 255
226 238 255
226 238 255
226 238 255
226 238 255
226 238 255
226 238 255
226 238 255
226 238 255
226 238 255
226 238 255
226 238 255
226 238 255
226 238 255
226 238 255
226 238 255
226 238 255
226 238 255
226 238 255
226 238 255
226 238 255
226 238 255
226 238 255
226 238 255
226 238 255
226 238 255
226 238 255
226 238 255
226 238 255
226 238 255
226 238 255
226 238 255
226 238 255
226 238 255
226 238 255
226 238 255
226 238 255
226 238 255
226 238 255
226 238 255
226 238 255
226 238 255
226 238 255
226 238 255
226 238 255
226 238 255
226 238 255
226 238 255
226 238 255
226 238 255
226 238 255
226 238 255
226 238 255
226 238 255
226 238 255
226 238 255
226 238 255
226 238 255
226 238 255
226 238 255
226 238 255
226 238 255
226 238 255
226 238 255
226 238 255
226 238 255
226 238 255
226 238 255
226 238 255
226 238 255
226 238 255
226 238 255
226 238 255
226 238 255
226 238 255
226 238 255
226 238 255
226 238 255
226 238 255
226 238 255
226 238 255
226 238 255
226 238 255
226 238 255
226 238 255
226 238 255
226 238 255
226 238 255
226 238 255
226 238 255
226 238 255
226 238 255
226 238 255
226 238 255
226 238 255
226 238 255
226 238 255
226 238 255
226 238 255
226 238 255
226 238 255
226 238 255
226 238 255
226 238 255
226 238 255
226 238 255
226 238 255
226 238 255
226 238 255
226 238 255
226 238 255
226 238 255
226 238 255
226 238 255
226 238 255
226 238 255
226 238 255
226 238 255
226 238 255
226 238 255
226 238 255
226 238 255
226 238 255
226 238 255
226 238 255
226 238 255
226 238 255
226 238 255
226 238 255
226 238 255
226 238 255
226 238 255
226 238 255
226 238 255
226 238 255
226 238 255
226 238 255
226 238 255
226 238 255
226 238 255
226 238 255
226 238 255
226 238 255
226 238 255
226 238 255
226 238 255
226 238 255
226 238 255
226 238 255
226 238 255
226 238 255
226 238 255
226 238 255
226 238 255
226 238 255
226 238 255
226 238 255
226 238 255
226 238 255
226 238 255
226 238 255
226 238 255
226 238 255
226 238 255
226 238 255
226 238 255
226 238 255
226 238 255
226 238 255
206 218 239
82 96 152
7 47 130
11 35 123
11 29 121
12 31 121
9 32 122
7 33 123
14 32 122
13 33 122
12 39 125
9 37 125
14 37 126
11 35 125
18 33 123
15 29 121
8 27 120
13 29 120
13 33 123
12 36 124
10 29 120
8 23 117
3 22 116
8 24 117
8 24 119
13 22 119
9 29 120
6 27 120
5 25 119
11 24 117
8 23 117
9 23 117
10 24 117
12 25 117
0 21 116
0 21 116
0 21 116
0 21 116
0 21 116
0 21 116
0 21 116
6 22 117
2 20 117
0 17 116
2 22 116
12 22 117
8 23 117
10 23 119
12 24 120
11 22 119
11 23 119
11 23 119
4 21 118
5 21 117
11 27 120
11 34 123
17 34 124
13 24 119
0 21 117
13 30 120
6 21 118
8 20 118
8 23 118
0 22 118
0 23 118
0 24 118
11 27 119
18 32 121
17 32 121
14 30 121
12 29 120
14 30 121
14 30 121
15 30 121
19 33 121
17 32 121
14 30 121
19 33 121
5 34 124
5 34 123
6 33 123
0 32 123
7 34 124
10 38 125
13 42 127
14 43 127
3 40 126
7 40 126
15 43 127
6 45 129
3 49 132
8 57 137
13 64 140
15 73 147
24 73 140
55 98 76
40 75 130
141 156 158
167 177 180
154 148 131
155 148 125
154 148 124
163 154 131
162 153 129
164 156 136
163 156 128
154 147 120
118 130 134
46 89 147
26 70 149
17 78 147
24 84 152
6 83 152
11 69 146
16 64 141
13 56 136
8 75 147
6 81 153
3 78 150
7 77 149
9 72 147
14 71 147
12 71 146
11 72 146
20 75 149
13 70 146
5 70 146
8 67 144
6 66 143
12 68 144
8 71 145
12 69 144
14 66 143
6 69 144
16 71 146
13 67 144
12 72 146
13 67 143
11 66 143
12 65 142
79 96 154
208 221 241
226 238 255
226 238 255
226 238 255
226 238 255
226 238 255
226 238 255
226 238 255
226 238 255
226 238 255
226 238 255
226 238 255
226 238 255
226 238 255
226 238 255
226 238 255
226 238 255
226 238 255
226 238 255
226 238 255
226 238 255
226 238 255
226 238 255
226 238 255
226 238 255
226 238 255
226 238 255
226 238 255
226 238 255
226 238 255
226 238 255
226 238 255
226 238 255
226 238 255
226 238 255
226 238 255
226 238 255
226 238 255
226 238 255
226 238 255
226 238 255
226 238 255
226 238 255
226 238 255
226 238 255
226 238 255
226 238 255
226 238 255
226 238 255
226 238 255
226 238 255
226 238 255
226 238 255
226 238 255
226 238 255
226 238 255
226 238 255
226 238 255
226 238 255
226 238 255
226 238 255
226 238 255
226 238 255
226 238 255
226 238 255
226 238 255
226 238 255
226 238 255
226 238 255
226 238 255
226 238 255
226 238 255
226 238 255
226 238 255
226 238 255
226 238 255
226 238 255
226 238 255
226 238 255
226 238 255
226 238 255
226 238 255
226 238 255
226 238 255
226 238 255
226 238 255
226 238 255
226 238 255
226 238 255
226 238 255
226 238 255
226 238 255
226 238 255
226 238 255
226 238 255
226 238 255
226 238 255
226 238 255
226 238 255
226 238 255
226 238 255
226 238 255
226 238 255
226 238 255
226 238 255
226 238 255
226 238 255
226 238 255
226 238 255
226 238 255
226 238 255
226 238 255
226 238 255
226 238 255
226 238 255
226 238 255
226 238 255
226 238 255
226 238 255
226 238 255
226 238 255
226 238 255
226 238 255
226 238 255
226 238 255
226 238 255
226 238 255
226 238 255
226 238 255
226 238 255
226 238 255
226 238 255
226 238 255
226 238 255
226 238 255
226 238 255
226 238 255
226 238 255
226 238 255
226 238 255
226 238 255
226 238 255
226 238 255
226 238 255
226 238 255
226 238 255
226 238 255
226 238 255
226 238 255
226 238 255
226 238 255
226 238 255
226 238 255
226 238 255
226 238 255
226 238 255
226 238 255
226 238 255
226 238 255
226 238 255
226 238 255
226 238 255
226 238 255
226 238 255
226 238 255
226 238 255
226 238 255
226 238 255
226 238 255
226 238 255
226 238 255
226 238 255
226 238 255
226 238 255
226 238 255
226 238 255
226 238 255
226 238 255
226 238 255
226 238 255
226 238 255
226 238 255
226 238 255
226 238 255
226 238 255
226 238 255
226 238 255
226 238 255
226 238 255
226 238 255
226 238 255
226 238 255
226 238 255
226 238 255
226 238 255
226 238 255
226 238 255
226 238 255
226 238 255
226 238 255
226 238 255
226 238 255
226 238 255
226 238 255
226 238 255
226 238 255
226 238 255
226 238 255
226 238 255
226 238 255
226 238 255
226 238 255
226 238 255
226 238 255
226 238 255
226 238 255
226 238 255
226 238 255
226 238 255
226 238 255
226 238 255
226 238 255
226 238 255
226 238 255
226 238 255
226 238 255
226 238 255
226 238 255
226 238 255
226 238 255
226 238 255
226 238 255
226 238 255
226 238 255
226 238 255
226 238 255
226 238 255
226 238 255
226 238 255
226 238 255
226 238 255
226 238 255
226 238 255
226 238 255
226 238 255
226 238 255
226 238 255
226 238 255
226 238 255
226 238 255
226 238 255
226 238 255
226 238 255
226 238 255
226 238 255
226 238 255
226 238 255
226 238 255
226 238 255
226 238 255
218 230 249
123 136 178
15 51 132
10 39 125
6 33 123
6 40 125
2 34 124
6 35 124
15 37 125
4 35 124
5 35 124
13 42 127
10 46 129
14 42 126
13 36 124
10 30 122
10 30 121
15 34 123
10 38 125
9 31 122
12 24 118
14 26 118
0 20 117
2 19 116
4 17 118
2 26 120
0 32 123
7 31 122
16 30 120
16 28 118
4 24 117
6 25 117
6 26 117
10 26 117
10 24 117
4 22 116
0 21 116
0 19 117
0 19 117
11 22 118
14 24 118
8 17 119
4 19 119
0 24 119
2 24 119
14 18 118
15 25 120
2 28 120
8 33 122
7 27 119
0 28 120
0 34 121
1 29 121
9 31 123
12 35 124
17 33 123
6 26 120
7 33 122
18 39 125
13 34 123
8 28 121
0 26 120
0 26 119
0 26 119
10 28 120
12 29 120
15 31 121
15 31 121
16 31 121
18 32 121
9 32 122
12 33 122
14 34 123
14 34 123
15 32 121
17 33 121
9 34 123
0 34 124
4 34 124
6 35 124
0 35 124
0 37 125
5 41 126
0 41 126
0 41 126
0 41 126
10 42 127
6 46 129
8 51 132
2 55 135
4 62 138
13 62 145
5 66 139
28 72 135
27 73 137
95 116 133
174 185 186
167 171 166
154 145 124
156 149 126
156 148 124
167 159 135
174 163 138
166 156 130
148 147 127
126 131 130
48 81 151
15 74 144
26 74 152
11 78 148
8 76 151
16 74 149
20 65 142
7 54 134
4 62 139
11 70 146
5 70 146
7 71 147
12 72 147
15 67 144
16 70 145
13 64 141
13 66 143
5 65 143
5 64 141
23 62 141
20 64 140
11 67 144
9 78 151
11 70 146
11 68 144
17 74 148
15 77 149
14 70 146
10 67 144
12 67 143
10 68 145
15 64 141
98 114 164
209 222 242
226 238 255
226 238 255
226 238 255
226 238 255
226 238 255
226 238 255
226 238 255
226 238 255
226 238 255
226 238 255
226 238 255
226 238 255
226 238 255
226 238 255
226 238 255
226 238 255
226 238 255
226 238 255
226 238 255
226 238 255
226 238 255
226 238 255
226 238 255
226 238 255
226 238 255
226 238 255
226 238 255
226 238 255
226 238 255
226 238 255
226 238 255
226 238 255
226 238 255
226 238 255
226 238 255
226 238 255
226 238 255
226 238 255
226 238 255
226 238 255
226 238 255
226 238 255
226 238 255
226 238 255
226 238 255
226 238 255
226 238 255
226 238 255
226 238 255
226 238 255
226 238 255
226 238 255
226 238 255
226 238 255
226 238 255
226 238 255
226 238 255
226 238 255
226 238 255
226 238 255
226 238 255
226 238 255
226 238 255
226 238 255
226 238 255
226 238 255
226 238 255
226 238 255
226 238 255
226 238 255
226 238 255
226 238 255
226 238 255
226 238 255
226 238 255
226 238 255
226 238 255
226 238 255
226 238 255
226 238 255
226 238 255
226 238 255
226 238 255
226 238 255
226 238 255
226 238 255
226 238 255
226 238 255
226 238 255
226 238 255
226 238 255
226 238 255
226 238 255
226 238 255
226 238 255
226 238 255
226 238 255
226 238 255
226 238 255
226 238 255
226 238 255
226 238 255
226 238 255
226 238 255
226 238 255
226 238 255
226 238 255
226 238 255
226 238 255
226 238 255
226 238 255
226 238 255
226 238 255
226 238 255
226 238 255
226 238 255
226 238 255
226 238 255
226 238 255
226 238 255
226 238 255
226 238 255
226 238 255
226 238 255
226 238 255
226 238 255
226 238 255
226 238 255
226 238 255
226 238 255
226 238 255
226 238 255
226 238 255
226 238 255
226 238 255
226 238 255
226 238 255
226 238 255
226 238 255
226 238 255
226 238 255
226 238 255
226 238 255
226 238 255
226 238 255
226 238 255
226 238 255
226 238 255
226 238 255
226 238 255
226 238 255
226 238 255
226 238 255
226 238 255
226 238 255
226 238 255
226 238 255
226 238 255
226 238 255
226 238 255
226 238 255
226 238 255
226 238 255
226 238 255
226 238 255
226 238 255
226 238 255
226 238 255
226 238 255
226 238 255
226 238 255
226 238 255
226 238 255
226 238 255
226 238 255
226 238 255
226 238 255
226 238 255
226 238 255
226 238 255
226 238 255
226 238 255
226 238 255
226 238 255
226 238 255
226 238 255
226 238 255
226 238 255
226 238 255
226 238 255
226 238 255
226 238 255
226 238 255
226 238 255
226 238 255
226 238 255
226 238 255
226 238 255
226 238 255
226 238 255
226 238 255
226 238 255
226 238 255
226 238 255
226 238 255
226 238 255
226 238 255
226 238 255
226 238 255
226 238 255
226 238 255
226 238 255
226 238 255
226 238 255
226 238 255
226 238 255
226 238 255
226 238 255
226 238 255
226 238 255
226 238 255
226 238 255
226 238 255
226 238 255
226 238 255
226 238 255
226 238 255
226 238 255
226 238 255
226 238 255
226 238 255
226 238 255
226 238 255
226 238 255
226 238 255
226 238 255
226 238 255
226 238 255
226 238 255
226 238 255
226 238 255
226 238 255
226 238 255
226 238 255
226 238 255
226 238 255
226 238 255
226 238 255
226 238 255
226 238 255
226 238 255
226 238 255
226 238 255
226 238 255
226 238 255
226 238 255
226 238 255
226 238 255
226 238 255
226 238 255
226 238 255
223 235 253
138 152 189
15 56 136
11 42 127
13 48 130
14 51 132
8 40 126
7 42 126
8 45 128
8 45 127
12 43 127
11 48 130
9 49 130
7 48 130
6 40 127
15 34 124
14 35 124
8 31 123
9 38 124
17 29 122
17 30 121
5 29 121
12 30 121
14 24 120
6 19 119
16 30 121
4 31 122
11 33 123
10 25 119
8 24 118
5 22 116
11 25 117
10 24 117
18 28 118
15 26 117
5 21 116
6 20 118
2 16 119
13 21 119
14 21 119
10 18 119
18 26 120
12 31 121
0 34 121
11 28 120
7 26 120
0 26 121
0 27 122
7 25 118
4 26 119
10 33 123
13 36 125
10 41 127
7 34 124
13 29 121
18 32 122
10 36 122
10 37 123
8 34 122
0 29 121
5 27 120
6 27 120
12 29 120
14 30 120
14 32 121
12 36 122
12 36 122
11 36 122
9 35 121
3 34 124
11 36 124
10 36 124
2 33 124
10 33 123
5 34 124
0 34 124
0 35 124
5 36 124
4 35 124
0 39 125
13 42 127
16 45 128
0 45 129
4 45 129
7 46 129
0 45 129
0 50 131
12 55 135
12 58 137
9 59 138
10 66 132
16 67 141
44 92 111
65 109 134
148 167 165
184 191 193
169 165 153
156 148 120
152 144 118
158 150 124
162 153 127
171 164 136
145 142 124
121 133 126
66 89 145
14 73 145
19 84 153
11 76 148
16 73 150
11 74 150
3 65 142
14 54 133
5 56 134
3 63 140
9 72 146
10 70 147
3 68 144
11 64 142
6 63 141
4 64 140
9 59 140
10 62 142
17 69 145
8 69 145
8 64 140
16 67 143
4 75 149
12 73 148
4 70 145
9 77 150
8 77 150
14 69 144
9 65 142
11 63 141
13 68 143
12 62 139
134 148 186
221 234 252
226 238 255
226 238 255
226 238 255
226 238 255
226 238 255
226 238 255
226 238 255
226 238 255
226 238 255
226 238 255
226 238 255
226 238 255
226 238 255
226 238 255
226 238 255
226 238 255
226 238 255
226 238 255
226 238 255
226 238 255
226 238 255
226 238 255
226 238 255
226 238 255
226 238 255
226 238 255
226 238 255
226 238 255
226 238 255
226 238 255
226 238 255
226 238 255
226 238 255
226 238 255
226 238 255
226 238 255
226 238 255
226 238 255
226 238 255
226 238 255
226 238 255
226 238 255
226 238 255
226 238 255
226 238 255
226 238 255
226 238 255
226 238 255
226 238 255
226 238 255
226 238 255
226 238 255
226 238 255
226 238 255
226 238 255
226 238 255
226 238 255
226 238 255
226 238 255
226 238 255
226 238 255
226 238 255
226 238 255
226 238 255
226 238 255
226 238 255
226 238 255
226 238 255
226 238 255
226 238 255
226 238 255
226 238 255
226 238 255
226 238 255
226 238 255
226 238 255
226 238 255
226 238 255
226 238 255
226 238 255
226 238 255
226 238 255
226 238 255
226 238 255
226 238 255
226 238 255
226 238 255
226 238 255
226 238 255
226 238 255
226 238 255
226 238 255
226 238 255
226 238 255
226 238 255
226 238 255
226 238 255
226 238 255
226 238 255
226 238 255
226 238 255
226 238 255
226 238 255
226 238 255
226 238 255
226 238 255
226 238 255
226 238 255
226 238 255
226 238 255
226 238 255
226 238 255
226 238 255
226 238 255
226 238 255
226 238 255
226 238 255
226 238 255
226 238 255
226 238 255
226 238 255
226 238 255
226 238 255
226 238 255
226 238 255
226 238 255
226 238 255
226 238 255
226 238 255
226 238 255
226 238 255
226 238 255
226 238 255
226 238 255
226 238 255
226 238 255
226 238 255
226 238 255
226 238 255
226 238 255
226 238 255
226 238 255
226 238 255
226 238 255
226 238 255
226 238 255
226 238 255
226 238 255
226 238 255
226 238 255
226 238 255
226 238 255
226 238 255
226 238 255
226 238 255
226 238 255
226 238 255
226 238 255
226 238 255
226 238 255
226 238 255
226 238 255
226 238 255
226 238 255
226 238 255
226 238 255
226 238 255
226 238 255
226 238 255
226 238 255
226 238 255
226 238 255
226 238 255
226 238 255
226 238 255
226 238 255
226 238 255
226 238 255
226 238 255
226 238 255
226 238 255
226 238 255
226 238 255
226 238 255
226 238 255
226 238 255
226 238 255
226 238 255
226 238 255
226 238 255
226 238 255
226 238 255
226 238 255
226 238 255
226 238 255
226 238 255
226 238 255
226 238 255
226 238 255
226 238 255
226 238 255
226 238 255
226 238 255
226 238 255
226 238 255
226 238 255
226 238 255
226 238 255
226 238 255
226 238 255
226 238 255
226 238 255
226 238 255
226 238 255
226 238 255
226 238 255
226 238 255
226 238 255
226 238 255
226 238 255
226 238 255
226 238 255
226 238 255
226 238 255
226 238 255
226 238 255
226 238 255
226 238 255
226 238 255
226 238 255
226 238 255
226 238 255
226 238 255
226 238 255
226 238 255
226 238 255
226 238 255
226 238 255
226 238 255
226 238 255
226 238 255
226 238 255
226 238 255
226 238 255
226 238 255
226 238 255
226 238 255
226 238 255
226 238 255
226 238 255
226 238 255
226 238 255
226 238 255
226 238 255
226 238 255
226 238 255
226 238 255
226 238 255
226 238 255
226 238 255
226 238 255
226 238 255
226 238 255
226 238 255
171 184 213
52 78 146
11 52 132
10 54 134
9 57 136
14 56 135
7 52 132
0 51 131
7 48 131
5 46 130
9 53 132
12 51 133
12 54 134
9 50 131
12 43 127
17 43 127
15 42 127
11 38 125
13 33 123
13 38 124
9 42 126
11 42 127
16 35 124
5 21 118
6 22 117
15 32 121
12 28 119
17 27 118
15 28 118
14 27 118
8 22 117
5 22 116
6 22 116
0 18 116
10 23 117
4 24 120
3 26 120
5 24 120
2 25 120
6 26 120
9 28 120
15 33 121
18 34 121
10 28 120
3 25 120
11 27 121
12 27 119
10 25 119
2 25 120
5 29 122
11 36 125
8 36 123
14 35 122
16 35 122
8 37 122
5 35 120
8 28 119
10 29 119
9 31 120
6 31 122
7 32 123
9 33 122
8 33 122
0 34 121
0 35 122
0 36 122
7 36 122
14 36 124
12 38 124
12 38 125
4 34 124
0 33 124
0 34 123
0 35 124
0 40 125
8 40 125
3 39 125
0 39 125
6 41 126
4 42 127
0 45 128
3 47 130
8 49 130
1 50 130
10 54 133
9 54 134
8 55 137
18 59 141
10 63 148
39 86 131
71 105 123
125 155 156
171 181 184
159 160 145
154 147 119
160 149 121
156 150 121
161 154 123
157 151 127
92 114 142
43 89 151
25 73 143
21 67 144
7 68 144
11 71 146
9 70 146
7 71 147
12 72 147
9 57 137
2 58 136
0 59 138
13 69 145
15 79 151
12 74 147
8 66 142
11 65 143
12 66 141
15 64 141
13 71 145
5 72 146
13 76 148
21 78 149
9 73 145
8 70 146
4 70 146
9 70 146
7 75 148
10 74 146
16 61 138
11 62 140
11 64 140
8 66 142
40 71 143
157 170 202
226 238 255
226 238 255
226 238 255
226 238 255
226 238 255
226 238 255
226 238 255
226 238 255
226 238 255
226 238 255
226 238 255
226 238 255
226 238 255
226 238 255
226 238 255
226 238 255
226 238 255
226 238 255
226 238 255
226 238 255
226 238 255
226 238 255
226 238 255
226 238 255
226 238 255
226 238 255
226 238 255
226 238 255
226 238 255
226 238 255
226 238 255
226 238 255
226 238 255
226 238 255
226 238 255
226 238 255
226 238 255
226 238 255
226 238 255
226 238 255
226 238 255
226 238 255
226 238 255
226 238 255
226 238 255
226 238 255
226 238 255
226 238 255
226 238 255
226 238 255
226 238 255
226 238 255
226 238 255
226 238 255
226 238 255
226 238 255
226 238 255
226 238 255
226 238 255
226 238 255
226 238 255
226 238 255
226 238 255
226 238 255
226 238 255
226 238 255
226 238 255
226 238 255
226 238 255
226 238 255
226 238 255
226 238 255
226 238 255
226 238 255
226 238 255
226 238 255
226 238 255
226 238 255
226 238 255
226 238 255
226 238 255
226 238 255
226 238 255
226 238 255
226 238 255
226 238 255
226 238 255
226 238 255
226 238 255
226 238 255
226 238 255
226 238 255
226 238 255
226 238 255
226 238 255
226 238 255
226 238 255
226 238 255
226 238 255
226 238 255
226 238 255
226 238 255
226 238 255
226 238 255
226 238 255
226 238 255
226 238 255
226 238 255
226 238 255
226 238 255
226 238 255
226 238 255
226 238 255
226 238 255
226 238 255
226 238 255
226 238 255
226 238 255
226 238 255
226 238 255
226 238 255
226 238 255
226 238 255
226 238 255
226 238 255
226 238 255
226 238 255
226 238 255
226 238 255
226 238 255
226 238 255
226 238 255
226 238 255
226 238 255
226 238 255
226 238 255
226 238 255
226 238 255
226 238 255
226 238 255
226 238 255
226 238 255
226 238 255
226 238 255
226 238 255
226 238 255
226 238 255
226 238 255
226 238 255
226 238 255
226 238 255
226 238 255
226 238 255
226 238 255
226 238 255
226 238 255
226 238 255
226 238 255
226 238 255
226 238 255
226 238 255
226 238 255
226 238 255
226 238 255
226 238 255
226 238 255
226 238 255
226 238 255
226 238 255
226 238 255
226 238 255
226 238 255
226 238 255
226 238 255
226 238 255
226 238 255
226 238 255
226 238 255
226 238 255
226 238 255
226 238 255
226 238 255
226 238 255
226 238 255
226 238 255
226 238 255
226 238 255
226 238 255
226 238 255
226 238 255
226 238 255
226 238 255
226 238 255
226 238 255
226 238 255
226 238 255
226 238 255
226 238 255
226 238 255
226 238 255
226 238 255
226 238 255
226 238 255
226 238 255
226 238 255
226 238 255
226 238 255
226 238 255
226 238 255
226 238 255
226 238 255
226 238 255
226 238 255
226 238 255
226 238 255
226 238 255
226 238 255
226 238 255
226 238 255
226 238 255
226 238 255
226 238 255
226 238 255
226 238 255
226 238 255
226 238 255
226 238 255
226 238 255
226 238 255
226 238 255
226 238 255
226 238 255
226 238 255
226 238 255
226 238 255
226 238 255
226 238 255
226 238 255
226 238 255
226 238 255
226 238 255
226 238 255
226 238 255
226 238 255
226 238 255
226 238 255
226 238 255
226 238 255
226 238 255
226 238 255
226 238 255
226 238 255
226 238 255
226 238 255
226 238 255
226 238 255
226 238 255
226 238 255
226 238 255
226 238 255
226 238 255
226 238 255
226 238 255
226 238 255
226 238 255
226 238 255
226 238 255
202 215 237
72 98 157
12 58 136
11 57 136
10 63 140
10 64 142
9 58 137
9 55 135
15 56 136
11 56 136
15 59 138
9 58 137
13 58 137
15 58 136
8 53 133
7 47 129
10 52 133
12 42 127
13 41 124
8 42 128
10 42 127
10 43 128
6 39 125
7 35 123
12 30 121
12 28 120
7 24 117
10 24 117
7 26 119
0 21 118
11 27 120
7 23 119
9 23 119
14 26 119
2 20 118
9 28 120
16 31 121
15 31 121
11 31 122
9 31 122
11 31 122
14 32 122
14 33 122
11 31 122
17 34 122
13 31 121
12 29 120
6 27 120
10 28 120
12 31 121
0 34 122
3 35 123
0 37 123
0 37 123
5 31 123
14 30 122
11 33 123
5 36 124
0 34 124
0 33 123
0 34 122
3 35 121
5 34 124
0 34 124
6 34 124
9 34 124
8 33 123
8 41 125
16 45 128
14 42 127
2 35 124
8 36 124
7 37 124
0 40 125
10 42 126
0 39 125
9 41 125
5 40 125
0 40 126
0 44 127
0 43 129
7 46 130
11 50 131
4 51 133
15 57 137
11 60 138
22 59 143
55 85 127
78 109 105
111 136 141
192 203 210
183 190 191
159 156 145
152 144 114
161 150 120
163 155 123
152 148 116
104 118 136
20 86 158
19 77 152
16 68 144
15 64 141
4 64 140
4 67 143
13 68 144
5 67 142
5 62 140
13 61 139
10 61 139
7 64 140
8 70 144
9 71 146
13 71 146
10 66 143
17 65 142
12 64 141
11 66 142
20 69 144
14 69 144
9 66 143
9 64 141
18 64 142
14 68 143
3 65 143
12 68 143
10 61 139
12 58 138
0 62 139
7 65 141
10 66 142
56 83 149
197 209 232
226 238 255
226 238 255
226 238 255
226 238 255
226 238 255
226 238 255
226 238 255
226 238 255
226 238 255
226 238 255
226 238 255
226 238 255
226 238 255
226 238 255
226 238 255
226 238 255
226 238 255
226 238 255
226 238 255
226 238 255
226 238 255
226 238 255
226 238 255
226 238 255
226 238 255
226 238 255
226 238 255
226 238 255
226 238 255
226 238 255
226 238 255
226 238 255
226 238 255
226 238 255
226 238 255
226 238 255
226 238 255
226 238 255
226 238 255
226 238 255
226 238 255
226 238 255
226 238 255
226 238 255
226 238 255
226 238 255
226 238 255
226 238 255
226 238 255
226 238 255
226 238 255
226 238 255
226 238 255
226 238 255
226 238 255
226 238 255
226 238 255
226 238 255
226 238 255
226 238 255
226 238 255
226 238 255
226 238 255
226 238 255
226 238 255
226 238 255
226 238 255
226 238 255
226 238 255
226 238 255
226 238 255
226 238 255
226 238 255
226 238 255
226 238 255
226 238 255
226 238 255
226 238 255
226 238 255
226 238 255
226 238 255
226 238 255
226 238 255
226 238 255
226 238 255
226 238 255
226 238 255
226 238 255
226 238 255
226 238 255
226 238 255
226 238 255
226 238 255
226 238 255
226 238 255
226 238 255
226 238 255
226 238 255
226 238 255
226 238 255
226 238 255
226 238 255
226 238 255
226 238 255
226 238 255
226 238 255
226 238 255
226 238 255
226 238 255
226 238 255
226 238 255
226 238 255
226 238 255
226 238 255
226 238 255
226 238 255
226 238 255
226 238 255
226 238 255
226 238 255
226 238 255
226 238 255
226 238 255
226 238 255
226 238 255
226 238 255
226 238 255
226 238 255
226 238 255
226 238 255
226 238 255
226 238 255
226 238 255
226 238 255
226 238 255
226 238 255
226 238 255
226 238 255
226 238 255
226 238 255
226 238 255
226 238 255
226 238 255
226 238 255
226 238 255
226 238 255
226 238 255
226 238 255
226 238 255
226 238 255
226 238 255
226 238 255
226 238 255
226 238 255
226 238 255
226 238 255
226 238 255
226 238 255
226 238 255
226 238 255
226 238 255
226 238 255
226 238 255
226 238 255
226 238 255
226 238 255
226 238 255
226 238 255
226 238 255
226 238 255
226 238 255
226 238 255
226 238 255
226 238 255
226 238 255
226 238 255
226 238 255
226 238 255
226 238 255
226 238 255
226 238 255
226 238 255
226 238 255
226 238 255
226 238 255
226 238 255
226 238 255
226 238 255
226 238 255
226 238 255
226 238 255
226 238 255
226 238 255
226 238 255
226 238 255
226 238 255
226 238 255
226 238 255
226 238 255
226 238 255
226 238 255
226 238 255
226 238 255
226 238 255
226 238 255
226 238 255
226 238 255
226 238 255
226 238 255
226 238 255
226 238 255
226 238 255
226 238 255
226 238 255
226 238 255
226 238 255
226 238 255
226 238 255
226 238 255
226 238 255
226 238 255
226 238 255
226 238 255
226 238 255
226 238 255
226 238 255
226 238 255
226 238 255
226 238 255
226 238 255
226 238 255
226 238 255
226 238 255
226 238 255
226 238 255
226 238 255
226 238 255
226 238 255
226 238 255
226 238 255
226 238 255
226 238 255
226 238 255
226 238 255
226 238 255
226 238 255
226 238 255
226 238 255
226 238 255
226 238 255
226 238 255
226 238 255
226 238 255
226 238 255
226 238 255
226 238 255
226 238 255
226 238 255
226 238 255
226 238 255
226 238 255
226 238 255
226 238 255
226 238 255
226 238 255
226 238 255
226 238 255
226 238 255
226 238 255
223 235 253
118 136 180
12 61 139
9 58 136
13 62 140
13 65 142
8 64 140
9 61 139
7 60 139
10 60 138
7 59 138
5 59 138
14 62 140
3 61 139
13 55 135
8 59 136
15 51 133
8 49 131
13 47 129
3 46 129
14 48 130
14 51 131
18 52 132
13 49 131
10 40 127
7 35 124
13 33 122
10 29 120
11 29 120
15 31 121
12 29 120
9 30 120
11 30 120
8 28 120
8 30 121
0 26 120
8 29 121
12 33 123
0 35 124
0 35 124
0 34 124
8 35 124
3 33 123
12 36 124
3 33 123
13 32 122
12 32 122
13 31 121
13 32 122
5 33 124
14 38 125
0 39 124
3 40 125
11 43 126
12 40 126
2 39 125
9 43 126
2 42 127
10 42 126
2 39 125
7 36 124
12 36 124
0 34 124
7 35 124
17 38 125
0 34 124
7 39 124
14 42 127
16 45 127
5 36 125
16 38 126
18 39 126
3 35 125
9 41 126
10 42 126
17 44 127
9 42 126
0 39 125
4 44 128
0 42 128
10 48 130
14 53 134
12 58 137
5 60 139
3 64 143
38 80 136
56 93 110
139 153 154
210 221 231
176 185 195
199 206 209
168 165 151
162 152 125
164 155 128
164 156 125
159 152 124
141 142 120
109 120 138
44 93 152
14 67 144
6 68 143
5 68 144
8 65 142
8 64 140
14 62 140
10 60 139
10 63 142
21 64 141
8 57 136
9 64 141
16 69 145
14 67 142
10 66 141
0 63 139
3 61 139
0 60 140
3 61 141
15 66 143
10 62 139
13 59 138
12 61 139
12 66 141
7 64 141
8 62 140
10 65 142
12 67 143
6 63 140
9 65 142
126 142 183
222 234 252
226 238 255
226 238 255
226 238 255
226 238 255
226 238 255
226 238 255
226 238 255
226 238 255
226 238 255
226 238 255
226 238 255
226 238 255
226 238 255
226 238 255
226 238 255
226 238 255
226 238 255
226 238 255
226 238 255
226 238 255
226 238 255
226 238 255
226 238 255
226 238 255
226 238 255
226 238 255
226 238 255
226 238 255
226 238 255
226 238 255
226 238 255
226 238 255
226 238 255
226 238 255
226 238 255
226 238 255
226 238 255
226 238 255
226 238 255
226 238 255
226 238 255
226 238 255
226 238 255
226 238 255
226 238 255
226 238 255
226 238 255
226 238 255
226 238 255
226 238 255
226 238 255
226 238 255
226 238 255
226 238 255
226 238 255
226 238 255
226 238 255
226 238 255
226 238 255
226 238 255
226 238 255
226 238 255
226 238 255
226 238 255
226 238 255
226 238 255
226 238 255
226 238 255
226 238 255
226 238 255
226 238 255
226 238 255
226 238 255
226 238 255
226 238 255
226 238 255
226 238 255
226 238 255
226 238 255
226 238 255
226 238 255
226 238 255
226 238 255
226 238 255
226 238 255
226 238 255
226 238 255
226 238 255
226 238 255
226 238 255
226 238 255
226 238 255
226 238 255
226 238 255
226 238 255
226 238 255
226 238 255
226 238 255
226 238 255
226 238 255
226 238 255
226 238 255
226 238 255
226 238 255
226 238 255
226 238 255
226 238 255
226 238 255
226 238 255
226 238 255
226 238 255
226 238 255
226 238 255
226 238 255
226 238 255
226 238 255
226 238 255
226 238 255
226 238 255
226 238 255
226 238 255
226 238 255
226 238 255
226 238 255
226 238 255
226 238 255
226 238 255
226 238 255
226 238 255
226 238 255
226 238 255
226 238 255
226 238 255
226 238 255
226 238 255
226 238 255
226 238 255
226 238 255
226 238 255
226 238 255
226 238 255
226 238 255
226 238 255
226 238 255
226 238 255
226 238 255
226 238 255
226 238 255
226 238 255
226 238 255
226 238 255
226 238 255
226 238 255
226 238 255
226 238 255
226 238 255
226 238 255
226 238 255
226 238 255
226 238 255
226 238 255
226 238 255
226 238 255
226 238 255
226 238 255
226 238 255
226 238 255
226 238 255
226 238 255
226 238 255
226 238 255
226 238 255
226 238 255
226 238 255
226 238 255
226 238 255
226 238 255
226 238 255
226 238 255
226 238 255
226 238 255
226 238 255
226 238 255
226 238 255
226 238 255
226 238 255
226 238 255
226 238 255
226 238 255
226 238 255
226 238 255
226 238 255
226 238 255
226 238 255
226 238 255
226 238 255
226 238 255
226 238 255
226 238 255
226 238 255
226 238 255
226 238 255
226 238 255
226 238 255
226 238 255
226 238 255
226 238 255
226 238 255
226 238 255
226 238 255
226 238 255
226 238 255
226 238 255
226 238 255
226 238 255
226 238 255
226 238 255
226 238 255
226 238 255
226 238 255
226 238 255
226 238 255
226 238 255
226 238 255
226 238 255
226 238 255
226 238 255
226 238 255
226 238 255
226 238 255
226 238 255
226 238 255
226 238 255
226 238 255
226 238 255
226 238 255
226 238 255
226 238 255
226 238 255
226 238 255
226 238 255
226 238 255
226 238 255
226 238 255
226 238 255
226 238 255
226 238 255
226 238 255
226 238 255
226 238 255
226 238 255
226 238 255
226 238 255
226 238 255
226 238 255
226 238 255
226 238 255
226 238 255
226 238 255
226 238 255
226 238 255
226 238 255
226 238 255
226 238 255
226 238 255
226 238 255
226 238 255
226 238 255
226 238 255
226 238 255
226 238 255
226 238 255
180 194 221
35 75 146
10 63 140
10 62 139
18 65 141
12 65 142
14 64 141
12 64 140
16 62 140
5 59 139
7 58 138
13 61 139
9 65 141
16 61 139
5 59 138
14 52 133
9 51 133
15 58 136
12 54 134
7 49 130
16 56 135
3 56 136
8 57 137
18 52 134
18 47 130
6 39 126
6 39 125
9 30 121
3 25 118
2 30 121
10 38 122
1 35 123
14 44 127
11 40 126
11 43 127
0 45 129
0 41 126
6 40 125
9 40 125
14 39 125
14 39 125
9 36 124
15 38 125
10 37 125
0 34 124
1 34 124
0 34 124
8 36 125
19 44 127
9 41 126
13 43 127
5 47 128
9 45 128
1 39 126
6 47 128
0 48 130
1 46 129
11 43 127
9 41 126
0 36 124
0 37 125
0 38 125
9 37 125
1 38 124
6 34 124
0 34 124
0 44 127
0 43 127
8 43 127
11 43 127
6 41 126
0 44 127
0 43 127
2 46 128
5 45 128
12 42 126
9 43 128
4 47 130
9 53 132
7 59 136
6 65 141
12 70 146
20 73 150
33 89 147
65 106 150
180 193 203
208 216 224
205 211 219
186 186 174
173 163 142
169 160 133
166 160 132
167 157 129
167 156 124
143 144 119
85 108 146
17 77 149
2 69 145
11 64 142
17 64 140
11 66 141
5 65 140
4 57 137
8 59 138
11 63 140
19 64 141
16 55 136
8 53 135
14 54 135
15 60 138
16 57 137
15 54 135
12 59 138
10 59 139
5 58 137
11 59 138
10 59 137
9 64 140
9 67 143
11 72 145
10 68 144
6 64 141
11 63 140
14 62 139
40 73 144
172 186 214
226 238 255
226 238 255
226 238 255
226 238 255
226 238 255
226 238 255
226 238 255
226 238 255
226 238 255
226 238 255
226 238 255
226 238 255
226 238 255
226 238 255
226 238 255
226 238 255
226 238 255
226 238 255
226 238 255
226 238 255
226 238 255
226 238 255
226 238 255
226 238 255
226 238 255
226 238 255
226 238 255
226 238 255
226 238 255
226 238 255
226 238 255
226 238 255
226 238 255
226 238 255
226 238 255
226 238 255
226 238 255
226 238 255
226 238 255
226 238 255
226 238 255
226 238 255
226 238 255
226 238 255
226 238 255
226 238 255
226 238 255
226 238 255
226 238 255
226 238 255
226 238 255
226 238 255
226 238 255
226 238 255
226 238 255
226 238 255
226 238 255
226 238 255
226 238 255
226 238 255
226 238 255
226 238 255
226 238 255
226 238 255
226 238 255
226 238 255
226 238 255
226 238 255
226 238 255
226 238 255
226 238 255
226 238 255
226 238 255
226 238 255
226 238 255
226 238 255
226 238 255
226 238 255
226 238 255
226 238 255
226 238 255
226 238 255
226 238 255
226 238 255
226 238 255
226 238 255
226 238 255
226 238 255
226 238 255
226 238 255
226 238 255
226 238 255
226 238 255
226 238 255
226 238 255
226 238 255
226 238 255
226 238 255
226 238 255
226 238 255
226 238 255
226 238 255
226 238 255
226 238 255
226 238 255
226 238 255
226 238 255
226 238 255
226 238 255
226 238 255
226 238 255
226 238 255
226 238 255
226 238 255
226 238 255
226 238 255
226 238 255
226 238 255
226 238 255
226 238 255
226 238 255
226 238 255
226 238 255
226 238 255
226 238 255
226 238 255
226 238 255
226 238 255
226 238 255
226 238 255
226 238 255
226 238 255
226 238 255
226 238 255
226 238 255
226 238 255
226 238 255
226 238 255
226 238 255
226 238 255
226 238 255
226 238 255
226 238 255
226 238 255
226 238 255
226 238 255
226 238 255
226 238 255
226 238 255
226 238 255
226 238 255
226 238 255
226 238 255
226 238 255
226 238 255
226 238 255
226 238 255
226 238 255
226 238 255
226 238 255
226 238 255
226 238 255
226 238 255
226 238 255
226 238 255
226 238 255
226 238 255
226 238 255
226 238 255
226 238 255
226 238 255
226 238 255
226 238 255
226 238 255
226 238 255
226 238 255
226 238 255
226 238 255
226 238 255
226 238 255
226 238 255
226 238 255
226 238 255
226 238 255
226 238 255
226 238 255
226 238 255
226 238 255
226 238 255
226 238 255
226 238 255
226 238 255
226 238 255
226 238 255
226 238 255
226 238 255
226 238 255
226 238 255
226 238 255
226 238 255
226 238 255
226 238 255
226 238 255
226 238 255
226 238 255
226 238 255
226 238 255
226 238 255
226 238 255
226 238 255
226 238 255
226 238 255
226 238 255
226 238 255
226 238 255
226 238 255
226 238 255
226 238 255
226 238 255
226 238 255
226 238 255
226 238 255
226 238 255
226 238 255
226 238 255
226 238 255
226 238 255
226 238 255
226 238 255
226 238 255
226 238 255
226 238 255
226 238 255
226 238 255
226 238 255
226 238 255
226 238 255
226 238 255
226 238 255
226 238 255
226 238 255
226 238 255
226 238 255
226 238 255
226 238 255
226 238 255
226 238 255
226 238 255
226 238 255
226 238 255
226 238 255
226 238 255
226 238 255
226 238 255
226 238 255
226 238 255
226 238 255
226 238 255
226 238 255
226 238 255
226 238 255
226 238 255
226 238 255
226 238 255
226 238 255
226 238 255
226 238 255
226 238 255
226 238 255
226 238 255
226 238 255
226 238 255
226 238 255
226 238 255
226 238 255
213 227 246
124 144 186
11 73 147
14 78 149
14 70 145
15 67 145
17 68 143
14 66 143
11 64 141
8 61 139
13 59 137
13 60 138
12 65 141
15 65 142
12 66 142
9 55 135
9 55 134
6 58 137
6 55 135
11 54 133
7 46 129
8 47 130
17 51 133
9 46 131
14 50 131
13 46 129
14 43 127
14 34 123
3 31 120
8 33 121
13 40 125
7 46 130
7 44 128
16 45 128
5 43 127
15 44 127
13 47 129
10 43 129
15 43 128
12 40 128
10 43 126
5 43 126
10 44 129
15 41 127
4 37 125
19 41 126
12 40 126
7 43 127
12 46 129
5 44 129
6 47 130
0 43 129
0 42 128
5 46 130
16 50 131
3 47 130
12 50 130
14 48 130
15 39 126
6 38 125
6 36 125
9 36 125
0 36 122
10 36 124
0 39 125
0 41 126
2 44 128
6 46 129
3 41 128
11 46 128
0 53 132
7 50 132
0 50 131
7 52 131
6 49 130
1 46 129
2 50 133
9 53 134
10 61 138
11 67 143
12 75 150
41 86 141
92 119 128
142 163 177
204 215 228
200 212 223
201 206 202
172 169 142
168 157 117
171 158 122
166 160 135
148 144 130
91 106 142
34 81 147
9 68 145
17 70 147
7 65 143
12 62 140
14 63 140
10 63 140
7 67 141
13 64 140
10 61 139
13 64 142
9 61 138
1 57 134
10 55 134
9 55 135
8 54 135
11 54 134
7 53 134
12 54 135
7 56 136
9 59 137
12 60 139
11 63 141
12 72 147
11 71 146
14 67 143
14 65 141
12 62 140
11 61 139
104 122 171
209 221 242
226 238 255
226 238 255
226 238 255
226 238 255
226 238 255
226 238 255
226 238 255
226 238 255
226 238 255
226 238 255
226 238 255
226 238 255
226 238 255
226 238 255
226 238 255
226 238 255
226 238 255
226 238 255
226 238 255
226 238 255
226 238 255
226 238 255
226 238 255
226 238 255
226 238 255
226 238 255
226 238 255
226 238 255
226 238 255
226 238 255
226 238 255
226 238 255
226 238 255
226 238 255
226 238 255
226 238 255
226 238 255
226 238 255
226 238 255
226 238 255
226 238 255
226 238 255
226 238 255
226 238 255
226 238 255
226 238 255
226 238 255
226 238 255
226 238 255
226 238 255
226 238 255
226 238 255
226 238 255
226 238 255
226 238 255
226 238 255
226 238 255
226 238 255
226 238 255
226 238 255
226 238 255
226 238 255
226 238 255
226 238 255
226 238 255
226 238 255
226 238 255
226 238 255
226 238 255
226 238 255
226 238 255
226 238 255
226 238 255
226 238 255
226 238 255
226 238 255
226 238 255
226 238 255
226 238 255
226 238 255
226 238 255
226 238 255
226 238 255
226 238 255
226 238 255
226 238 255
226 238 255
226 238 255
226 238 255
226 238 255
226 238 255
226 238 255
226 238 255
226 238 255
226 238 255
226 238 255
226 238 255
226 238 255
226 238 255
226 238 255
226 238 255
226 238 255
226 238 255
226 238 255
226 238 255
226 238 255
226 238 255
226 238 255
226 238 255
226 238 255
226 238 255
226 238 255
226 238 255
226 238 255
226 238 255
226 238 255
226 238 255
226 238 255
226 238 255
226 238 255
226 238 255
226 238 255
226 238 255
226 238 255
226 238 255
226 238 255
226 238 255
226 238 255
226 238 255
226 238 255
226 238 255
226 238 255
226 238 255
226 238 255
226 238 255
226 238 255
226 238 255
226 238 255
226 238 255
226 238 255
226 238 255
226 238 255
226 238 255
226 238 255
226 238 255
226 238 255
226 238 255
226 238 255
226 238 255
226 238 255
226 238 255
226 238 255
226 238 255
226 238 255
226 238 255
226 238 255
226 238 255
226 238 255
226 238 255
226 238 255
226 238 255
226 238 255
226 238 255
226 238 255
226 238 255
226 238 255
226 238 255
226 238 255
226 238 255
226 238 255
226 238 255
226 238 255
226 238 255
226 238 255
226 238 255
226 238 255
226 238 255
226 238 255
226 238 255
226 238 255
226 238 255
226 238 255
226 238 255
226 238 255
226 238 255
226 238 255
226 238 255
226 238 255
226 238 255
226 238 255
226 238 255
226 238 255
226 238 255
226 238 255
226 238 255
226 238 255
226 238 255
226 238 255
226 238 255
226 238 255
226 238 255
226 238 255
226 238 255
226 238 255
226 238 255
226 238 255
226 238 255
226 238 255
226 238 255
226 238 255
226 238 255
226 238 255
226 238 255
226 238 255
226 238 255
226 238 255
226 238 255
226 238 255
226 238 255
226 238 255
226 238 255
226 238 255
226 238 255
226 238 255
226 238 255
226 238 255
226 238 255
226 238 255
226 238 255
226 238 255
226 238 255
226 238 255
226 238 255
226 238 255
226 238 255
226 238 255
226 238 255
226 238 255
226 238 255
226 238 255
226 238 255
226 238 255
226 238 255
226 238 255
226 238 255
226 238 255
226 238 255
226 238 255
226 238 255
226 238 255
226 238 255
226 238 255
226 238 255
226 238 255
226 238 255
226 238 255
226 238 255
226 238 255
226 238 255
226 238 255
226 238 255
226 238 255
226 238 255
226 238 255
226 238 255
226 238 255
226 238 255
226 238 255
226 238 255
226 238 255
226 238 255
226 238 255
226 238 255
226 238 255
226 238 255
226 238 255
226 238 255
224 236 254
180 196 223
53 98 160
15 86 154
14 78 150
12 69 144
17 70 144
13 64 142
7 67 143
1 61 139
10 60 139
19 60 140
12 54 136
11 63 140
9 65 141
12 60 138
18 59 137
9 55 135
4 59 137
15 58 136
12 53 134
12 50 132
9 46 129
15 45 128
10 41 126
2 46 129
11 44 128
10 39 125
9 35 122
11 30 121
9 37 125
22 54 134
11 52 132
15 49 130
13 40 127
12 43 127
12 55 135
13 52 134
12 46 131
4 48 131
0 47 129
7 50 131
9 47 129
0 47 129
3 47 130
18 54 134
13 51 133
10 49 130
3 42 127
5 46 129
0 46 130
0 46 130
6 47 130
8 48 130
0 48 130
14 52 133
9 55 135
7 49 132
6 47 130
15 48 129
14 43 127
0 34 124
0 34 124
0 34 124
0 34 125
3 36 125
15 42 129
8 49 131
0 49 130
4 52 131
7 51 131
0 47 130
5 47 130
1 49 130
10 51 132
7 51 133
8 52 133
13 59 138
8 63 142
21 76 149
89 120 146
152 169 183
204 213 227
221 232 241
184 192 188
174 167 142
172 164 132
166 159 122
162 153 117
144 143 124
58 96 146
25 69 145
16 69 144
18 74 148
6 66 143
18 65 142
8 63 140
16 64 141
10 64 142
7 67 144
16 66 143
16 65 142
12 60 139
14 54 135
14 56 136
9 57 136
8 58 138
10 58 138
18 58 137
11 59 138
11 59 138
4 60 138
10 63 140
12 66 143
11 73 147
10 72 146
12 60 139
12 67 144
13 65 142
41 72 143
177 190 218
225 237 255
226 238 255
226 238 255
226 238 255
226 238 255
226 238 255
226 238 255
226 238 255
226 238 255
226 238 255
226 238 255
226 238 255
226 238 255
226 238 255
226 238 255
226 238 255
226 238 255
226 238 255
226 238 255
226 238 255
226 238 255
226 238 255
226 238 255
226 238 255
226 238 255
226 238 255
226 238 255
226 238 255
226 238 255
226 238 255
226 238 255
226 238 255
226 238 255
226 238 255
226 238 255
226 238 255
226 238 255
226 238 255
226 238 255
226 238 255
226 238 255
226 238 255
226 238 255
226 238 255
226 238 255
226 238 255
226 238 255
226 238 255
226 238 255
226 238 255
226 238 255
226 238 255
226 238 255
226 238 255
226 238 255
226 238 255
226 238 255
226 238 255
226 238 255
226 238 255
226 238 255
226 238 255
226 238 255
226 238 255
226 238 255
226 238 255
226 238 255
226 238 255
226 238 255
226 238 255
226 238 255
226 238 255
226 238 255
226 238 255
226 238 255
226 238 255
226 238 255
226 238 255
226 238 255
226 238 255
226 238 255
226 238 255
226 238 255
226 238 255
226 238 255
226 238 255
226 238 255
226 238 255
226 238 255
226 238 255
226 238 255
226 238 255
226 238 255
226 238 255
226 238 255
226 238 255
226 238 255
226 238 255
226 238 255
226 238 255
226 238 255
226 238 255
226 238 255
226 238 255
226 238 255
226 238 255
226 238 255
226 238 255
226 238 255
226 238 255
226 238 255
226 238 255
226 238 255
226 238 255
226 238 255
226 238 255
226 238 255
226 238 255
226 238 255
226 238 255
226 238 255
226 238 255
226 238 255
226 238 255
226 238 255
226 238 255
226 238 255
226 238 255
226 238 255
226 238 255
226 238 255
226 238 255
226 238 255
226 238 255
226 238 255
226 238 255
226 238 255
226 238 255
226 238 255
226 238 255
226 238 255
226 238 255
226 238 255
226 238 255
226 238 255
226 238 255
226 238 255
226 238 255
226 238 255
226 238 255
226 238 255
226 238 255
226 238 255
226 238 255
226 238 255
226 238 255
226 238 255
226 238 255
226 238 255
226 238 255
226 238 255
226 238 255
226 238 255
226 238 255
226 238 255
226 238 255
226 238 255
226 238 255
226 238 255
226 238 255
226 238 255
226 238 255
226 238 255
226 238 255
226 238 255
226 238 255
226 238 255
226 238 255
226 238 255
226 238 255
226 238 255
226 238 255
226 238 255
226 238 255
226 238 255
226 238 255
226 238 255
226 238 255
226 238 255
226 238 255
226 238 255
226 238 255
226 238 255
226 238 255
226 238 255
226 238 255
226 238 255
226 238 255
226 238 255
226 238 255
226 238 255
226 238 255
226 238 255
226 238 255
226 238 255
226 238 255
226 238 255
226 238 255
226 238 255
226 238 255
226 238 255
226 238 255
226 238 255
226 238 255
226 238 255
226 238 255
226 238 255
226 238 255
226 238 255
226 238 255
226 238 255
226 238 255
226 238 255
226 238 255
226 238 255
226 238 255
226 238 255
226 238 255
226 238 255
226 238 255
226 238 255
226 238 255
226 238 255
226 238 255
226 238 255
226 238 255
226 238 255
226 238 255
226 238 255
226 238 255
226 238 255
226 238 255
226 238 255
226 238 255
226 238 255
226 238 255
226 238 255
226 238 255
226 238 255
226 238 255
226 238 255
226 238 255
226 238 255
226 238 255
226 238 255
226 238 255
226 238 255
226 238 255
226 238 255
226 238 255
226 238 255
226 238 255
226 238 255
226 238 255
226 238 255
226 238 255
226 238 255
226 238 255
226 238 255
226 238 255
226 238 255
226 238 255
226 238 255
226 238 255
226 238 255
226 238 255
226 238 255
226 238 255
226 238 255
226 238 255
226 238 255
206 220 241
109 138 183
13 87 155
11 83 152
12 74 148
16 70 144
16 70 144
10 70 145
10 64 141
4 65 142
10 64 141
13 63 140
17 64 141
20 65 142
12 61 139
8 59 138
15 62 139
11 60 138
8 57 137
11 55 135
11 47 130
13 44 129
15 42 126
8 38 125
3 42 127
13 41 126
6 42 127
10 44 128
19 40 124
13 44 127
10 51 132
13 58 135
0 57 136
8 56 136
12 48 129
16 43 127
12 52 134
13 53 134
4 54 132
14 57 134
11 55 135
6 51 133
11 52 134
11 51 133
3 50 131
16 55 133
10 52 132
0 51 132
1 53 134
1 53 134
7 55 135
11 59 137
11 58 136
17 56 134
20 62 138
18 62 138
12 55 135
5 49 131
14 47 128
0 39 126
7 39 126
8 38 125
6 36 124
3 36 125
8 43 127
4 49 131
8 50 132
16 56 134
11 55 133
4 48 131
3 46 129
0 46 129
3 49 131
2 50 133
6 49 133
18 59 137
8 61 139
24 75 148
87 117 141
163 182 201
223 231 241
196 209 214
174 175 158
173 167 135
160 152 114
147 143 121
84 108 143
42 85 150
15 78 152
5 76 150
15 69 144
14 67 144
10 62 140
12 63 139
30 69 141
59 89 138
68 89 139
59 85 140
13 66 143
9 62 139
14 57 137
17 56 137
8 58 137
14 60 139
8 58 136
12 58 137
10 61 140
12 62 139
9 63 140
10 65 142
16 72 147
35 82 151
36 71 145
19 64 140
13 68 143
11 69 144
124 141 183
214 226 246
226 238 255
226 238 255
226 238 255
226 238 255
226 238 255
226 238 255
226 238 255
226 238 255
226 238 255
226 238 255
226 238 255
226 238 255
226 238 255
226 238 255
226 238 255
226 238 255
226 238 255
226 238 255
226 238 255
226 238 255
226 238 255
226 238 255
226 238 255
226 238 255
226 238 255
226 238 255
226 238 255
226 238 255
226 238 255
226 238 255
226 238 255
226 238 255
226 238 255
226 238 255
226 238 255
226 238 255
226 238 255
226 238 255
226 238 255
226 238 255
226 238 255
226 238 255
226 238 255
226 238 255
226 238 255
226 238 255
226 238 255
226 238 255
226 238 255
226 238 255
226 238 255
226 238 255
226 238 255
226 238 255
226 238 255
226 238 255
226 238 255
226 238 255
226 238 255
226 238 255
226 238 255
226 238 255
226 238 255
226 238 255
226 238 255
226 238 255
226 238 255
226 238 255
226 238 255
226 238 255
226 238 255
226 238 255
226 238 255
226 238 255
226 238 255
226 238 255
226 238 255
226 238 255
226 238 255
226 238 255
226 238 255
226 238 255
226 238 255
226 238 255
226 238 255
226 238 255
226 238 255
226 238 255
226 238 255
226 238 255
226 238 255
226 238 255
226 238 255
226 238 255
226 238 255
226 238 255
226 238 255
226 238 255
226 238 255
226 238 255
226 238 255
226 238 255
226 238 255
226 238 255
226 238 255
226 238 255
226 238 255
226 238 255
226 238 255
226 238 255
226 238 255
226 238 255
226 238 255
226 238 255
226 238 255
226 238 255
226 238 255
226 238 255
226 238 255
226 238 255
226 238 255
226 238 255
226 238 255
226 238 255
226 238 255
226 238 255
226 238 255
226 238 255
226 238 255
226 238 255
226 238 255
226 238 255
226 238 255
226 238 255
226 238 255
226 238 255
226 238 255
226 238 255
226 238 255
226 238 255
226 238 255
226 238 255
226 238 255
226 238 255
226 238 255
226 238 255
226 238 255
226 238 255
226 238 255
226 238 255
226 238 255
226 238 255
226 238 255
226 238 255
226 238 255
226 238 255
226 238 255
226 238 255
226 238 255
226 238 255
226 238 255
226 238 255
226 238 255
226 238 255
226 238 255
226 238 255
226 238 255
226 238 255
226 238 255
226 238 255
226 238 255
226 238 255
226 238 255
226 238 255
226 238 255
226 238 255
226 238 255
226 238 255
226 238 255
226 238 255
226 238 255
226 238 255
226 238 255
226 238 255
226 238 255
226 238 255
226 238 255
226 238 255
226 238 255
226 238 255
226 238 255
226 238 255
226 238 255
226 238 255
226 238 255
226 238 255
226 238 255
226 238 255
226 238 255
226 238 255
226 238 255
226 238 255
226 238 255
226 238 255
226 238 255
226 238 255
226 238 255
226 238 255
226 238 255
226 238 255
226 238 255
226 238 255
226 238 255
226 238 255
226 238 255
226 238 255
226 238 255
226 238 255
226 238 255
226 238 255
226 238 255
226 238 255
226 238 255
226 238 255
226 238 255
226 238 255
226 238 255
226 238 255
226 238 255
226 238 255
226 238 255
226 238 255
226 238 255
226 238 255
226 238 255
226 238 255
226 238 255
226 238 255
226 238 255
226 238 255
226 238 255
226 238 255
226 238 255
226 238 255
226 238 255
226 238 255
226 238 255
226 238 255
226 238 255
226 238 255
226 238 255
226 238 255
226 238 255
226 238 255
226 238 255
226 238 255
226 238 255
226 238 255
226 238 255
226 238 255
226 238 255
226 238 255
226 238 255
226 238 255
226 238 255
226 238 255
226 238 255
226 238 255
226 238 255
226 238 255
226 238 255
226 238 255
226 238 255
226 238 255
226 238 255
226 238 255
226 238 255
226 238 255
226 238 255
226 238 255
226 238 255
226 238 255
226 238 255
225 237 255
182 199 226
79 122 173
13 88 155
14 79 150
9 78 149
13 75 148
13 70 145
11 64 141
10 60 139
14 60 139
15 68 144
10 64 141
11 63 140
12 64 141
15 64 140
9 61 139
10 59 138
8 63 141
14 68 144
12 65 141
5 55 134
8 41 126
16 34 125
6 39 126
7 41 127
13 44 130
8 54 134
20 58 136
15 54 135
14 49 131
9 51 131
16 54 136
12 59 136
11 55 133
16 50 131
11 46 129
11 53 133
12 57 135
8 60 138
11 60 138
16 54 135
14 54 135
2 48 131
7 52 132
11 55 136
4 58 136
6 59 138
10 60 138
6 60 138
12 60 138
17 60 139
10 59 138
10 55 133
3 56 136
18 60 139
14 55 136
15 55 136
6 54 134
9 51 132
7 44 128
5 43 127
0 42 128
0 41 127
8 45 129
10 50 132
4 55 135
12 61 138
19 58 137
14 58 136
16 55 135
9 58 137
8 58 138
7 56 136
5 58 138
17 64 141
37 86 152
100 131 159
149 168 185
196 206 212
169 166 145
168 162 129
153 145 104
141 135 99
82 112 148
27 84 153
6 82 151
5 79 151
7 79 150
11 69 145
11 65 143
9 66 144
31 75 143
65 89 136
96 111 134
75 98 135
25 72 141
16 64 140
0 60 138
12 57 137
11 58 137
10 59 139
11 62 141
7 64 140
11 68 143
16 67 143
8 66 142
3 67 143
10 68 143
15 73 148
96 118 169
26 73 145
18 76 148
52 94 157
178 193 220
226 238 255
226 238 255
226 238 255
226 238 255
226 238 255
226 238 255
226 238 255
226 238 255
226 238 255
226 238 255
226 238 255
226 238 255
226 238 255
226 238 255
226 238 255
226 238 255
226 238 255
226 238 255
226 238 255
226 238 255
226 238 255
226 238 255
226 238 255
226 238 255
226 238 255
226 238 255
226 238 255
226 238 255
226 238 255
226 238 255
226 238 255
226 238 255
226 238 255
226 238 255
226 238 255
226 238 255
226 238 255
226 238 255
226 238 255
226 238 255
226 238 255
226 238 255
226 238 255
226 238 255
226 238 255
226 238 255
226 238 255
226 238 255
226 238 255
226 238 255
226 238 255
226 238 255
226 238 255
226 238 255
226 238 255
226 238 255
226 238 255
226 238 255
226 238 255
226 238 255
226 238 255
226 238 255
226 238 255
226 238 255
226 238 255
226 238 255
226 238 255
226 238 255
226 238 255
226 238 255
226 238 255
226 238 255
226 238 255
226 238 255
226 238 255
226 238 255
226 238 255
226 238 255
226 238 255
226 238 255
226 238 255
226 238 255
226 238 255
226 238 255
226 238 255
226 238 255
226 238 255
226 238 255
226 238 255
226 238 255
226 238 255
226 238 255
226 238 255
226 238 255
226 238 255
226 238 255
226 238 255
226 238 255
226 238 255
226 238 255
226 238 255
226 238 255
226 238 255
226 238 255
226 238 255
226 238 255
226 238 255
226 238 255
226 238 255
226 238 255
226 238 255
226 238 255
226 238 255
226 238 255
226 238 255
226 238 255
226 238 255
226 238 255
226 238 255
226 238 255
226 238 255
226 238 255
226 238 255
226 238 255
226 238 255
226 238 255
226 238 255
226 238 255
226 238 255
226 238 255
226 238 255
226 238 255
226 238 255
226 238 255
226 238 255
226 238 255
226 238 255
226 238 255
226 238 255
226 238 255
226 238 255
226 238 255
226 238 255
226 238 255
226 238 255
226 238 255
226 238 255
226 238 255
226 238 255
226 238 255
226 238 255
226 238 255
226 238 255
226 238 255
226 238 255
226 238 255
226 238 255
226 238 255
226 238 255
226 238 255
226 238 255
226 238 255
226 238 255
226 238 255
226 238 255
226 238 255
226 238 255
226 238 255
226 238 255
226 238 255
226 238 255
226 238 255
226 238 255
226 238 255
226 238 255
226 238 255
226 238 255
226 238 255
226 238 255
226 238 255
226 238 255
226 238 255
226 238 255
226 238 255
226 238 255
226 238 255
226 238 255
226 238 255
226 238 255
226 238 255
226 238 255
226 238 255
226 238 255
226 238 255
226 238 255
226 238 255
226 238 255
226 238 255
226 238 255
226 238 255
226 238 255
226 238 255
226 238 255
226 238 255
226 238 255
226 238 255
226 238 255
226 238 255
226 238 255
226 238 255
226 238 255
226 238 255
226 238 255
226 238 255
226 238 255
226 238 255
226 238 255
226 238 255
226 238 255
226 238 255
226 238 255
226 238 255
226 238 255
226 238 255
226 238 255
226 238 255
226 238 255
226 238 255
226 238 255
226 238 255
226 238 255
226 238 255
226 238 255
226 238 255
226 238 255
226 238 255
226 238 255
226 238 255
226 238 255
226 238 255
226 238 255
226 238 255
226 238 255
226 238 255
226 238 255
226 238 255
226 238 255
226 238 255
226 238 255
226 238 255
226 238 255
226 238 255
226 238 255
226 238 255
226 238 255
226 238 255
226 238 255
226 238 255
226 238 255
226 238 255
226 238 255
226 238 255
226 238 255
226 238 255
226 238 255
226 238 255
226 238 255
226 238 255
226 238 255
226 238 255
226 238 255
226 238 255
226 238 255
226 238 255
226 238 255
226 238 255
226 238 255
226 238 255
226 238 255
226 238 255
226 238 255
226 238 255
226 238 255
226 238 255
226 238 255
226 238 255
226 238 255
218 232 250
144 170 204
48 104 164
11 87 154
14 76 148
11 78 150
14 83 152
11 71 146
18 63 141
14 62 139
16 70 145
12 71 147
12 70 146
10 71 145
11 66 141
11 59 138
11 61 139
17 64 141
13 66 144
10 65 141
15 53 134
16 40 126
12 41 127
12 50 131
10 49 131
10 51 131
12 59 138
15 60 138
16 57 136
9 50 131
1 43 129
12 51 133
10 56 134
8 58 137
10 59 138
7 59 137
3 59 138
5 63 141
10 68 143
6 63 139
18 64 140
10 57 136
14 49 131
12 51 132
13 59 138
16 58 136
7 57 136
18 62 140
19 65 141
9 59 137
5 56 135
17 64 141
15 64 141
20 63 141
13 59 139
13 59 139
7 62 139
12 55 135
0 47 130
0 50 131
8 50 132
6 48 130
11 46 128
5 50 130
10 58 136
6 63 141
3 62 140
3 58 137
16 56 137
9 60 138
7 62 141
13 68 144
5 71 145
5 75 148
58 99 156
92 126 155
145 164 178
142 158 168
151 154 134
151 142 113
137 139 122
108 128 136
54 108 152
19 80 151
19 80 152
12 74 147
12 66 142
10 63 141
9 65 142
16 64 142
11 66 144
21 74 145
16 73 146
12 70 147
13 59 138
12 61 139
12 58 136
15 58 136
13 63 140
12 66 143
12 66 143
11 66 143
12 68 144
14 65 141
15 64 142
18 71 146
12 68 143
17 76 148
13 78 150
43 89 154
144 164 201
217 230 249
226 238 255
226 238 255
226 238 255
226 238 255
226 238 255
226 238 255
226 238 255
226 238 255
226 238 255
226 238 255
226 238 255
226 238 255
226 238 255
226 238 255
226 238 255
226 238 255
226 238 255
226 238 255
226 238 255
226 238 255
226 238 255
226 238 255
226 238 255
226 238 255
226 238 255
226 238 255
226 238 255
226 238 255
226 238 255
226 238 255
226 238 255
226 238 255
226 238 255
226 238 255
226 238 255
226 238 255
226 238 255
226 238 255
226 238 255
226 238 255
226 238 255
226 238 255
226 238 255
226 238 255
226 238 255
226 238 255
226 238 255
226 238 255
226 238 255
226 238 255
226 238 255
226 238 255
226 238 255
226 238 255
226 238 255
226 238 255
226 238 255
226 238 255
226 238 255
226 238 255
226 238 255
226 238 255
226 238 255
226 238 255
226 238 255
226 238 255
226 238 255
226 238 255
226 238 255
226 238 255
226 238 255
226 238 255
226 238 255
226 238 255
226 238 255
226 238 255
226 238 255
226 238 255
226 238 255
226 238 255
226 238 255
226 238 255
226 238 255
226 238 255
226 238 255
226 238 255
226 238 255
226 238 255
226 238 255
226 238 255
226 238 255
226 238 255
226 238 255
226 238 255
226 238 255
226 238 255
226 238 255
226 238 255
226 238 255
226 238 255
226 238 255
226 238 255
226 238 255
226 238 255
226 238 255
226 238 255
226 238 255
226 238 255
226 238 255
226 238 255
226 238 255
226 238 255
226 238 255
226 238 255
226 238 255
226 238 255
226 238 255
226 238 255
226 238 255
226 238 255
226 238 255
226 238 255
226 238 255
226 238 255
226 238 255
226 238 255
226 238 255
226 238 255
226 238 255
226 238 255
226 238 255
226 238 255
226 238 255
226 238 255
226 238 255
226 238 255
226 238 255
226 238 255
226 238 255
226 238 255
226 238 255
226 238 255
226 238 255
226 238 255
226 238 255
226 238 255
226 238 255
226 238 255
226 238 255
226 238 255
226 238 255
226 238 255
226 238 255
226 238 255
226 238 255
226 238 255
226 238 255
226 238 255
226 238 255
226 238 255
226 238 255
226 238 255
226 238 255
226 238 255
226 238 255
226 238 255
226 238 255
226 238 255
226 238 255
226 238 255
226 238 255
226 238 255
226 238 255
226 238 255
226 238 255
226 238 255
226 238 255
226 238 255
226 238 255
226 238 255
226 238 255
226 238 255
226 238 255
226 238 255
226 238 255
226 238 255
226 238 255
226 238 255
226 238 255
226 238 255
226 238 255
226 238 255
226 238 255
226 238 255
226 238 255
226 238 255
226 238 255
226 238 255
226 238 255
226 238 255
226 238 255
226 238 255
226 238 255
226 238 255
226 238 255
226 238 255
226 238 255
226 238 255
226 238 255
226 238 255
226 238 255
226 238 255
226 238 255
226 238 255
226 238 255
226 238 255
226 238 255
226 238 255
226 238 255
226 238 255
226 238 255
226 238 255
226 238 255
226 238 255
226 238 255
226 238 255
226 238 255
226 238 255
226 238 255
226 238 255
226 238 255
226 238 255
226 238 255
226 238 255
226 238 255
226 238 255
226 238 255
226 238 255
226 238 255
226 238 255
226 238 255
226 239 255
226 238 255
226 239 255
226 239 255
226 239 255
226 239 255
226 239 255
226 239 255
226 239 255
226 239 255
226 239 255
226 239 255
226 239 255
226 239 255
226 239 255
226 239 255
226 239 255
226 239 255
226 239 255
226 239 255
226 239 255
226 239 255
226 239 255
226 239 255
226 239 255
226 239 255
226 239 255
226 239 255
226 239 255
226 239 255
226 239 255
226 239 255
226 239 255
226 239 255
226 239 255
226 239 255
226 239 255
226 239 255
226 239 255
226 239 255
226 239 255
226 239 255
226 239 255
227 239 255
227 239 255
227 239 255
227 239 255
227 239 255
227 239 255
209 223 244
125 158 196
17 97 160
12 89 155
14 85 153
15 88 155
13 78 150
16 70 145
17 63 140
21 70 144
16 73 146
15 75 146
12 75 148
17 72 148
14 64 141
12 66 142
12 63 142
10 62 140
10 68 144
11 65 141
16 60 138
12 49 130
15 52 132
7 51 132
13 47 131
10 52 133
16 53 134
10 57 136
18 55 136
9 51 134
10 54 134
8 53 133
9 55 134
10 57 136
12 61 139
9 63 140
10 65 143
6 62 140
10 57 136
8 54 135
10 54 135
10 47 129
9 48 130
11 55 135
18 63 139
11 63 140
5 65 141
9 77 150
10 66 142
19 65 141
7 61 139
5 60 139
9 58 139
2 57 138
8 59 137
6 50 133
2 47 132
3 53 133
13 59 137
8 51 132
7 47 129
8 56 134
2 61 139
12 64 141
13 63 140
7 59 138
17 57 137
6 59 138
9 69 144
13 71 145
6 70 146
20 74 147
37 86 152
79 117 157
161 181 198
164 179 197
139 161 171
97 118 139
131 136 120
145 143 115
55 106 159
10 83 152
22 76 149
19 67 143
12 66 143
13 68 144
12 66 142
12 66 143
8 72 146
14 69 144
5 69 143
8 65 143
12 65 142
6 60 137
13 58 136
6 57 136
15 62 140
10 67 142
10 72 146
13 69 145
9 69 144
16 74 146
14 77 149
9 76 149
14 83 153
20 82 152
117 140 184
208 221 242
227 239 255
227 239 255
227 239 255
227 239 255
227 239 255
227 239 255
227 239 255
227 239 255
227 239 255
226 239 255
226 239 255
226 239 255
226 239 255
226 239 255
226 239 255
226 239 255
226 239 255
226 239 255
226 239 255
226 239 255
226 239 255
226 239 255
226 239 255
226 239 255
226 239 255
226 239 255
226 239 255
226 239 255
226 239 255
226 239 255
226 239 255
226 239 255
226 239 255
226 239 255
226 239 255
226 239 255
226 239 255
226 239 255
226 239 255
226 239 255
226 239 255
226 239 255
226 239 255
226 239 255
226 239 255
226 239 255
226 239 255
226 238 255
226 238 255
226 239 255
226 238 255
226 238 255
226 238 255
226 238 255
226 238 255
226 238 255
226 238 255
226 238 255
226 238 255
226 238 255
226 238 255
226 238 255
226 238 255
226 238 255
226 238 255
226 238 255
226 238 255
226 238 255
226 238 255
226 238 255
226 238 255
226 238 255
226 238 255
226 238 255
226 238 255
226 238 255
226 238 255
226 238 255
226 238 255
226 238 255
226 238 255
226 238 255
226 238 255
226 238 255
226 238 255
226 238 255
226 238 255
226 238 255
226 238 255
226 238 255
226 238 255
226 238 255
226 238 255
226 238 255
226 238 255
226 238 255
226 238 255
226 238 255
226 238 255
226 238 255
226 238 255
226 238 255
226 238 255
226 238 255
226 238 255
226 238 255
226 238 255
226 238 255
226 238 255
226 238 255
226 238 255
226 238 255
226 238 255
226 238 255
226 238 255
226 238 255
226 238 255
226 238 255
226 238 255
226 238 255
226 238 255
226 238 255
226 238 255
226 238 255
226 238 255
226 238 255
226 238 255
226 238 255
226 238 255
226 238 255
226 238 255
226 238 255
226 238 255
226 238 255
226 238 255
226 238 255
226 238 255
226 238 255
226 238 255
226 238 255
226 238 255
226 238 255
226 238 255
226 238 255
226 238 255
226 238 255
226 238 255
226 238 255
226 238 255
226 238 255
226 238 255
226 238 255
226 238 255
226 238 255
226 238 255
226 238 255
226 238 255
226 238 255
226 238 255
226 238 255
226 238 255
226 238 255
226 238 255
226 238 255
226 238 255
226 238 255
226 238 255
226 238 255
226 238 255
226 238 255
226 238 255
226 238 255
226 238 255
226 238 255
226 238 255
226 238 255
226 238 255
226 238 255
226 238 255
226 238 255
226 238 255
226 238 255
226 238 255
226 238 255
226 238 255
226 238 255
226 238 255
226 238 255
226 238 255
226 238 255
226 238 255
226 238 255
226 238 255
226 238 255
226 238 255
226 238 255
226 238 255
226 238 255
226 238 255
226 238 255
226 238 255
226 238 255
226 238 255
226 238 255
226 238 255
226 238 255
226 238 255
226 239 255
226 239 255
226 239 255
226 239 255
226 239 255
226 239 255
226 239 255
226 239 255
226 239 255
226 239 255
226 239 255
226 239 255
226 239 255
226 239 255
226 239 255
226 239 255
226 239 255
226 239 255
226 239 255
226 239 255
226 239 255
226 239 255
226 239 255
226 239 255
226 239 255
226 239 255
226 239 255
227 239 255
227 239 255
227 239 255
227 239 255
227 239 255
227 239 255
227 239 255
227 239 255
227 239 255
227 239 255
227 239 255
227 239 255
227 239 255
227 239 255
227 239 255
227 239 255
227 239 255
227 239 255
227 239 255
227 239 255
227 239 255
227 239 255
227 239 255
227 239 255
227 239 255
227 239 255
227 239 255
227 239 255
227 239 255
227 239 255
227 239 255
227 239 255
227 239 255
227 239 255
227 239 255
227 239 255
227 239 255
227 239 255
227 239 255
227 239 255
227 239 255
227 239 255
227 239 255
227 239 255
227 239 255
227 239 255
227 239 255
227 239 255
227 239 255
227 239 255
227 239 255
227 239 255
227 239 255
227 239 255
227 239 255
227 239 255
227 239 255
227 239 255
227 239 255
227 239 255
193 210 234
95 139 184
17 100 161
13 90 156
13 88 156
11 91 156
15 79 150
15 69 144
8 69 143
14 78 149
16 78 149
12 78 150
12 81 151
14 71 145
16 69 145
7 68 144
14 66 143
12 73 147
13 69 145
16 64 141
14 50 132
12 55 135
21 57 137
15 54 135
15 58 137
12 62 140
16 57 136
14 56 136
14 51 132
17 57 136
9 56 135
14 57 137
13 57 137
9 63 141
3 64 141
14 65 142
6 62 140
7 58 138
12 58 135
12 53 134
9 50 132
11 56 135
13 62 140
19 65 141
5 67 143
17 70 145
6 69 146
5 67 145
12 64 141
6 62 141
0 60 139
12 61 139
18 58 137
12 54 134
11 52 132
14 57 136
13 59 138
9 56 135
10 56 134
16 65 140
8 64 141
13 60 139
12 55 137
8 59 138
11 60 139
16 63 142
12 68 144
6 64 139
15 62 141
8 65 141
17 72 150
47 100 153
120 149 176
152 170 193
154 171 192
154 173 188
155 166 160
144 150 128
118 131 121
69 101 138
30 80 149
21 72 143
12 70 144
11 72 146
12 66 144
11 65 142
5 74 147
10 75 148
9 71 145
14 64 141
9 59 136
11 64 141
13 64 140
14 63 141
13 63 142
11 70 146
16 87 153
19 86 153
9 75 147
10 77 149
10 77 150
17 76 149
114 137 182
199 213 236
227 239 255
227 239 255
227 239 255
227 239 255
227 239 255
227 239 255
227 239 255
227 239 255
227 239 255
227 239 255
227 239 255
227 239 255
227 239 255
227 239 255
227 239 255
227 239 255
227 239 255
227 239 255
227 239 255
227 239 255
227 239 255
227 239 255
227 239 255
227 239 255
227 239 255
227 239 255
227 239 255
227 239 255
227 239 255
227 239 255
227 239 255
227 239 255
227 239 255
227 239 255
227 239 255
227 239 255
227 239 255
227 239 255
227 239 255
227 239 255
227 239 255
227 239 255
227 239 255
227 239 255
227 239 255
227 239 255
227 239 255
227 239 255
227 239 255
227 239 255
227 239 255
227 239 255
227 239 255
227 239 255
227 239 255
227 239 255
227 239 255
227 239 255
227 239 255
227 239 255
226 239 255
226 239 255
226 239 255
226 239 255
226 239 255
226 239 255
226 239 255
226 239 255
226 239 255
226 239 255
226 239 255
226 239 255
226 239 255
226 239 255
226 239 255
226 239 255
226 239 255
226 239 255
226 239 255
226 239 255
226 239 255
226 239 255
226 239 255
226 239 255
226 239 255
226 239 255
226 238 255
226 239 255
226 238 255
226 238 255
226 238 255
226 238 255
226 238 255
226 238 255
226 238 255
226 238 255
226 238 255
226 238 255
226 238 255
226 238 255
226 238 255
226 238 255
226 238 255
226 238 255
226 238 255
226 238 255
226 238 255
226 238 255
226 238 255
226 238 255
226 238 255
226 238 255
226 238 255
226 238 255
226 238 255
226 238 255
226 238 255
226 238 255
226 238 255
226 238 255
226 238 255
226 238 255
226 238 255
226 238 255
226 238 255
226 238 255
226 238 255
226 238 255
226 238 255
226 238 255
226 238 255
226 238 255
226 238 255
226 238 255
226 238 255
226 238 255
226 238 255
226 238 255
226 238 255
226 238 255
226 238 255
226 238 255
226 238 255
226 238 255
226 238 255
226 238 255
226 238 255
226 238 255
226 238 255
226 238 255
226 238 255
226 238 255
226 238 255
226 238 255
226 238 255
226 238 255
226 238 255
226 238 255
226 238 255
226 238 255
226 238 255
226 238 255
226 238 255
226 238 255
226 238 255
226 238 255
226 238 255
226 238 255
226 238 255
226 238 255
226 238 255
226 238 255
226 238 255
226 238 255
226 238 255
226 238 255
226 238 255
226 238 255
226 238 255
226 238 255
226 239 255
226 239 255
226 239 255
226 239 255
226 239 255
226 239 255
226 239 255
226 239 255
226 239 255
226 239 255
226 239 255
226 239 255
226 239 255
226 239 255
226 239 255
226 239 255
226 239 255
226 239 255
226 239 255
226 239 255
226 239 255
227 239 255
227 239 255
227 239 255
227 239 255
227 239 255
227 239 255
227 239 255
227 239 255
227 239 255
227 239 255
227 239 255
227 239 255
227 239 255
227 239 255
227 239 255
227 239 255
227 239 255
227 239 255
227 239 255
227 239 255
227 239 255
227 239 255
227 239 255
227 239 255
227 239 255
227 239 255
227 239 255
227 239 255
227 239 255
227 239 255
227 239 255
227 239 255
227 239 255
227 239 255
227 239 255
227 239 255
227 239 255
227 239 255
227 239 255
227 239 255
227 239 255
227 239 255
227 239 255
227 239 255
227 239 255
227 239 255
227 239 255
227 239 255
227 239 255
227 239 255
227 239 255
227 239 255
227 239 255
227 239 255
227 239 255
227 239 255
227 239 255
227 239 255
227 239 255
227 239 255
227 239 255
227 239 255
227 239 255
227 239 255
227 239 255
227 239 255
227 239 255
227 239 255
227 239 255
227 239 255
227 239 255
227 239 255
227 239 255
227 239 255
227 239 255
227 239 255
227 239 255
227 239 255
227 239 255
227 239 255
227 239 255
227 239 255
227 239 255
227 239 255
227 239 255
227 239 255
227 239 255
227 239 255
227 239 255
227 239 255
227 239 255
227 239 255
227 239 255
227 239 255
227 239 255
227 239 255
227 239 255
200 214 236
117 144 185
55 105 165
19 97 160
21 88 156
12 89 156
14 89 156
20 90 156
12 85 154
18 84 154
16 82 152
12 83 152
17 82 152
12 78 149
24 83 153
14 80 152
19 79 152
11 81 152
14 77 148
14 71 144
15 73 146
16 67 142
13 64 140
19 68 144
11 68 144
17 72 147
7 71 147
18 68 144
10 67 142
20 64 142
13 64 140
7 64 141
6 68 143
11 68 143
19 68 143
14 65 141
13 60 138
17 57 136
4 50 133
13 64 140
16 64 140
9 59 137
15 65 141
8 66 142
14 70 145
9 67 143
0 62 140
5 65 143
14 65 142
7 61 139
10 57 137
9 54 135
11 54 134
13 54 135
20 59 138
8 59 137
8 57 136
14 63 139
12 62 140
15 61 139
14 62 139
9 60 139
16 60 140
8 58 136
8 59 136
15 70 144
9 67 144
18 64 139
9 66 142
21 71 149
30 81 148
61 100 158
82 129 167
108 146 173
78 126 154
65 107 146
32 83 150
22 69 144
15 68 143
14 65 143
11 66 142
13 66 143
11 73 147
11 80 152
12 78 150
10 73 146
17 69 144
11 71 146
8 70 146
10 67 144
9 71 146
19 84 152
17 81 152
9 84 153
12 93 158
19 97 160
20 88 155
26 76 149
101 125 173
186 200 226
225 238 255
227 239 255
227 239 255
227 239 255
227 239 255
227 239 255
227 239 255
227 239 255
227 239 255
227 239 255
227 239 255
227 239 255
227 239 255
227 239 255
227 239 255
227 239 255
227 239 255
227 239 255
227 239 255
227 239 255
227 239 255
227 239 255
227 239 255
227 239 255
227 239 255
227 239 255
227 239 255
227 239 255
227 239 255
227 239 255
227 239 255
227 239 255
227 239 255
227 239 255
227 239 255
227 239 255
227 239 255
227 239 255
227 239 255
227 239 255
227 239 255
227 239 255
227 239 255
227 239 255
227 239 255
227 239 255
227 239 255
227 239 255
227 239 255
227 239 255
227 239 255
227 239 255
227 239 255
227 239 255
227 239 255
227 239 255
227 239 255
227 239 255
227 239 255
227 239 255
227 239 255
227 239 255
227 239 255
227 239 255
227 239 255
227 239 255
227 239 255
227 239 255
227 239 255
227 239 255
227 239 255
227 239 255
227 239 255
227 239 255
227 239 255
227 239 255
227 239 255
227 239 255
227 239 255
227 239 255
227 239 255
227 239 255
227 239 255
227 239 255
227 239 255
227 239 255
227 239 255
227 239 255
227 239 255
227 239 255
227 239 255
227 239 255
227 239 255
227 239 255
227 239 255
227 239 255
227 239 255
226 239 255
226 239 255
226 239 255
226 239 255
226 239 255
226 239 255
226 239 255
226 239 255
226 239 255
226 239 255
226 239 255
226 239 255
226 239 255
226 239 255
226 239 255
226 239 255
226 239 255
226 239 255
226 239 255
226 239 255
226 239 255
226 238 255
226 238 255
226 238 255
226 238 255
226 238 255
226 238 255
226 238 255
226 238 255
226 238 255
226 238 255
226 238 255
226 238 255
226 238 255
226 238 255
226 238 255
226 238 255
226 238 255
226 238 255
226 238 255
226 238 255
226 238 255
226 238 255
226 238 255
226 238 255
226 238 255
226 238 255
226 238 255
226 238 255
226 238 255
226 238 255
226 238 255
226 238 255
226 238 255
226 238 255
226 238 255
226 238 255
226 238 255
226 238 255
226 239 255
226 239 255
226 239 255
226 239 255
226 239 255
226 239 255
226 239 255
226 239 255
226 239 255
226 239 255
226 239 255
226 239 255
226 239 255
226 239 255
226 239 255
226 239 255
226 239 255
226 239 255
226 239 255
226 239 255
227 239 255
227 239 255
227 239 255
227 239 255
227 239 255
227 239 255
227 239 255
227 239 255
227 239 255
227 239 255
227 239 255
227 239 255
227 239 255
227 239 255
227 239 255
227 239 255
227 239 255
227 239 255
227 239 255
227 239 255
227 239 255
227 239 255
227 239 255
227 239 255
227 239 255
227 239 255
227 239 255
227 239 255
227 239 255
227 239 255
227 239 255
227 239 255
227 239 255
227 239 255
227 239 255
227 239 255
227 239 255
227 239 255
227 239 255
227 239 255
227 239 255
227 239 255
227 239 255
227 239 255
227 239 255
227 239 255
227 239 255
227 239 255
227 239 255
227 239 255
227 239 255
227 239 255
227 239 255
227 239 255
227 239 255
227 239 255
227 239 255
227 239 255
227 239 255
227 239 255
227 239 255
227 239 255
227 239 255
227 239 255
227 239 255
227 239 255
227 239 255
227 239 255
227 239 255
227 239 255
227 239 255
227 239 255
227 239 255
227 239 255
227 239 255
227 239 255
227 239 255
227 239 255
227 239 255
227 239 255
227 239 255
227 239 255
227 239 255
227 239 255
227 239 255
227 239 255
227 239 255
227 239 255
227 239 255
227 239 255
227 239 255
227 239 255
227 239 255
227 239 255
227 239 255
227 239 255
227 239 255
227 239 255
227 239 255
227 239 255
227 239 255
227 239 255
227 239 255
227 239 255
227 239 255
227 239 255
227 239 255
227 239 255
227 239 255
227 239 255
227 239 255
227 239 255
227 239 255
227 239 255
227 239 255
227 239 255
227 239 255
227 239 255
227 239 255
227 239 255
227 239 255
227 239 255
227 239 255
227 239 255
227 239 255
227 239 255
196 211 234
129 155 191
42 106 164
18 95 159
20 93 158
19 93 158
17 94 159
15 87 156
16 88 155
20 89 155
16 90 156
19 89 155
22 83 152
19 92 157
17 89 156
16 84 152
20 82 152
17 81 152
19 82 151
19 70 144
13 61 139
11 60 138
14 63 140
19 61 138
18 66 142
15 68 143
17 63 139
18 60 140
19 64 141
15 67 142
16 71 145
11 70 145
9 70 146
6 67 143
17 66 141
13 68 142
10 57 136
18 65 142
12 68 145
6 65 142
13 66 143
19 65 141
10 63 140
5 66 143
7 69 144
4 67 144
8 63 141
0 59 137
11 60 138
9 57 137
18 57 137
10 66 143
17 69 143
10 58 136
13 55 135
20 61 139
15 60 138
13 62 139
13 68 144
10 63 141
11 61 140
17 56 137
14 59 139
22 80 151
14 69 145
18 65 144
8 66 144
17 65 143
18 62 141
12 64 140
11 70 147
12 80 152
13 87 154
13 77 150
19 69 145
17 70 144
21 78 149
16 77 149
14 78 149
14 81 152
14 79 150
11 77 148
14 73 146
14 67 143
3 70 146
10 74 148
16 76 149
13 77 150
22 79 151
19 84 152
22 91 157
22 93 157
90 122 173
143 160 194
165 176 206
193 206 230
227 239 255
227 239 255
227 239 255
227 239 255
227 239 255
227 239 255
227 239 255
227 239 255
227 239 255
227 239 255
227 239 255
227 239 255
227 239 255
227 239 255
227 239 255
227 239 255
227 239 255
227 239 255
227 239 255
227 239 255
227 239 255
227 239 255
227 239 255
227 239 255
227 239 255
227 239 255
227 239 255
227 239 255
227 239 255
227 239 255
227 239 255
227 239 255
227 239 255
227 239 255
227 239 255
227 239 255
227 239 255
227 239 255
227 239 255
227 239 255
227 239 255
227 239 255
227 239 255
227 239 255
227 239 255
227 239 255
227 239 255
227 239 255
227 239 255
227 239 255
227 239 255
227 239 255
227 239 255
227 239 255
227 239 255
227 239 255
227 239 255
227 239 255
227 239 255
227 239 255
227 239 255
227 239 255
227 239 255
227 239 255
227 239 255
227 239 255
227 239 255
227 239 255
227 239 255
227 239 255
227 239 255
227 239 255
227 239 255
227 239 255
227 239 255
227 239 255
227 239 255
227 239 255
227 239 255
227 239 255
227 239 255
227 239 255
227 239 255
227 239 255
227 239 255
227 239 255
227 239 255
227 239 255
227 239 255
227 239 255
227 239 255
227 239 255
227 239 255
227 239 255
227 239 255
227 239 255
227 239 255
227 239 255
227 239 255
227 239 255
227 239 255
227 239 255
227 239 255
227 239 255
227 239 255
227 239 255
227 239 255
227 239 255
227 239 255
227 239 255
227 239 255
227 239 255
227 239 255
227 239 255
227 239 255
227 239 255
227 239 255
227 239 255
227 239 255
227 239 255
227 239 255
227 239 255
227 239 255
227 239 255
227 239 255
227 239 255
227 239 255
226 239 255
226 239 255
226 239 255
226 239 255
226 239 255
226 239 255
226 239 255
226 239 255
226 239 255
226 239 255
226 239 255
226 239 255
226 239 255
226 239 255
226 239 255
226 239 255
226 239 255
226 239 255
226 238 255
226 238 255
226 238 255
226 238 255
226 238 255
226 238 255
226 238 255
226 239 255
227 239 255
227 239 255
227 239 255
227 239 255
227 239 255
227 239 255
227 239 255
227 239 255
227 239 255
227 239 255
227 239 255
227 239 255
227 239 255
227 239 255
227 239 255
227 239 255
227 239 255
227 239 255
227 239 255
227 239 255
227 239 255
227 239 255
227 239 255
227 239 255
227 239 255
227 239 255
227 239 255
227 239 255
227 239 255
227 239 255
227 239 255
227 239 255
227 239 255
227 239 255
227 239 255
227 239 255
227 239 255
227 239 255
227 239 255
227 239 255
227 239 255
227 239 255
227 239 255
227 239 255
227 239 255
227 239 255
227 239 255
227 239 255
227 239 255
227 239 255
227 239 255
227 239 255
227 239 255
227 239 255
227 239 255
227 239 255
227 239 255
227 239 255
227 239 255
227 239 255
227 239 255
227 239 255
227 239 255
227 239 255
227 239 255
227 239 255
227 239 255
227 239 255
227 239 255
227 239 255
227 239 255
227 239 255
227 239 255
227 239 255
227 239 255
227 239 255
227 239 255
227 239 255
227 239 255
227 239 255
227 239 255
227 239 255
227 239 255
227 239 255
227 239 255
227 239 255
227 239 255
227 239 255
227 239 255
227 239 255
227 239 255
227 239 255
227 239 255
227 239 255
227 239 255
227 239 255
227 239 255
227 239 255
227 239 255
227 239 255
227 239 255
227 239 255
227 239 255
227 239 255
227 239 255
227 239 255
227 239 255
227 239 255
227 239 255
227 239 255
227 239 255
227 239 255
227 239 255
227 239 255
227 239 255
227 239 255
227 239 255
227 239 255
227 239 255
227 239 255
227 239 255
227 239 255
227 239 255
227 239 255
227 239 255
227 239 255
227 239 255
227 239 255
227 239 255
227 239 255
227 239 255
227 239 255
227 239 255
227 239 255
227 239 255
227 239 255
227 239 255
227 239 255
227 239 255
227 239 255
227 239 255
227 239 255
227 239 255
227 239 255
227 239 255
227 239 255
227 239 255
227 239 255
227 239 255
227 239 255
227 239 255
227 239 255
227 239 255
209 222 243
167 185 213
98 134 180
55 108 165
49 98 159
17 87 154
14 88 155
13 88 155
15 91 157
15 91 157
21 91 157
17 95 158
16 107 165
21 102 163
12 98 159
21 86 154
21 83 152
19 81 151
20 77 149
16 71 144
16 65 141
18 67 142
11 66 142
22 76 148
20 69 144
16 70 144
17 71 145
18 72 146
5 64 140
18 69 144
15 71 145
19 70 145
13 75 146
11 72 145
10 68 144
13 69 144
12 67 143
15 63 140
14 67 143
15 73 147
9 70 145
12 69 144
14 71 146
12 66 143
14 66 143
10 69 144
13 70 143
18 69 143
8 61 139
9 69 143
9 70 145
19 74 147
21 74 148
9 64 140
15 63 141
12 69 143
10 71 145
20 77 149
16 75 148
16 73 146
16 69 144
5 68 144
12 65 143
8 70 145
11 72 147
12 71 146
13 70 145
8 72 145
3 70 145
10 69 145
7 80 150
12 87 155
12 77 149
16 77 149
18 83 152
14 76 149
19 78 150
10 68 145
13 66 143
16 64 142
13 68 142
19 70 146
20 71 147
25 77 148
39 90 154
56 96 158
144 157 192
164 176 204
157 168 198
209 218 234
230 237 249
212 224 243
227 239 255
227 239 255
227 239 255
227 239 255
227 239 255
227 239 255
227 239 255
227 239 255
227 239 255
227 239 255
227 239 255
227 239 255
227 239 255
227 239 255
227 239 255
227 239 255
227 239 255
227 239 255
227 239 255
227 239 255
227 239 255
227 239 255
227 239 255
227 239 255
227 239 255
227 239 255
227 239 255
227 239 255
227 239 255
227 239 255
227 239 255
227 239 255
227 239 255
227 239 255
227 239 255
227 239 255
227 239 255
227 239 255
227 239 255
227 239 255
227 239 255
227 239 255
227 239 255
227 239 255
227 239 255
227 239 255
227 239 255
227 239 255
227 239 255
227 239 255
227 239 255
227 239 255
227 239 255
227 239 255
227 239 255
227 239 255
227 239 255
227 239 255
227 239 255
227 239 255
227 239 255
227 239 255
227 239 255
227 239 255
227 239 255
227 239 255
227 239 255
227 239 255
227 239 255
227 239 255
227 239 255
227 239 255
227 239 255
227 239 255
227 239 255
227 239 255
227 239 255
227 239 255
227 239 255
227 239 255
227 239 255
227 239 255
227 239 255
227 239 255
227 239 255
227 239 255
227 239 255
227 239 255
227 239 255
227 239 255
227 239 255
227 239 255
227 239 255
227 239 255
227 239 255
227 239 255
227 239 255
227 239 255
227 239 255
227 239 255
227 239 255
227 239 255
227 239 255
227 239 255
227 239 255
227 239 255
227 239 255
227 239 255
227 239 255
227 239 255
227 239 255
227 239 255
227 239 255
227 239 255
227 239 255
227 239 255
227 239 255
227 239 255
227 239 255
227 239 255
227 239 255
227 239 255
227 239 255
227 239 255
227 239 255
227 239 255
227 239 255
227 239 255
227 239 255
227 239 255
227 239 255
227 239 255
227 239 255
227 239 255
227 239 255
227 239 255
227 239 255
227 239 255
227 239 255
227 239 255
227 239 255
227 239 255
227 239 255
227 239 255
227 239 255
227 239 255
227 239 255
227 239 255
227 239 255
227 239 255
227 239 255
227 239 255
226 239 255
226 239 255
227 239 255
227 239 255
227 239 255
227 239 255
227 239 255
227 239 255
227 239 255
227 239 255
227 239 255
227 239 255
227 239 255
227 239 255
227 239 255
227 239 255
227 239 255
227 239 255
227 239 255
227 239 255
227 239 255
227 239 255
227 239 255
227 239 255
227 239 255
227 239 255
227 239 255
227 239 255
227 239 255
227 239 255
227 239 255
227 239 255
227 239 255
227 239 255
227 239 255
227 239 255
227 239 255
227 239 255
227 239 255
227 239 255
227 239 255
227 239 255
227 239 255
227 239 255
227 239 255
227 239 255
227 239 255
227 239 255
227 239 255
227 239 255
227 239 255
227 239 255
227 239 255
227 239 255
227 239 255
227 239 255
227 239 255
227 239 255
227 239 255
227 239 255
227 239 255
227 239 255
227 239 255
227 239 255
227 239 255
227 239 255
227 239 255
227 239 255
227 239 255
227 239 255
227 239 255
227 239 255
227 239 255
227 239 255
227 239 255
227 239 255
227 239 255
227 239 255
227 239 255
227 239 255
227 239 255
227 239 255
227 239 255
227 239 255
227 239 255
227 239 255
227 239 255
227 239 255
227 239 255
227 239 255
227 239 255
227 239 255
227 239 255
227 239 255
227 239 255
227 239 255
227 239 255
227 239 255
227 239 255
227 239 255
227 239 255
227 239 255
227 239 255
227 239 255
227 239 255
227 239 255
227 239 255
227 239 255
227 239 255
227 239 255
227 239 255
227 239 255
227 239 255
227 239 255
227 239 255
227 239 255
227 239 255
227 239 255
227 239 255
227 239 255
227 239 255
227 239 255
227 239 255
227 239 255
227 239 255
227 239 255
227 239 255
227 239 255
227 239 255
227 239 255
227 239 255
227 239 255
227 239 255
227 239 255
227 239 255
227 239 255
227 239 255
227 239 255
227 239 255
227 239 255
227 239 255
227 239 255
227 239 255
227 239 255
227 239 255
227 239 255
227 239 255
227 239 255
227 239 255
227 239 255
227 239 255
227 239 255
227 239 255
227 239 255
227 239 255
227 239 255
227 239 255
227 239 255
227 238 254
219 229 245
186 198 219
156 172 203
89 120 171
61 102 161
30 96 159
28 100 162
14 96 160
17 94 159
18 105 164
18 107 165
15 107 165
29 107 166
18 95 159
16 91 157
19 88 156
19 90 156
21 94 158
22 81 150
20 76 148
21 88 154
18 83 151
16 90 155
20 85 152
13 69 143
17 67 143
13 72 146
15 74 146
14 79 150
20 95 159
12 93 158
16 89 156
13 80 150
15 72 145
19 57 136
13 62 140
11 74 147
11 83 152
19 84 154
17 78 150
17 79 151
10 74 148
16 83 152
15 86 155
14 80 152
12 75 148
12 84 151
8 88 155
11 89 157
21 98 161
11 85 153
14 72 147
14 77 149
11 76 148
9 78 148
17 82 153
12 86 156
20 91 157
20 86 155
22 95 159
20 87 154
14 88 154
11 80 151
12 81 152
17 88 155
13 89 156
19 90 156
24 85 154
14 80 151
18 86 154
13 85 153
14 84 153
15 80 150
17 80 151
21 78 149
20 72 146
71 97 157
125 139 180
151 163 194
151 161 195
132 143 183
208 216 232
228 234 244
231 237 246
242 247 254
236 243 255
228 239 255
227 239 255
227 239 255
227 239 255
227 239 255
227 239 255
227 239 255
227 239 255
227 239 255
227 239 255
227 239 255
227 239 255
227 239 255
227 239 255
227 239 255
227 239 255
227 239 255
227 239 255
227 239 255
227 239 255
227 239 255
227 239 255
227 239 255
227 239 255
227 239 255
227 239 255
227 239 255
227 239 255
227 239 255
227 239 255
227 239 255
227 239 255
227 239 255
227 239 255
227 239 255
227 239 255
227 239 255
227 239 255
227 239 255
227 239 255
227 239 255
227 239 255
227 239 255
227 239 255
227 239 255
227 239 255
227 239 255
227 239 255
227 239 255
227 239 255
227 239 255
227 239 255
227 239 255
227 239 255
227 239 255
227 239 255
227 239 255
227 239 255
227 239 255
227 239 255
227 239 255
227 239 255
227 239 255
227 239 255
227 239 255
227 239 255
227 239 255
227 239 255
227 239 255
227 239 255
227 239 255
227 239 255
227 239 255
227 239 255
227 239 255
227 239 255
227 239 255
227 239 255
227 239 255
227 239 255
227 239 255
227 239 255
227 239 255
227 239 255
227 239 255
227 239 255
227 239 255
227 239 255
227 239 255
227 239 255
227 239 255
227 239 255
227 239 255
227 239 255
227 239 255
227 239 255
227 239 255
227 239 255
227 239 255
227 239 255
227 239 255
227 239 255
227 239 255
227 239 255
227 239 255
227 239 255
227 239 255
227 239 255
227 239 255
227 239 255
227 239 255
227 239 255
227 239 255
227 239 255
227 239 255
227 239 255
227 239 255
227 239 255
227 239 255
227 239 255
227 239 255
227 239 255
227 239 255
227 239 255
227 239 255
227 239 255
227 239 255
227 239 255
227 239 255
227 239 255
227 239 255
227 239 255
227 239 255
227 239 255
227 239 255
227 239 255
227 239 255
227 239 255
227 239 255
227 239 255
227 239 255
227 239 255
227 239 255
227 239 255
227 239 255
227 239 255
227 239 255
227 239 255
227 239 255
227 239 255
227 239 255
227 239 255
227 239 255
227 239 255
227 239 255
227 239 255
227 239 255
227 239 255
227 239 255
227 239 255
227 239 255
227 239 255
227 239 255
227 239 255
227 239 255
227 239 255
227 239 255
227 239 255
227 239 255
227 239 255
227 239 255
227 239 255
227 239 255
227 239 255
227 239 255
227 239 255
227 239 255
227 239 255
227 239 255
227 239 255
227 239 255
227 239 255
227 239 255
227 239 255
227 239 255
227 239 255
227 239 255
227 239 255
227 239 255
227 239 255
227 239 255
227 239 255
227 239 255
227 239 255
227 239 255
227 239 255
227 239 255
227 239 255
227 239 255
227 239 255
227 239 255
227 239 255
227 239 255
227 239 255
227 239 255
227 239 255
227 239 255
227 239 255
227 239 255
227 239 255
227 239 255
227 239 255
227 239 255
227 239 255
227 239 255
227 239 255
227 239 255
227 239 255
227 239 255
227 239 255
227 239 255
227 239 255
227 239 255
227 239 255
227 239 255
227 239 255
227 239 255
227 239 255
227 239 255
227 239 255
227 239 255
227 239 255
227 239 255
227 239 255
227 239 255
227 239 255
227 239 255
227 239 255
227 239 255
227 239 255
227 239 255
227 239 255
227 239 255
227 239 255
227 239 255
227 239 255
227 239 255
227 239 255
227 239 255
227 239 255
227 239 255
227 239 255
227 239 255
227 239 255
227 239 255
227 239 255
227 239 255
227 239 255
227 239 255
227 239 255
227 239 255
227 239 255
227 239 255
227 239 255
227 239 255
227 239 255
227 239 255
227 239 255
227 239 255
227 239 255
227 239 255
227 239 255
227 239 255
227 239 255
227 239 255
227 239 255
227 239 255
227 239 255
227 239 255
227 239 255
227 239 255
227 239 255
227 239 255
227 239 255
227 239 255
227 239 255
227 239 255
227 239 255
227 239 255
227 239 255
227 239 255
227 239 255
227 239 255
227 239 255
227 239 255
227 239 255
227 239 255
227 239 255
227 239 255
227 239 255
227 239 255
227 239 255
227 239 255
227 239 255
227 239 255
227 239 255
227 239 255
227 239 255
227 239 255
227 239 255
227 239 255
227 239 255
227 239 255
227 239 255
227 239 255
228 239 255
231 241 255
209 220 236
195 207 225
199 212 229
172 186 211
147 169 200
67 121 174
26 106 166
21 101 161
17 93 157
23 92 157
30 93 157
19 89 156
19 95 160
18 95 159
18 96 159
19 105 164
27 112 168
23 110 167
26 101 161
15 84 152
20 86 153
17 84 152
15 83 152
15 78 149
17 84 153
17 85 153
13 80 150
17 83 153
13 85 154
10 87 154
13 71 146
13 64 141
17 63 139
18 65 141
18 80 150
19 86 154
23 87 155
20 87 153
11 89 155
14 86 154
17 89 156
19 93 158
18 94 158
19 97 160
21 97 160
23 93 157
21 105 163
22 99 160
19 81 151
12 86 154
13 88 155
11 89 156
19 95 160
12 87 156
18 86 155
18 91 156
16 90 155
18 81 152
22 81 152
19 92 157
17 90 156
14 87 154
23 89 156
15 98 159
17 88 155
15 86 154
19 94 158
12 90 156
36 93 157
58 98 160
68 111 165
136 155 193
185 196 218
233 240 250
231 238 248
229 235 246
240 246 254
242 247 254
242 247 255
238 245 255
233 242 255
227 239 255
227 239 255
227 239 255
227 239 255
227 239 255
227 239 255
227 239 255
227 239 255
227 239 255
227 239 255
227 239 255
227 239 255
227 239 255
227 239 255
227 239 255
227 239 255
227 239 255
227 239 255
227 239 255
227 239 255
227 239 255
227 239 255
227 239 255
227 239 255
227 239 255
227 239 255
227 239 255
227 239 255
227 239 255
227 239 255
227 239 255
227 239 255
227 239 255
227 239 255
227 239 255
227 239 255
227 239 255
227 239 255
227 239 255
227 239 255
227 239 255
227 239 255
227 239 255
227 239 255
227 239 255
227 239 255
227 239 255
227 239 255
227 239 255
227 239 255
227 239 255
227 239 255
227 239 255
227 239 255
227 239 255
227 239 255
227 239 255
227 239 255
227 239 255
227 239 255
227 239 255
227 239 255
227 239 255
227 239 255
227 239 255
227 239 255
227 239 255
227 239 255
227 239 255
227 239 255
227 239 255
227 239 255
227 239 255
227 239 255
227 239 255
227 239 255
227 239 255
227 239 255
227 239 255
227 239 255
227 239 255
227 239 255
227 239 255
227 239 255
227 239 255
227 239 255
227 239 255
227 239 255
227 239 255
227 239 255
227 239 255
227 239 255
227 239 255
227 239 255
227 239 255
227 239 255
227 239 255
227 239 255
227 239 255
227 239 255
227 239 255
227 239 255
227 239 255
227 239 255
227 239 255
227 239 255
227 239 255
227 239 255
227 239 255
227 239 255
227 239 255
227 239 255
227 239 255
227 239 255
227 239 255
227 239 255
227 239 255
227 239 255
227 239 255
227 239 255
227 239 255
227 239 255
227 239 255
227 239 255
227 239 255
227 239 255
227 239 255
227 239 255
227 239 255
227 239 255
227 239 255
227 239 255
227 239 255
227 239 255
227 239 255
227 239 255
227 239 255
227 239 255
227 239 255
227 239 255
227 239 255
227 239 255
227 239 255
227 239 255
227 239 255
227 239 255
227 239 255
227 239 255
227 239 255
227 239 255
227 239 255
227 239 255
227 239 255
227 239 255
227 239 255
227 239 255
227 239 255
227 239 255
227 239 255
227 239 255
227 239 255
227 239 255
227 239 255
227 239 255
227 239 255
227 239 255
227 239 255
227 239 255
227 239 255
227 239 255
227 239 255
227 239 255
227 239 255
227 239 255
227 239 255
227 239 255
227 239 255
227 239 255
227 239 255
227 239 255
227 239 255
227 239 255
227 239 255
227 239 255
227 239 255
227 239 255
227 239 255
227 239 255
227 239 255
227 239 255
227 239 255
227 239 255
227 239 255
227 239 255
227 239 255
227 239 255
227 239 255
227 239 255
227 239 255
227 239 255
227 239 255
227 239 255
227 239 255
227 239 255
227 239 255
227 239 255
227 239 255
227 239 255
227 239 255
227 239 255
227 239 255
227 239 255
227 239 255
227 239 255
227 239 255
227 239 255
227 239 255
227 239 255
227 239 255
227 239 255
227 239 255
227 239 255
227 239 255
227 239 255
227 239 255
227 239 255
227 239 255
227 239 255
227 239 255
227 239 255
227 239 255
227 239 255
227 239 255
227 239 255
227 239 255
227 239 255
227 239 255
227 239 255
227 239 255
227 239 255
227 239 255
227 239 255
227 239 255
227 239 255
227 239 255
227 239 255
227 239 255
227 239 255
227 239 255
227 239 255
227 239 255
227 239 255
227 239 255
227 239 255
227 239 255
227 239 255
227 239 255
227 239 255
227 239 255
227 239 255
227 239 255
227 239 255
227 239 255
227 239 255
227 239 255
227 239 255
227 239 255
227 239 255
227 239 255
227 239 255
227 239 255
227 239 255
227 239 255
227 239 255
227 239 255
227 239 255
227 239 255
227 239 255
227 239 255
227 239 255
227 239 255
227 239 255
227 239 255
227 239 255
227 239 255
227 239 255
227 239 255
227 239 255
227 239 255
227 239 255
227 239 255
227 239 255
227 239 255
227 239 255
227 239 255
227 239 255
227 239 255
227 239 255
227 239 255
227 239 255
227 239 255
227 239 255
227 239 255
227 239 255
227 239 255
227 239 255
227 239 255
227 239 255
227 239 255
227 239 255
227 239 255
227 239 255
227 239 255
227 239 255
227 239 255
227 239 255
227 239 255
227 239 255
227 239 255
227 239 255
231 241 255
236 244 255
244 248 255
241 247 255
240 246 254
219 229 240
182 200 223
156 178 206
120 148 187
154 172 203
139 159 194
67 104 163
27 90 156
32 93 159
30 95 159
18 97 158
40 95 159
30 96 160
17 97 158
20 93 158
26 90 155
31 85 154
23 87 154
21 83 151
23 88 155
16 84 153
15 80 151
15 77 149
18 80 151
18 84 152
24 77 148
43 84 153
24 74 146
23 70 145
20 77 149
22 85 153
14 83 151
21 79 150
18 79 148
25 84 152
94 124 173
103 131 178
98 127 174
94 126 174
87 121 173
63 103 163
42 90 157
26 87 154
15 87 154
15 92 157
17 91 158
15 95 159
22 100 162
15 96 160
22 92 156
35 96 159
26 92 158
39 98 160
24 95 159
16 101 162
38 109 167
105 132 180
124 147 186
125 148 186
117 142 184
90 117 169
136 151 189
174 187 210
212 221 235
219 225 239
239 245 253
241 246 254
242 247 255
242 248 255
243 248 255
241 247 255
236 244 255
231 241 255
227 239 255
227 239 255
227 239 255
227 239 255
227 239 255
227 239 255
227 239 255
227 239 255
227 239 255
227 239 255
227 239 255
227 239 255
227 239 255
227 239 255
227 239 255
227 239 255
227 239 255
227 239 255
227 239 255
227 239 255
227 239 255
227 239 255
227 239 255
227 239 255
227 239 255
227 239 255
227 239 255
227 239 255
227 239 255
227 239 255
227 239 255
227 239 255
227 239 255
227 239 255
227 239 255
227 239 255
227 239 255
227 239 255
227 239 255
227 239 255
227 239 255
227 239 255
227 239 255
227 239 255
227 239 255
227 239 255
227 239 255
227 239 255
227 239 255
227 239 255
227 239 255
227 239 255
227 239 255
227 239 255
227 239 255
227 239 255
227 239 255
227 239 255
227 239 255
227 239 255
227 239 255
227 239 255
227 239 255
227 239 255
227 239 255
227 239 255
227 239 255
227 239 255
227 239 255
227 239 255
227 239 255
227 239 255
227 239 255
227 239 255
227 239 255
227 239 255
227 239 255
227 239 255
227 239 255
227 239 255
227 239 255
227 239 255
227 239 255
227 239 255
227 239 255
227 239 255
227 239 255
227 239 255
227 239 255
227 239 255
227 239 255
227 239 255
227 239 255
227 239 255
227 239 255
227 239 255
227 239 255
227 239 255
227 239 255
227 239 255
227 239 255
227 239 255
227 239 255
227 239 255
227 239 255
227 239 255
227 239 255
227 239 255
227 239 255
227 239 255
227 239 255
227 239 255
227 239 255
227 239 255
227 239 255
227 239 255
227 239 255
227 239 255
227 239 255
227 239 255
227 239 255
227 239 255
227 239 255
227 239 255
227 239 255
227 239 255
227 239 255
227 239 255
227 239 255
227 239 255
227 239 255
227 239 255
227 239 255
227 239 255
227 239 255
227 239 255
227 239 255
227 239 255
227 239 255
227 239 255
227 239 255
227 239 255
227 239 255
227 239 255
227 239 255
227 239 255
227 239 255
227 239 255
227 239 255
227 239 255
227 239 255
227 239 255
227 239 255
227 239 255
227 239 255
227 239 255
227 239 255
227 239 255
227 239 255
227 239 255
227 239 255
227 239 255
227 239 255
227 239 255
227 239 255
227 239 255
227 239 255
227 239 255
227 239 255
227 239 255
227 239 255
227 239 255
227 239 255
227 239 255
227 239 255
227 239 255
227 239 255
227 239 255
227 239 255
227 239 255
227 239 255
227 239 255
227 239 255
227 239 255
227 239 255
227 239 255
227 239 255
227 239 255
227 239 255
227 239 255
227 239 255
227 239 255
227 239 255
227 239 255
227 239 255
227 239 255
227 239 255
227 239 255
227 239 255
227 239 255
227 239 255
227 239 255
227 239 255
227 239 255
227 239 255
227 239 255
227 239 255
227 239 255
227 239 255
227 239 255
227 239 255
227 239 255
227 239 255
227 239 255
227 239 255
227 239 255
227 239 255
227 239 255
227 239 255
227 239 255
227 239 255
227 239 255
227 239 255
227 239 255
227 239 255
227 239 255
227 239 255
227 239 255
227 239 255
227 239 255
227 239 255
227 239 255
227 239 255
227 239 255
227 239 255
227 239 255
227 239 255
227 239 255
227 239 255
227 239 255
227 239 255
227 239 255
227 239 255
227 239 255
227 239 255
227 239 255
227 239 255
227 239 255
227 239 255
227 239 255
227 239 255
227 239 255
227 239 255
227 239 255
227 239 255
227 239 255
227 239 255
227 239 255
227 239 255
227 239 255
227 239 255
227 239 255
227 239 255
227 239 255
227 239 255
227 239 255
227 239 255
227 239 255
227 239 255
227 239 255
227 239 255
227 239 255
227 239 255
227 239 255
227 239 255
227 239 255
227 239 255
227 239 255
227 239 255
227 239 255
227 239 255
227 239 255
227 239 255
227 239 255
227 239 255
227 239 255
227 239 255
227 239 255
227 239 255
227 239 255
227 239 255
227 239 255
227 239 255
227 239 255
227 239 255
227 239 255
227 239 255
227 239 255
227 239 255
227 239 255
227 239 255
227 239 255
227 239 255
227 239 255
227 239 255
227 239 255
227 239 255
227 239 255
227 239 255
227 239 255
227 239 255
227 239 255
227 239 255
227 239 255
227 239 255
227 239 255
227 239 255
227 239 255
227 239 255
227 239 255
227 239 255
227 239 255
227 239 255
227 239 255
228 239 255
232 241 255
239 245 255
243 248 255
243 248 255
240 246 255
242 247 255
242 248 255
242 248 255
237 243 251
229 235 245
187 198 219
163 175 205
169 181 209
161 173 204
191 202 222
166 181 207
130 150 189
191 202 223
179 191 214
186 196 218
194 203 221
204 212 228
184 194 216
157 172 203
128 144 183
121 143 183
71 112 167
85 117 171
133 150 189
188 197 219
175 185 212
174 186 211
134 148 187
142 151 185
172 180 205
90 106 160
87 103 157
154 162 194
220 226 238
239 245 253
224 230 242
217 222 235
176 183 207
127 140 181
136 155 192
151 169 200
73 121 172
79 124 174
112 144 186
112 140 183
75 118 171
60 112 166
78 119 172
91 131 177
43 119 171
28 109 166
77 138 181
213 229 241
234 239 248
213 224 237
234 241 250
231 238 248
233 241 250
242 247 254
243 248 255
242 247 255
242 247 255
241 247 255
243 248 255
242 247 255
237 244 255
232 242 255
227 239 255
227 239 255
227 239 255
227 239 255
227 239 255
227 239 255
227 239 255
227 239 255
227 239 255
227 239 255
227 239 255
227 239 255
227 239 255
227 239 255
227 239 255
227 239 255
227 239 255
227 239 255
227 239 255
227 239 255
227 239 255
227 239 255
227 239 255
227 239 255
227 239 255
227 239 255
227 239 255
227 239 255
227 239 255
227 239 255
227 239 255
227 239 255
227 239 255
227 239 255
227 239 255
227 239 255
227 239 255
227 239 255
227 239 255
227 239 255
227 239 255
227 239 255
227 239 255
227 239 255
227 239 255
227 239 255
227 239 255
227 239 255
227 239 255
227 239 255
227 239 255
227 239 255
227 239 255
227 239 255
227 239 255
227 239 255
227 239 255
227 239 255
227 239 255
227 239 255
227 239 255
227 239 255
227 239 255
227 239 255
227 239 255
227 239 255
227 239 255
227 239 255
227 239 255
227 239 255
227 239 255
227 239 255
227 239 255
227 239 255
227 239 255
227 239 255
227 239 255
227 239 255
227 239 255
227 239 255
227 239 255
227 239 255
227 239 255
227 239 255
227 239 255
227 239 255
227 239 255
227 239 255
227 239 255
227 239 255
227 239 255
227 239 255
227 239 255
227 239 255
227 239 255
227 239 255
227 239 255
227 239 255
227 239 255
227 239 255
227 239 255
227 239 255
227 239 255
227 239 255
227 239 255
227 239 255
227 239 255
227 239 255
227 239 255
227 239 255
227 239 255
227 239 255
227 239 255
227 239 255
227 239 255
227 239 255
227 239 255
227 239 255
227 239 255
227 239 255
227 239 255
227 239 255
227 239 255
227 239 255
227 239 255
227 239 255
227 239 255
227 239 255
227 239 255
227 239 255
227 239 255
227 239 255
227 239 255
227 239 255
227 239 255
227 239 255
227 239 255
227 239 255
227 239 255
227 239 255
227 239 255
227 239 255
227 239 255
227 239 255
227 239 255
227 239 255
227 239 255
227 239 255
227 239 255
227 239 255
227 239 255
227 239 255
227 239 255
227 239 255
227 239 255
227 239 255
227 239 255
227 239 255
227 239 255
227 239 255
227 239 255
227 239 255
227 239 255
227 239 255
227 239 255
227 239 255
227 239 255
227 239 255
227 239 255
227 239 255
227 239 255
227 239 255
227 239 255
227 239 255
227 239 255
227 239 255
227 239 255
227 239 255
227 239 255
227 239 255
227 239 255
227 239 255
227 239 255
227 239 255
227 239 255
227 239 255
227 239 255
227 239 255
227 239 255
227 239 255
227 239 255
227 239 255
227 239 255
227 239 255
227 239 255
227 239 255
227 239 255
227 239 255
227 239 255
227 239 255
227 239 255
227 239 255
227 239 255
227 239 255
227 239 255
227 239 255
227 239 255
227 239 255
227 239 255
227 239 255
227 239 255
227 239 255
227 239 255
227 239 255
227 239 255
227 239 255
227 239 255
227 239 255
227 239 255
227 239 255
227 239 255
227 239 255
227 239 255
227 239 255
227 239 255
227 239 255
227 239 255
227 239 255
227 239 255
227 239 255
227 239 255
227 239 255
227 239 255
227 239 255
227 239 255
227 239 255
227 239 255
227 239 255
227 239 255
227 239 255
227 239 255
227 239 255
227 239 255
227 239 255
227 239 255
227 239 255
227 239 255
227 239 255
227 239 255
227 239 255
227 239 255
227 239 255
227 239 255
227 239 255
227 239 255
227 239 255
227 239 255
227 239 255
227 239 255
227 239 255
227 239 255
227 239 255
227 239 255
227 239 255
227 239 255
227 239 255
227 239 255
227 239 255
227 239 255
227 239 255
227 239 255
227 239 255
227 239 255
227 239 255
227 239 255
227 239 255
227 239 255
227 239 255
227 239 255
227 239 255
227 239 255
227 239 255
227 239 255
227 239 255
227 239 255
227 239 255
227 239 255
227 239 255
227 239 255
227 239 255
227 239 255
227 239 255
227 239 255
227 239 255
227 239 255
227 239 255
227 239 255
227 239 255
227 239 255
227 239 255
227 239 255
227 239 255
227 239 255
227 239 255
227 239 255
227 239 255
227 239 255
227 239 255
227 239 255
227 239 255
227 239 255
227 239 255
227 239 255
227 239 255
227 239 255
227 239 255
227 239 255
227 239 255
227 239 255
227 239 255
227 239 255
227 239 255
227 239 255
227 239 255
227 239 255
227 239 255
227 239 255
227 239 255
227 239 255
227 239 255
228 240 255
234 243 255
238 245 255
241 247 255
243 248 255
244 249 255
242 248 255
244 249 255
241 247 255
244 249 255
242 247 255
242 247 255
241 247 255
240 246 255
242 247 255
240 246 255
241 246 255
241 247 254
243 248 255
241 247 255
241 246 255
242 247 254
242 247 255
241 247 254
241 246 253
239 244 252
233 240 249
231 236 247
224 231 242
227 233 243
225 232 242
195 205 223
187 195 217
183 188 211
228 234 245
239 245 253
243 247 254
241 247 255
234 241 250
223 229 242
225 230 242
209 215 230
211 220 235
205 215 230
226 234 244
242 247 255
240 246 255
242 247 255
239 244 252
240 246 254
229 238 248
234 241 251
232 239 249
227 235 245
233 241 250
228 238 248
232 240 250
240 246 254
243 248 255
244 249 255
243 248 255
243 248 255
243 248 255
244 249 255
243 248 255
239 246 255
235 243 255
227 239 255
227 239 255
227 239 255
227 239 255
227 239 255
227 239 255
227 239 255
227 239 255
227 239 255
227 239 255
227 239 255
227 239 255
227 239 255
227 239 255
227 239 255
227 239 255
227 239 255
227 239 255
227 239 255
227 239 255
227 239 255
227 239 255
227 239 255
227 239 255
227 239 255
227 239 255
227 239 255
227 239 255
227 239 255
227 239 255
227 239 255
227 239 255
227 239 255
227 239 255
227 239 255
227 239 255
227 239 255
227 239 255
227 239 255
227 239 255
227 239 255
227 239 255
227 239 255
227 239 255
227 239 255
227 239 255
227 239 255
227 239 255
227 239 255
227 239 255
227 239 255
227 239 255
227 239 255
227 239 255
227 239 255
227 239 255
227 239 255
227 239 255
227 239 255
227 239 255
227 239 255
227 239 255
227 239 255
227 239 255
227 239 255
227 239 255
227 239 255
227 239 255
227 239 255
227 239 255
227 239 255
227 239 255
227 239 255
227 239 255
227 239 255
227 239 255
227 239 255
227 239 255
227 239 255
227 239 255
227 239 255
227 239 255
227 239 255
227 239 255
227 239 255
227 239 255
227 239 255
227 239 255
227 239 255
227 239 255
227 239 255
227 239 255
227 239 255
227 239 255
227 239 255
227 239 255
227 239 255
227 239 255
227 239 255
227 239 255
227 239 255
227 239 255
227 239 255
227 239 255
227 239 255
227 239 255
227 239 255
227 239 255
227 239 255
227 239 255
227 239 255
227 239 255
227 239 255
227 239 255
227 239 255
227 239 255
227 239 255
227 239 255
227 239 255
227 239 255
227 239 255
227 239 255
227 239 255
227 239 255
227 239 255
227 239 255
227 239 255
227 239 255
227 239 255
227 239 255
227 239 255
227 239 255
227 239 255
227 239 255
227 239 255
227 239 255
227 239 255
227 239 255
227 239 255
227 239 255
227 239 255
227 239 255
227 239 255
227 239 255
227 239 255
227 239 255
227 239 255
227 239 255
227 239 255
227 239 255
227 239 255
227 239 255
227 239 255
227 239 255
227 239 255
227 239 255
227 239 255
227 239 255
227 239 255
227 239 255
227 239 255
227 239 255
227 239 255
227 239 255
227 239 255
227 239 255
227 239 255
227 239 255
227 239 255
227 239 255
227 239 255
227 239 255
227 239 255
227 239 255
227 239 255
227 239 255
227 239 255
227 239 255
227 239 255
227 239 255
227 239 255
227 239 255
227 239 255
227 239 255
227 239 255
227 239 255
227 239 255
227 239 255
227 239 255
227 239 255
227 239 255
227 239 255
227 239 255
227 239 255
227 239 255
227 239 255
227 239 255
227 239 255
227 239 255
227 239 255
227 239 255
227 239 255
227 239 255
227 239 255
227 239 255
227 239 255
227 239 255
227 239 255
227 239 255
227 239 255
227 239 255
227 239 255
227 239 255
227 239 255
227 239 255
227 239 255
227 239 255
227 239 255
227 239 255
227 239 255
227 239 255
227 239 255
227 239 255
227 239 255
227 239 255
227 239 255
227 239 255
227 239 255
227 239 255
227 239 255
227 239 255
227 239 255
227 239 255
227 239 255
227 239 255
227 239 255
227 239 255
227 239 255
227 239 255
227 239 255
227 239 255
227 239 255
227 239 255
227 239 255
227 239 255
227 239 255
227 239 255
227 239 255
227 239 255
227 239 255
227 239 255
227 239 255
227 239 255
227 239 255
227 239 255
227 239 255
227 239 255
227 239 255
227 239 255
227 239 255
227 239 255
227 239 255
227 239 255
227 239 255
227 239 255
227 239 255
227 239 255
227 239 255
227 239 255
227 239 255
227 239 255
227 239 255
227 239 255
227 239 255
227 239 255
227 239 255
227 239 255
227 239 255
227 239 255
227 239 255
227 239 255
227 239 255
227 239 255
227 239 255
227 239 255
227 239 255
227 239 255
227 239 255
227 239 255
227 239 255
227 239 255
227 239 255
227 239 255
227 239 255
227 239 255
227 239 255
227 239 255
227 239 255
227 239 255
227 239 255
227 239 255
227 239 255
227 239 255
227 239 255
227 239 255
227 239 255
227 239 255
227 239 255
227 239 255
227 239 255
227 239 255
227 239 255
227 239 255
227 239 255
227 239 255
227 239 255
227 239 255
227 239 255
227 239 255
227 239 255
227 239 255
227 239 255
227 239 255
227 239 255
227 239 255
227 239 255
227 239 255
227 239 255
227 239 255
227 239 255
227 239 255
227 239 255
227 239 255
227 239 255
227 239 255
227 239 255
228 240 255
232 242 255
239 246 255
239 246 255
242 248 255
243 248 255
243 248 255
242 247 255
243 248 255
242 247 255
243 248 255
244 249 255
242 248 255
242 247 255
241 247 255
243 248 255
243 248 255
242 247 255
243 248 255
243 248 255
243 248 255
244 249 255
242 248 255
242 247 255
242 248 255
242 248 255
244 248 255
244 249 255
243 248 255
241 247 255
244 249 255
242 248 255
242 247 255
241 247 255
244 248 255
244 248 255
243 248 255
243 248 255
243 248 255
240 246 255
242 248 255
242 247 255
244 249 255
243 248 255
242 247 255
243 248 255
240 246 255
237 243 251
235 242 251
236 243 251
235 243 252
241 247 254
244 249 255
242 248 255
242 248 255
243 248 255
244 248 255
241 247 255
240 246 255
236 244 255
231 241 255
227 239 255
227 239 255
227 239 255
227 239 255
227 239 255
227 239 255
227 239 255
227 239 255
227 239 255
227 239 255
227 239 255
227 239 255
227 239 255
227 239 255
227 239 255
227 239 255
227 239 255
227 239 255
227 239 255
227 239 255
227 239 255
227 239 255
227 239 255
227 239 255
227 239 255
227 239 255
227 239 255
227 239 255
227 239 255
227 239 255
227 239 255
227 239 255
227 239 255
227 239 255
227 239 255
227 239 255
227 239 255
227 239 255
227 239 255
227 239 255
227 239 255
227 239 255
227 239 255
227 239 255
227 239 255
227 239 255
227 239 255
227 239 255
227 239 255
227 239 255
227 239 255
227 239 255
227 239 255
227 239 255
227 239 255
227 239 255
227 239 255
227 239 255
227 239 255
227 239 255
227 239 255
227 239 255
227 239 255
227 239 255
227 239 255
227 239 255
227 239 255
227 239 255
227 239 255
227 239 255
227 239 255
227 239 255
227 239 255
227 239 255
227 239 255
227 239 255
227 239 255
227 239 255
227 239 255
227 239 255
227 239 255
227 239 255
227 239 255
227 239 255
227 239 255
227 239 255
227 239 255
227 239 255
227 239 255
227 239 255
227 239 255
227 239 255
227 239 255
227 239 255
227 239 255
227 239 255
227 239 255
227 239 255
227 239 255
227 239 255
227 239 255
227 239 255
227 239 255
227 239 255
227 239 255
227 239 255
227 239 255
227 239 255
227 239 255
227 239 255
227 239 255
227 239 255
227 239 255
227 239 255
227 239 255
227 239 255
227 239 255
227 239 255
227 239 255
227 239 255
227 239 255
227 239 255
227 239 255
227 239 255
227 239 255
227 239 255
227 239 255
227 239 255
227 239 255
227 239 255
227 239 255
227 239 255
227 239 255
227 239 255
227 239 255
227 239 255
227 239 255
227 239 255
227 239 255
227 239 255
227 239 255
227 239 255
227 239 255
227 239 255
227 239 255
227 239 255
227 239 255
227 239 255
227 239 255
227 239 255
227 239 255
227 239 255
227 239 255
227 239 255
227 239 255
227 239 255
227 239 255
227 239 255
227 239 255
227 239 255
227 239 255
227 239 255
227 239 255
227 239 255
227 239 255
227 239 255
227 239 255
227 239 255
227 239 255
227 239 255
227 239 255
227 239 255
227 239 255
227 239 255
227 239 255
227 239 255
227 239 255
227 239 255
227 239 255
227 239 255
227 239 255
227 239 255
227 239 255
227 239 255
227 239 255
227 239 255
227 239 255
227 239 255
227 239 255
227 239 255
227 239 255
227 239 255
227 239 255
227 239 255
227 239 255
227 239 255
227 239 255
227 239 255
227 239 255
227 239 255
227 239 255
227 239 255
227 239 255
227 239 255
227 239 255
227 239 255
227 239 255
227 239 255
227 239 255
227 239 255
227 239 255
227 239 255
227 239 255
227 239 255
227 239 255
227 239 255
227 239 255
227 239 255
227 239 255
227 239 255
227 239 255
227 239 255
227 239 255
227 239 255
227 239 255
227 239 255
227 239 255
227 239 255
227 239 255
227 239 255
227 239 255
227 239 255
227 239 255
227 239 255
227 239 255
227 239 255
227 239 255
227 239 255
227 239 255
227 239 255
227 239 255
227 239 255
227 239 255
227 239 255
227 239 255
227 239 255
227 239 255
227 239 255
227 239 255
227 239 255
227 239 255
227 239 255
227 239 255
227 239 255
227 239 255
227 239 255
227 239 255
227 239 255
227 239 255
227 239 255
227 239 255
227 239 255
227 239 255
227 239 255
227 239 255
227 239 255
227 239 255
227 239 255
227 239 255
227 239 255
227 239 255
227 239 255
227 239 255
227 239 255
227 239 255
227 239 255
227 239 255
227 239 255
227 239 255
227 239 255
227 239 255
227 239 255
227 239 255
227 239 255
227 239 255
227 239 255
227 239 255
227 239 255
227 239 255
227 239 255
227 239 255
227 239 255
227 239 255
227 239 255
227 239 255
227 239 255
227 239 255
227 239 255
227 239 255
227 239 255
227 239 255
227 239 255
227 239 255
227 239 255
227 239 255
227 239 255
227 239 255
227 239 255
227 239 255
227 239 255
227 239 255
227 239 255
227 239 255
227 239 255
227 239 255
227 239 255
227 239 255
227 239 255
227 239 255
227 239 255
227 239 255
227 239 255
227 239 255
227 239 255
227 239 255
227 239 255
227 239 255
227 239 255
227 239 255
227 239 255
227 239 255
227 239 255
227 239 255
227 239 255
227 239 255
227 239 255
227 239 255
227 239 255
227 239 255
227 239 255
227 239 255
227 239 255
227 239 255
228 239 255
232 242 255
237 244 255
241 247 255
242 248 255
243 248 255
242 247 255
243 248 255
244 249 255
244 249 255
243 248 255
244 248 255
243 248 255
245 249 255
243 248 255
245 249 255
242 248 255
242 247 255
244 248 255
242 248 255
243 248 255
242 247 255
242 247 255
243 248 255
244 249 255
244 249 255
243 248 255
242 248 255
242 247 255
243 248 255
244 249 255
244 249 255
243 248 255
244 249 255
244 249 255
243 248 255
242 248 255
241 247 255
243 248 255
239 245 254
237 244 252
243 247 253
237 244 253
232 240 249
235 243 251
239 245 254
243 248 255
243 248 255
243 248 255
242 247 255
240 247 255
237 244 255
232 241 255
228 240 255
227 239 255
227 239 255
227 239 255
227 239 255
227 239 255
227 239 255
227 239 255
227 239 255
227 239 255
227 239 255
227 239 255
227 239 255
227 239 255
227 239 255
227 239 255
227 239 255
227 239 255
227 239 255
227 239 255
227 239 255
227 239 255
227 239 255
227 239 255
227 239 255
227 239 255
227 239 255
227 239 255
227 239 255
227 239 255
227 239 255
227 239 255
227 239 255
227 239 255
227 239 255
227 239 255
227 239 255
227 239 255
227 239 255
227 239 255
227 239 255
227 239 255
227 239 255
227 239 255
227 239 255
227 239 255
227 239 255
227 239 255
227 239 255
227 239 255
227 239 255
227 239 255
227 239 255
227 239 255
227 239 255
227 239 255
227 239 255
227 239 255
227 239 255
227 239 255
227 239 255
227 239 255
227 239 255
227 239 255
227 239 255
227 239 255
227 239 255
227 239 255
227 239 255
227 239 255
227 239 255
227 239 255
227 239 255
227 239 255
227 239 255
227 239 255
227 239 255
227 239 255
227 239 255
227 239 255
227 239 255
227 239 255
227 239 255
227 239 255
227 239 255
227 239 255
227 239 255
227 239 255
227 239 255
227 239 255
227 239 255
227 239 255
227 239 255
227 239 255
227 239 255
227 239 255
227 239 255
227 239 255
227 239 255
227 239 255
227 239 255
227 239 255
227 239 255
227 239 255
227 239 255
227 239 255
227 239 255
227 239 255
227 239 255
227 239 255
227 239 255
227 239 255
227 239 255
227 239 255
227 239 255
227 239 255
227 239 255
227 239 255
227 239 255
227 239 255
227 239 255
227 239 255
227 239 255
227 239 255
227 239 255
227 239 255
227 239 255
227 239 255
227 239 255
227 239 255
227 239 255
227 239 255
227 239 255
227 239 255
227 239 255
227 239 255
227 239 255
227 239 255
227 239 255
227 239 255
227 239 255
227 239 255
227 239 255
227 239 255
227 239 255
227 239 255
227 239 255
227 239 255
227 239 255
227 239 255
227 239 255
227 239 255
227 239 255
227 239 255
227 239 255
227 239 255
227 239 255
227 239 255
227 239 255
227 239 255
227 239 255
227 239 255
227 239 255
227 239 255
227 239 255
227 239 255
227 239 255
227 239 255
227 239 255
227 239 255
227 239 255
227 239 255
227 239 255
227 239 255
227 239 255
227 239 255
227 239 255
227 239 255
227 239 255
227 239 255
227 239 255
227 239 255
227 239 255
227 239 255
227 239 255
227 239 255
227 239 255
227 239 255
227 239 255
227 239 255
227 239 255
227 239 255
227 239 255
227 239 255
227 239 255
227 239 255
227 239 255
227 239 255
227 239 255
227 239 255
227 239 255
227 239 255
227 239 255
227 239 255
227 239 255
227 239 255
227 239 255
227 239 255
227 239 255
227 239 255
227 239 255
227 239 255
227 239 255
227 239 255
227 239 255
227 239 255
227 239 255
227 239 255
227 239 255
227 239 255
227 239 255
227 239 255
227 239 255
227 239 255
227 239 255
227 239 255
227 239 255
227 239 255
227 239 255
227 239 255
227 239 255
227 239 255
227 239 255
227 239 255
227 239 255
227 239 255
227 239 255
227 239 255
227 239 255
227 239 255
227 239 255
227 239 255
227 239 255
227 239 255
227 239 255
227 239 255
227 239 255
227 239 255
227 239 255
227 239 255
227 239 255
227 239 255
227 239 255
227 239 255
227 239 255
227 239 255
227 239 255
227 239 255
227 239 255
227 239 255
227 239 255
227 239 255
227 239 255
227 239 255
227 239 255
227 239 255
227 239 255
227 239 255
227 239 255
227 239 255
227 239 255
227 239 255
227 239 255
227 239 255
227 239 255
227 239 255
227 239 255
227 239 255
227 239 255
227 239 255
227 239 255
227 239 255
227 239 255
227 239 255
227 239 255
227 239 255
227 239 255
227 239 255
227 239 255
227 239 255
227 239 255
227 239 255
227 239 255
227 239 255
227 239 255
227 239 255
227 239 255
227 239 255
227 239 255
227 239 255
227 239 255
227 239 255
227 239 255
227 239 255
227 239 255
227 239 255
227 239 255
227 239 255
227 239 255
227 239 255
227 239 255
227 239 255
227 239 255
227 239 255
227 239 255
227 239 255
227 239 255
227 239 255
227 239 255
227 239 255
227 239 255
227 239 255
227 239 255
227 239 255
227 239 255
227 239 255
227 239 255
227 239 255
227 239 255
227 239 255
227 239 255
227 239 255
227 239 255
227 239 255
227 239 255
227 239 255
227 239 255
227 239 255
227 239 255
227 239 255
227 239 255
227 239 255
227 239 255
227 239 255
227 239 255
227 239 255
227 239 255
227 239 255
227 239 255
227 239 255
227 239 255
227 239 255
230 240 255
233 242 255
236 244 255
238 245 255
241 246 254
241 247 255
240 246 255
243 248 255
243 248 255
243 248 255
244 249 255
244 249 255
244 248 255
243 248 255
244 248 255
243 248 255
243 248 255
242 247 255
243 248 255
244 249 255
242 247 255
243 247 255
243 248 255
242 247 255
244 249 255
243 248 255
243 248 255
243 248 255
243 248 255
245 249 255
242 248 255
238 244 252
241 246 253
240 245 252
233 241 249
235 242 250
234 242 250
235 242 250
238 245 252
239 245 254
240 246 255
237 245 255
234 243 255
229 240 255
227 239 255
227 239 255
227 239 255
227 239 255
227 239 255
227 239 255
227 239 255
227 239 255
227 239 255
227 239 255
227 239 255
227 239 255
227 239 255
227 239 255
227 239 255
227 239 255
227 239 255
227 239 255
227 239 255
227 239 255
227 239 255
227 239 255
227 239 255
227 239 255
227 239 255
227 239 255
227 239 255
227 239 255
227 239 255
227 239 255
227 239 255
227 239 255
227 239 255
227 239 255
227 239 255
227 239 255
227 239 255
227 239 255
227 239 255
227 239 255
227 239 255
227 239 255
227 239 255
227 239 255
227 239 255
227 239 255
227 239 255
227 239 255
227 239 255
227 239 255
227 239 255
227 239 255
227 239 255
227 239 255
227 239 255
227 239 255
227 239 255
227 239 255
227 239 255
227 239 255
227 239 255
227 239 255
227 239 255
227 239 255
227 239 255
227 239 255
227 239 255
227 239 255
227 239 255
227 239 255
227 239 255
227 239 255
227 239 255
227 239 255
227 239 255
227 239 255
227 239 255
227 239 255
227 239 255
227 239 255
227 239 255
227 239 255
227 239 255
227 239 255
227 239 255
227 239 255
227 239 255
227 239 255
227 239 255
227 239 255
227 239 255
227 239 255
227 239 255
227 239 255
227 239 255
227 239 255
227 239 255
227 239 255
227 239 255
227 239 255
227 239 255
227 239 255
227 239 255
227 239 255
227 239 255
227 239 255
227 239 255
227 239 255
227 239 255
227 239 255
227 239 255
227 239 255
227 239 255
227 239 255
227 239 255
227 239 255
227 239 255
227 239 255
227 239 255
227 239 255
227 239 255
227 239 255
227 239 255
227 239 255
227 239 255
227 239 255
227 239 255
227 239 255
227 239 255
227 239 255
227 239 255
227 239 255
227 239 255
227 239 255
227 239 255
227 239 255
227 239 255
227 239 255
227 239 255
227 239 255
227 239 255
227 239 255
227 239 255
227 239 255
227 239 255
227 239 255
227 239 255
227 239 255
227 239 255
227 239 255
227 239 255
227 239 255
227 239 255
227 239 255
227 239 255
227 239 255
227 239 255
227 239 255
227 239 255
227 239 255
227 239 255
227 239 255
227 239 255
227 239 255
227 239 255
227 239 255
227 239 255
227 239 255
227 239 255
227 239 255
227 239 255
227 239 255
227 239 255
227 239 255
227 239 255
227 239 255
227 239 255
227 239 255
227 239 255
227 239 255
227 239 255
227 239 255
227 239 255
227 239 255
227 239 255
227 239 255
227 239 255
227 239 255
227 239 255
227 239 255
227 239 255
227 239 255
227 239 255
227 239 255
227 239 255
227 239 255
227 239 255
227 239 255
227 239 255
227 239 255
227 239 255
227 239 255
227 239 255
227 239 255
227 239 255
227 239 255
227 239 255
227 239 255
227 239 255
227 239 255
227 239 255
227 239 255
227 239 255
227 239 255
227 239 255
227 239 255
227 239 255
227 239 255
227 239 255
227 239 255
227 239 255
227 239 255
227 239 255
227 239 255
227 239 255
227 239 255
227 239 255
227 239 255
227 239 255
227 239 255
227 239 255
227 239 255
227 239 255
227 239 255
227 239 255
227 239 255
227 239 255
227 239 255
227 239 255
227 239 255
227 239 255
227 239 255
227 239 255
227 239 255
227 239 255
227 239 255
227 239 255
227 239 255
227 239 255
227 239 255
227 239 255
227 239 255
227 239 255
227 239 255
227 239 255
227 239 255
227 239 255
227 239 255
227 239 255
227 239 255
227 239 255
227 239 255
227 239 255
227 239 255
227 239 255
227 239 255
227 239 255
227 239 255
227 239 255
227 239 255
227 239 255
227 239 255
227 239 255
227 239 255
227 239 255
227 239 255
227 239 255
227 239 255
227 239 255
227 239 255
227 239 255
227 239 255
227 239 255
227 239 255
227 239 255
227 239 255
227 239 255
227 239 255
227 239 255
227 239 255
227 239 255
227 239 255
227 239 255
227 239 255
227 239 255
227 239 255
227 239 255
227 239 255
227 239 255
227 239 255
227 239 255
227 239 255
227 239 255
227 239 255
227 239 255
227 239 255
227 239 255
227 239 255
227 239 255
227 239 255
227 239 255
227 239 255
227 239 255
227 239 255
227 239 255
227 239 255
227 239 255
227 239 255
227 239 255
227 239 255
227 239 255
227 239 255
227 239 255
227 239 255
227 239 255
227 239 255
227 239 255
227 239 255
227 239 255
227 239 255
227 239 255
227 239 255
227 239 255
227 239 255
227 239 255
227 239 255
227 239 255
227 239 255
227 239 255
227 239 255
227 239 255
227 239 255
227 239 255
227 239 255
227 239 255
227 239 255
227 239 255
227 239 255
227 239 255
227 239 255
227 239 255
227 239 255
227 239 255
227 239 255
227 239 255
227 239 255
227 239 255
227 239 255
227 239 255
227 239 255
227 239 255
228 239 255
228 239 255
230 240 254
230 240 253
231 241 252
235 243 253
234 242 252
241 246 253
242 247 253
240 245 252
237 243 252
235 242 250
235 242 250
237 244 252
239 245 252
238 245 253
239 245 252
239 245 253
239 245 253
240 246 253
240 246 253
238 245 252
237 244 251
235 242 250
237 244 251
236 243 251
237 244 252
236 243 252
236 244 253
233 242 253
233 242 254
233 242 255
230 240 255
228 240 255
227 239 255
227 239 255
227 239 255
227 239 255
227 239 255
227 239 255
227 239 255
227 239 255
227 239 255
227 239 255
227 239 255
227 239 255
227 239 255
227 239 255
227 239 255
227 239 255
227 239 255
227 239 255
227 239 255
227 239 255
227 239 255
227 239 255
227 239 255
227 239 255
227 239 255
227 239 255
227 239 255
227 239 255
227 239 255
227 239 255
227 239 255
227 239 255
227 239 255
227 239 255
227 239 255
227 239 255
227 239 255
227 239 255
227 239 255
227 239 255
227 239 255
227 239 255
227 239 255
227 239 255
227 239 255
227 239 255
227 239 255
227 239 255
227 239 255
227 239 255
227 239 255
227 239 255
227 239 255
227 239 255
227 239 255
227 239 255
227 239 255
227 239 255
227 239 255
227 239 255
227 239 255
227 239 255
227 239 255
227 239 255
227 239 255
227 239 255
227 239 255
227 239 255
227 239 255
227 239 255
227 239 255
227 239 255
227 239 255
227 239 255
227 239 255
227 239 255
227 239 255
227 239 255
227 239 255
227 239 255
227 239 255
227 239 255
227 239 255
227 239 255
227 239 255
227 239 255
227 239 255
227 239 255
227 239 255
227 239 255
227 239 255
227 239 255
227 239 255
227 239 255
227 239 255
227 239 255
227 239 255
227 239 255
227 239 255
227 239 255
227 239 255
227 239 255
227 239 255
227 239 255
227 239 255
227 239 255
227 239 255
227 239 255
227 239 255
227 239 255
227 239 255
227 239 255
227 239 255
227 239 255
227 239 255
227 239 255
227 239 255
227 239 255
227 239 255
227 239 255
227 239 255
227 239 255
227 239 255
227 239 255
227 239 255
227 239 255
227 239 255
227 239 255
227 239 255
227 239 255
227 239 255
227 239 255
227 239 255
227 239 255
227 239 255
227 239 255
227 239 255
227 239 255
227 239 255
227 239 255
227 239 255
227 239 255
227 239 255
227 239 255
227 239 255
227 239 255
227 239 255
227 239 255
227 239 255
227 239 255
227 239 255
227 239 255
227 239 255
227 239 255
227 239 255
227 239 255
227 239 255
227 239 255
227 239 255
227 239 255
227 239 255
227 239 255
227 239 255
227 239 255
227 239 255
227 239 255
227 239 255
227 239 255
227 239 255
227 239 255
227 239 255
227 239 255
227 239 255
227 239 255
227 239 255
227 239 255
227 239 255
227 239 255
227 239 255
227 239 255
227 239 255
227 239 255
227 239 255
227 239 255
227 239 255
227 239 255
227 239 255
227 239 255
227 239 255
227 239 255
227 239 255
227 239 255
227 239 255
227 239 255
227 239 255
227 239 255
227 239 255
227 239 255
227 239 255
227 239 255
227 239 255
227 239 255
227 239 255
227 239 255
227 239 255
227 239 255
227 239 255
227 239 255
227 239 255
227 239 255
227 239 255
227 239 255
227 239 255
227 239 255
227 239 255
227 239 255
227 239 255
227 239 255
227 239 255
227 239 255
227 239 255
227 239 255
227 239 255
227 239 255
227 239 255
227 239 255
227 239 255
227 239 255
227 239 255
227 239 255
227 239 255
227 239 255
227 239 255
227 239 255
227 239 255
227 239 255
227 239 255
227 239 255
227 239 255
227 239 255
227 239 255
227 239 255
227 239 255
227 239 255
227 239 255
227 239 255
227 239 255
227 239 255
227 239 255
227 239 255
227 239 255
227 239 255
227 239 255
227 239 255
227 239 255
227 239 255
227 239 255
227 239 255
227 239 255
227 239 255
227 239 255
227 239 255
227 239 255
227 239 255
227 239 255
227 239 255
227 239 255
227 239 255
227 239 255
227 239 255
227 239 255
227 239 255
227 239 255
227 239 255
227 239 255
227 239 255
227 239 255
227 239 255
227 239 255
227 239 255
227 239 255
227 239 255
227 239 255
227 239 255
227 239 255
227 239 255
227 239 255
227 239 255
227 239 255
227 239 255
227 239 255
227 239 255
227 239 255
227 239 255
227 239 255
227 239 255
227 239 255
227 239 255
227 239 255
227 239 255
227 239 255
227 239 255
227 239 255
227 239 255
227 239 255
227 239 255
227 239 255
227 239 255
227 239 255
227 239 255
227 239 255
227 239 255
227 239 255
227 239 255
227 239 255
227 239 255
227 239 255
227 239 255
227 239 255
227 239 255
227 239 255
227 239 255
227 239 255
227 239 255
227 239 255
227 239 255
227 239 255
227 239 255
227 239 255
227 239 255
227 239 255
227 239 255
227 239 255
227 239 255
227 239 255
227 239 255
227 239 255
227 239 255
227 239 255
227 239 255
227 239 255
227 239 255
227 239 255
227 239 255
227 239 255
227 239 255
227 239 255
227 239 255
227 239 255
227 239 255
227 239 255
227 239 255
227 239 255
227 239 255
227 239 255
227 239 255
227 239 255
227 239 255
227 239 255
227 239 255
227 239 255
227 239 255
227 239 255
227 239 255
227 239 255
227 239 255
227 239 255
227 239 255
227 239 255
227 239 255
227 239 255
227 239 255
227 239 255
227 239 255
227 239 255
228 239 255
228 239 254
228 239 254
229 239 253
229 240 254
228 239 254
229 240 253
229 239 253
229 239 253
229 239 253
229 239 252
229 239 253
229 240 254
230 240 255
230 240 255
227 239 255
228 239 255
227 239 255
227 239 255
227 239 255
227 239 255
227 239 255
227 239 255
227 239 255
227 239 255
227 239 255
227 239 255
227 239 255
227 239 255
227 239 255
227 239 255
227 239 255
227 239 255
227 239 255
227 239 255
227 239 255
227 239 255
227 239 255
227 239 255
227 239 255
227 239 255
227 239 255
227 239 255
227 239 255
227 239 255
227 239 255
227 239 255
227 239 255
227 239 255
227 239 255
227 239 255
227 239 255
227 239 255
227 239 255
227 239 255
227 239 255
227 239 255
227 239 255
227 239 255
227 239 255
227 239 255
227 239 255
227 239 255
227 239 255
227 239 255
227 239 255
227 239 255
227 239 255
227 239 255
227 239 255
227 239 255
227 239 255
227 239 255
227 239 255
227 239 255
227 239 255
227 239 255
227 239 255
227 239 255
227 239 255
227 239 255
227 239 255
227 239 255
227 239 255
227 239 255
227 239 255
227 239 255
227 239 255
227 239 255
227 239 255
227 239 255
227 239 255
227 239 255
227 239 255
227 239 255
227 239 255
227 239 255
227 239 255
227 239 255
227 239 255
227 239 255
227 239 255
227 239 255
227 239 255
227 239 255
227 239 255
227 239 255
227 239 255
227 239 255
227 239 255
227 239 255
227 239 255
227 239 255
227 239 255
227 239 255
227 239 255
227 239 255
227 239 255
227 239 255
227 239 255
227 239 255
227 239 255
227 239 255
227 239 255
227 239 255
227 239 255
227 239 255
227 239 255
227 239 255
227 239 255
227 239 255
227 239 255
227 239 255
227 239 255
227 239 255
227 239 255
227 239 255
227 239 255
227 239 255
227 239 255
227 239 255
227 239 255
227 239 255
227 239 255
227 239 255
227 239 255
227 239 255
227 239 255
227 239 255
227 239 255
227 239 255
227 239 255
227 239 255
227 239 255
227 239 255
227 239 255
227 239 255
227 239 255
227 239 255
227 239 255
227 239 255
227 239 255
227 239 255
227 239 255
227 239 255
227 239 255
227 239 255
227 239 255
227 239 255
227 239 255
227 239 255
227 239 255
227 239 255
227 239 255
227 239 255
227 239 255
227 239 255
227 239 255
227 239 255
227 239 255
227 239 255
227 239 255
227 239 255
227 239 255
227 239 255
227 239 255
227 239 255
227 239 255
227 239 255
227 239 255
227 239 255
227 239 255
227 239 255
227 239 255
227 239 255
227 239 255
227 239 255
227 239 255
227 239 255
227 239 255
227 239 255
227 239 255
227 239 255
227 239 255
227 239 255
227 239 255
227 239 255
227 239 255
227 239 255
227 239 255
227 239 255
227 239 255
227 239 255
227 239 255
227 239 255
227 239 255
227 239 255
227 239 255
227 239 255
227 239 255
227 239 255
227 239 255
227 239 255
227 239 255
227 239 255
227 239 255
227 239 255
227 239 255
227 239 255
227 239 255
227 239 255
227 239 255
227 239 255
227 239 255
227 239 255
227 239 255
227 239 255
227 239 255
227 239 255
227 239 255
227 239 255
227 239 255
227 239 255
227 239 255
227 239 255
227 239 255
227 239 255
227 239 255
227 239 255
227 239 255
227 239 255
227 239 255
227 239 255
227 239 255
227 239 255
227 239 255
227 239 255
227 239 255
227 239 255
227 239 255
227 239 255
227 239 255
227 239 255
227 239 255
227 239 255
227 239 255
227 239 255
227 239 255
227 239 255
227 239 255
227 239 255
227 239 255
227 239 255
227 239 255
227 239 255
227 239 255
227 239 255
227 239 255
227 239 255
227 239 255
227 239 255
227 239 255
227 239 255
227 239 255
227 239 255
227 239 255
227 239 255
227 239 255
227 239 255
227 239 255
227 239 255
227 239 255
227 239 255
227 239 255
227 239 255
227 239 255
227 239 255
227 239 255
227 239 255
227 239 255
227 239 255
227 239 255
227 239 255
227 239 255
227 239 255
227 239 255
227 239 255
227 239 255
227 239 255
227 239 255
227 239 255
227 239 255
227 239 255
227 239 255
227 239 255
227 239 255
227 239 255
227 239 255
227 239 255
227 239 255
227 239 255
227 239 255
227 239 255
227 239 255
227 239 255
227 239 255
227 239 255
227 239 255
227 239 255
227 239 255
227 239 255
227 239 255
227 239 255
227 239 255
227 239 255
227 239 255
227 239 255
227 239 255
227 239 255
227 239 255
227 239 255
227 239 255
227 239 255
227 239 255
227 239 255
227 239 255
227 239 255
227 239 255
227 239 255
227 239 255
227 239 255
227 239 255
227 239 255
227 239 255
227 239 255
227 239 255
227 239 255
227 239 255
227 239 255
227 239 255
227 239 255
227 239 255
227 239 255
227 239 255
227 239 255
227 239 255
227 239 255
227 239 255
227 239 255
227 239 255
227 239 255
227 239 255
227 239 255
227 239 255
227 239 255
227 239 255
227 239 255
227 239 255
227 239 255
227 239 255
227 239 255
227 239 255
227 239 255
227 239 255
227 239 255
227 239 255
227 239 255
227 239 255
227 239 255
227 239 255
227 239 255
227 239 255
227 239 255
227 239 255
227 239 255
227 239 255
227 239 255
227 239 255
227 239 255
227 239 255
227 239 255
227 239 255
227 239 255
227 239 255
227 239 255
227 239 255
227 239 255
227 239 255
227 239 255
227 239 255
227 239 255
227 239 255
227 239 255
227 239 255
227 239 255
227 239 255
227 239 255
227 239 255
227 239 255
227 239 255
227 239 255
227 239 255
227 239 255
227 239 255
227 239 255
227 239 255
227 239 255
227 239 255
227 239 255
227 239 255
227 239 255
227 239 255
227 239 255
227 239 255
227 239 255
227 239 255
227 239 255
227 239 255
227 239 255
227 239 255
227 239 255
227 239 255
227 239 255
227 239 255
227 239 255
227 239 255
227 239 255
227 239 255
227 239 255
227 239 255
227 239 255
227 239 255
227 239 255
227 239 255
227 239 255
227 239 255
227 239 255
227 239 255
227 239 255
227 239 255
227 239 255
227 239 255
227 239 255
227 239 255
227 239 255
227 239 255
227 239 255
227 239 255
227 239 255
227 239 255
227 239 255
227 239 255
227 239 255
227 239 255
227 239 255
227 239 255
227 239 255
227 239 255
227 239 255
227 239 255
227 239 255
227 239 255
227 239 255
227 239 255
227 239 255
227 239 255
227 239 255
227 239 255
227 239 255
227 239 255
227 239 255
227 239 255
227 239 255
227 239 255
227 239 255
227 239 255
227 239 255
227 239 255
227 239 255
227 239 255
227 239 255
227 239 255
227 239 255
227 239 255
227 239 255
227 239 255
227 239 255
227 239 255
227 239 255
227 239 255
227 239 255
227 239 255
227 239 255
227 239 255
227 239 255
227 239 255
227 239 255
227 239 255
227 239 255
227 239 255
227 239 255
227 239 255
227 239 255
227 239 255
227 239 255
227 239 255
227 239 255
227 239 255
227 239 255
227 239 255
227 239 255
227 239 255
227 239 255
227 239 255
227 239 255
227 239 255
227 239 255
227 239 255
227 239 255
227 239 255
227 239 255
227 239 255
227 239 255
227 239 255
227 239 255
227 239 255
227 239 255
227 239 255
227 239 255
227 239 255
227 239 255
227 239 255
227 239 255
227 239 255
227 239 255
227 239 255
227 239 255
227 239 255
227 239 255
227 239 255
227 239 255
227 239 255
227 239 255
227 239 255
227 239 255
227 239 255
227 239 255
227 239 255
227 239 255
227 239 255
227 239 255
227 239 255
227 239 255
227 239 255
227 239 255
227 239 255
227 239 255
227 239 255
227 239 255
227 239 255
227 239 255
227 239 255
227 239 255
227 239 255
227 239 255
227 239 255
227 239 255
227 239 255
227 239 255
227 239 255
227 239 255
227 239 255
227 239 255
227 239 255
227 239 255
227 239 255
227 239 255
227 239 255
227 239 255
227 239 255
227 239 255
227 239 255
227 239 255
227 239 255
227 239 255
227 239 255
227 239 255
227 239 255
227 239 255
227 239 255
227 239 255
227 239 255
227 239 255
227 239 255
227 239 255
227 239 255
227 239 255
227 239 255
227 239 255
227 239 255
227 239 255
227 239 255
227 239 255
227 239 255
227 239 255
227 239 255
227 239 255
227 239 255
227 239 255
227 239 255
227 239 255
227 239 255
227 239 255
227 239 255
227 239 255
227 239 255
227 239 255
227 239 255
227 239 255
227 239 255
227 239 255
227 239 255
227 239 255
227 239 255
227 239 255
227 239 255
227 239 255
227 239 255
227 239 255
227 239 255
227 239 255
227 239 255
227 239 255
227 239 255
227 239 255
227 239 255
227 239 255
227 239 255
227 239 255
227 239 255
227 239 255
227 239 255
227 239 255
227 239 255
227 239 255
227 239 255
227 239 255
227 239 255
227 239 255
227 239 255
227 239 255
227 239 255
227 239 255
227 239 255
227 239 255
227 239 255
227 239 255
227 239 255
227 239 255
227 239 255
227 239 255
227 239 255
227 239 255
227 239 255
227 239 255
227 239 255
227 239 255
227 239 255
227 239 255
227 239 255
227 239 255
227 239 255
227 239 255
227 239 255
227 239 255
227 239 255
227 239 255
227 239 255
227 239 255
227 239 255
227 239 255
227 239 255
227 239 255
227 239 255
227 239 255
227 239 255
227 239 255
227 239 255
227 239 255
227 239 255
227 239 255
227 239 255
227 239 255
227 239 255
227 239 255
227 239 255
227 239 255
227 239 255
227 239 255
227 239 255
227 239 255
227 239 255
227 239 255
227 239 255
227 239 255
227 239 255
227 239 255
227 239 255
227 239 255
227 239 255
227 239 255
227 239 255
227 239 255
227 239 255
227 239 255
227 239 255
227 239 255
227 239 255
227 239 255
227 239 255
227 239 255
227 239 255
227 239 255
227 239 255
227 239 255
227 239 255
227 239 255
227 239 255
227 239 255
227 239 255
227 239 255
227 239 255
227 239 255
227 239 255
227 239 255
227 239 255
227 239 255
227 239 255
227 239 255
227 239 255
227 239 255
227 239 255
227 239 255
227 239 255
227 239 255
227 239 255
227 239 255
227 239 255
227 239 255
227 239 255
227 239 255
227 239 255
227 239 255
227 239 255
227 239 255
227 239 255
227 239 255
227 239 255
227 239 255
227 239 255
227 239 255
227 239 255
227 239 255
227 239 255
227 239 255
227 239 255
227 239 255
227 239 255
227 239 255
227 239 255
227 239 255
227 239 255
227 239 255
227 239 255
227 239 255
227 239 255
227 239 255
227 239 255
227 239 255
227 239 255
227 239 255
227 239 255
227 239 255
227 239 255
227 239 255
227 239 255
227 239 255
227 239 255
227 239 255
227 239 255
227 239 255
227 239 255
227 239 255
227 239 255
227 239 255
227 239 255
227 239 255
227 239 255
227 239 255
227 239 255
227 239 255
227 239 255
227 239 255
227 239 255
227 239 255
227 239 255
227 239 255
227 239 255
227 239 255
227 239 255
227 239 255
227 239 255
227 239 255
227 239 255
227 239 255
227 239 255
227 239 255
227 239 255
227 239 255
227 239 255
227 239 255
227 239 255
227 239 255
227 239 255
227 239 255
227 239 255
227 239 255
227 239 255
227 239 255
227 239 255
227 239 255
227 239 255
227 239 255
227 239 255
227 239 255
227 239 255
227 239 255
227 239 255
227 239 255
227 239 255
227 239 255
227 239 255
227 239 255
227 239 255
227 239 255
227 239 255
227 239 255
227 239 255
227 239 255
227 239 255
227 239 255
227 239 255
227 239 255
227 239 255
227 239 255
227 239 255
227 239 255
227 239 255
227 239 255
227 239 255
227 239 255
227 239 255
227 239 255
227 239 255
227 239 255
227 239 255
227 239 255
227 239 255
227 239 255
227 239 255
227 239 255
227 239 255
227 239 255
227 239 255
227 239 255
227 239 255
227 239 255
227 239 255
227 239 255
227 239 255
227 239 255
227 239 255
227 239 255
227 239 255
227 239 255
227 239 255
227 239 255
227 239 255
227 239 255
227 239 255
227 239 255
227 239 255
227 239 255
227 239 255
227 239 255
227 239 255
227 239 255
227 239 255
227 239 255
227 239 255
227 239 255
227 239 255
227 239 255
227 239 255
227 239 255
227 239 255
227 239 255
227 239 255
227 239 255
227 239 255
227 239 255
227 239 255
227 239 255
227 239 255
227 239 255
227 239 255
227 239 255
227 239 255
227 239 255
227 239 255
227 239 255
227 239 255
227 239 255
227 239 255
227 239 255
227 239 255
227 239 255
227 239 255
227 239 255
227 239 255
227 239 255
227 239 255
227 239 255
227 239 255
227 239 255
227 239 255
227 239 255
227 239 255
227 239 255
227 239 255
227 239 255
227 239 255
227 239 255
227 239 255
227 239 255
227 239 255
227 239 255
227 239 255
227 239 255
227 239 255
227 239 255
227 239 255
227 239 255
227 239 255
227 239 255
227 239 255
227 239 255
227 239 255
227 239 255
227 239 255
227 239 255
227 239 255
227 239 255
227 239 255
227 239 255
227 239 255
227 239 255
227 239 255
227 239 255
227 239 255
227 239 255
227 239 255
227 239 255
227 239 255
227 239 255
227 239 255
227 239 255
227 239 255
227 239 255
227 239 255
227 239 255
227 239 255
227 239 255
227 239 255
227 239 255
227 239 255
227 239 255
227 239 255
227 239 255
227 239 255
227 239 255
227 239 255
227 239 255
227 239 255
227 239 255
227 239 255
227 239 255
227 239 255
227 239 255
227 239 255
227 239 255
227 239 255
227 239 255
227 239 255
227 239 255
227 239 255
227 239 255
227 239 255
227 239 255
227 239 255
227 239 255
227 239 255
227 239 255
227 239 255
227 239 255
227 239 255
227 239 255
227 239 255
227 239 255
227 239 255
227 239 255
227 239 255
227 239 255
227 239 255
227 239 255
227 239 255
227 239 255
227 239 255
227 239 255
227 239 255
227 239 255
227 239 255
227 239 255
227 239 255
227 239 255
227 239 255
227 239 255
227 239 255
227 239 255
227 239 255
227 239 255
227 239 255
227 239 255
227 239 255
227 239 255
227 239 255
227 239 255
227 239 255
227 239 255
227 239 255
227 239 255
227 239 255
227 239 255
227 239 255
227 239 255
227 239 255
227 239 255
227 239 255
227 239 255
227 239 255
227 239 255
227 239 255
227 239 255
227 239 255
227 239 255
227 239 255
227 239 255
227 239 255
227 239 255
227 239 255
227 239 255
227 239 255
227 239 255
227 239 255
227 239 255
227 239 255
227 239 255
227 239 255
227 239 255
227 239 255
227 239 255
227 239 255
227 239 255
227 239 255
227 239 255
227 239 255
227 239 255
227 239 255
227 239 255
227 239 255
227 239 255
227 239 255
227 239 255
227 239 255
227 239 255
227 239 255
227 239 255
227 239 255
227 239 255
227 239 255
227 239 255
227 239 255
227 239 255
227 239 255
227 239 255
227 239 255
227 239 255
227 239 255
227 239 255
227 239 255
227 239 255
227 239 255
227 239 255
227 239 255
227 239 255
227 239 255
227 239 255
227 239 255
227 239 255
227 239 255
227 239 255
227 239 255
227 239 255
227 239 255
227 239 255
227 239 255
227 239 255
227 239 255
227 239 255
227 239 255
227 239 255
227 239 255
227 239 255
227 239 255
227 239 255
227 239 255
227 239 255
227 239 255
227 239 255
227 239 255
227 239 255
227 239 255
227 239 255
227 239 255
227 239 255
227 239 255
227 239 255
227 239 255
227 239 255
227 239 255
227 239 255
227 239 255
227 239 255
227 239 255
227 239 255
227 239 255
227 239 255
227 239 255
227 239 255
227 239 255
227 239 255
227 239 255
227 239 255
227 239 255
227 239 255
227 239 255
227 239 255
227 239 255
227 239 255
227 239 255
227 239 255
227 239 255
227 239 255
227 239 255
227 239 255
227 239 255
227 239 255
227 239 255
227 239 255
227 239 255
227 239 255
227 239 255
227 239 255
227 239 255
227 239 255
227 239 255
227 239 255
227 239 255
227 239 255
227 239 255
227 239 255
227 239 255
227 239 255
227 239 255
227 239 255
227 239 255
227 239 255
227 239 255
227 239 255
227 239 255
227 239 255
227 239 255
227 239 255
227 239 255
227 239 255
227 239 255
227 239 255
227 239 255
227 239 255
227 239 255
227 239 255
227 239 255
227 239 255
227 239 255
227 239 255
227 239 255
227 239 255
227 239 255
227 239 255
227 239 255
227 239 255
227 239 255
227 239 255
227 239 255
227 239 255
227 239 255
227 239 255
227 239 255
227 239 255
227 239 255
227 239 255
227 239 255
227 239 255
227 239 255
227 239 255
227 239 255
227 239 255
227 239 255
227 239 255
227 239 255
227 239 255
227 239 255
227 239 255
227 239 255
227 239 255
227 239 255
227 239 255
227 239 255
227 239 255
227 239 255
227 239 255
227 239 255
227 239 255
227 239 255
227 239 255
227 239 255
227 239 255
227 239 255
227 239 255
227 239 255
227 239 255
227 239 255
227 239 255
227 239 255
227 239 255
227 239 255
227 239 255
227 239 255
227 239 255
227 239 255
227 239 255
227 239 255
227 239 255
227 239 255
227 239 255
227 239 255
227 239 255
227 239 255
227 239 255
227 239 255
227 239 255
227 239 255
227 239 255
227 239 255
227 239 255
227 239 255
227 239 255
227 239 255
227 239 255
227 239 255
227 239 255
227 239 255
227 239 255
227 239 255
227 239 255
227 239 255
227 239 255
227 239 255
227 239 255
227 239 255
227 239 255
227 239 255
227 239 255
227 239 255
227 239 255
227 239 255
227 239 255
227 239 255
227 239 255
227 239 255
227 239 255
227 239 255
227 239 255
227 239 255
227 239 255
227 239 255
227 239 255
227 239 255
227 239 255
227 239 255
227 239 255
227 239 255
227 239 255
227 239 255
227 239 255
227 239 255
227 239 255
227 239 255
227 239 255
227 239 255
227 239 255
227 239 255
227 239 255
227 239 255
227 239 255
227 239 255
227 239 255
227 239 255
227 239 255
227 239 255
227 239 255
227 239 255
227 239 255
227 239 255
227 239 255
227 239 255
227 239 255
227 239 255
227 239 255
227 239 255
227 239 255
227 239 255
227 239 255
227 239 255
227 239 255
227 239 255
227 239 255
227 239 255
227 239 255
227 239 255
227 239 255
227 239 255
227 239 255
227 239 255
227 239 255
227 239 255
227 239 255
227 239 255
227 239 255
227 239 255
227 239 255
227 239 255
227 239 255
227 239 255
227 239 255
227 239 255
227 239 255
227 239 255
227 239 255
227 239 255
227 239 255
227 239 255
227 239 255
227 239 255
227 239 255
227 239 255
227 239 255
227 239 255
227 239 255
227 239 255
227 239 255
227 239 255
227 239 255
227 239 255
227 239 255
227 239 255
227 239 255
227 239 255
227 239 255
227 239 255
227 239 255
227 239 255
227 239 255
227 239 255
227 239 255
227 239 255
227 239 255
227 239 255
227 239 255
227 239 255
227 239 255
227 239 255
227 239 255
227 239 255
227 239 255
227 239 255
227 239 255
227 239 255
227 239 255
227 239 255
227 239 255
227 239 255
227 239 255
227 239 255
227 239 255
227 239 255
227 239 255
227 239 255
227 239 255
227 239 255
227 239 255
227 239 255
227 239 255
227 239 255
227 239 255
227 239 255
227 239 255
227 239 255
227 239 255
227 239 255
227 239 255
227 239 255
227 239 255
227 239 255
227 239 255
227 239 255
227 239 255
227 239 255
227 239 255
227 239 255
227 239 255
227 239 255
227 239 255
227 239 255
227 239 255
227 239 255
227 239 255
227 239 255
227 239 255
227 239 255
227 239 255
227 239 255
227 239 255
227 239 255
227 239 255
227 239 255
227 239 255
227 239 255
227 239 255
227 239 255
227 239 255
227 239 255
227 239 255
227 239 255
227 239 255
227 239 255
227 239 255
227 239 255
227 239 255
227 239 255
227 239 255
227 239 255
227 239 255
227 239 255
227 239 255
227 239 255
227 239 255
227 239 255
227 239 255
227 239 255
227 239 255
227 239 255
227 239 255
227 239 255
227 239 255
227 239 255
227 239 255
227 239 255
227 239 255
227 239 255
227 239 255
227 239 255
227 239 255
227 239 255
227 239 255
227 239 255
227 239 255
227 239 255
227 239 255
227 239 255
227 239 255
227 239 255
227 239 255
227 239 255
227 239 255
227 239 255
227 239 255
227 239 255
227 239 255
227 239 255
227 239 255
227 239 255
227 239 255
227 239 255
227 239 255
227 239 255
227 239 255
227 239 255
227 239 255
227 239 255
227 239 255
227 239 255
227 239 255
227 239 255
227 239 255
227 239 255
227 239 255
227 239 255
227 239 255
227 239 255
227 239 255
227 239 255
227 239 255
227 239 255
227 239 255
227 239 255
227 239 255
227 239 255
227 239 255
227 239 255
227 239 255
227 239 255
227 239 255
227 239 255
227 239 255
227 239 255
227 239 255
227 239 255
227 239 255
227 239 255
227 239 255
227 239 255
227 239 255
227 239 255
227 239 255
227 239 255
227 239 255
227 239 255
227 239 255
227 239 255
227 239 255
228 239 255
227 239 255
228 239 255
228 239 255
228 239 255
228 239 255
228 239 255
228 239 255
228 239 255
227 239 255
228 239 255
228 239 255
228 239 255
228 239 255
228 239 255
228 239 255
228 239 255
228 239 255
228 239 255
228 239 255
228 239 255
228 239 255
227 239 255
228 239 255
228 239 255
227 239 255
228 239 255
228 239 255
228 239 255
228 239 255
227 239 255
227 239 255
227 239 255
227 239 255
228 239 255
227 239 255
227 239 255
227 239 255
227 239 255
227 239 255
227 239 255
228 239 255
227 239 255
227 239 255
227 239 255
227 239 255
227 239 255
227 239 255
227 239 255
227 239 255
227 239 255
227 239 255
227 239 255
227 239 255
227 239 255
227 239 255
227 239 255
227 239 255
227 239 255
227 239 255
227 239 255
227 239 255
227 239 255
227 239 255
227 239 255
227 239 255
227 239 255
227 239 255
227 239 255
227 239 255
227 239 255
227 239 255
227 239 255
227 239 255
227 239 255
227 239 255
227 239 255
227 239 255
227 239 255
227 239 255
227 239 255
227 239 255
227 239 255
227 239 255
227 239 255
227 239 255
227 239 255
227 239 255
227 239 255
227 239 255
227 239 255
227 239 255
227 239 255
227 239 255
227 239 255
227 239 255
227 239 255
227 239 255
227 239 255
227 239 255
227 239 255
227 239 255
227 239 255
227 239 255
227 239 255
227 239 255
227 239 255
227 239 255
227 239 255
227 239 255
227 239 255
227 239 255
227 239 255
227 239 255
227 239 255
227 239 255
227 239 255
227 239 255
227 239 255
227 239 255
227 239 255
227 239 255
227 239 255
227 239 255
227 239 255
227 239 255
227 239 255
227 239 255
227 239 255
227 239 255
227 239 255
227 239 255
227 239 255
227 239 255
227 239 255
227 239 255
227 239 255
227 239 255
227 239 255
227 239 255
227 239 255
227 239 255
227 239 255
227 239 255
227 239 255
227 239 255
227 239 255
227 239 255
227 239 255
227 239 255
227 239 255
227 239 255
227 239 255
227 239 255
227 239 255
227 239 255
227 239 255
227 239 255
227 239 255
227 239 255
227 239 255
227 239 255
227 239 255
227 239 255
227 239 255
227 239 255
227 239 255
227 239 255
227 239 255
227 239 255
227 239 255
227 239 255
227 239 255
227 239 255
227 239 255
227 239 255
227 239 255
227 239 255
227 239 255
227 239 255
227 239 255
227 239 255
227 239 255
227 239 255
227 239 255
227 239 255
227 239 255
227 239 255
227 239 255
227 239 255
227 239 255
227 239 255
227 239 255
227 239 255
227 239 255
227 239 255
227 239 255
227 239 255
227 239 255
227 239 255
227 239 255
227 239 255
227 239 255
227 239 255
227 239 255
227 239 255
227 239 255
227 239 255
227 239 255
227 239 255
227 239 255
227 239 255
227 239 255
227 239 255
227 239 255
227 239 255
227 239 255
